P3
400 225
255
215 232 255
215 232 255
215 232 255
215 232 255
215 232 255
215 232 255
215 232 255
215 232 255
215 232 255
215 232 255
215 232 255
215 232 255
215 232 255
215 232 255
215 232 255
215 232 255
215 232 255
215 232 255
215 232 255
215 232 255
215 232 255
215 232 255
215 232 255
215 232 255
215 232 255
215 232 255
215 232 255
215 232 255
215 232 255
215 232 255
215 232 255
215 232 255
215 232 255
215 232 255
215 232 255
215 232 255
215 232 255
215 232 255
215 232 255
215 232 255
215 232 255
215 232 255
215 232 255
215 232 255
215 232 255
215 232 255
215 232 255
215 232 255
215 232 255
215 232 255
215 232 255
214 232 255
214 232 255
214 232 255
214 232 255
214 232 255
214 232 255
214 232 255
214 232 255
214 232 255
214 232 255
214 232 255
214 232 255
214 232 255
214 232 255
214 232 255
214 232 255
214 232 255
214 232 255
214 232 255
214 232 255
214 232 255
214 231 255
214 232 255
214 231 255
214 231 255
214 231 255
214 231 255
214 231 255
214 231 255
214 231 255
214 231 255
214 231 255
214 231 255
214 231 255
214 231 255
214 231 255
214 231 255
214 231 255
214 231 255
214 231 255
214 231 255
214 231 255
214 231 255
214 231 255
214 231 255
213 231 255
213 231 255
213 231 255
213 231 255
213 231 255
213 231 255
213 231 255
213 231 255
213 231 255
213 231 255
213 231 255
213 231 255
213 231 255
213 231 255
213 231 255
213 231 255
213 231 255
213 231 255
213 231 255
213 231 255
213 231 255
213 231 255
213 231 255
213 231 255
213 231 255
213 231 255
213 231 255
213 231 255
213 231 255
213 231 255
213 231 255
213 231 255
213 231 255
213 231 255
213 231 255
213 231 255
213 231 255
213 231 255
213 231 255
213 231 255
213 231 255
213 231 255
213 231 255
213 231 255
213 231 255
213 231 255
213 231 255
213 231 255
212 231 255
212 231 255
212 231 255
212 231 255
212 231 255
212 231 255
212 231 255
212 231 255
212 231 255
212 231 255
212 231 255
212 231 255
212 231 255
212 231 255
212 231 255
212 231 255
212 231 255
212 231 255
212 231 255
212 230 255
212 230 255
212 230 255
212 230 255
212 230 255
212 230 255
212 230 255
212 230 255
212 230 255
212 230 255
212 230 255
212 230 255
212 230 255
212 230 255
212 230 255
212 230 255
212 230 255
212 230 255
212 230 255
212 230 255
212 230 255
212 230 255
212 230 255
212 230 255
212 230 255
212 230 255
212 230 255
212 230 255
212 230 255
212 230 255
212 230 255
212 230 255
212 230 255
212 230 255
212 230 255
212 230 255
212 230 255
212 230 255
212 230 255
212 230 255
212 230 255
212 230 255
212 230 255
212 230 255
212 230 255
212 230 255
212 230 255
212 230 255
212 230 255
212 230 255
212 230 255
212 230 255
212 230 255
212 230 255
212 230 255
212 230 255
212 230 255
212 230 255
212 230 255
212 230 255
212 230 255
212 230 255
212 230 255
212 230 255
212 230 255
212 230 255
212 230 255
212 230 255
212 230 255
212 230 255
212 230 255
212 230 255
212 230 255
212 230 255
212 231 255
212 231 255
212 231 255
212 231 255
212 231 255
212 231 255
212 231 255
212 231 255
212 231 255
212 231 255
212 231 255
212 231 255
212 231 255
212 231 255
212 231 255
212 231 255
212 231 255
212 231 255
212 231 255
213 231 255
213 231 255
213 231 255
213 231 255
213 231 255
213 231 255
213 231 255
213 231 255
213 231 255
213 231 255
213 231 255
213 231 255
213 231 255
213 231 255
213 231 255
213 231 255
213 231 255
213 231 255
213 231 255
213 231 255
213 231 255
213 231 255
213 231 255
213 231 255
213 231 255
213 231 255
213 231 255
213 231 255
213 231 255
213 231 255
213 231 255
213 231 255
213 231 255
213 231 255
213 231 255
213 231 255
213 231 255
213 231 255
213 231 255
213 231 255
213 231 255
213 231 255
213 231 255
213 231 255
213 231 255
213 231 255
213 231 255
214 231 255
214 231 255
214 231 255
214 231 255
214 231 255
214 231 255
214 231 255
214 231 255
214 231 255
214 231 255
214 231 255
214 231 255
214 231 255
214 231 255
214 231 255
214 231 255
214 231 255
214 231 255
214 231 255
214 231 255
214 231 255
214 231 255
214 231 255
214 232 255
214 232 255
214 232 255
214 232 255
214 232 255
214 232 255
214 232 255
214 232 255
214 232 255
214 232 255
214 232 255
214 232 255
214 232 255
214 232 255
214 232 255
214 232 255
214 232 255
214 232 255
214 232 255
214 232 255
214 232 255
214 232 255
215 232 255
215 232 255
215 232 255
215 232 255
215 232 255
215 232 255
215 232 255
215 232 255
215 232 255
215 232 255
215 232 255
215 232 255
215 232 255
215 232 255
215 232 255
215 232 255
215 232 255
215 232 255
215 232 255
215 232 255
215 232 255
215 232 255
215 232 255
215 232 255
215 232 255
215 232 255
215 232 255
215 232 255
215 232 255
215 232 255
215 232 255
215 232 255
215 232 255
215 232 255
215 232 255
215 232 255
215 232 255
215 232 255
215 232 255
215 232 255
215 232 255
215 232 255
215 232 255
215 232 255
215 232 255
215 232 255
215 232 255
215 232 255
215 232 255
215 232 255
215 232 255
216 232 255
216 232 255
216 232 255
216 232 255
216 232 255
216 232 255
216 232 255
215 232 255
215 232 255
215 232 255
215 232 255
215 232 255
215 232 255
215 232 255
215 232 255
215 232 255
215 232 255
215 232 255
215 232 255
215 232 255
215 232 255
215 232 255
215 232 255
215 232 255
215 232 255
215 232 255
215 232 255
215 232 255
215 232 255
215 232 255
215 232 255
215 232 255
215 232 255
215 232 255
215 232 255
215 232 255
215 232 255
215 232 255
215 232 255
215 232 255
215 232 255
215 232 255
215 232 255
215 232 255
215 232 255
215 232 255
215 232 255
215 232 255
215 232 255
215 232 255
215 232 255
215 232 255
215 232 255
215 232 255
215 232 255
215 232 255
215 232 255
214 232 255
214 232 255
214 232 255
214 232 255
214 232 255
214 232 255
214 232 255
214 232 255
214 232 255
214 232 255
214 232 255
214 232 255
214 232 255
214 232 255
214 232 255
214 232 255
214 232 255
214 232 255
214 232 255
214 232 255
214 232 255
214 232 255
214 232 255
214 232 255
214 231 255
214 231 255
214 231 255
214 231 255
214 231 255
214 231 255
214 231 255
214 231 255
214 231 255
214 231 255
214 231 255
214 231 255
214 231 255
214 231 255
214 231 255
214 231 255
214 231 255
214 231 255
214 231 255
214 231 255
214 231 255
214 231 255
214 231 255
213 231 255
213 231 255
213 231 255
213 231 255
213 231 255
213 231 255
213 231 255
213 231 255
213 231 255
213 231 255
213 231 255
213 231 255
213 231 255
213 231 255
213 231 255
213 231 255
213 231 255
213 231 255
213 231 255
213 231 255
213 231 255
213 231 255
213 231 255
213 231 255
213 231 255
213 231 255
213 231 255
213 231 255
213 231 255
213 231 255
213 231 255
213 231 255
213 231 255
213 231 255
213 231 255
213 231 255
213 231 255
213 231 255
213 231 255
213 231 255
213 231 255
213 231 255
213 231 255
213 231 255
213 231 255
213 231 255
213 231 255
213 231 255
213 231 255
213 231 255
213 231 255
212 231 255
212 231 255
212 231 255
212 231 255
212 231 255
212 231 255
212 231 255
212 231 255
212 231 255
212 231 255
212 231 255
212 231 255
212 231 255
212 231 255
212 231 255
212 231 255
212 231 255
212 231 255
212 231 255
212 231 255
212 231 255
212 231 255
212 231 255
212 231 255
212 230 255
212 230 255
212 230 255
212 230 255
212 230 255
212 230 255
212 230 255
212 230 255
212 230 255
212 230 255
212 230 255
212 230 255
212 230 255
212 230 255
212 230 255
212 230 255
212 230 255
212 230 255
212 230 255
212 230 255
212 230 255
212 230 255
212 230 255
212 230 255
212 230 255
212 230 255
212 230 255
212 230 255
212 230 255
212 230 255
212 230 255
212 230 255
212 230 255
212 230 255
212 230 255
212 230 255
212 230 255
212 230 255
212 230 255
212 230 255
212 230 255
212 231 255
212 231 255
212 231 255
212 231 255
212 231 255
212 231 255
212 231 255
212 231 255
212 231 255
212 231 255
212 231 255
212 231 255
212 231 255
212 231 255
212 231 255
212 231 255
212 231 255
212 231 255
212 231 255
212 231 255
212 231 255
212 231 255
212 231 255
212 231 255
212 231 255
212 231 255
213 231 255
213 231 255
213 231 255
213 231 255
213 231 255
213 231 255
213 231 255
213 231 255
213 231 255
213 231 255
213 231 255
213 231 255
213 231 255
213 231 255
213 231 255
213 231 255
213 231 255
213 231 255
213 231 255
213 231 255
213 231 255
213 231 255
213 231 255
213 231 255
213 231 255
213 231 255
213 231 255
213 231 255
213 231 255
213 231 255
213 231 255
213 231 255
213 231 255
213 231 255
213 231 255
213 231 255
213 231 255
213 231 255
213 231 255
213 231 255
213 231 255
213 231 255
213 231 255
213 231 255
213 231 255
213 231 255
213 231 255
213 231 255
213 231 255
213 231 255
213 231 255
213 231 255
214 231 255
214 231 255
214 231 255
214 231 255
214 231 255
214 231 255
214 231 255
214 231 255
214 231 255
214 231 255
214 231 255
214 231 255
214 231 255
214 231 255
214 231 255
214 231 255
214 231 255
214 231 255
214 231 255
214 231 255
214 231 255
214 231 255
214 232 255
214 232 255
214 232 255
214 232 255
214 232 255
214 232 255
214 232 255
214 232 255
214 232 255
214 232 255
214 232 255
214 232 255
214 232 255
214 232 255
214 232 255
214 232 255
214 232 255
214 232 255
214 232 255
214 232 255
214 232 255
214 232 255
215 232 255
215 232 255
215 232 255
215 232 255
215 232 255
215 232 255
215 232 255
215 232 255
215 232 255
215 232 255
215 232 255
215 232 255
215 232 255
215 232 255
215 232 255
215 232 255
215 232 255
215 232 255
215 232 255
215 232 255
215 232 255
215 232 255
215 232 255
215 232 255
215 232 255
215 232 255
215 232 255
215 232 255
215 232 255
215 232 255
215 232 255
215 232 255
215 232 255
215 232 255
215 232 255
215 232 255
215 232 255
215 232 255
215 232 255
215 232 255
215 232 255
215 232 255
215 232 255
215 232 255
215 232 255
215 232 255
215 232 255
215 232 255
215 232 255
215 232 255
215 232 255
216 232 255
216 232 255
216 232 255
216 232 255
216 232 255
216 232 255
216 232 255
216 232 255
216 232 255
216 232 255
216 232 255
216 232 255
216 232 255
216 232 255
216 232 255
216 232 255
216 232 255
216 232 255
216 232 255
216 232 255
216 232 255
215 232 255
215 232 255
215 232 255
215 232 255
215 232 255
215 232 255
215 232 255
215 232 255
215 232 255
215 232 255
215 232 255
215 232 255
215 232 255
215 232 255
215 232 255
215 232 255
215 232 255
215 232 255
215 232 255
215 232 255
215 232 255
215 232 255
215 232 255
215 232 255
215 232 255
215 232 255
215 232 255
215 232 255
215 232 255
215 232 255
215 232 255
215 232 255
215 232 255
215 232 255
215 232 255
215 232 255
215 232 255
215 232 255
215 232 255
215 232 255
215 232 255
215 232 255
215 232 255
215 232 255
215 232 255
215 232 255
215 232 255
215 232 255
215 232 255
215 232 255
215 232 255
214 232 255
214 232 255
214 232 255
214 232 255
214 232 255
214 232 255
214 232 255
214 232 255
214 232 255
214 232 255
214 232 255
214 232 255
214 232 255
214 232 255
214 232 255
214 232 255
214 232 255
214 232 255
214 232 255
214 232 255
214 232 255
214 232 255
214 231 255
214 231 255
214 231 255
214 231 255
214 231 255
214 231 255
214 231 255
214 231 255
214 231 255
214 231 255
214 231 255
214 231 255
214 231 255
214 231 255
214 231 255
214 231 255
214 231 255
214 231 255
214 231 255
214 231 255
214 231 255
214 231 255
214 231 255
213 231 255
213 231 255
213 231 255
213 231 255
213 231 255
213 231 255
213 231 255
213 231 255
213 231 255
213 231 255
213 231 255
213 231 255
213 231 255
213 231 255
213 231 255
213 231 255
213 231 255
213 231 255
213 231 255
213 231 255
213 231 255
213 231 255
213 231 255
213 231 255
213 231 255
213 231 255
213 231 255
213 231 255
213 231 255
213 231 255
213 231 255
213 231 255
213 231 255
213 231 255
213 231 255
213 231 255
213 231 255
213 231 255
213 231 255
213 231 255
213 231 255
213 231 255
213 231 255
213 231 255
213 231 255
213 231 255
213 231 255
213 231 255
213 231 255
213 231 255
213 231 255
213 231 255
213 231 255
213 231 255
213 231 255
213 231 255
212 231 255
212 231 255
212 231 255
212 231 255
212 231 255
212 231 255
212 231 255
212 231 255
212 231 255
212 231 255
212 231 255
212 231 255
212 231 255
212 231 255
212 231 255
212 231 255
212 231 255
212 231 255
212 231 255
212 231 255
212 231 255
212 231 255
212 231 255
212 231 255
212 231 255
212 231 255
212 231 255
212 231 255
212 231 255
212 231 255
212 231 255
212 231 255
212 231 255
212 231 255
212 231 255
212 231 255
212 231 255
212 231 255
212 231 255
212 231 255
212 231 255
212 231 255
212 231 255
212 231 255
212 231 255
212 231 255
212 231 255
212 231 255
212 231 255
212 231 255
212 231 255
212 231 255
212 231 255
212 231 255
212 231 255
212 231 255
212 231 255
212 231 255
212 231 255
212 231 255
212 231 255
212 231 255
212 231 255
212 231 255
212 231 255
212 231 255
212 231 255
212 231 255
213 231 255
213 231 255
213 231 255
213 231 255
213 231 255
213 231 255
213 231 255
213 231 255
213 231 255
213 231 255
213 231 255
213 231 255
213 231 255
213 231 255
213 231 255
213 231 255
213 231 255
213 231 255
213 231 255
213 231 255
213 231 255
213 231 255
213 231 255
213 231 255
213 231 255
213 231 255
213 231 255
213 231 255
213 231 255
213 231 255
213 231 255
213 231 255
213 231 255
213 231 255
213 231 255
213 231 255
213 231 255
213 231 255
213 231 255
213 231 255
213 231 255
213 231 255
213 231 255
213 231 255
213 231 255
213 231 255
213 231 255
213 231 255
213 231 255
213 231 255
213 231 255
213 231 255
213 231 255
213 231 255
213 231 255
213 231 255
213 231 255
214 231 255
214 231 255
214 231 255
214 231 255
214 231 255
214 231 255
214 231 255
214 231 255
214 231 255
214 231 255
214 231 255
214 231 255
214 231 255
214 231 255
214 231 255
214 231 255
214 231 255
214 231 255
214 231 255
214 231 255
214 231 255
214 231 255
214 231 255
214 232 255
214 232 255
214 232 255
214 232 255
214 232 255
214 232 255
214 232 255
214 232 255
214 232 255
214 232 255
214 232 255
214 232 255
214 232 255
214 232 255
214 232 255
214 232 255
214 232 255
214 232 255
214 232 255
214 232 255
214 232 255
214 232 255
214 232 255
215 232 255
215 232 255
215 232 255
215 232 255
215 232 255
215 232 255
215 232 255
215 232 255
215 232 255
215 232 255
215 232 255
215 232 255
215 232 255
215 232 255
215 232 255
215 232 255
215 232 255
215 232 255
215 232 255
215 232 255
215 232 255
215 232 255
215 232 255
215 232 255
215 232 255
215 232 255
215 232 255
215 232 255
215 232 255
215 232 255
215 232 255
215 232 255
215 232 255
215 232 255
215 232 255
215 232 255
215 232 255
215 232 255
215 232 255
215 232 255
215 232 255
215 232 255
215 232 255
215 232 255
215 232 255
215 232 255
215 232 255
215 232 255
215 232 255
215 232 255
216 232 255
216 232 255
216 232 255
216 232 255
216 232 255
216 232 255
216 232 255
216 232 255
216 232 255
216 232 255
216 232 255
216 232 255
216 232 255
216 232 255
216 233 255
216 233 255
216 232 255
216 232 255
216 232 255
216 232 255
216 232 255
216 232 255
216 232 255
216 232 255
216 232 255
216 232 255
216 232 255
216 232 255
216 232 255
216 232 255
216 232 255
216 232 255
216 232 255
216 232 255
215 232 255
215 232 255
215 232 255
215 232 255
215 232 255
215 232 255
215 232 255
215 232 255
215 232 255
215 232 255
215 232 255
215 232 255
215 232 255
215 232 255
215 232 255
215 232 255
215 232 255
215 232 255
215 232 255
215 232 255
215 232 255
215 232 255
215 232 255
215 232 255
215 232 255
215 232 255
215 232 255
215 232 255
215 232 255
215 232 255
215 232 255
215 232 255
215 232 255
215 232 255
215 232 255
215 232 255
215 232 255
215 232 255
215 232 255
215 232 255
215 232 255
215 232 255
215 232 255
215 232 255
215 232 255
215 232 255
215 232 255
215 232 255
215 232 255
215 232 255
214 232 255
214 232 255
214 232 255
214 232 255
214 232 255
214 232 255
214 232 255
214 232 255
214 232 255
214 232 255
214 232 255
214 232 255
214 232 255
214 232 255
214 232 255
214 232 255
214 232 255
214 232 255
214 232 255
214 232 255
214 232 255
214 232 255
214 232 255
214 231 255
214 231 255
214 231 255
214 231 255
214 231 255
214 231 255
214 231 255
214 231 255
214 231 255
214 231 255
214 231 255
214 231 255
214 231 255
214 231 255
214 231 255
214 231 255
214 231 255
214 231 255
214 231 255
214 231 255
214 231 255
214 231 255
214 231 255
214 231 255
213 231 255
213 231 255
213 231 255
213 231 255
213 231 255
213 231 255
213 231 255
213 231 255
213 231 255
213 231 255
213 231 255
213 231 255
213 231 255
213 231 255
213 231 255
213 231 255
213 231 255
213 231 255
213 231 255
213 231 255
213 231 255
213 231 255
213 231 255
213 231 255
213 231 255
213 231 255
213 231 255
213 231 255
213 231 255
213 231 255
213 231 255
213 231 255
213 231 255
213 231 255
213 231 255
213 231 255
213 231 255
213 231 255
213 231 255
213 231 255
213 231 255
213 231 255
213 231 255
213 231 255
213 231 255
213 231 255
213 231 255
213 231 255
213 231 255
213 231 255
213 231 255
213 231 255
213 231 255
213 231 255
213 231 255
213 231 255
213 231 255
213 231 255
213 231 255
213 231 255
213 231 255
213 231 255
213 231 255
213 231 255
213 231 255
213 231 255
213 231 255
213 231 255
213 231 255
213 231 255
212 231 255
212 231 255
212 231 255
212 231 255
212 231 255
212 231 255
212 231 255
212 231 255
212 231 255
212 231 255
212 231 255
212 231 255
212 231 255
212 231 255
212 231 255
212 231 255
212 231 255
212 231 255
212 231 255
212 231 255
212 231 255
212 231 255
212 231 255
212 231 255
212 231 255
213 231 255
212 231 255
213 231 255
213 231 255
213 231 255
213 231 255
213 231 255
213 231 255
213 231 255
213 231 255
213 231 255
213 231 255
213 231 255
213 231 255
213 231 255
213 231 255
213 231 255
213 231 255
213 231 255
213 231 255
213 231 255
213 231 255
213 231 255
213 231 255
213 231 255
213 231 255
213 231 255
213 231 255
213 231 255
213 231 255
213 231 255
213 231 255
213 231 255
213 231 255
213 231 255
213 231 255
213 231 255
213 231 255
213 231 255
213 231 255
213 231 255
213 231 255
213 231 255
213 231 255
213 231 255
213 231 255
213 231 255
213 231 255
213 231 255
213 231 255
213 231 255
213 231 255
213 231 255
213 231 255
213 231 255
213 231 255
213 231 255
213 231 255
213 231 255
213 231 255
213 231 255
213 231 255
213 231 255
213 231 255
213 231 255
213 231 255
213 231 255
213 231 255
213 231 255
213 231 255
214 231 255
214 231 255
214 231 255
214 231 255
214 231 255
214 231 255
214 231 255
214 231 255
214 231 255
214 231 255
214 231 255
214 231 255
214 231 255
214 231 255
214 231 255
214 231 255
214 231 255
214 231 255
214 231 255
214 231 255
214 231 255
214 231 255
214 231 255
214 231 255
214 231 255
214 232 255
214 232 255
214 232 255
214 232 255
214 232 255
214 232 255
214 232 255
214 232 255
214 232 255
214 232 255
214 232 255
214 232 255
214 232 255
214 232 255
214 232 255
214 232 255
214 232 255
214 232 255
214 232 255
214 232 255
214 232 255
214 232 255
215 232 255
215 232 255
215 232 255
215 232 255
215 232 255
215 232 255
215 232 255
215 232 255
215 232 255
215 232 255
215 232 255
215 232 255
215 232 255
215 232 255
215 232 255
215 232 255
215 232 255
215 232 255
215 232 255
215 232 255
215 232 255
215 232 255
215 232 255
215 232 255
215 232 255
215 232 255
215 232 255
215 232 255
215 232 255
215 232 255
215 232 255
215 232 255
215 232 255
215 232 255
215 232 255
215 232 255
215 232 255
215 232 255
215 232 255
215 232 255
215 232 255
215 232 255
215 232 255
215 232 255
215 232 255
215 232 255
215 232 255
215 232 255
215 232 255
215 232 255
216 232 255
216 232 255
216 232 255
216 232 255
216 232 255
216 232 255
216 232 255
216 232 255
216 232 255
216 232 255
216 232 255
216 232 255
216 232 255
216 232 255
216 232 255
216 232 255
216 232 255
216 232 255
216 233 255
216 233 255
216 233 255
216 233 255
216 233 255
216 233 255
216 233 255
216 233 255
216 233 255
216 233 255
216 233 255
216 233 255
216 232 255
216 232 255
216 232 255
216 232 255
216 232 255
216 232 255
216 232 255
216 232 255
216 232 255
216 232 255
216 232 255
216 232 255
216 232 255
216 232 255
216 232 255
216 232 255
216 232 255
216 232 255
215 232 255
215 232 255
215 232 255
215 232 255
215 232 255
215 232 255
215 232 255
215 232 255
215 232 255
215 232 255
215 232 255
215 232 255
215 232 255
215 232 255
215 232 255
215 232 255
215 232 255
215 232 255
215 232 255
215 232 255
215 232 255
215 232 255
215 232 255
215 232 255
215 232 255
215 232 255
215 232 255
215 232 255
215 232 255
215 232 255
215 232 255
215 232 255
215 232 255
215 232 255
215 232 255
215 232 255
215 232 255
215 232 255
215 232 255
215 232 255
215 232 255
215 232 255
215 232 255
215 232 255
215 232 255
215 232 255
215 232 255
215 232 255
215 232 255
215 232 255
215 232 255
214 232 255
214 232 255
214 232 255
214 232 255
214 232 255
214 232 255
214 232 255
214 232 255
214 232 255
214 232 255
214 232 255
214 232 255
214 232 255
214 232 255
214 232 255
214 232 255
214 232 255
214 232 255
214 232 255
214 232 255
214 232 255
214 232 255
214 231 255
214 231 255
214 231 255
214 231 255
214 231 255
214 231 255
214 231 255
214 231 255
214 231 255
214 231 255
214 231 255
214 231 255
214 231 255
214 231 255
214 231 255
214 231 255
214 231 255
214 231 255
214 231 255
214 231 255
214 231 255
214 231 255
214 231 255
214 231 255
214 231 255
213 231 255
213 231 255
213 231 255
213 231 255
213 231 255
213 231 255
213 231 255
213 231 255
213 231 255
213 231 255
213 231 255
213 231 255
213 231 255
213 231 255
213 231 255
213 231 255
213 231 255
213 231 255
213 231 255
213 231 255
213 231 255
213 231 255
213 231 255
213 231 255
213 231 255
213 231 255
213 231 255
213 231 255
213 231 255
213 231 255
213 231 255
213 231 255
213 231 255
213 231 255
213 231 255
213 231 255
213 231 255
213 231 255
213 231 255
213 231 255
213 231 255
213 231 255
213 231 255
213 231 255
213 231 255
213 231 255
213 231 255
213 231 255
213 231 255
213 231 255
213 231 255
213 231 255
213 231 255
213 231 255
213 231 255
213 231 255
213 231 255
213 231 255
213 231 255
213 231 255
213 231 255
213 231 255
213 231 255
213 231 255
213 231 255
213 231 255
213 231 255
213 231 255
213 231 255
213 231 255
213 231 255
213 231 255
213 231 255
213 231 255
213 231 255
213 231 255
213 231 255
213 231 255
213 231 255
213 231 255
213 231 255
213 231 255
213 231 255
213 231 255
213 231 255
213 231 255
213 231 255
213 231 255
213 231 255
213 231 255
213 231 255
213 231 255
213 231 255
213 231 255
213 231 255
213 231 255
213 231 255
213 231 255
213 231 255
213 231 255
213 231 255
213 231 255
213 231 255
213 231 255
213 231 255
213 231 255
213 231 255
213 231 255
213 231 255
213 231 255
213 231 255
213 231 255
213 231 255
213 231 255
213 231 255
213 231 255
213 231 255
213 231 255
213 231 255
213 231 255
213 231 255
213 231 255
213 231 255
213 231 255
213 231 255
213 231 255
213 231 255
213 231 255
213 231 255
213 231 255
213 231 255
213 231 255
213 231 255
213 231 255
213 231 255
213 231 255
213 231 255
213 231 255
213 231 255
213 231 255
213 231 255
213 231 255
213 231 255
213 231 255
213 231 255
213 231 255
213 231 255
213 231 255
213 231 255
214 231 255
214 231 255
214 231 255
214 231 255
214 231 255
214 231 255
214 231 255
214 231 255
214 231 255
214 231 255
214 231 255
214 231 255
214 231 255
214 231 255
214 231 255
214 231 255
214 231 255
214 231 255
214 231 255
214 231 255
214 231 255
214 231 255
214 231 255
214 231 255
214 231 255
214 232 255
214 232 255
214 232 255
214 232 255
214 232 255
214 232 255
214 232 255
214 232 255
214 232 255
214 232 255
214 232 255
214 232 255
214 232 255
214 232 255
214 232 255
214 232 255
214 232 255
214 232 255
214 232 255
214 232 255
214 232 255
214 232 255
214 232 255
215 232 255
215 232 255
215 232 255
215 232 255
215 232 255
215 232 255
215 232 255
215 232 255
215 232 255
215 232 255
215 232 255
215 232 255
215 232 255
215 232 255
215 232 255
215 232 255
215 232 255
215 232 255
215 232 255
215 232 255
215 232 255
215 232 255
215 232 255
215 232 255
215 232 255
215 232 255
215 232 255
215 232 255
215 232 255
215 232 255
215 232 255
215 232 255
215 232 255
215 232 255
215 232 255
215 232 255
215 232 255
215 232 255
215 232 255
215 232 255
215 232 255
215 232 255
215 232 255
215 232 255
215 232 255
215 232 255
215 232 255
215 232 255
215 232 255
215 232 255
216 232 255
216 232 255
216 232 255
216 232 255
216 232 255
216 232 255
216 232 255
216 232 255
216 232 255
216 232 255
216 232 255
216 232 255
216 232 255
216 232 255
216 232 255
216 232 255
216 232 255
216 232 255
216 233 255
216 233 255
216 233 255
216 233 255
216 233 255
216 233 255
216 233 255
216 233 255
216 233 255
216 233 255
216 233 255
216 233 255
216 233 255
216 233 255
216 233 255
216 233 255
216 233 255
216 233 255
216 233 255
216 233 255
216 233 255
216 233 255
216 233 255
216 233 255
216 233 255
216 233 255
216 233 255
216 232 255
216 232 255
216 232 255
216 232 255
216 232 255
216 232 255
216 232 255
216 232 255
216 232 255
216 232 255
216 232 255
216 232 255
216 232 255
216 232 255
216 232 255
216 232 255
216 232 255
215 232 255
215 232 255
215 232 255
215 232 255
215 232 255
215 232 255
215 232 255
215 232 255
215 232 255
215 232 255
215 232 255
215 232 255
215 232 255
215 232 255
215 232 255
215 232 255
215 232 255
215 232 255
215 232 255
215 232 255
215 232 255
215 232 255
215 232 255
215 232 255
215 232 255
215 232 255
215 232 255
215 232 255
215 232 255
215 232 255
215 232 255
215 232 255
215 232 255
215 232 255
215 232 255
215 232 255
215 232 255
215 232 255
215 232 255
215 232 255
215 232 255
215 232 255
215 232 255
215 232 255
215 232 255
215 232 255
215 232 255
215 232 255
215 232 255
214 232 255
214 232 255
214 232 255
214 232 255
214 232 255
214 232 255
214 232 255
214 232 255
214 232 255
214 232 255
214 232 255
214 232 255
214 232 255
214 232 255
214 232 255
214 232 255
214 232 255
214 232 255
214 232 255
214 232 255
214 232 255
214 232 255
214 232 255
214 232 255
214 231 255
214 231 255
214 231 255
214 231 255
214 231 255
214 231 255
214 231 255
214 231 255
214 231 255
214 231 255
214 231 255
214 231 255
214 231 255
214 231 255
214 231 255
214 231 255
214 231 255
214 231 255
214 231 255
214 231 255
214 231 255
214 231 255
214 231 255
214 231 255
214 231 255
214 231 255
213 231 255
213 231 255
213 231 255
213 231 255
213 231 255
213 231 255
213 231 255
213 231 255
213 231 255
213 231 255
213 231 255
213 231 255
213 231 255
213 231 255
213 231 255
213 231 255
213 231 255
213 231 255
213 231 255
213 231 255
213 231 255
213 231 255
213 231 255
213 231 255
213 231 255
213 231 255
213 231 255
213 231 255
213 231 255
213 231 255
213 231 255
213 231 255
213 231 255
213 231 255
213 231 255
213 231 255
213 231 255
213 231 255
213 231 255
213 231 255
213 231 255
213 231 255
213 231 255
213 231 255
213 231 255
213 231 255
213 231 255
213 231 255
213 231 255
213 231 255
213 231 255
213 231 255
213 231 255
213 231 255
213 231 255
213 231 255
213 231 255
213 231 255
213 231 255
213 231 255
213 231 255
213 231 255
213 231 255
213 231 255
213 231 255
213 231 255
213 231 255
213 231 255
213 231 255
213 231 255
213 231 255
213 231 255
213 231 255
213 231 255
213 231 255
213 231 255
213 231 255
213 231 255
213 231 255
213 231 255
213 231 255
213 231 255
213 231 255
213 231 255
213 231 255
213 231 255
213 231 255
213 231 255
213 231 255
213 231 255
213 231 255
213 231 255
213 231 255
213 231 255
213 231 255
213 231 255
213 231 255
213 231 255
213 231 255
213 231 255
213 231 255
213 231 255
213 231 255
213 231 255
213 231 255
213 231 255
213 231 255
213 231 255
213 231 255
213 231 255
213 231 255
213 231 255
213 231 255
213 231 255
213 231 255
213 231 255
213 231 255
213 231 255
213 231 255
213 231 255
213 231 255
213 231 255
213 231 255
213 231 255
213 231 255
213 231 255
213 231 255
213 231 255
213 231 255
213 231 255
213 231 255
213 231 255
213 231 255
214 231 255
214 231 255
214 231 255
214 231 255
214 231 255
214 231 255
214 231 255
214 231 255
214 231 255
214 231 255
214 231 255
214 231 255
214 231 255
214 231 255
214 231 255
214 231 255
214 231 255
214 231 255
214 231 255
214 231 255
214 231 255
214 231 255
214 231 255
214 231 255
214 231 255
214 231 255
214 232 255
214 232 255
214 232 255
214 232 255
214 232 255
214 232 255
214 232 255
214 232 255
214 232 255
214 232 255
214 232 255
214 232 255
214 232 255
214 232 255
214 232 255
214 232 255
214 232 255
214 232 255
214 232 255
214 232 255
214 232 255
214 232 255
214 232 255
215 232 255
215 232 255
215 232 255
215 232 255
215 232 255
215 232 255
215 232 255
215 232 255
215 232 255
215 232 255
215 232 255
215 232 255
215 232 255
215 232 255
215 232 255
215 232 255
215 232 255
215 232 255
215 232 255
215 232 255
215 232 255
215 232 255
215 232 255
215 232 255
215 232 255
215 232 255
215 232 255
215 232 255
215 232 255
215 232 255
215 232 255
215 232 255
215 232 255
215 232 255
215 232 255
215 232 255
215 232 255
215 232 255
215 232 255
215 232 255
215 232 255
215 232 255
215 232 255
215 232 255
215 232 255
215 232 255
215 232 255
215 232 255
215 232 255
215 232 255
216 232 255
216 232 255
216 232 255
216 232 255
216 232 255
216 232 255
216 232 255
216 232 255
216 232 255
216 232 255
216 232 255
216 232 255
216 232 255
216 232 255
216 232 255
216 232 255
216 232 255
216 232 255
216 233 255
216 233 255
216 233 255
216 233 255
216 233 255
216 233 255
216 233 255
216 233 255
216 233 255
216 233 255
216 233 255
216 233 255
216 233 255
216 233 255
216 233 255
216 233 255
216 233 255
216 233 255
216 233 255
216 233 255
216 233 255
216 233 255
216 233 255
216 233 255
216 233 255
216 233 255
216 233 255
216 233 255
216 233 255
216 233 255
216 233 255
216 233 255
216 233 255
216 233 255
216 233 255
216 233 255
216 233 255
216 233 255
216 233 255
216 233 255
216 233 255
216 232 255
216 232 255
216 232 255
216 232 255
216 232 255
216 232 255
216 232 255
216 232 255
216 232 255
216 232 255
216 232 255
216 232 255
216 232 255
216 232 255
216 232 255
216 232 255
216 232 255
215 232 255
215 232 255
215 232 255
215 232 255
215 232 255
215 232 255
215 232 255
215 232 255
215 232 255
215 232 255
215 232 255
215 232 255
215 232 255
215 232 255
215 232 255
215 232 255
215 232 255
215 232 255
215 232 255
215 232 255
215 232 255
215 232 255
215 232 255
215 232 255
215 232 255
215 232 255
215 232 255
215 232 255
215 232 255
215 232 255
215 232 255
215 232 255
215 232 255
215 232 255
215 232 255
215 232 255
215 232 255
215 232 255
215 232 255
215 232 255
215 232 255
215 232 255
215 232 255
215 232 255
215 232 255
215 232 255
215 232 255
215 232 255
215 232 255
215 232 255
214 232 255
214 232 255
214 232 255
214 232 255
214 232 255
214 232 255
214 232 255
214 232 255
214 232 255
214 232 255
214 232 255
214 232 255
214 232 255
214 232 255
214 232 255
214 232 255
214 232 255
214 232 255
214 232 255
214 232 255
214 232 255
214 232 255
214 232 255
214 232 255
214 231 255
214 231 255
214 231 255
214 231 255
214 231 255
214 231 255
214 231 255
214 231 255
214 231 255
214 231 255
214 231 255
214 231 255
214 231 255
214 231 255
214 231 255
214 231 255
214 231 255
214 231 255
214 231 255
214 231 255
214 231 255
214 231 255
214 231 255
214 231 255
214 231 255
214 231 255
214 231 255
214 231 255
213 231 255
213 231 255
213 231 255
213 231 255
213 231 255
213 231 255
213 231 255
213 231 255
213 231 255
213 231 255
213 231 255
213 231 255
213 231 255
213 231 255
213 231 255
213 231 255
213 231 255
213 231 255
213 231 255
213 231 255
213 231 255
213 231 255
213 231 255
213 231 255
213 231 255
213 231 255
213 231 255
213 231 255
213 231 255
213 231 255
213 231 255
213 231 255
213 231 255
213 231 255
213 231 255
213 231 255
213 231 255
213 231 255
213 231 255
213 231 255
213 231 255
213 231 255
213 231 255
213 231 255
213 231 255
213 231 255
213 231 255
213 231 255
213 231 255
213 231 255
213 231 255
213 231 255
213 231 255
213 231 255
213 231 255
213 231 255
213 231 255
213 231 255
213 231 255
213 231 255
213 231 255
213 231 255
213 231 255
213 231 255
213 231 255
213 231 255
213 231 255
213 231 255
213 231 255
213 231 255
213 231 255
213 231 255
213 231 255
213 231 255
213 231 255
213 231 255
213 231 255
213 231 255
213 231 255
213 231 255
213 231 255
213 231 255
213 231 255
213 231 255
213 231 255
213 231 255
213 231 255
213 231 255
213 231 255
213 231 255
213 231 255
213 231 255
213 231 255
213 231 255
213 231 255
213 231 255
213 231 255
213 231 255
213 231 255
213 231 255
213 231 255
213 231 255
213 231 255
213 231 255
213 231 255
213 231 255
213 231 255
213 231 255
213 231 255
213 231 255
213 231 255
213 231 255
213 231 255
214 231 255
214 231 255
214 231 255
214 231 255
214 231 255
214 231 255
214 231 255
214 231 255
214 231 255
214 231 255
214 231 255
214 231 255
214 231 255
214 231 255
214 231 255
214 231 255
214 231 255
214 231 255
214 231 255
214 231 255
214 231 255
214 231 255
214 231 255
214 231 255
214 231 255
214 231 255
214 231 255
214 231 255
214 232 255
214 232 255
214 232 255
214 232 255
214 232 255
214 232 255
214 232 255
214 232 255
214 232 255
214 232 255
214 232 255
214 232 255
214 232 255
214 232 255
214 232 255
214 232 255
214 232 255
214 232 255
214 232 255
214 232 255
214 232 255
214 232 255
214 232 255
214 232 255
215 232 255
215 232 255
215 232 255
215 232 255
215 232 255
215 232 255
215 232 255
215 232 255
215 232 255
215 232 255
215 232 255
215 232 255
215 232 255
215 232 255
215 232 255
215 232 255
215 232 255
215 232 255
215 232 255
215 232 255
215 232 255
215 232 255
215 232 255
215 232 255
215 232 255
215 232 255
215 232 255
215 232 255
215 232 255
215 232 255
215 232 255
215 232 255
215 232 255
215 232 255
215 232 255
215 232 255
215 232 255
215 232 255
215 232 255
215 232 255
215 232 255
215 232 255
215 232 255
215 232 255
215 232 255
215 232 255
215 232 255
215 232 255
215 232 255
215 232 255
216 232 255
216 232 255
216 232 255
216 232 255
216 232 255
216 232 255
216 232 255
216 232 255
216 232 255
216 232 255
216 232 255
216 232 255
216 232 255
216 232 255
216 232 255
216 232 255
216 232 255
216 233 255
216 233 255
216 233 255
216 233 255
216 233 255
216 233 255
216 233 255
216 233 255
216 233 255
216 233 255
216 233 255
216 233 255
216 233 255
216 233 255
216 233 255
216 233 255
216 233 255
216 233 255
216 233 255
216 233 255
216 233 255
216 233 255
216 233 255
216 233 255
216 233 255
216 233 255
216 233 255
216 233 255
216 233 255
216 233 255
216 233 255
216 233 255
216 233 255
216 233 255
216 233 255
216 233 255
216 233 255
216 233 255
216 233 255
216 233 255
216 233 255
216 233 255
216 233 255
216 233 255
216 233 255
216 233 255
216 233 255
216 233 255
216 233 255
216 233 255
216 233 255
216 233 255
216 233 255
216 233 255
216 233 255
216 233 255
216 232 255
216 232 255
216 232 255
216 232 255
216 232 255
216 232 255
216 232 255
216 232 255
216 232 255
216 232 255
216 232 255
216 232 255
216 232 255
216 232 255
216 232 255
216 232 255
216 232 255
215 232 255
215 232 255
215 232 255
215 232 255
215 232 255
215 232 255
215 232 255
215 232 255
215 232 255
215 232 255
215 232 255
215 232 255
215 232 255
215 232 255
215 232 255
215 232 255
215 232 255
215 232 255
215 232 255
215 232 255
215 232 255
215 232 255
215 232 255
215 232 255
215 232 255
215 232 255
215 232 255
215 232 255
215 232 255
215 232 255
215 232 255
215 232 255
215 232 255
215 232 255
215 232 255
215 232 255
215 232 255
215 232 255
215 232 255
215 232 255
215 232 255
215 232 255
215 232 255
215 232 255
215 232 255
215 232 255
215 232 255
215 232 255
215 232 255
215 232 255
215 232 255
214 232 255
214 232 255
214 232 255
214 232 255
214 232 255
214 232 255
214 232 255
214 232 255
214 232 255
214 232 255
214 232 255
214 232 255
214 232 255
214 232 255
214 232 255
214 232 255
214 232 255
214 232 255
214 232 255
214 232 255
214 232 255
214 232 255
214 232 255
214 232 255
214 231 255
214 231 255
214 231 255
214 231 255
214 231 255
214 231 255
214 231 255
214 231 255
214 231 255
214 231 255
214 231 255
214 231 255
214 231 255
214 231 255
214 231 255
214 231 255
214 231 255
214 231 255
214 231 255
214 231 255
214 231 255
214 231 255
214 231 255
214 231 255
214 231 255
214 231 255
214 231 255
214 231 255
214 231 255
214 231 255
214 231 255
214 231 255
213 231 255
213 231 255
213 231 255
213 231 255
213 231 255
213 231 255
213 231 255
213 231 255
213 231 255
213 231 255
213 231 255
213 231 255
213 231 255
213 231 255
213 231 255
213 231 255
213 231 255
213 231 255
213 231 255
213 231 255
213 231 255
213 231 255
213 231 255
213 231 255
213 231 255
213 231 255
213 231 255
213 231 255
213 231 255
213 231 255
213 231 255
213 231 255
213 231 255
213 231 255
213 231 255
213 231 255
213 231 255
213 231 255
213 231 255
213 231 255
213 231 255
213 231 255
213 231 255
213 231 255
213 231 255
213 231 255
213 231 255
213 231 255
213 231 255
213 231 255
213 231 255
213 231 255
213 231 255
213 231 255
213 231 255
213 231 255
213 231 255
213 231 255
213 231 255
213 231 255
213 231 255
213 231 255
213 231 255
213 231 255
213 231 255
213 231 255
213 231 255
213 231 255
213 231 255
213 231 255
213 231 255
213 231 255
213 231 255
213 231 255
213 231 255
213 231 255
213 231 255
213 231 255
213 231 255
213 231 255
213 231 255
213 231 255
213 231 255
213 231 255
213 231 255
213 231 255
213 231 255
213 231 255
213 231 255
214 231 255
213 231 255
214 231 255
214 231 255
214 231 255
214 231 255
214 231 255
214 231 255
214 231 255
214 231 255
214 231 255
214 231 255
214 231 255
214 231 255
214 231 255
214 231 255
214 231 255
214 231 255
214 231 255
214 231 255
214 231 255
214 231 255
214 231 255
214 231 255
214 231 255
214 231 255
214 231 255
214 231 255
214 231 255
214 231 255
214 231 255
214 231 255
214 232 255
214 232 255
214 232 255
214 232 255
214 232 255
214 232 255
214 232 255
214 232 255
214 232 255
214 232 255
214 232 255
214 232 255
214 232 255
214 232 255
214 232 255
214 232 255
214 232 255
214 232 255
214 232 255
214 232 255
214 232 255
214 232 255
214 232 255
214 232 255
215 232 255
215 232 255
215 232 255
215 232 255
215 232 255
215 232 255
215 232 255
215 232 255
215 232 255
215 232 255
215 232 255
215 232 255
215 232 255
215 232 255
215 232 255
215 232 255
215 232 255
215 232 255
215 232 255
215 232 255
215 232 255
215 232 255
215 232 255
215 232 255
215 232 255
215 232 255
215 232 255
215 232 255
215 232 255
215 232 255
215 232 255
215 232 255
215 232 255
215 232 255
215 232 255
215 232 255
215 232 255
215 232 255
215 232 255
215 232 255
215 232 255
215 232 255
215 232 255
215 232 255
215 232 255
215 232 255
215 232 255
215 232 255
215 232 255
215 232 255
215 232 255
216 232 255
216 232 255
216 232 255
216 232 255
216 232 255
216 232 255
216 232 255
216 232 255
216 232 255
216 232 255
216 232 255
216 232 255
216 232 255
216 232 255
216 232 255
216 232 255
216 232 255
216 233 255
216 233 255
216 233 255
216 233 255
216 233 255
216 233 255
216 233 255
216 233 255
216 233 255
216 233 255
216 233 255
216 233 255
216 233 255
216 233 255
216 233 255
216 233 255
216 233 255
216 233 255
216 233 255
216 233 255
216 233 255
216 233 255
216 233 255
216 233 255
216 233 255
216 233 255
216 233 255
216 233 255
216 233 255
216 233 255
216 233 255
216 233 255
216 233 255
216 233 255
216 233 255
216 233 255
216 233 255
216 233 255
216 233 255
216 233 255
216 233 255
216 233 255
216 233 255
216 233 255
216 233 255
216 233 255
216 233 255
216 233 255
216 233 255
216 233 255
216 233 255
216 233 255
216 233 255
216 233 255
216 233 255
216 233 255
216 233 255
216 233 255
216 233 255
216 233 255
216 233 255
216 233 255
216 233 255
216 233 255
216 233 255
216 233 255
216 233 255
216 233 255
216 233 255
216 233 255
216 233 255
216 232 255
216 232 255
216 232 255
216 232 255
216 232 255
216 232 255
216 232 255
216 232 255
216 232 255
216 232 255
216 232 255
216 232 255
216 232 255
216 232 255
216 232 255
216 232 255
216 232 255
215 232 255
215 232 255
215 232 255
215 232 255
215 232 255
215 232 255
215 232 255
215 232 255
215 232 255
215 232 255
215 232 255
215 232 255
215 232 255
215 232 255
215 232 255
215 232 255
215 232 255
215 232 255
215 232 255
215 232 255
215 232 255
215 232 255
215 232 255
215 232 255
215 232 255
215 232 255
215 232 255
215 232 255
215 232 255
215 232 255
215 232 255
215 232 255
215 232 255
215 232 255
215 232 255
215 232 255
215 232 255
215 232 255
215 232 255
215 232 255
215 232 255
215 232 255
215 232 255
215 232 255
215 232 255
215 232 255
215 232 255
215 232 255
215 232 255
215 232 255
215 232 255
214 232 255
214 232 255
214 232 255
214 232 255
214 232 255
214 232 255
214 232 255
214 232 255
214 232 255
214 232 255
214 232 255
214 232 255
214 232 255
214 232 255
214 232 255
214 232 255
214 232 255
214 232 255
214 232 255
214 232 255
214 232 255
214 232 255
214 232 255
214 232 255
214 232 255
214 232 255
214 231 255
214 231 255
214 231 255
214 231 255
214 231 255
214 231 255
214 231 255
214 231 255
214 231 255
214 231 255
214 231 255
214 231 255
214 231 255
214 231 255
214 231 255
214 231 255
214 231 255
214 231 255
214 231 255
214 231 255
214 231 255
214 231 255
214 231 255
214 231 255
214 231 255
214 231 255
214 231 255
214 231 255
214 231 255
214 231 255
214 231 255
214 231 255
214 231 255
214 231 255
214 231 255
214 231 255
214 231 255
213 231 255
213 231 255
213 231 255
213 231 255
213 231 255
213 231 255
213 231 255
213 231 255
213 231 255
213 231 255
213 231 255
213 231 255
213 231 255
213 231 255
213 231 255
213 231 255
213 231 255
213 231 255
213 231 255
213 231 255
213 231 255
213 231 255
213 231 255
213 231 255
213 231 255
213 231 255
213 231 255
213 231 255
213 231 255
213 231 255
213 231 255
213 231 255
213 231 255
213 231 255
213 231 255
213 231 255
213 231 255
213 231 255
213 231 255
213 231 255
213 231 255
213 231 255
213 231 255
213 231 255
213 231 255
213 231 255
213 231 255
213 231 255
213 231 255
213 231 255
213 231 255
213 231 255
213 231 255
213 231 255
213 231 255
213 231 255
213 231 255
213 231 255
213 231 255
213 231 255
214 231 255
214 231 255
214 231 255
214 231 255
214 231 255
214 231 255
214 231 255
214 231 255
214 231 255
214 231 255
214 231 255
214 231 255
214 231 255
214 231 255
214 231 255
214 231 255
214 231 255
214 231 255
214 231 255
214 231 255
214 231 255
214 231 255
214 231 255
214 231 255
214 231 255
214 231 255
214 231 255
214 231 255
214 231 255
214 231 255
214 231 255
214 231 255
214 231 255
214 231 255
214 231 255
214 231 255
214 232 255
214 232 255
214 232 255
214 232 255
214 232 255
214 232 255
214 232 255
214 232 255
214 232 255
214 232 255
214 232 255
214 232 255
214 232 255
214 232 255
214 232 255
214 232 255
214 232 255
214 232 255
214 232 255
214 232 255
214 232 255
214 232 255
214 232 255
214 232 255
214 232 255
214 232 255
215 232 255
215 232 255
215 232 255
215 232 255
215 232 255
215 232 255
215 232 255
215 232 255
215 232 255
215 232 255
215 232 255
215 232 255
215 232 255
215 232 255
215 232 255
215 232 255
215 232 255
215 232 255
215 232 255
215 232 255
215 232 255
215 232 255
215 232 255
215 232 255
215 232 255
215 232 255
215 232 255
215 232 255
215 232 255
215 232 255
215 232 255
215 232 255
215 232 255
215 232 255
215 232 255
215 232 255
215 232 255
215 232 255
215 232 255
215 232 255
215 232 255
215 232 255
215 232 255
215 232 255
215 232 255
215 232 255
215 232 255
215 232 255
215 232 255
215 232 255
215 232 255
215 232 255
216 232 255
216 232 255
216 232 255
216 232 255
216 232 255
216 232 255
216 232 255
216 232 255
216 232 255
216 232 255
216 232 255
216 232 255
216 232 255
216 232 255
216 232 255
216 232 255
216 232 255
216 233 255
216 233 255
216 233 255
216 233 255
216 233 255
216 233 255
216 233 255
216 233 255
216 233 255
216 233 255
216 233 255
216 233 255
216 233 255
216 233 255
216 233 255
216 233 255
216 233 255
216 233 255
216 233 255
216 233 255
216 233 255
216 233 255
216 233 255
216 233 255
216 233 255
216 233 255
216 233 255
216 233 255
216 233 255
216 233 255
216 233 255
216 233 255
216 233 255
216 233 255
216 233 255
216 233 255
216 233 255
216 233 255
216 233 255
217 233 255
217 233 255
217 233 255
217 233 255
216 233 255
216 233 255
216 233 255
216 233 255
216 233 255
216 233 255
216 233 255
216 233 255
216 233 255
216 233 255
216 233 255
216 233 255
216 233 255
216 233 255
216 233 255
216 233 255
216 233 255
216 233 255
216 233 255
216 233 255
216 233 255
216 233 255
216 233 255
216 233 255
216 233 255
216 233 255
216 233 255
216 233 255
216 233 255
216 233 255
216 233 255
216 233 255
216 233 255
216 233 255
216 233 255
216 233 255
216 233 255
216 233 255
216 233 255
216 233 255
216 233 255
216 233 255
216 232 255
216 232 255
216 232 255
216 232 255
216 232 255
216 232 255
216 232 255
216 232 255
216 232 255
216 232 255
216 232 255
216 232 255
216 232 255
216 232 255
216 232 255
216 232 255
216 232 255
215 232 255
215 232 255
215 232 255
215 232 255
215 232 255
215 232 255
215 232 255
215 232 255
215 232 255
215 232 255
215 232 255
215 232 255
215 232 255
215 232 255
215 232 255
215 232 255
215 232 255
215 232 255
215 232 255
215 232 255
215 232 255
215 232 255
215 232 255
215 232 255
215 232 255
215 232 255
215 232 255
215 232 255
215 232 255
215 232 255
215 232 255
215 232 255
215 232 255
215 232 255
215 232 255
215 232 255
215 232 255
215 232 255
215 232 255
215 232 255
215 232 255
215 232 255
215 232 255
215 232 255
215 232 255
215 232 255
215 232 255
215 232 255
215 232 255
215 232 255
215 232 255
215 232 255
214 232 255
214 232 255
214 232 255
214 232 255
214 232 255
214 232 255
214 232 255
214 232 255
214 232 255
214 232 255
214 232 255
214 232 255
214 232 255
214 232 255
214 232 255
214 232 255
214 232 255
214 232 255
214 232 255
214 232 255
214 232 255
214 232 255
214 232 255
214 232 255
214 232 255
214 232 255
214 232 255
214 232 255
214 231 255
214 231 255
214 231 255
214 231 255
214 231 255
214 231 255
214 231 255
214 231 255
214 231 255
214 231 255
214 231 255
214 231 255
214 231 255
214 231 255
214 231 255
214 231 255
214 231 255
214 231 255
214 231 255
214 231 255
214 231 255
214 231 255
214 231 255
214 231 255
214 231 255
214 231 255
214 231 255
214 231 255
214 231 255
214 231 255
214 231 255
214 231 255
214 231 255
214 231 255
214 231 255
214 231 255
214 231 255
214 231 255
214 231 255
214 231 255
214 231 255
214 231 255
214 231 255
214 231 255
214 231 255
214 231 255
214 231 255
214 231 255
214 231 255
214 231 255
214 231 255
214 231 255
214 231 255
214 231 255
214 231 255
214 231 255
214 231 255
214 231 255
214 231 255
214 231 255
214 231 255
214 231 255
214 231 255
214 231 255
214 231 255
214 231 255
214 231 255
214 231 255
214 231 255
214 231 255
214 231 255
214 231 255
214 231 255
214 231 255
214 231 255
214 231 255
214 231 255
214 231 255
214 231 255
214 231 255
214 231 255
214 231 255
214 231 255
214 231 255
214 231 255
214 231 255
214 231 255
214 231 255
214 231 255
214 231 255
214 231 255
214 231 255
214 231 255
214 231 255
214 231 255
214 231 255
214 231 255
214 231 255
214 231 255
214 231 255
214 231 255
214 231 255
214 231 255
214 231 255
214 231 255
214 231 255
214 231 255
214 231 255
214 231 255
214 231 255
214 231 255
214 231 255
214 231 255
214 232 255
214 232 255
214 232 255
214 232 255
214 232 255
214 232 255
214 232 255
214 232 255
214 232 255
214 232 255
214 232 255
214 232 255
214 232 255
214 232 255
214 232 255
214 232 255
214 232 255
214 232 255
214 232 255
214 232 255
214 232 255
214 232 255
214 232 255
214 232 255
214 232 255
214 232 255
214 232 255
215 232 255
215 232 255
215 232 255
215 232 255
215 232 255
215 232 255
215 232 255
215 232 255
215 232 255
215 232 255
215 232 255
215 232 255
215 232 255
215 232 255
215 232 255
215 232 255
215 232 255
215 232 255
215 232 255
215 232 255
215 232 255
215 232 255
215 232 255
215 232 255
215 232 255
215 232 255
215 232 255
215 232 255
215 232 255
215 232 255
215 232 255
215 232 255
215 232 255
215 232 255
215 232 255
215 232 255
215 232 255
215 232 255
215 232 255
215 232 255
215 232 255
215 232 255
215 232 255
215 232 255
215 232 255
215 232 255
215 232 255
215 232 255
215 232 255
215 232 255
215 232 255
215 232 255
215 232 255
216 232 255
216 232 255
216 232 255
216 232 255
216 232 255
216 232 255
216 232 255
216 232 255
216 232 255
216 232 255
216 232 255
216 232 255
216 232 255
216 232 255
216 232 255
216 232 255
216 232 255
216 233 255
216 233 255
216 233 255
216 233 255
216 233 255
216 233 255
216 233 255
216 233 255
216 233 255
216 233 255
216 233 255
216 233 255
216 233 255
216 233 255
216 233 255
216 233 255
216 233 255
216 233 255
216 233 255
216 233 255
216 233 255
216 233 255
216 233 255
216 233 255
216 233 255
216 233 255
216 233 255
216 233 255
216 233 255
216 233 255
216 233 255
216 233 255
216 233 255
216 233 255
216 233 255
216 233 255
216 233 255
216 233 255
216 233 255
216 233 255
216 233 255
216 233 255
217 233 255
217 233 255
217 233 255
217 233 255
217 233 255
217 233 255
217 233 255
217 233 255
217 233 255
217 233 255
217 233 255
217 233 255
217 233 255
217 233 255
217 233 255
217 233 255
217 233 255
217 233 255
216 233 255
216 233 255
216 233 255
216 233 255
216 233 255
216 233 255
216 233 255
216 233 255
216 233 255
216 233 255
216 233 255
216 233 255
216 233 255
216 233 255
216 233 255
216 233 255
216 233 255
216 233 255
216 233 255
216 233 255
216 233 255
216 233 255
216 233 255
216 233 255
216 233 255
216 233 255
216 233 255
216 233 255
216 233 255
216 233 255
216 233 255
216 233 255
216 233 255
216 233 255
216 233 255
216 233 255
216 233 255
216 233 255
216 233 255
216 233 255
216 233 255
216 232 255
216 232 255
216 232 255
216 232 255
216 232 255
216 232 255
216 232 255
216 232 255
216 232 255
216 232 255
216 232 255
216 232 255
216 232 255
216 232 255
216 232 255
216 232 255
216 232 255
215 232 255
215 232 255
215 232 255
215 232 255
215 232 255
215 232 255
215 232 255
215 232 255
215 232 255
215 232 255
215 232 255
215 232 255
215 232 255
215 232 255
215 232 255
215 232 255
215 232 255
215 232 255
215 232 255
215 232 255
215 232 255
215 232 255
215 232 255
215 232 255
215 232 255
215 232 255
215 232 255
215 232 255
215 232 255
215 232 255
215 232 255
215 232 255
215 232 255
215 232 255
215 232 255
215 232 255
215 232 255
215 232 255
215 232 255
215 232 255
215 232 255
215 232 255
215 232 255
215 232 255
215 232 255
215 232 255
215 232 255
215 232 255
215 232 255
215 232 255
215 232 255
215 232 255
215 232 255
214 232 255
214 232 255
214 232 255
214 232 255
214 232 255
214 232 255
214 232 255
214 232 255
214 232 255
214 232 255
214 232 255
214 232 255
214 232 255
214 232 255
214 232 255
214 232 255
214 232 255
214 232 255
214 232 255
214 232 255
214 232 255
214 232 255
214 232 255
214 232 255
214 232 255
214 232 255
214 232 255
214 232 255
214 232 255
214 232 255
214 232 255
214 232 255
214 231 255
214 231 255
214 231 255
214 231 255
214 231 255
214 231 255
214 231 255
214 231 255
214 231 255
214 231 255
214 231 255
214 231 255
214 231 255
214 231 255
214 231 255
214 231 255
214 231 255
214 231 255
214 231 255
214 231 255
214 231 255
214 231 255
214 231 255
214 231 255
214 231 255
214 231 255
214 231 255
214 231 255
214 231 255
214 231 255
214 231 255
214 231 255
214 231 255
214 231 255
214 231 255
214 231 255
214 231 255
214 231 255
214 231 255
214 231 255
214 231 255
214 231 255
214 231 255
214 231 255
214 231 255
214 231 255
214 231 255
214 231 255
214 231 255
214 231 255
214 231 255
214 231 255
214 231 255
214 231 255
214 231 255
214 231 255
214 231 255
214 231 255
214 231 255
214 231 255
214 231 255
214 231 255
214 231 255
214 231 255
214 231 255
214 231 255
214 231 255
214 231 255
214 231 255
214 231 255
214 231 255
214 231 255
214 231 255
214 231 255
214 231 255
214 231 255
214 231 255
214 231 255
214 231 255
214 231 255
214 231 255
214 231 255
214 231 255
214 231 255
214 231 255
214 231 255
214 231 255
214 232 255
214 232 255
214 232 255
214 232 255
214 232 255
214 232 255
214 232 255
214 232 255
214 232 255
214 232 255
214 232 255
214 232 255
214 232 255
214 232 255
214 232 255
214 232 255
214 232 255
214 232 255
214 232 255
214 232 255
214 232 255
214 232 255
214 232 255
214 232 255
214 232 255
214 232 255
214 232 255
214 232 255
214 232 255
214 232 255
214 232 255
214 232 255
215 232 255
215 232 255
215 232 255
215 232 255
215 232 255
215 232 255
215 232 255
215 232 255
215 232 255
215 232 255
215 232 255
215 232 255
215 232 255
215 232 255
215 232 255
215 232 255
215 232 255
215 232 255
215 232 255
215 232 255
215 232 255
215 232 255
215 232 255
215 232 255
215 232 255
215 232 255
215 232 255
215 232 255
215 232 255
215 232 255
215 232 255
215 232 255
215 232 255
215 232 255
215 232 255
215 232 255
215 232 255
215 232 255
215 232 255
215 232 255
215 232 255
215 232 255
215 232 255
215 232 255
215 232 255
215 232 255
215 232 255
215 232 255
215 232 255
215 232 255
215 232 255
215 232 255
215 232 255
216 232 255
216 232 255
216 232 255
216 232 255
216 232 255
216 232 255
216 232 255
216 232 255
216 232 255
216 232 255
216 232 255
216 232 255
216 232 255
216 232 255
216 232 255
216 232 255
216 233 255
216 233 255
216 233 255
216 233 255
216 233 255
216 233 255
216 233 255
216 233 255
216 233 255
216 233 255
216 233 255
216 233 255
216 233 255
216 233 255
216 233 255
216 233 255
216 233 255
216 233 255
216 233 255
216 233 255
216 233 255
216 233 255
216 233 255
216 233 255
216 233 255
216 233 255
216 233 255
216 233 255
216 233 255
216 233 255
216 233 255
216 233 255
216 233 255
216 233 255
216 233 255
216 233 255
216 233 255
216 233 255
216 233 255
216 233 255
216 233 255
216 233 255
217 233 255
217 233 255
217 233 255
217 233 255
217 233 255
217 233 255
217 233 255
217 233 255
217 233 255
217 233 255
217 233 255
217 233 255
217 233 255
217 233 255
217 233 255
217 233 255
217 233 255
217 233 255
217 233 255
217 233 255
217 233 255
217 233 255
217 233 255
217 233 255
217 233 255
217 233 255
217 233 255
217 233 255
217 233 255
217 233 255
217 233 255
217 233 255
217 233 255
217 233 255
217 233 255
216 233 255
216 233 255
216 233 255
216 233 255
216 233 255
216 233 255
216 233 255
216 233 255
216 233 255
216 233 255
216 233 255
216 233 255
216 233 255
216 233 255
216 233 255
216 233 255
216 233 255
216 233 255
216 233 255
216 233 255
216 233 255
216 233 255
216 233 255
216 233 255
216 233 255
216 233 255
216 233 255
216 233 255
216 233 255
216 233 255
216 233 255
216 233 255
216 233 255
216 233 255
216 233 255
216 233 255
216 233 255
216 233 255
216 233 255
216 233 255
216 233 255
216 233 255
216 232 255
216 232 255
216 232 255
216 232 255
216 232 255
216 232 255
216 232 255
216 232 255
216 232 255
216 232 255
216 232 255
216 232 255
216 232 255
216 232 255
216 232 255
216 232 255
215 232 255
215 232 255
215 232 255
215 232 255
215 232 255
215 232 255
215 232 255
215 232 255
215 232 255
215 232 255
215 232 255
215 232 255
215 232 255
215 232 255
215 232 255
215 232 255
215 232 255
215 232 255
215 232 255
215 232 255
215 232 255
215 232 255
215 232 255
215 232 255
215 232 255
215 232 255
215 232 255
215 232 255
215 232 255
215 232 255
215 232 255
215 232 255
215 232 255
215 232 255
215 232 255
215 232 255
215 232 255
215 232 255
215 232 255
215 232 255
215 232 255
215 232 255
215 232 255
215 232 255
215 232 255
215 232 255
215 232 255
215 232 255
215 232 255
215 232 255
215 232 255
215 232 255
215 232 255
215 232 255
215 232 255
215 232 255
214 232 255
214 232 255
214 232 255
214 232 255
214 232 255
214 232 255
214 232 255
214 232 255
214 232 255
214 232 255
214 232 255
214 232 255
214 232 255
214 232 255
214 232 255
214 232 255
214 232 255
214 232 255
214 232 255
214 232 255
214 232 255
214 232 255
214 232 255
214 232 255
214 232 255
214 232 255
214 232 255
214 232 255
214 232 255
214 232 255
214 232 255
214 232 255
214 232 255
214 232 255
214 232 255
214 231 255
214 231 255
214 231 255
214 231 255
214 231 255
214 231 255
214 231 255
214 231 255
214 231 255
214 231 255
214 231 255
214 231 255
214 231 255
214 231 255
214 231 255
214 231 255
214 231 255
214 231 255
214 231 255
214 231 255
214 231 255
214 231 255
214 231 255
214 231 255
214 231 255
214 231 255
214 231 255
214 231 255
214 231 255
214 231 255
214 231 255
214 231 255
214 231 255
214 231 255
214 231 255
214 231 255
214 231 255
214 231 255
214 231 255
214 231 255
214 231 255
214 231 255
214 231 255
214 231 255
214 231 255
214 231 255
214 231 255
214 231 255
214 231 255
214 231 255
214 231 255
214 231 255
214 231 255
214 231 255
214 231 255
214 231 255
214 232 255
214 231 255
214 232 255
214 232 255
214 232 255
214 232 255
214 232 255
214 232 255
214 232 255
214 232 255
214 232 255
214 232 255
214 232 255
214 232 255
214 232 255
214 232 255
214 232 255
214 232 255
214 232 255
214 232 255
214 232 255
214 232 255
214 232 255
214 232 255
214 232 255
214 232 255
214 232 255
214 232 255
214 232 255
214 232 255
214 232 255
214 232 255
214 232 255
214 232 255
214 232 255
214 232 255
214 232 255
214 232 255
214 232 255
215 232 255
215 232 255
215 232 255
215 232 255
215 232 255
215 232 255
215 232 255
215 232 255
215 232 255
215 232 255
215 232 255
215 232 255
215 232 255
215 232 255
215 232 255
215 232 255
215 232 255
215 232 255
215 232 255
215 232 255
215 232 255
215 232 255
215 232 255
215 232 255
215 232 255
215 232 255
215 232 255
215 232 255
215 232 255
215 232 255
215 232 255
215 232 255
215 232 255
215 232 255
215 232 255
215 232 255
215 232 255
215 232 255
215 232 255
215 232 255
215 232 255
215 232 255
215 232 255
215 232 255
215 232 255
215 232 255
215 232 255
215 232 255
215 232 255
215 232 255
215 232 255
215 232 255
215 232 255
215 232 255
215 232 255
216 232 255
216 232 255
216 232 255
216 232 255
216 232 255
216 232 255
216 232 255
216 232 255
216 232 255
216 232 255
216 232 255
216 232 255
216 232 255
216 232 255
216 232 255
216 232 255
216 232 255
216 233 255
216 233 255
216 233 255
216 233 255
216 233 255
216 233 255
216 233 255
216 233 255
216 233 255
216 233 255
216 233 255
216 233 255
216 233 255
216 233 255
216 233 255
216 233 255
216 233 255
216 233 255
216 233 255
216 233 255
216 233 255
216 233 255
216 233 255
216 233 255
216 233 255
216 233 255
216 233 255
216 233 255
216 233 255
216 233 255
216 233 255
216 233 255
216 233 255
216 233 255
216 233 255
216 233 255
216 233 255
216 233 255
216 233 255
216 233 255
216 233 255
217 233 255
217 233 255
217 233 255
217 233 255
217 233 255
217 233 255
217 233 255
217 233 255
217 233 255
217 233 255
217 233 255
217 233 255
217 233 255
217 233 255
217 233 255
217 233 255
217 233 255
217 233 255
217 233 255
217 233 255
217 233 255
217 233 255
217 233 255
217 233 255
217 233 255
217 233 255
217 233 255
217 233 255
217 233 255
217 233 255
217 233 255
217 233 255
217 233 255
217 233 255
217 233 255
217 233 255
217 233 255
217 233 255
217 233 255
217 233 255
217 233 255
217 233 255
217 233 255
217 233 255
217 233 255
217 233 255
217 233 255
217 233 255
217 233 255
217 233 255
217 233 255
217 233 255
216 233 255
216 233 255
216 233 255
216 233 255
216 233 255
216 233 255
216 233 255
216 233 255
216 233 255
216 233 255
216 233 255
216 233 255
216 233 255
216 233 255
216 233 255
216 233 255
216 233 255
216 233 255
216 233 255
216 233 255
216 233 255
216 233 255
216 233 255
216 233 255
216 233 255
216 233 255
216 233 255
216 233 255
216 233 255
216 233 255
216 233 255
216 233 255
216 233 255
216 233 255
216 233 255
216 233 255
216 233 255
216 233 255
216 233 255
216 233 255
216 233 255
216 232 255
216 232 255
216 232 255
216 232 255
216 232 255
216 232 255
216 232 255
216 232 255
216 232 255
216 232 255
216 232 255
216 232 255
216 232 255
216 232 255
216 232 255
216 232 255
216 232 255
215 232 255
215 232 255
215 232 255
215 232 255
215 232 255
215 232 255
215 232 255
215 232 255
215 232 255
215 232 255
215 232 255
215 232 255
215 232 255
215 232 255
215 232 255
215 232 255
215 232 255
215 232 255
215 232 255
215 232 255
215 232 255
215 232 255
215 232 255
215 232 255
215 232 255
215 232 255
215 232 255
215 232 255
215 232 255
215 232 255
215 232 255
215 232 255
215 232 255
215 232 255
215 232 255
215 232 255
215 232 255
215 232 255
215 232 255
215 232 255
215 232 255
215 232 255
215 232 255
215 232 255
215 232 255
215 232 255
215 232 255
215 232 255
215 232 255
215 232 255
215 232 255
215 232 255
215 232 255
215 232 255
215 232 255
215 232 255
215 232 255
215 232 255
214 232 255
214 232 255
214 232 255
214 232 255
214 232 255
214 232 255
214 232 255
214 232 255
214 232 255
214 232 255
214 232 255
214 232 255
214 232 255
214 232 255
214 232 255
214 232 255
214 232 255
214 232 255
214 232 255
214 232 255
214 232 255
214 232 255
214 232 255
214 232 255
214 232 255
214 232 255
214 232 255
214 232 255
214 232 255
214 232 255
214 232 255
214 232 255
214 232 255
214 232 255
214 232 255
214 232 255
214 232 255
214 232 255
214 232 255
214 232 255
214 232 255
214 232 255
214 232 255
214 232 255
214 232 255
214 232 255
214 232 255
214 232 255
214 232 255
214 232 255
214 232 255
214 232 255
214 232 255
214 232 255
214 232 255
214 232 255
214 232 255
214 232 255
214 232 255
214 232 255
214 232 255
214 232 255
214 232 255
214 232 255
214 232 255
214 232 255
214 232 255
214 232 255
214 232 255
214 232 255
214 232 255
214 232 255
214 232 255
214 232 255
214 232 255
214 232 255
214 232 255
214 232 255
214 232 255
214 232 255
214 232 255
214 232 255
214 232 255
214 232 255
214 232 255
214 232 255
214 232 255
214 232 255
214 232 255
214 232 255
214 232 255
214 232 255
214 232 255
214 232 255
214 232 255
214 232 255
214 232 255
214 232 255
214 232 255
214 232 255
214 232 255
214 232 255
214 232 255
214 232 255
214 232 255
214 232 255
214 232 255
215 232 255
215 232 255
215 232 255
215 232 255
215 232 255
215 232 255
215 232 255
215 232 255
215 232 255
215 232 255
215 232 255
215 232 255
215 232 255
215 232 255
215 232 255
215 232 255
215 232 255
215 232 255
215 232 255
215 232 255
215 232 255
215 232 255
215 232 255
215 232 255
215 232 255
215 232 255
215 232 255
215 232 255
215 232 255
215 232 255
215 232 255
215 232 255
215 232 255
215 232 255
215 232 255
215 232 255
215 232 255
215 232 255
215 232 255
215 232 255
215 232 255
215 232 255
215 232 255
215 232 255
215 232 255
215 232 255
215 232 255
215 232 255
215 232 255
215 232 255
215 232 255
215 232 255
215 232 255
215 232 255
215 232 255
215 232 255
215 232 255
215 232 255
216 232 255
216 232 255
216 232 255
216 232 255
216 232 255
216 232 255
216 232 255
216 232 255
216 232 255
216 232 255
216 232 255
216 232 255
216 232 255
216 232 255
216 232 255
216 232 255
216 232 255
216 232 255
216 233 255
216 233 255
216 233 255
216 233 255
216 233 255
216 233 255
216 233 255
216 233 255
216 233 255
216 233 255
216 233 255
216 233 255
216 233 255
216 233 255
216 233 255
216 233 255
216 233 255
216 233 255
216 233 255
216 233 255
216 233 255
216 233 255
216 233 255
216 233 255
216 233 255
216 233 255
216 233 255
216 233 255
216 233 255
216 233 255
216 233 255
216 233 255
216 233 255
216 233 255
216 233 255
216 233 255
216 233 255
216 233 255
216 233 255
216 233 255
217 233 255
217 233 255
217 233 255
217 233 255
217 233 255
217 233 255
217 233 255
217 233 255
217 233 255
217 233 255
217 233 255
217 233 255
217 233 255
217 233 255
217 233 255
217 233 255
217 233 255
217 233 255
217 233 255
217 233 255
217 233 255
217 233 255
217 233 255
217 233 255
217 233 255
217 233 255
217 233 255
217 233 255
217 233 255
217 233 255
217 233 255
217 233 255
217 233 255
217 233 255
217 233 255
217 233 255
217 233 255
217 233 255
217 233 255
217 233 255
217 233 255
217 233 255
217 233 255
217 233 255
217 233 255
217 233 255
217 233 255
217 233 255
217 233 255
217 233 255
217 233 255
217 233 255
217 233 255
217 233 255
217 233 255
217 233 255
217 233 255
217 233 255
217 233 255
217 233 255
217 233 255
217 233 255
217 233 255
217 233 255
217 233 255
217 233 255
217 233 255
217 233 255
217 233 255
216 233 255
216 233 255
216 233 255
216 233 255
216 233 255
216 233 255
216 233 255
216 233 255
216 233 255
216 233 255
216 233 255
216 233 255
216 233 255
216 233 255
216 233 255
216 233 255
216 233 255
216 233 255
216 233 255
216 233 255
216 233 255
216 233 255
216 233 255
216 233 255
216 233 255
216 233 255
216 233 255
216 233 255
216 233 255
216 233 255
216 233 255
216 233 255
216 233 255
216 233 255
216 233 255
216 233 255
216 233 255
216 233 255
216 233 255
216 233 255
216 232 255
216 232 255
216 232 255
216 232 255
216 232 255
216 232 255
216 232 255
216 232 255
216 232 255
216 232 255
216 232 255
216 232 255
216 232 255
216 232 255
216 232 255
216 232 255
216 232 255
216 232 255
215 232 255
215 232 255
215 232 255
215 232 255
215 232 255
215 232 255
215 232 255
215 232 255
215 232 255
215 232 255
215 232 255
215 232 255
215 232 255
215 232 255
215 232 255
215 232 255
215 232 255
215 232 255
215 232 255
215 232 255
215 232 255
215 232 255
215 232 255
215 232 255
215 232 255
215 232 255
215 232 255
215 232 255
215 232 255
215 232 255
215 232 255
215 232 255
215 232 255
215 232 255
215 232 255
215 232 255
215 232 255
215 232 255
215 232 255
215 232 255
215 232 255
215 232 255
215 232 255
215 232 255
215 232 255
215 232 255
215 232 255
215 232 255
215 232 255
215 232 255
215 232 255
215 232 255
215 232 255
215 232 255
215 232 255
215 232 255
215 232 255
215 232 255
215 232 255
215 232 255
215 232 255
215 232 255
215 232 255
214 232 255
214 232 255
214 232 255
214 232 255
214 232 255
214 232 255
214 232 255
214 232 255
214 232 255
214 232 255
214 232 255
214 232 255
214 232 255
214 232 255
214 232 255
214 232 255
214 232 255
214 232 255
214 232 255
214 232 255
214 232 255
214 232 255
214 232 255
214 232 255
214 232 255
214 232 255
214 232 255
214 232 255
214 232 255
214 232 255
214 232 255
214 232 255
214 232 255
214 232 255
214 232 255
214 232 255
214 232 255
214 232 255
214 232 255
214 232 255
214 232 255
214 232 255
214 232 255
214 232 255
214 232 255
214 232 255
214 232 255
214 232 255
214 232 255
214 232 255
214 232 255
214 232 255
214 232 255
214 232 255
214 232 255
214 232 255
214 232 255
214 232 255
214 232 255
214 232 255
214 232 255
214 232 255
214 232 255
214 232 255
214 232 255
214 232 255
214 232 255
214 232 255
214 232 255
214 232 255
214 232 255
214 232 255
214 232 255
214 232 255
214 232 255
214 232 255
214 232 255
214 232 255
214 232 255
214 232 255
215 232 255
215 232 255
215 232 255
215 232 255
215 232 255
215 232 255
215 232 255
215 232 255
215 232 255
215 232 255
215 232 255
215 232 255
215 232 255
215 232 255
215 232 255
215 232 255
215 232 255
215 232 255
215 232 255
215 232 255
215 232 255
215 232 255
215 232 255
215 232 255
215 232 255
215 232 255
215 232 255
215 232 255
215 232 255
215 232 255
215 232 255
215 232 255
215 232 255
215 232 255
215 232 255
215 232 255
215 232 255
215 232 255
215 232 255
215 232 255
215 232 255
215 232 255
215 232 255
215 232 255
215 232 255
215 232 255
215 232 255
215 232 255
215 232 255
215 232 255
215 232 255
215 232 255
215 232 255
215 232 255
215 232 255
215 232 255
215 232 255
215 232 255
215 232 255
215 232 255
215 232 255
215 232 255
215 232 255
215 232 255
216 232 255
216 232 255
216 232 255
216 232 255
216 232 255
216 232 255
216 232 255
216 232 255
216 232 255
216 232 255
216 232 255
216 232 255
216 232 255
216 232 255
216 232 255
216 232 255
216 232 255
216 232 255
216 233 255
216 233 255
216 233 255
216 233 255
216 233 255
216 233 255
216 233 255
216 233 255
216 233 255
216 233 255
216 233 255
216 233 255
216 233 255
216 233 255
216 233 255
216 233 255
216 233 255
216 233 255
216 233 255
216 233 255
216 233 255
216 233 255
216 233 255
216 233 255
216 233 255
216 233 255
216 233 255
216 233 255
216 233 255
216 233 255
216 233 255
216 233 255
216 233 255
216 233 255
216 233 255
216 233 255
216 233 255
216 233 255
216 233 255
216 233 255
217 233 255
217 233 255
217 233 255
217 233 255
217 233 255
217 233 255
217 233 255
217 233 255
217 233 255
217 233 255
217 233 255
217 233 255
217 233 255
217 233 255
217 233 255
217 233 255
217 233 255
217 233 255
217 233 255
217 233 255
217 233 255
217 233 255
217 233 255
217 233 255
217 233 255
217 233 255
217 233 255
217 233 255
217 233 255
217 233 255
217 233 255
217 233 255
217 233 255
217 233 255
217 233 255
217 233 255
217 233 255
217 233 255
217 233 255
217 233 255
217 233 255
217 233 255
217 233 255
217 233 255
217 233 255
217 233 255
217 233 255
217 233 255
217 233 255
217 233 255
217 233 255
217 233 255
217 233 255
217 233 255
217 233 255
217 233 255
217 233 255
217 233 255
217 233 255
217 233 255
217 233 255
217 233 255
217 233 255
217 233 255
217 233 255
217 233 255
217 233 255
217 233 255
217 233 255
217 233 255
217 233 255
217 233 255
217 233 255
217 233 255
217 233 255
217 233 255
217 233 255
217 233 255
217 233 255
217 233 255
217 233 255
217 233 255
217 233 255
217 233 255
217 233 255
217 233 255
216 233 255
216 233 255
216 233 255
216 233 255
216 233 255
216 233 255
216 233 255
216 233 255
216 233 255
216 233 255
216 233 255
216 233 255
216 233 255
216 233 255
216 233 255
216 233 255
216 233 255
216 233 255
216 233 255
216 233 255
216 233 255
216 233 255
216 233 255
216 233 255
216 233 255
216 233 255
216 233 255
216 233 255
216 233 255
216 233 255
216 233 255
216 233 255
216 233 255
216 233 255
216 233 255
216 233 255
216 233 255
216 233 255
216 233 255
216 233 255
216 232 255
216 232 255
216 232 255
216 232 255
216 232 255
216 232 255
216 232 255
216 232 255
216 232 255
216 232 255
216 232 255
216 232 255
216 232 255
216 232 255
216 232 255
216 232 255
216 232 255
216 232 255
216 232 255
215 232 255
215 232 255
215 232 255
215 232 255
215 232 255
215 232 255
215 232 255
215 232 255
215 232 255
215 232 255
215 232 255
215 232 255
215 232 255
215 232 255
215 232 255
215 232 255
215 232 255
215 232 255
215 232 255
215 232 255
215 232 255
215 232 255
215 232 255
215 232 255
215 232 255
215 232 255
215 232 255
215 232 255
215 232 255
215 232 255
215 232 255
215 232 255
215 232 255
215 232 255
215 232 255
215 232 255
215 232 255
215 232 255
215 232 255
215 232 255
215 232 255
215 232 255
215 232 255
215 232 255
215 232 255
215 232 255
215 232 255
215 232 255
215 232 255
215 232 255
215 232 255
215 232 255
215 232 255
215 232 255
215 232 255
215 232 255
215 232 255
215 232 255
215 232 255
215 232 255
215 232 255
215 232 255
215 232 255
215 232 255
215 232 255
215 232 255
215 232 255
215 232 255
215 232 255
215 232 255
215 232 255
215 232 255
215 232 255
215 232 255
215 232 255
215 232 255
215 232 255
214 232 255
214 232 255
214 232 255
214 232 255
214 232 255
214 232 255
214 232 255
214 232 255
214 232 255
214 232 255
214 232 255
214 232 255
214 232 255
214 232 255
214 232 255
214 232 255
214 232 255
214 232 255
214 232 255
214 232 255
214 232 255
214 232 255
214 232 255
214 232 255
214 232 255
214 232 255
214 232 255
214 232 255
214 232 255
214 232 255
214 232 255
214 232 255
214 232 255
214 232 255
214 232 255
215 232 255
215 232 255
215 232 255
215 232 255
215 232 255
215 232 255
215 232 255
215 232 255
215 232 255
215 232 255
215 232 255
215 232 255
215 232 255
215 232 255
215 232 255
215 232 255
215 232 255
215 232 255
215 232 255
215 232 255
215 232 255
215 232 255
215 232 255
215 232 255
215 232 255
215 232 255
215 232 255
215 232 255
215 232 255
215 232 255
215 232 255
215 232 255
215 232 255
215 232 255
215 232 255
215 232 255
215 232 255
215 232 255
215 232 255
215 232 255
215 232 255
215 232 255
215 232 255
215 232 255
215 232 255
215 232 255
215 232 255
215 232 255
215 232 255
215 232 255
215 232 255
215 232 255
215 232 255
215 232 255
215 232 255
215 232 255
215 232 255
215 232 255
215 232 255
215 232 255
215 232 255
215 232 255
215 232 255
215 232 255
215 232 255
215 232 255
215 232 255
215 232 255
215 232 255
215 232 255
215 232 255
215 232 255
215 232 255
215 232 255
215 232 255
215 232 255
216 232 255
216 232 255
216 232 255
216 232 255
216 232 255
216 232 255
216 232 255
216 232 255
216 232 255
216 232 255
216 232 255
216 232 255
216 232 255
216 232 255
216 232 255
216 232 255
216 232 255
216 233 255
216 233 255
216 233 255
216 233 255
216 233 255
216 233 255
216 233 255
216 233 255
216 233 255
216 233 255
216 233 255
216 233 255
216 233 255
216 233 255
216 233 255
216 233 255
216 233 255
216 233 255
216 233 255
216 233 255
216 233 255
216 233 255
216 233 255
216 233 255
216 233 255
216 233 255
216 233 255
216 233 255
216 233 255
216 233 255
216 233 255
216 233 255
216 233 255
216 233 255
216 233 255
216 233 255
216 233 255
216 233 255
216 233 255
216 233 255
216 233 255
217 233 255
217 233 255
217 233 255
217 233 255
217 233 255
217 233 255
217 233 255
217 233 255
217 233 255
217 233 255
217 233 255
217 233 255
217 233 255
217 233 255
217 233 255
217 233 255
217 233 255
217 233 255
217 233 255
217 233 255
217 233 255
217 233 255
217 233 255
217 233 255
217 233 255
217 233 255
217 233 255
217 233 255
217 233 255
217 233 255
217 233 255
217 233 255
217 233 255
217 233 255
217 233 255
217 233 255
217 233 255
217 233 255
217 233 255
217 233 255
217 233 255
217 233 255
217 233 255
217 233 255
217 233 255
217 233 255
217 233 255
217 233 255
217 233 255
217 233 255
217 233 255
217 233 255
217 233 255
217 233 255
217 233 255
217 233 255
217 233 255
217 233 255
217 233 255
217 233 255
217 233 255
217 233 255
217 233 255
217 233 255
217 233 255
217 233 255
217 233 255
217 233 255
217 233 255
217 233 255
217 233 255
217 233 255
217 233 255
217 233 255
217 233 255
217 233 255
217 233 255
217 233 255
217 233 255
217 233 255
217 233 255
217 233 255
217 233 255
217 233 255
217 233 255
217 233 255
217 233 255
217 233 255
217 233 255
217 233 255
217 233 255
217 233 255
217 233 255
217 233 255
217 233 255
217 233 255
217 233 255
217 233 255
217 233 255
217 233 255
217 233 255
217 233 255
217 233 255
217 233 255
216 233 255
216 233 255
216 233 255
216 233 255
216 233 255
216 233 255
216 233 255
216 233 255
216 233 255
216 233 255
216 233 255
216 233 255
216 233 255
216 233 255
216 233 255
216 233 255
216 233 255
216 233 255
216 233 255
216 233 255
216 233 255
216 233 255
216 233 255
216 233 255
216 233 255
216 233 255
216 233 255
216 233 255
216 233 255
216 233 255
216 233 255
216 233 255
216 233 255
216 233 255
216 233 255
216 233 255
216 233 255
216 233 255
216 233 255
216 233 255
216 233 255
216 233 255
216 232 255
216 232 255
216 232 255
216 232 255
216 232 255
216 232 255
216 232 255
216 232 255
216 232 255
216 232 255
216 232 255
216 232 255
216 232 255
216 232 255
216 232 255
216 232 255
216 232 255
215 232 255
215 232 255
215 232 255
215 232 255
215 232 255
215 232 255
215 232 255
215 232 255
215 232 255
215 232 255
215 232 255
215 232 255
215 232 255
215 232 255
215 232 255
215 232 255
215 232 255
215 232 255
215 232 255
215 232 255
215 232 255
215 232 255
215 232 255
215 232 255
215 232 255
215 232 255
215 232 255
215 232 255
215 232 255
215 232 255
215 232 255
215 232 255
215 232 255
215 232 255
215 232 255
215 232 255
215 232 255
215 232 255
215 232 255
215 232 255
215 232 255
215 232 255
215 232 255
215 232 255
215 232 255
215 232 255
215 232 255
215 232 255
215 232 255
215 232 255
215 232 255
215 232 255
215 232 255
215 232 255
215 232 255
215 232 255
215 232 255
215 232 255
215 232 255
215 232 255
215 232 255
215 232 255
215 232 255
215 232 255
215 232 255
215 232 255
215 232 255
215 232 255
215 232 255
215 232 255
215 232 255
215 232 255
215 232 255
215 232 255
215 232 255
215 232 255
215 232 255
215 232 255
215 232 255
215 232 255
215 232 255
215 232 255
215 232 255
215 232 255
215 232 255
215 232 255
215 232 255
215 232 255
215 232 255
215 232 255
215 232 255
215 232 255
215 232 255
215 232 255
215 232 255
215 232 255
215 232 255
215 232 255
215 232 255
215 232 255
215 232 255
215 232 255
215 232 255
215 232 255
215 232 255
215 232 255
215 232 255
215 232 255
215 232 255
215 232 255
215 232 255
215 232 255
215 232 255
215 232 255
215 232 255
215 232 255
215 232 255
215 232 255
215 232 255
215 232 255
215 232 255
215 232 255
215 232 255
215 232 255
215 232 255
215 232 255
215 232 255
215 232 255
215 232 255
215 232 255
215 232 255
215 232 255
215 232 255
215 232 255
215 232 255
215 232 255
215 232 255
215 232 255
215 232 255
215 232 255
215 232 255
215 232 255
215 232 255
215 232 255
215 232 255
215 232 255
215 232 255
215 232 255
215 232 255
215 232 255
215 232 255
215 232 255
215 232 255
215 232 255
215 232 255
215 232 255
215 232 255
215 232 255
215 232 255
215 232 255
215 232 255
215 232 255
215 232 255
215 232 255
215 232 255
215 232 255
215 232 255
215 232 255
215 232 255
216 232 255
216 232 255
216 232 255
216 232 255
216 232 255
216 232 255
216 232 255
216 232 255
216 232 255
216 232 255
216 232 255
216 232 255
216 232 255
216 232 255
216 232 255
216 232 255
216 232 255
216 233 255
216 233 255
216 233 255
216 233 255
216 233 255
216 233 255
216 233 255
216 233 255
216 233 255
216 233 255
216 233 255
216 233 255
216 233 255
216 233 255
216 233 255
216 233 255
216 233 255
216 233 255
216 233 255
216 233 255
216 233 255
216 233 255
216 233 255
216 233 255
216 233 255
216 233 255
216 233 255
216 233 255
216 233 255
216 233 255
216 233 255
216 233 255
216 233 255
216 233 255
216 233 255
216 233 255
216 233 255
216 233 255
216 233 255
216 233 255
216 233 255
216 233 255
217 233 255
217 233 255
217 233 255
217 233 255
217 233 255
217 233 255
217 233 255
217 233 255
217 233 255
217 233 255
217 233 255
217 233 255
217 233 255
217 233 255
217 233 255
217 233 255
217 233 255
217 233 255
217 233 255
217 233 255
217 233 255
217 233 255
217 233 255
217 233 255
217 233 255
217 233 255
217 233 255
217 233 255
217 233 255
217 233 255
217 233 255
217 233 255
217 233 255
217 233 255
217 233 255
217 233 255
217 233 255
217 233 255
217 233 255
217 233 255
217 233 255
217 233 255
217 233 255
217 233 255
217 233 255
217 233 255
217 233 255
217 233 255
217 233 255
217 233 255
217 233 255
217 233 255
217 233 255
217 233 255
217 233 255
217 233 255
217 233 255
217 233 255
217 233 255
217 233 255
217 233 255
217 233 255
217 233 255
217 233 255
217 233 255
217 233 255
217 233 255
217 233 255
217 233 255
217 233 255
217 233 255
217 233 255
217 233 255
217 233 255
217 233 255
217 233 255
217 233 255
217 233 255
217 233 255
217 233 255
217 233 255
217 233 255
217 233 255
217 233 255
217 233 255
217 233 255
217 233 255
217 233 255
217 233 255
217 233 255
217 233 255
217 233 255
217 233 255
217 233 255
217 233 255
217 233 255
217 233 255
217 233 255
217 233 255
217 233 255
217 233 255
217 233 255
217 233 255
217 233 255
217 233 255
217 233 255
217 233 255
217 233 255
217 233 255
217 233 255
217 233 255
217 233 255
217 233 255
217 233 255
217 233 255
217 233 255
217 233 255
217 233 255
217 233 255
217 233 255
217 233 255
217 233 255
217 233 255
216 233 255
216 233 255
216 233 255
216 233 255
216 233 255
216 233 255
216 233 255
216 233 255
216 233 255
216 233 255
216 233 255
216 233 255
216 233 255
216 233 255
216 233 255
216 233 255
216 233 255
216 233 255
216 233 255
216 233 255
216 233 255
216 233 255
216 233 255
216 233 255
216 233 255
216 233 255
216 233 255
216 233 255
216 233 255
216 233 255
216 233 255
216 233 255
216 233 255
216 233 255
216 233 255
216 233 255
216 233 255
216 233 255
216 233 255
216 233 255
216 233 255
216 232 255
216 232 255
216 232 255
216 232 255
216 232 255
216 232 255
216 232 255
216 232 255
216 232 255
216 232 255
216 232 255
216 232 255
216 232 255
216 232 255
216 232 255
216 232 255
216 232 255
216 232 255
216 232 255
216 232 255
215 232 255
215 232 255
215 232 255
215 232 255
215 232 255
215 232 255
215 232 255
215 232 255
215 232 255
215 232 255
215 232 255
215 232 255
215 232 255
215 232 255
215 232 255
215 232 255
215 232 255
215 232 255
215 232 255
215 232 255
215 232 255
215 232 255
215 232 255
215 232 255
215 232 255
215 232 255
215 232 255
215 232 255
215 232 255
215 232 255
215 232 255
215 232 255
215 232 255
215 232 255
215 232 255
215 232 255
215 232 255
215 232 255
215 232 255
215 232 255
215 232 255
215 232 255
215 232 255
215 232 255
215 232 255
215 232 255
215 232 255
215 232 255
215 232 255
215 232 255
215 232 255
215 232 255
215 232 255
215 232 255
215 232 255
215 232 255
215 232 255
215 232 255
215 232 255
215 232 255
215 232 255
215 232 255
215 232 255
215 232 255
215 232 255
215 232 255
215 232 255
215 232 255
215 232 255
215 232 255
215 232 255
215 232 255
215 232 255
215 232 255
215 232 255
215 232 255
215 232 255
215 232 255
215 232 255
215 232 255
215 232 255
215 232 255
215 232 255
215 232 255
215 232 255
215 232 255
215 232 255
215 232 255
215 232 255
215 232 255
215 232 255
215 232 255
215 232 255
215 232 255
215 232 255
215 232 255
215 232 255
215 232 255
215 232 255
215 232 255
215 232 255
215 232 255
215 232 255
215 232 255
215 232 255
215 232 255
215 232 255
215 232 255
215 232 255
215 232 255
215 232 255
215 232 255
215 232 255
215 232 255
215 232 255
215 232 255
215 232 255
215 232 255
215 232 255
215 232 255
215 232 255
215 232 255
215 232 255
215 232 255
215 232 255
215 232 255
215 232 255
215 232 255
215 232 255
215 232 255
215 232 255
215 232 255
215 232 255
215 232 255
215 232 255
215 232 255
215 232 255
215 232 255
215 232 255
215 232 255
215 232 255
215 232 255
215 232 255
215 232 255
215 232 255
216 232 255
216 232 255
216 232 255
216 232 255
216 232 255
216 232 255
216 232 255
216 232 255
216 232 255
216 232 255
216 232 255
216 232 255
216 232 255
216 232 255
216 232 255
216 232 255
216 232 255
216 232 255
216 232 255
216 232 255
216 233 255
216 233 255
216 233 255
216 233 255
216 233 255
216 233 255
216 233 255
216 233 255
216 233 255
216 233 255
216 233 255
216 233 255
216 233 255
216 233 255
216 233 255
216 233 255
216 233 255
216 233 255
216 233 255
216 233 255
216 233 255
216 233 255
216 233 255
216 233 255
216 233 255
216 233 255
216 233 255
216 233 255
216 233 255
216 233 255
216 233 255
216 233 255
216 233 255
216 233 255
216 233 255
216 233 255
216 233 255
216 233 255
216 233 255
216 233 255
216 233 255
216 233 255
217 233 255
217 233 255
217 233 255
217 233 255
217 233 255
217 233 255
217 233 255
217 233 255
217 233 255
217 233 255
217 233 255
217 233 255
217 233 255
217 233 255
217 233 255
217 233 255
217 233 255
217 233 255
217 233 255
217 233 255
217 233 255
217 233 255
217 233 255
217 233 255
217 233 255
217 233 255
217 233 255
217 233 255
217 233 255
217 233 255
217 233 255
217 233 255
217 233 255
217 233 255
217 233 255
217 233 255
217 233 255
217 233 255
217 233 255
217 233 255
217 233 255
217 233 255
217 233 255
217 233 255
217 233 255
217 233 255
217 233 255
217 233 255
217 233 255
217 233 255
217 233 255
217 233 255
217 233 255
217 233 255
217 233 255
217 233 255
217 233 255
217 233 255
217 233 255
217 233 255
217 233 255
217 233 255
217 233 255
217 233 255
217 233 255
217 233 255
218 233 255
218 233 255
218 233 255
218 233 255
217 233 255
217 233 255
217 233 255
217 233 255
217 233 255
217 233 255
217 233 255
217 233 255
217 233 255
217 233 255
217 233 255
217 233 255
217 233 255
217 233 255
217 233 255
217 233 255
217 233 255
217 233 255
217 233 255
217 233 255
217 233 255
217 233 255
217 233 255
217 233 255
217 233 255
217 233 255
217 233 255
217 233 255
217 233 255
217 233 255
217 233 255
217 233 255
217 233 255
217 233 255
217 233 255
217 233 255
217 233 255
217 233 255
217 233 255
217 233 255
217 233 255
217 233 255
217 233 255
217 233 255
217 233 255
217 233 255
217 233 255
217 233 255
217 233 255
217 233 255
217 233 255
217 233 255
217 233 255
217 233 255
217 233 255
217 233 255
217 233 255
217 233 255
217 233 255
217 233 255
217 233 255
217 233 255
217 233 255
217 233 255
217 233 255
217 233 255
217 233 255
217 233 255
217 233 255
217 233 255
217 233 255
216 233 255
216 233 255
216 233 255
216 233 255
216 233 255
216 233 255
216 233 255
216 233 255
216 233 255
216 233 255
216 233 255
216 233 255
216 233 255
216 233 255
216 233 255
216 233 255
216 233 255
216 233 255
216 233 255
216 233 255
216 233 255
216 233 255
216 233 255
216 233 255
216 233 255
216 233 255
216 233 255
216 233 255
216 233 255
216 233 255
216 233 255
216 233 255
216 233 255
216 233 255
216 233 255
216 233 255
216 233 255
216 233 255
216 233 255
216 233 255
216 233 255
216 233 255
216 233 255
216 232 255
216 232 255
216 232 255
216 232 255
216 232 255
216 232 255
216 232 255
216 232 255
216 232 255
216 232 255
216 232 255
216 232 255
216 232 255
216 232 255
216 232 255
216 232 255
216 232 255
216 232 255
216 232 255
216 232 255
216 232 255
215 232 255
215 232 255
215 232 255
215 232 255
215 232 255
215 232 255
215 232 255
215 232 255
215 232 255
215 232 255
215 232 255
215 232 255
215 232 255
215 232 255
215 232 255
215 232 255
215 232 255
215 232 255
215 232 255
215 232 255
215 232 255
215 232 255
215 232 255
215 232 255
215 232 255
215 232 255
215 232 255
215 232 255
215 232 255
215 232 255
215 232 255
215 232 255
215 232 255
215 232 255
215 232 255
215 232 255
215 232 255
215 232 255
215 232 255
215 232 255
215 232 255
215 232 255
215 232 255
215 232 255
215 232 255
215 232 255
215 232 255
215 232 255
215 232 255
215 232 255
215 232 255
215 232 255
215 232 255
215 232 255
215 232 255
215 232 255
215 232 255
215 232 255
215 232 255
215 232 255
215 232 255
215 232 255
215 232 255
215 232 255
215 232 255
215 232 255
215 232 255
215 232 255
215 232 255
215 232 255
215 232 255
215 232 255
215 232 255
215 232 255
215 232 255
215 232 255
215 232 255
215 232 255
215 232 255
215 232 255
215 232 255
215 232 255
215 232 255
215 232 255
215 232 255
215 232 255
215 232 255
215 232 255
215 232 255
215 232 255
215 232 255
215 232 255
215 232 255
215 232 255
215 232 255
215 232 255
215 232 255
215 232 255
215 232 255
215 232 255
215 232 255
215 232 255
215 232 255
215 232 255
215 232 255
215 232 255
215 232 255
215 232 255
215 232 255
215 232 255
215 232 255
215 232 255
215 232 255
215 232 255
215 232 255
215 232 255
215 232 255
215 232 255
215 232 255
215 232 255
215 232 255
215 232 255
215 232 255
216 232 255
216 232 255
216 232 255
216 232 255
216 232 255
216 232 255
216 232 255
216 232 255
216 232 255
216 232 255
216 232 255
216 232 255
216 232 255
216 232 255
216 232 255
216 232 255
216 232 255
216 232 255
216 232 255
216 232 255
216 233 255
216 233 255
216 233 255
216 233 255
216 233 255
216 233 255
216 233 255
216 233 255
216 233 255
216 233 255
216 233 255
216 233 255
216 233 255
216 233 255
216 233 255
216 233 255
216 233 255
216 233 255
216 233 255
216 233 255
216 233 255
216 233 255
216 233 255
216 233 255
216 233 255
216 233 255
216 233 255
216 233 255
216 233 255
216 233 255
216 233 255
216 233 255
216 233 255
216 233 255
216 233 255
216 233 255
216 233 255
216 233 255
216 233 255
216 233 255
216 233 255
216 233 255
216 233 255
217 233 255
217 233 255
217 233 255
217 233 255
217 233 255
217 233 255
217 233 255
217 233 255
217 233 255
217 233 255
217 233 255
217 233 255
217 233 255
217 233 255
217 233 255
217 233 255
217 233 255
217 233 255
217 233 255
217 233 255
217 233 255
217 233 255
217 233 255
217 233 255
217 233 255
217 233 255
217 233 255
217 233 255
217 233 255
217 233 255
217 233 255
217 233 255
217 233 255
217 233 255
217 233 255
217 233 255
217 233 255
217 233 255
217 233 255
217 233 255
217 233 255
217 233 255
217 233 255
217 233 255
217 233 255
217 233 255
217 233 255
217 233 255
217 233 255
217 233 255
217 233 255
217 233 255
217 233 255
217 233 255
217 233 255
217 233 255
217 233 255
217 233 255
217 233 255
217 233 255
217 233 255
217 233 255
217 233 255
217 233 255
217 233 255
217 233 255
217 233 255
217 233 255
217 233 255
218 233 255
218 233 255
218 233 255
218 233 255
218 233 255
218 233 255
218 234 255
218 234 255
218 234 255
218 234 255
218 234 255
218 234 255
218 233 255
218 233 255
218 233 255
218 233 255
218 233 255
218 233 255
218 233 255
218 233 255
218 233 255
217 233 255
217 233 255
217 233 255
217 233 255
217 233 255
217 233 255
217 233 255
217 233 255
217 233 255
217 233 255
217 233 255
217 233 255
217 233 255
217 233 255
217 233 255
217 233 255
217 233 255
217 233 255
217 233 255
217 233 255
217 233 255
217 233 255
217 233 255
217 233 255
217 233 255
217 233 255
217 233 255
217 233 255
217 233 255
217 233 255
217 233 255
217 233 255
217 233 255
217 233 255
217 233 255
217 233 255
217 233 255
217 233 255
217 233 255
217 233 255
217 233 255
217 233 255
217 233 255
217 233 255
217 233 255
217 233 255
217 233 255
217 233 255
217 233 255
217 233 255
217 233 255
217 233 255
217 233 255
217 233 255
217 233 255
217 233 255
217 233 255
217 233 255
217 233 255
217 233 255
217 233 255
217 233 255
217 233 255
217 233 255
217 233 255
217 233 255
217 233 255
217 233 255
217 233 255
217 233 255
217 233 255
216 233 255
216 233 255
216 233 255
216 233 255
216 233 255
216 233 255
216 233 255
216 233 255
216 233 255
216 233 255
216 233 255
216 233 255
216 233 255
216 233 255
216 233 255
216 233 255
216 233 255
216 233 255
216 233 255
216 233 255
216 233 255
216 233 255
216 233 255
216 233 255
216 233 255
216 233 255
216 233 255
216 233 255
216 233 255
216 233 255
216 233 255
216 233 255
216 233 255
216 233 255
216 233 255
216 233 255
216 233 255
216 233 255
216 233 255
216 233 255
216 233 255
216 233 255
216 233 255
216 232 255
216 232 255
216 232 255
216 232 255
216 232 255
216 232 255
216 232 255
216 232 255
216 232 255
216 232 255
216 232 255
216 232 255
216 232 255
216 232 255
216 232 255
216 232 255
216 232 255
216 232 255
216 232 255
216 232 255
216 232 255
216 232 255
216 232 255
216 232 255
215 232 255
215 232 255
215 232 255
215 232 255
215 232 255
215 232 255
215 232 255
215 232 255
215 232 255
215 232 255
215 232 255
215 232 255
215 232 255
215 232 255
215 232 255
215 232 255
215 232 255
215 232 255
215 232 255
215 232 255
215 232 255
215 232 255
215 232 255
215 232 255
215 232 255
215 232 255
215 232 255
215 232 255
215 232 255
215 232 255
215 232 255
215 232 255
215 232 255
215 232 255
215 232 255
215 232 255
215 232 255
215 232 255
215 232 255
215 232 255
215 232 255
215 232 255
215 232 255
215 232 255
215 232 255
215 232 255
215 232 255
215 232 255
215 232 255
215 232 255
215 232 255
215 232 255
215 232 255
215 232 255
215 232 255
215 232 255
215 232 255
215 232 255
215 232 255
215 232 255
215 232 255
215 232 255
215 232 255
215 232 255
215 232 255
215 232 255
215 232 255
215 232 255
215 232 255
215 232 255
215 232 255
215 232 255
215 232 255
215 232 255
215 232 255
215 232 255
215 232 255
215 232 255
215 232 255
215 232 255
215 232 255
215 232 255
215 232 255
215 232 255
215 232 255
215 232 255
215 232 255
215 232 255
215 232 255
215 232 255
215 232 255
215 232 255
216 232 255
216 232 255
216 232 255
216 232 255
216 232 255
216 232 255
216 232 255
216 232 255
216 232 255
216 232 255
216 232 255
216 232 255
216 232 255
216 232 255
216 232 255
216 232 255
216 232 255
216 232 255
216 232 255
216 232 255
216 232 255
216 232 255
216 232 255
216 232 255
216 232 255
216 233 255
216 233 255
216 233 255
216 233 255
216 233 255
216 233 255
216 233 255
216 233 255
216 233 255
216 233 255
216 233 255
216 233 255
216 233 255
216 233 255
216 233 255
216 233 255
216 233 255
216 233 255
216 233 255
216 233 255
216 233 255
216 233 255
216 233 255
216 233 255
216 233 255
216 233 255
216 233 255
216 233 255
216 233 255
216 233 255
216 233 255
216 233 255
216 233 255
216 233 255
216 233 255
216 233 255
216 233 255
216 233 255
216 233 255
216 233 255
216 233 255
216 233 255
216 233 255
216 233 255
217 233 255
217 233 255
217 233 255
217 233 255
217 233 255
217 233 255
217 233 255
217 233 255
217 233 255
217 233 255
217 233 255
217 233 255
217 233 255
217 233 255
217 233 255
217 233 255
217 233 255
217 233 255
217 233 255
217 233 255
217 233 255
217 233 255
217 233 255
217 233 255
217 233 255
217 233 255
217 233 255
217 233 255
217 233 255
217 233 255
217 233 255
217 233 255
217 233 255
217 233 255
217 233 255
217 233 255
217 233 255
217 233 255
217 233 255
217 233 255
217 233 255
217 233 255
217 233 255
217 233 255
217 233 255
217 233 255
217 233 255
217 233 255
217 233 255
217 233 255
217 233 255
217 233 255
217 233 255
217 233 255
217 233 255
217 233 255
217 233 255
217 233 255
217 233 255
217 233 255
217 233 255
217 233 255
217 233 255
217 233 255
217 233 255
217 233 255
217 233 255
217 233 255
217 233 255
217 233 255
218 233 255
218 233 255
218 233 255
218 233 255
218 233 255
218 233 255
218 233 255
218 233 255
218 233 255
218 234 255
218 234 255
218 234 255
218 234 255
218 234 255
218 234 255
218 234 255
218 234 255
218 234 255
218 234 255
218 234 255
218 234 255
218 234 255
218 234 255
218 234 255
218 234 255
218 234 255
218 234 255
218 234 255
218 234 255
218 234 255
218 234 255
218 234 255
218 234 255
218 234 255
218 233 255
218 233 255
218 233 255
218 233 255
218 233 255
218 233 255
218 233 255
217 233 255
217 233 255
217 233 255
217 233 255
217 233 255
217 233 255
217 233 255
217 233 255
217 233 255
217 233 255
217 233 255
217 233 255
217 233 255
217 233 255
217 233 255
217 233 255
217 233 255
217 233 255
217 233 255
217 233 255
217 233 255
217 233 255
217 233 255
217 233 255
217 233 255
217 233 255
217 233 255
217 233 255
217 233 255
217 233 255
217 233 255
217 233 255
217 233 255
217 233 255
217 233 255
217 233 255
217 233 255
217 233 255
217 233 255
217 233 255
217 233 255
217 233 255
217 233 255
217 233 255
217 233 255
217 233 255
217 233 255
217 233 255
217 233 255
217 233 255
217 233 255
217 233 255
217 233 255
217 233 255
217 233 255
217 233 255
217 233 255
217 233 255
217 233 255
217 233 255
217 233 255
217 233 255
217 233 255
217 233 255
217 233 255
217 233 255
217 233 255
217 233 255
217 233 255
217 233 255
216 233 255
216 233 255
216 233 255
216 233 255
216 233 255
216 233 255
216 233 255
216 233 255
216 233 255
216 233 255
216 233 255
216 233 255
216 233 255
216 233 255
216 233 255
216 233 255
216 233 255
216 233 255
216 233 255
216 233 255
216 233 255
216 233 255
216 233 255
216 233 255
216 233 255
216 233 255
216 233 255
216 233 255
216 233 255
216 233 255
216 233 255
216 233 255
216 233 255
216 233 255
216 233 255
216 233 255
216 233 255
216 233 255
216 233 255
216 233 255
216 233 255
216 233 255
216 233 255
216 233 255
216 233 255
216 233 255
216 233 255
216 233 255
216 232 255
216 232 255
216 232 255
216 232 255
216 232 255
216 232 255
216 232 255
216 232 255
216 232 255
216 232 255
216 232 255
216 232 255
216 232 255
216 232 255
216 232 255
216 232 255
216 232 255
216 232 255
216 232 255
216 232 255
216 232 255
216 232 255
216 232 255
216 232 255
216 232 255
216 232 255
216 232 255
216 232 255
216 232 255
216 232 255
216 232 255
216 232 255
215 232 255
215 232 255
215 232 255
215 232 255
215 232 255
215 232 255
215 232 255
215 232 255
215 232 255
215 232 255
215 232 255
215 232 255
215 232 255
215 232 255
215 232 255
215 232 255
215 232 255
215 232 255
215 232 255
215 232 255
215 232 255
215 232 255
215 232 255
215 232 255
215 232 255
215 232 255
215 232 255
215 232 255
215 232 255
215 232 255
215 232 255
215 232 255
215 232 255
215 232 255
215 232 255
215 232 255
215 232 255
215 232 255
215 232 255
215 232 255
215 232 255
215 232 255
215 232 255
215 232 255
215 232 255
215 232 255
215 232 255
215 232 255
215 232 255
215 232 255
216 232 255
216 232 255
216 232 255
216 232 255
216 232 255
216 232 255
216 232 255
216 232 255
216 232 255
216 232 255
216 232 255
216 232 255
216 232 255
216 232 255
216 232 255
216 232 255
216 232 255
216 232 255
216 232 255
216 232 255
216 232 255
216 232 255
216 232 255
216 232 255
216 232 255
216 232 255
216 232 255
216 232 255
216 232 255
216 232 255
216 232 255
216 233 255
216 233 255
216 233 255
216 233 255
216 233 255
216 233 255
216 233 255
216 233 255
216 233 255
216 233 255
216 233 255
216 233 255
216 233 255
216 233 255
216 233 255
216 233 255
216 233 255
216 233 255
216 233 255
216 233 255
216 233 255
216 233 255
216 233 255
216 233 255
216 233 255
216 233 255
216 233 255
216 233 255
216 233 255
216 233 255
216 233 255
216 233 255
216 233 255
216 233 255
216 233 255
216 233 255
216 233 255
216 233 255
216 233 255
216 233 255
216 233 255
216 233 255
216 233 255
216 233 255
216 233 255
216 233 255
216 233 255
217 233 255
217 233 255
217 233 255
217 233 255
217 233 255
217 233 255
217 233 255
217 233 255
217 233 255
217 233 255
217 233 255
217 233 255
217 233 255
217 233 255
217 233 255
217 233 255
217 233 255
217 233 255
217 233 255
217 233 255
217 233 255
217 233 255
217 233 255
217 233 255
217 233 255
217 233 255
217 233 255
217 233 255
217 233 255
217 233 255
217 233 255
217 233 255
217 233 255
217 233 255
217 233 255
217 233 255
217 233 255
217 233 255
217 233 255
217 233 255
217 233 255
217 233 255
217 233 255
217 233 255
217 233 255
217 233 255
217 233 255
217 233 255
217 233 255
217 233 255
217 233 255
217 233 255
217 233 255
217 233 255
217 233 255
217 233 255
217 233 255
217 233 255
217 233 255
217 233 255
217 233 255
217 233 255
217 233 255
217 233 255
217 233 255
217 233 255
217 233 255
217 233 255
217 233 255
217 233 255
217 233 255
218 233 255
218 233 255
218 233 255
218 233 255
218 233 255
218 233 255
218 233 255
218 233 255
218 233 255
218 234 255
218 234 255
218 234 255
218 234 255
218 234 255
218 234 255
218 234 255
218 234 255
218 234 255
218 234 255
218 234 255
218 234 255
218 234 255
218 234 255
218 234 255
218 234 255
218 234 255
218 234 255
218 234 255
218 234 255
218 234 255
218 234 255
218 234 255
218 234 255
218 234 255
218 234 255
218 234 255
218 234 255
218 234 255
218 234 255
218 234 255
218 234 255
218 234 255
218 234 255
218 234 255
218 234 255
218 234 255
218 234 255
218 234 255
218 234 255
218 234 255
218 234 255
218 234 255
218 234 255
218 233 255
218 233 255
218 233 255
218 233 255
218 233 255
218 233 255
218 233 255
218 233 255
218 233 255
217 233 255
217 233 255
217 233 255
217 233 255
217 233 255
217 233 255
217 233 255
217 233 255
217 233 255
217 233 255
217 233 255
217 233 255
217 233 255
217 233 255
217 233 255
217 233 255
217 233 255
217 233 255
217 233 255
217 233 255
217 233 255
217 233 255
217 233 255
217 233 255
217 233 255
217 233 255
217 233 255
217 233 255
217 233 255
217 233 255
217 233 255
217 233 255
217 233 255
217 233 255
217 233 255
217 233 255
217 233 255
217 233 255
217 233 255
217 233 255
217 233 255
217 233 255
217 233 255
217 233 255
217 233 255
217 233 255
217 233 255
217 233 255
217 233 255
217 233 255
217 233 255
217 233 255
217 233 255
217 233 255
217 233 255
217 233 255
217 233 255
217 233 255
217 233 255
217 233 255
217 233 255
217 233 255
217 233 255
217 233 255
217 233 255
217 233 255
217 233 255
217 233 255
217 233 255
217 233 255
217 233 255
216 233 255
216 233 255
216 233 255
216 233 255
216 233 255
216 233 255
216 233 255
216 233 255
216 233 255
216 233 255
216 233 255
216 233 255
216 233 255
216 233 255
216 233 255
216 233 255
216 233 255
216 233 255
216 233 255
216 233 255
216 233 255
216 233 255
216 233 255
216 233 255
216 233 255
216 233 255
216 233 255
216 233 255
216 233 255
216 233 255
216 233 255
216 233 255
216 233 255
216 233 255
216 233 255
216 233 255
216 233 255
216 233 255
216 233 255
216 233 255
216 233 255
216 233 255
216 233 255
216 233 255
216 233 255
216 233 255
216 233 255
216 233 255
216 233 255
216 233 255
216 233 255
216 233 255
216 233 255
216 232 255
216 232 255
216 232 255
216 232 255
216 232 255
216 232 255
216 232 255
216 232 255
216 232 255
216 232 255
216 232 255
216 232 255
216 232 255
216 232 255
216 232 255
216 232 255
216 232 255
216 232 255
216 232 255
216 232 255
216 232 255
216 232 255
216 232 255
216 232 255
216 232 255
216 232 255
216 232 255
216 232 255
216 232 255
216 232 255
216 232 255
216 232 255
216 232 255
216 232 255
216 232 255
216 232 255
216 232 255
216 232 255
216 232 255
216 232 255
216 232 255
216 232 255
216 232 255
216 232 255
216 232 255
216 232 255
216 232 255
216 232 255
216 232 255
216 232 255
216 232 255
216 232 255
216 232 255
216 232 255
216 232 255
216 232 255
216 232 255
216 232 255
216 232 255
216 232 255
216 232 255
216 232 255
216 232 255
216 232 255
216 232 255
216 232 255
216 232 255
216 232 255
216 232 255
216 232 255
216 232 255
216 232 255
216 232 255
216 232 255
216 232 255
216 232 255
216 232 255
216 232 255
216 232 255
216 233 255
216 233 255
216 233 255
216 233 255
216 233 255
216 233 255
216 233 255
216 233 255
216 233 255
216 233 255
216 233 255
216 233 255
216 233 255
216 233 255
216 233 255
216 233 255
216 233 255
216 233 255
216 233 255
216 233 255
216 233 255
216 233 255
216 233 255
216 233 255
216 233 255
216 233 255
216 233 255
216 233 255
216 233 255
216 233 255
216 233 255
216 233 255
216 233 255
216 233 255
216 233 255
216 233 255
216 233 255
216 233 255
216 233 255
216 233 255
216 233 255
216 233 255
216 233 255
216 233 255
216 233 255
216 233 255
216 233 255
216 233 255
216 233 255
216 233 255
216 233 255
216 233 255
216 233 255
216 233 255
217 233 255
217 233 255
217 233 255
217 233 255
217 233 255
217 233 255
217 233 255
217 233 255
217 233 255
217 233 255
217 233 255
217 233 255
217 233 255
217 233 255
217 233 255
217 233 255
217 233 255
217 233 255
217 233 255
217 233 255
217 233 255
217 233 255
217 233 255
217 233 255
217 233 255
217 233 255
217 233 255
217 233 255
217 233 255
217 233 255
217 233 255
217 233 255
217 233 255
217 233 255
217 233 255
217 233 255
217 233 255
217 233 255
217 233 255
217 233 255
217 233 255
217 233 255
217 233 255
217 233 255
217 233 255
217 233 255
217 233 255
217 233 255
217 233 255
217 233 255
217 233 255
217 233 255
217 233 255
217 233 255
217 233 255
217 233 255
217 233 255
217 233 255
217 233 255
217 233 255
217 233 255
217 233 255
217 233 255
217 233 255
217 233 255
217 233 255
217 233 255
217 233 255
217 233 255
217 233 255
218 233 255
218 233 255
218 233 255
218 233 255
218 233 255
218 233 255
218 233 255
218 233 255
218 233 255
218 234 255
218 234 255
218 234 255
218 234 255
218 234 255
218 234 255
218 234 255
218 234 255
218 234 255
218 234 255
218 234 255
218 234 255
218 234 255
218 234 255
218 234 255
218 234 255
218 234 255
218 234 255
218 234 255
218 234 255
218 234 255
218 234 255
218 234 255
218 234 255
218 234 255
218 234 255
218 234 255
218 234 255
218 234 255
218 234 255
218 234 255
218 234 255
218 234 255
218 234 255
218 234 255
218 234 255
218 234 255
218 234 255
218 234 255
218 234 255
218 234 255
218 234 255
218 234 255
218 234 255
218 234 255
218 234 255
218 234 255
218 234 255
218 234 255
218 234 255
218 234 255
218 234 255
218 234 255
218 234 255
218 234 255
218 234 255
218 234 255
218 234 255
218 234 255
218 234 255
218 234 255
218 234 255
218 234 255
218 234 255
218 234 255
218 234 255
218 234 255
218 234 255
218 233 255
218 233 255
218 233 255
218 233 255
218 233 255
218 233 255
218 233 255
217 233 255
217 233 255
217 233 255
217 233 255
217 233 255
217 233 255
217 233 255
217 233 255
217 233 255
217 233 255
217 233 255
217 233 255
217 233 255
217 233 255
217 233 255
217 233 255
217 233 255
217 233 255
217 233 255
217 233 255
217 233 255
217 233 255
217 233 255
217 233 255
217 233 255
217 233 255
217 233 255
217 233 255
217 233 255
217 233 255
217 233 255
217 233 255
217 233 255
217 233 255
217 233 255
217 233 255
217 233 255
217 233 255
217 233 255
217 233 255
217 233 255
217 233 255
217 233 255
217 233 255
217 233 255
217 233 255
217 233 255
217 233 255
217 233 255
217 233 255
217 233 255
217 233 255
217 233 255
217 233 255
217 233 255
217 233 255
217 233 255
217 233 255
217 233 255
217 233 255
217 233 255
217 233 255
217 233 255
217 233 255
217 233 255
217 233 255
217 233 255
217 233 255
217 233 255
217 233 255
217 233 255
217 233 255
216 233 255
216 233 255
216 233 255
216 233 255
216 233 255
216 233 255
216 233 255
216 233 255
216 233 255
216 233 255
216 233 255
216 233 255
216 233 255
216 233 255
216 233 255
216 233 255
216 233 255
216 233 255
216 233 255
216 233 255
216 233 255
216 233 255
216 233 255
216 233 255
216 233 255
216 233 255
216 233 255
216 233 255
216 233 255
216 233 255
216 233 255
216 233 255
216 233 255
216 233 255
216 233 255
216 233 255
216 233 255
216 233 255
216 233 255
216 233 255
216 233 255
216 233 255
216 233 255
216 233 255
216 233 255
216 233 255
216 233 255
216 233 255
216 233 255
216 233 255
216 233 255
216 233 255
216 233 255
216 233 255
216 233 255
216 233 255
216 233 255
216 233 255
216 233 255
216 233 255
216 233 255
216 233 255
216 233 255
216 233 255
216 233 255
216 233 255
216 233 255
216 233 255
216 233 255
216 233 255
216 233 255
216 233 255
216 233 255
216 232 255
216 233 255
216 232 255
216 232 255
216 233 255
216 232 255
216 233 255
216 233 255
216 232 255
216 232 255
216 232 255
216 232 255
216 233 255
216 233 255
216 233 255
216 233 255
216 233 255
216 233 255
216 233 255
216 233 255
216 233 255
216 233 255
216 233 255
216 233 255
216 233 255
216 233 255
216 233 255
216 233 255
216 233 255
216 233 255
216 233 255
216 233 255
216 233 255
216 233 255
216 233 255
216 233 255
216 233 255
216 233 255
216 233 255
216 233 255
216 233 255
216 233 255
216 233 255
216 233 255
216 233 255
216 233 255
216 233 255
216 233 255
216 233 255
216 233 255
216 233 255
216 233 255
216 233 255
216 233 255
216 233 255
216 233 255
216 233 255
216 233 255
216 233 255
216 233 255
216 233 255
216 233 255
216 233 255
216 233 255
216 233 255
216 233 255
216 233 255
216 233 255
216 233 255
216 233 255
216 233 255
216 233 255
216 233 255
216 233 255
216 233 255
216 233 255
216 233 255
216 233 255
216 233 255
216 233 255
216 233 255
216 233 255
216 233 255
216 233 255
216 233 255
216 233 255
216 233 255
217 233 255
216 233 255
217 233 255
217 233 255
217 233 255
217 233 255
217 233 255
217 233 255
217 233 255
217 233 255
217 233 255
217 233 255
217 233 255
217 233 255
217 233 255
217 233 255
217 233 255
217 233 255
217 233 255
217 233 255
217 233 255
217 233 255
217 233 255
217 233 255
217 233 255
217 233 255
217 233 255
217 233 255
217 233 255
217 233 255
217 233 255
217 233 255
217 233 255
217 233 255
217 233 255
217 233 255
217 233 255
217 233 255
217 233 255
217 233 255
217 233 255
217 233 255
217 233 255
217 233 255
217 233 255
217 233 255
217 233 255
217 233 255
217 233 255
217 233 255
217 233 255
217 233 255
217 233 255
217 233 255
217 233 255
217 233 255
217 233 255
217 233 255
217 233 255
217 233 255
217 233 255
217 233 255
217 233 255
217 233 255
217 233 255
217 233 255
217 233 255
217 233 255
217 233 255
217 233 255
217 233 255
217 233 255
217 233 255
218 233 255
218 233 255
218 233 255
218 233 255
218 233 255
218 233 255
218 233 255
218 233 255
218 234 255
218 234 255
218 234 255
218 234 255
218 234 255
218 234 255
218 234 255
218 234 255
218 234 255
218 234 255
218 234 255
218 234 255
218 234 255
218 234 255
218 234 255
218 234 255
218 234 255
218 234 255
218 234 255
218 234 255
218 234 255
218 234 255
218 234 255
218 234 255
218 234 255
218 234 255
218 234 255
218 234 255
218 234 255
218 234 255
218 234 255
218 234 255
218 234 255
218 234 255
218 234 255
218 234 255
218 234 255
218 234 255
218 234 255
218 234 255
218 234 255
218 234 255
218 234 255
218 234 255
218 234 255
218 234 255
218 234 255
218 234 255
218 234 255
218 234 255
218 234 255
218 234 255
218 234 255
218 234 255
218 234 255
218 234 255
218 234 255
218 234 255
218 234 255
218 234 255
218 234 255
218 234 255
218 234 255
218 234 255
218 234 255
218 234 255
218 234 255
218 234 255
218 234 255
218 234 255
218 234 255
218 234 255
218 234 255
218 234 255
218 234 255
218 234 255
218 234 255
218 234 255
218 234 255
218 234 255
218 234 255
218 234 255
218 234 255
218 234 255
218 234 255
218 234 255
218 234 255
218 234 255
218 234 255
218 234 255
218 234 255
218 233 255
218 233 255
218 233 255
218 233 255
218 233 255
218 233 255
218 233 255
218 233 255
217 233 255
217 233 255
217 233 255
217 233 255
217 233 255
217 233 255
217 233 255
217 233 255
217 233 255
217 233 255
217 233 255
217 233 255
217 233 255
217 233 255
217 233 255
217 233 255
217 233 255
217 233 255
217 233 255
217 233 255
217 233 255
217 233 255
217 233 255
217 233 255
217 233 255
217 233 255
217 233 255
217 233 255
217 233 255
217 233 255
217 233 255
217 233 255
217 233 255
217 233 255
217 233 255
217 233 255
217 233 255
217 233 255
217 233 255
217 233 255
217 233 255
217 233 255
217 233 255
217 233 255
217 233 255
217 233 255
217 233 255
217 233 255
217 233 255
217 233 255
217 233 255
217 233 255
217 233 255
217 233 255
217 233 255
217 233 255
217 233 255
217 233 255
217 233 255
217 233 255
217 233 255
217 233 255
217 233 255
217 233 255
217 233 255
217 233 255
217 233 255
217 233 255
217 233 255
217 233 255
217 233 255
217 233 255
217 233 255
217 233 255
216 233 255
216 233 255
216 233 255
216 233 255
216 233 255
216 233 255
216 233 255
216 233 255
216 233 255
216 233 255
216 233 255
216 233 255
216 233 255
216 233 255
216 233 255
216 233 255
216 233 255
216 233 255
216 233 255
216 233 255
216 233 255
216 233 255
216 233 255
216 233 255
216 233 255
216 233 255
216 233 255
216 233 255
216 233 255
216 233 255
216 233 255
216 233 255
216 233 255
216 233 255
216 233 255
216 233 255
216 233 255
216 233 255
216 233 255
216 233 255
216 233 255
216 233 255
216 233 255
216 233 255
216 233 255
216 233 255
216 233 255
216 233 255
216 233 255
216 233 255
216 233 255
216 233 255
216 233 255
216 233 255
216 233 255
216 233 255
216 233 255
216 233 255
216 233 255
216 233 255
216 233 255
216 233 255
216 233 255
216 233 255
216 233 255
216 233 255
216 233 255
216 233 255
216 233 255
216 233 255
216 233 255
216 233 255
216 233 255
216 233 255
216 233 255
216 233 255
216 233 255
216 233 255
216 233 255
216 233 255
216 233 255
216 233 255
216 233 255
216 233 255
216 233 255
216 233 255
216 233 255
216 233 255
216 233 255
216 233 255
216 233 255
216 233 255
216 233 255
216 233 255
216 233 255
216 233 255
216 233 255
216 233 255
216 233 255
216 233 255
216 233 255
216 233 255
216 233 255
216 233 255
216 233 255
216 233 255
216 233 255
216 233 255
216 233 255
216 233 255
216 233 255
216 233 255
216 233 255
216 233 255
216 233 255
216 233 255
216 233 255
216 233 255
216 233 255
216 233 255
216 233 255
216 233 255
216 233 255
216 233 255
216 233 255
216 233 255
216 233 255
216 233 255
216 233 255
216 233 255
216 233 255
216 233 255
216 233 255
217 233 255
217 233 255
217 233 255
217 233 255
217 233 255
217 233 255
217 233 255
217 233 255
217 233 255
217 233 255
217 233 255
217 233 255
217 233 255
217 233 255
217 233 255
217 233 255
217 233 255
217 233 255
217 233 255
217 233 255
217 233 255
217 233 255
217 233 255
217 233 255
217 233 255
217 233 255
217 233 255
217 233 255
217 233 255
217 233 255
217 233 255
217 233 255
217 233 255
217 233 255
217 233 255
217 233 255
217 233 255
217 233 255
217 233 255
217 233 255
217 233 255
217 233 255
217 233 255
217 233 255
217 233 255
217 233 255
217 233 255
217 233 255
217 233 255
217 233 255
217 233 255
217 233 255
217 233 255
217 233 255
217 233 255
217 233 255
217 233 255
217 233 255
217 233 255
217 233 255
217 233 255
217 233 255
217 233 255
217 233 255
217 233 255
217 233 255
217 233 255
217 233 255
217 233 255
217 233 255
217 233 255
217 233 255
217 233 255
217 233 255
218 233 255
218 233 255
218 233 255
218 233 255
218 233 255
218 233 255
218 233 255
218 233 255
218 234 255
218 234 255
218 234 255
218 234 255
218 234 255
218 234 255
218 234 255
218 234 255
218 234 255
218 234 255
218 234 255
218 234 255
218 234 255
218 234 255
218 234 255
218 234 255
218 234 255
218 234 255
218 234 255
218 234 255
218 234 255
218 234 255
218 234 255
218 234 255
218 234 255
218 234 255
218 234 255
218 234 255
218 234 255
218 234 255
218 234 255
218 234 255
218 234 255
218 234 255
218 234 255
218 234 255
218 234 255
218 234 255
218 234 255
218 234 255
218 234 255
218 234 255
218 234 255
218 234 255
218 234 255
218 234 255
218 234 255
218 234 255
218 234 255
218 234 255
218 234 255
218 234 255
218 234 255
218 234 255
218 234 255
218 234 255
218 234 255
218 234 255
218 234 255
218 234 255
218 234 255
218 234 255
218 234 255
218 234 255
218 234 255
218 234 255
218 234 255
218 234 255
218 234 255
218 234 255
218 234 255
218 234 255
218 234 255
218 234 255
218 234 255
218 234 255
218 234 255
218 234 255
218 234 255
218 234 255
218 234 255
218 234 255
218 234 255
218 234 255
218 234 255
218 234 255
218 234 255
218 234 255
218 234 255
218 234 255
218 234 255
218 234 255
218 234 255
218 234 255
218 234 255
218 234 255
218 234 255
218 234 255
218 234 255
218 234 255
218 234 255
218 234 255
218 234 255
218 234 255
218 234 255
218 234 255
218 234 255
218 234 255
218 234 255
218 234 255
218 234 255
218 234 255
218 234 255
218 234 255
218 234 255
218 233 255
218 233 255
218 233 255
218 233 255
218 233 255
218 233 255
218 233 255
218 233 255
217 233 255
217 233 255
217 233 255
217 233 255
217 233 255
217 233 255
217 233 255
217 233 255
217 233 255
217 233 255
217 233 255
217 233 255
217 233 255
217 233 255
217 233 255
217 233 255
217 233 255
217 233 255
217 233 255
217 233 255
217 233 255
217 233 255
217 233 255
217 233 255
217 233 255
217 233 255
217 233 255
217 233 255
217 233 255
217 233 255
217 233 255
217 233 255
217 233 255
217 233 255
217 233 255
217 233 255
217 233 255
217 233 255
217 233 255
217 233 255
217 233 255
217 233 255
217 233 255
217 233 255
217 233 255
217 233 255
217 233 255
217 233 255
217 233 255
217 233 255
217 233 255
217 233 255
217 233 255
217 233 255
217 233 255
217 233 255
217 233 255
217 233 255
217 233 255
217 233 255
217 233 255
217 233 255
217 233 255
217 233 255
217 233 255
217 233 255
217 233 255
217 233 255
217 233 255
217 233 255
217 233 255
217 233 255
217 233 255
217 233 255
217 233 255
217 233 255
217 233 255
217 233 255
216 233 255
216 233 255
216 233 255
216 233 255
216 233 255
216 233 255
216 233 255
216 233 255
216 233 255
216 233 255
216 233 255
216 233 255
216 233 255
216 233 255
216 233 255
216 233 255
216 233 255
216 233 255
216 233 255
216 233 255
216 233 255
216 233 255
216 233 255
216 233 255
216 233 255
216 233 255
216 233 255
216 233 255
216 233 255
216 233 255
216 233 255
216 233 255
216 233 255
216 233 255
216 233 255
216 233 255
216 233 255
216 233 255
216 233 255
216 233 255
216 233 255
216 233 255
216 233 255
216 233 255
216 233 255
216 233 255
216 233 255
216 233 255
216 233 255
216 233 255
216 233 255
216 233 255
216 233 255
216 233 255
216 233 255
216 233 255
216 233 255
216 233 255
216 233 255
216 233 255
216 233 255
216 233 255
216 233 255
216 233 255
216 233 255
216 233 255
216 233 255
216 233 255
216 233 255
216 233 255
216 233 255
216 233 255
216 233 255
216 233 255
216 233 255
216 233 255
216 233 255
216 233 255
216 233 255
216 233 255
216 233 255
216 233 255
216 233 255
216 233 255
216 233 255
216 233 255
216 233 255
216 233 255
216 233 255
216 233 255
216 233 255
216 233 255
216 233 255
216 233 255
216 233 255
216 233 255
216 233 255
216 233 255
216 233 255
216 233 255
217 233 255
216 233 255
217 233 255
217 233 255
217 233 255
217 233 255
217 233 255
217 233 255
217 233 255
217 233 255
217 233 255
217 233 255
217 233 255
217 233 255
217 233 255
217 233 255
217 233 255
217 233 255
217 233 255
217 233 255
217 233 255
217 233 255
217 233 255
217 233 255
217 233 255
217 233 255
217 233 255
217 233 255
217 233 255
217 233 255
217 233 255
217 233 255
217 233 255
217 233 255
217 233 255
217 233 255
217 233 255
217 233 255
217 233 255
217 233 255
217 233 255
217 233 255
217 233 255
217 233 255
217 233 255
217 233 255
217 233 255
217 233 255
217 233 255
217 233 255
217 233 255
217 233 255
217 233 255
217 233 255
217 233 255
217 233 255
217 233 255
217 233 255
217 233 255
217 233 255
217 233 255
217 233 255
217 233 255
217 233 255
217 233 255
217 233 255
217 233 255
217 233 255
217 233 255
217 233 255
217 233 255
217 233 255
217 233 255
217 233 255
217 233 255
217 233 255
217 233 255
217 233 255
217 233 255
218 233 255
218 233 255
218 233 255
218 233 255
218 233 255
218 233 255
218 233 255
218 233 255
218 234 255
218 234 255
218 234 255
218 234 255
218 234 255
218 234 255
218 234 255
218 234 255
218 234 255
218 234 255
218 234 255
218 234 255
218 234 255
218 234 255
218 234 255
218 234 255
218 234 255
218 234 255
218 234 255
218 234 255
218 234 255
218 234 255
218 234 255
218 234 255
218 234 255
218 234 255
218 234 255
218 234 255
218 234 255
218 234 255
218 234 255
218 234 255
218 234 255
218 234 255
218 234 255
218 234 255
218 234 255
218 234 255
218 234 255
218 234 255
218 234 255
218 234 255
218 234 255
218 234 255
218 234 255
218 234 255
218 234 255
218 234 255
218 234 255
218 234 255
218 234 255
218 234 255
218 234 255
218 234 255
218 234 255
218 234 255
218 234 255
218 234 255
218 234 255
218 234 255
218 234 255
218 234 255
218 234 255
218 234 255
218 234 255
218 234 255
218 234 255
218 234 255
218 234 255
218 234 255
218 234 255
218 234 255
218 234 255
218 234 255
218 234 255
218 234 255
218 234 255
218 234 255
218 234 255
218 234 255
218 234 255
218 234 255
218 234 255
218 234 255
218 234 255
218 234 255
218 234 255
218 234 255
218 234 255
218 234 255
218 234 255
218 234 255
218 234 255
218 234 255
218 234 255
218 234 255
218 234 255
218 234 255
218 234 255
218 234 255
218 234 255
218 234 255
218 234 255
218 234 255
218 234 255
218 234 255
218 234 255
218 234 255
218 234 255
218 234 255
218 234 255
218 234 255
218 234 255
218 234 255
218 234 255
218 234 255
218 234 255
218 234 255
218 234 255
218 234 255
218 234 255
218 234 255
218 234 255
218 234 255
218 234 255
218 234 255
218 234 255
218 234 255
218 234 255
218 234 255
218 234 255
218 234 255
218 234 255
218 234 255
218 234 255
218 234 255
218 234 255
218 234 255
218 234 255
218 234 255
218 233 255
218 233 255
218 233 255
218 233 255
218 233 255
218 233 255
218 233 255
218 233 255
218 233 255
217 233 255
217 233 255
217 233 255
217 233 255
217 233 255
217 233 255
217 233 255
217 233 255
217 233 255
217 233 255
217 233 255
217 233 255
217 233 255
217 233 255
217 233 255
217 233 255
217 233 255
217 233 255
217 233 255
217 233 255
217 233 255
217 233 255
217 233 255
217 233 255
217 233 255
217 233 255
217 233 255
217 233 255
217 233 255
217 233 255
217 233 255
217 233 255
217 233 255
217 233 255
217 233 255
217 233 255
217 233 255
217 233 255
217 233 255
217 233 255
217 233 255
217 233 255
217 233 255
217 233 255
217 233 255
217 233 255
217 233 255
217 233 255
217 233 255
217 233 255
217 233 255
217 233 255
217 233 255
217 233 255
217 233 255
217 233 255
217 233 255
217 233 255
217 233 255
217 233 255
217 233 255
217 233 255
217 233 255
217 233 255
217 233 255
217 233 255
217 233 255
217 233 255
217 233 255
217 233 255
217 233 255
217 233 255
217 233 255
217 233 255
217 233 255
217 233 255
217 233 255
217 233 255
217 233 255
217 233 255
217 233 255
217 233 255
217 233 255
217 233 255
217 233 255
217 233 255
217 233 255
217 233 255
217 233 255
217 233 255
216 233 255
216 233 255
216 233 255
216 233 255
216 233 255
216 233 255
216 233 255
216 233 255
216 233 255
216 233 255
216 233 255
216 233 255
216 233 255
216 233 255
216 233 255
216 233 255
216 233 255
216 233 255
216 233 255
216 233 255
216 233 255
216 233 255
216 233 255
216 233 255
216 233 255
216 233 255
216 233 255
216 233 255
216 233 255
216 233 255
216 233 255
216 233 255
216 233 255
216 233 255
216 233 255
216 233 255
216 233 255
216 233 255
216 233 255
216 233 255
216 233 255
216 233 255
216 233 255
216 233 255
216 233 255
216 233 255
216 233 255
216 233 255
216 233 255
216 233 255
217 233 255
217 233 255
217 233 255
217 233 255
217 233 255
217 233 255
217 233 255
217 233 255
217 233 255
217 233 255
217 233 255
217 233 255
217 233 255
217 233 255
217 233 255
217 233 255
217 233 255
217 233 255
217 233 255
217 233 255
217 233 255
217 233 255
217 233 255
217 233 255
217 233 255
217 233 255
217 233 255
217 233 255
217 233 255
217 233 255
217 233 255
217 233 255
217 233 255
217 233 255
217 233 255
217 233 255
217 233 255
217 233 255
217 233 255
217 233 255
217 233 255
217 233 255
217 233 255
217 233 255
217 233 255
217 233 255
217 233 255
217 233 255
217 233 255
217 233 255
217 233 255
217 233 255
217 233 255
217 233 255
217 233 255
217 233 255
217 233 255
217 233 255
217 233 255
217 233 255
217 233 255
217 233 255
217 233 255
217 233 255
217 233 255
217 233 255
217 233 255
217 233 255
217 233 255
217 233 255
217 233 255
217 233 255
217 233 255
217 233 255
217 233 255
217 233 255
217 233 255
217 233 255
217 233 255
217 233 255
217 233 255
217 233 255
217 233 255
217 233 255
217 233 255
217 233 255
217 233 255
217 233 255
217 233 255
217 233 255
218 233 255
218 233 255
218 233 255
218 233 255
218 233 255
218 233 255
218 233 255
218 233 255
218 234 255
218 234 255
218 234 255
218 234 255
218 234 255
218 234 255
218 234 255
218 234 255
218 234 255
218 234 255
218 234 255
218 234 255
218 234 255
218 234 255
218 234 255
218 234 255
218 234 255
218 234 255
218 234 255
218 234 255
218 234 255
218 234 255
218 234 255
218 234 255
218 234 255
218 234 255
218 234 255
218 234 255
218 234 255
218 234 255
218 234 255
218 234 255
218 234 255
218 234 255
218 234 255
218 234 255
218 234 255
218 234 255
218 234 255
218 234 255
218 234 255
218 234 255
218 234 255
218 234 255
218 234 255
218 234 255
218 234 255
218 234 255
218 234 255
218 234 255
218 234 255
218 234 255
218 234 255
218 234 255
218 234 255
218 234 255
218 234 255
218 234 255
218 234 255
218 234 255
218 234 255
218 234 255
218 234 255
218 234 255
218 234 255
218 234 255
218 234 255
218 234 255
218 234 255
218 234 255
218 234 255
218 234 255
218 234 255
218 234 255
218 234 255
218 234 255
218 234 255
219 234 255
219 234 255
219 234 255
219 234 255
219 234 255
219 234 255
218 234 255
218 234 255
218 234 255
218 234 255
218 234 255
218 234 255
218 234 255
218 234 255
218 234 255
218 234 255
218 234 255
218 234 255
218 234 255
218 234 255
218 234 255
218 234 255
218 234 255
218 234 255
218 234 255
218 234 255
218 234 255
218 234 255
218 234 255
218 234 255
218 234 255
218 234 255
218 234 255
218 234 255
218 234 255
218 234 255
218 234 255
218 234 255
218 234 255
218 234 255
218 234 255
218 234 255
218 234 255
218 234 255
218 234 255
218 234 255
218 234 255
218 234 255
218 234 255
218 234 255
218 234 255
218 234 255
218 234 255
218 234 255
218 234 255
218 234 255
218 234 255
218 234 255
218 234 255
218 234 255
218 234 255
218 234 255
218 234 255
218 234 255
218 234 255
218 234 255
218 234 255
218 234 255
218 234 255
218 234 255
218 234 255
218 234 255
218 234 255
218 234 255
218 234 255
218 234 255
218 234 255
218 234 255
218 234 255
218 234 255
218 234 255
218 234 255
218 234 255
218 234 255
218 234 255
218 234 255
218 234 255
218 234 255
218 233 255
218 233 255
218 233 255
218 233 255
218 233 255
218 233 255
218 233 255
218 233 255
218 233 255
217 233 255
217 233 255
217 233 255
217 233 255
217 233 255
217 233 255
217 233 255
217 233 255
217 233 255
217 233 255
217 233 255
217 233 255
217 233 255
217 233 255
217 233 255
217 233 255
217 233 255
217 233 255
217 233 255
217 233 255
217 233 255
217 233 255
217 233 255
217 233 255
217 233 255
217 233 255
217 233 255
217 233 255
217 233 255
217 233 255
217 233 255
217 233 255
217 233 255
217 233 255
217 233 255
217 233 255
217 233 255
217 233 255
217 233 255
217 233 255
217 233 255
217 233 255
217 233 255
217 233 255
217 233 255
217 233 255
217 233 255
217 233 255
217 233 255
217 233 255
217 233 255
217 233 255
217 233 255
217 233 255
217 233 255
217 233 255
217 233 255
217 233 255
217 233 255
217 233 255
217 233 255
217 233 255
217 233 255
217 233 255
217 233 255
217 233 255
217 233 255
217 233 255
217 233 255
217 233 255
217 233 255
217 233 255
217 233 255
217 233 255
217 233 255
217 233 255
217 233 255
217 233 255
217 233 255
217 233 255
217 233 255
217 233 255
217 233 255
217 233 255
217 233 255
217 233 255
217 233 255
217 233 255
217 233 255
217 233 255
217 233 255
217 233 255
217 233 255
217 233 255
217 233 255
217 233 255
217 233 255
217 233 255
217 233 255
217 233 255
217 233 255
217 233 255
217 233 255
217 233 255
217 233 255
217 233 255
217 233 255
217 233 255
217 233 255
217 233 255
217 233 255
217 233 255
217 233 255
217 233 255
217 233 255
217 233 255
217 233 255
217 233 255
217 233 255
217 233 255
217 233 255
217 233 255
217 233 255
217 233 255
217 233 255
217 233 255
217 233 255
217 233 255
217 233 255
217 233 255
217 233 255
217 233 255
217 233 255
217 233 255
217 233 255
217 233 255
217 233 255
217 233 255
217 233 255
217 233 255
217 233 255
217 233 255
217 233 255
217 233 255
217 233 255
217 233 255
217 233 255
217 233 255
217 233 255
217 233 255
217 233 255
217 233 255
217 233 255
217 233 255
217 233 255
217 233 255
217 233 255
217 233 255
217 233 255
217 233 255
217 233 255
217 233 255
217 233 255
217 233 255
217 233 255
217 233 255
217 233 255
217 233 255
217 233 255
217 233 255
217 233 255
217 233 255
217 233 255
217 233 255
217 233 255
217 233 255
217 233 255
217 233 255
217 233 255
217 233 255
217 233 255
217 233 255
217 233 255
217 233 255
217 233 255
217 233 255
217 233 255
217 233 255
217 233 255
217 233 255
217 233 255
217 233 255
217 233 255
217 233 255
217 233 255
217 233 255
217 233 255
217 233 255
217 233 255
217 233 255
217 233 255
217 233 255
217 233 255
217 233 255
217 233 255
218 233 255
218 233 255
218 233 255
218 233 255
218 233 255
218 233 255
218 233 255
218 233 255
218 233 255
218 234 255
218 234 255
218 234 255
218 234 255
218 234 255
218 234 255
218 234 255
218 234 255
218 234 255
218 234 255
218 234 255
218 234 255
218 234 255
218 234 255
218 234 255
218 234 255
218 234 255
218 234 255
218 234 255
218 234 255
218 234 255
218 234 255
218 234 255
218 234 255
218 234 255
218 234 255
218 234 255
218 234 255
218 234 255
218 234 255
218 234 255
218 234 255
218 234 255
218 234 255
218 234 255
218 234 255
218 234 255
218 234 255
218 234 255
218 234 255
218 234 255
218 234 255
218 234 255
218 234 255
218 234 255
218 234 255
218 234 255
218 234 255
218 234 255
218 234 255
218 234 255
218 234 255
218 234 255
218 234 255
218 234 255
218 234 255
218 234 255
218 234 255
218 234 255
218 234 255
218 234 255
218 234 255
218 234 255
218 234 255
218 234 255
218 234 255
218 234 255
218 234 255
218 234 255
218 234 255
218 234 255
218 234 255
218 234 255
218 234 255
218 234 255
218 234 255
218 234 255
218 234 255
218 234 255
218 234 255
218 234 255
219 234 255
219 234 255
219 234 255
219 234 255
219 234 255
219 234 255
219 234 255
219 234 255
219 234 255
219 234 255
219 234 255
219 234 255
219 234 255
219 234 255
219 234 255
219 234 255
219 234 255
219 234 255
219 234 255
219 234 255
219 234 255
219 234 255
219 234 255
219 234 255
219 234 255
219 234 255
219 234 255
219 234 255
219 234 255
218 234 255
218 234 255
218 234 255
218 234 255
218 234 255
218 234 255
218 234 255
218 234 255
218 234 255
218 234 255
218 234 255
218 234 255
218 234 255
218 234 255
218 234 255
218 234 255
218 234 255
218 234 255
218 234 255
218 234 255
218 234 255
218 234 255
218 234 255
218 234 255
218 234 255
218 234 255
218 234 255
218 234 255
218 234 255
218 234 255
218 234 255
218 234 255
218 234 255
218 234 255
218 234 255
218 234 255
218 234 255
218 234 255
218 234 255
218 234 255
218 234 255
218 234 255
218 234 255
218 234 255
218 234 255
218 234 255
218 234 255
218 234 255
218 234 255
218 234 255
218 234 255
218 234 255
218 234 255
218 234 255
218 234 255
218 234 255
218 234 255
218 234 255
218 234 255
218 234 255
218 234 255
218 234 255
218 234 255
218 234 255
218 234 255
218 234 255
218 234 255
218 234 255
218 234 255
218 234 255
218 234 255
218 234 255
218 234 255
218 234 255
218 234 255
218 234 255
218 234 255
218 234 255
218 234 255
218 234 255
218 234 255
218 234 255
218 233 255
218 233 255
218 233 255
218 233 255
218 233 255
218 233 255
218 233 255
218 233 255
217 233 255
217 233 255
217 233 255
217 233 255
217 233 255
217 233 255
217 233 255
217 233 255
217 233 255
217 233 255
217 233 255
217 233 255
217 233 255
217 233 255
217 233 255
217 233 255
217 233 255
217 233 255
217 233 255
217 233 255
217 233 255
217 233 255
217 233 255
217 233 255
217 233 255
217 233 255
217 233 255
217 233 255
217 233 255
217 233 255
217 233 255
217 233 255
217 233 255
217 233 255
217 233 255
217 233 255
217 233 255
217 233 255
217 233 255
217 233 255
217 233 255
217 233 255
217 233 255
217 233 255
217 233 255
217 233 255
217 233 255
217 233 255
217 233 255
217 233 255
217 233 255
217 233 255
217 233 255
217 233 255
217 233 255
217 233 255
217 233 255
217 233 255
217 233 255
217 233 255
217 233 255
217 233 255
217 233 255
217 233 255
217 233 255
217 233 255
217 233 255
217 233 255
217 233 255
217 233 255
217 233 255
217 233 255
217 233 255
217 233 255
217 233 255
217 233 255
217 233 255
217 233 255
217 233 255
217 233 255
217 233 255
217 233 255
217 233 255
217 233 255
217 233 255
217 233 255
217 233 255
217 233 255
217 233 255
217 233 255
217 233 255
217 233 255
217 233 255
217 233 255
217 233 255
217 233 255
217 233 255
217 233 255
217 233 255
217 233 255
217 233 255
217 233 255
217 233 255
217 233 255
217 233 255
217 233 255
217 233 255
217 233 255
217 233 255
217 233 255
217 233 255
217 233 255
217 233 255
217 233 255
217 233 255
217 233 255
217 233 255
217 233 255
217 233 255
217 233 255
217 233 255
217 233 255
217 233 255
217 233 255
217 233 255
217 233 255
217 233 255
217 233 255
217 233 255
217 233 255
217 233 255
217 233 255
217 233 255
217 233 255
217 233 255
217 233 255
217 233 255
217 233 255
217 233 255
217 233 255
217 233 255
217 233 255
217 233 255
217 233 255
217 233 255
217 233 255
217 233 255
217 233 255
217 233 255
217 233 255
217 233 255
217 233 255
217 233 255
217 233 255
217 233 255
217 233 255
217 233 255
217 233 255
217 233 255
217 233 255
217 233 255
217 233 255
217 233 255
217 233 255
217 233 255
217 233 255
217 233 255
217 233 255
217 233 255
217 233 255
217 233 255
217 233 255
217 233 255
217 233 255
217 233 255
217 233 255
217 233 255
218 233 255
218 233 255
218 233 255
218 233 255
218 233 255
218 233 255
218 233 255
218 233 255
218 234 255
218 234 255
218 234 255
218 234 255
218 234 255
218 234 255
218 234 255
218 234 255
218 234 255
218 234 255
218 234 255
218 234 255
218 234 255
218 234 255
218 234 255
218 234 255
218 234 255
218 234 255
218 234 255
218 234 255
218 234 255
218 234 255
218 234 255
218 234 255
218 234 255
218 234 255
218 234 255
218 234 255
218 234 255
218 234 255
218 234 255
218 234 255
218 234 255
218 234 255
218 234 255
218 234 255
218 234 255
218 234 255
218 234 255
218 234 255
218 234 255
218 234 255
218 234 255
218 234 255
218 234 255
218 234 255
218 234 255
218 234 255
218 234 255
218 234 255
218 234 255
218 234 255
218 234 255
218 234 255
218 234 255
218 234 255
218 234 255
218 234 255
218 234 255
218 234 255
218 234 255
218 234 255
218 234 255
218 234 255
218 234 255
218 234 255
218 234 255
218 234 255
218 234 255
218 234 255
218 234 255
218 234 255
218 234 255
218 234 255
218 234 255
218 234 255
218 234 255
218 234 255
218 234 255
218 234 255
218 234 255
219 234 255
218 234 255
219 234 255
219 234 255
219 234 255
219 234 255
219 234 255
219 234 255
219 234 255
219 234 255
219 234 255
219 234 255
219 234 255
219 234 255
219 234 255
219 234 255
219 234 255
219 234 255
219 234 255
219 234 255
219 234 255
219 234 255
219 234 255
219 234 255
219 234 255
219 234 255
219 234 255
219 234 255
219 234 255
219 234 255
219 234 255
219 234 255
219 234 255
219 234 255
219 234 255
219 234 255
219 234 255
219 234 255
219 234 255
219 234 255
219 234 255
219 234 255
219 234 255
219 234 255
219 234 255
219 234 255
219 234 255
219 234 255
219 234 255
219 234 255
219 234 255
219 234 255
219 234 255
219 234 255
219 234 255
219 234 255
219 234 255
219 234 255
218 234 255
218 234 255
218 234 255
218 234 255
218 234 255
218 234 255
218 234 255
218 234 255
218 234 255
218 234 255
218 234 255
218 234 255
218 234 255
218 234 255
218 234 255
218 234 255
218 234 255
218 234 255
218 234 255
218 234 255
218 234 255
218 234 255
218 234 255
218 234 255
218 234 255
218 234 255
218 234 255
218 234 255
218 234 255
218 234 255
218 234 255
218 234 255
218 234 255
218 234 255
218 234 255
218 234 255
218 234 255
218 234 255
218 234 255
218 234 255
218 234 255
218 234 255
218 234 255
218 234 255
218 234 255
218 234 255
218 234 255
218 234 255
218 234 255
218 234 255
218 234 255
218 234 255
218 234 255
218 234 255
218 234 255
218 234 255
218 234 255
218 234 255
218 234 255
218 234 255
218 234 255
218 234 255
218 234 255
218 234 255
218 234 255
218 234 255
218 234 255
218 234 255
218 234 255
218 234 255
218 234 255
218 234 255
218 234 255
218 234 255
218 234 255
218 234 255
218 234 255
218 234 255
218 234 255
218 234 255
218 234 255
218 234 255
218 234 255
218 234 255
218 233 255
218 233 255
218 233 255
218 233 255
218 233 255
218 233 255
218 233 255
218 233 255
218 233 255
217 233 255
217 233 255
217 233 255
217 233 255
217 233 255
217 233 255
217 233 255
217 233 255
217 233 255
217 233 255
217 233 255
217 233 255
217 233 255
217 233 255
217 233 255
217 233 255
217 233 255
217 233 255
217 233 255
217 233 255
217 233 255
217 233 255
217 233 255
217 233 255
217 233 255
217 233 255
217 233 255
217 233 255
217 233 255
217 233 255
217 233 255
217 233 255
217 233 255
217 233 255
217 233 255
217 233 255
217 233 255
217 233 255
217 233 255
217 233 255
217 233 255
217 233 255
217 233 255
217 233 255
217 233 255
217 233 255
217 233 255
217 233 255
217 233 255
217 233 255
217 233 255
217 233 255
217 233 255
217 233 255
217 233 255
217 233 255
217 233 255
217 233 255
217 233 255
217 233 255
217 233 255
217 233 255
217 233 255
217 233 255
217 233 255
217 233 255
217 233 255
217 233 255
217 233 255
217 233 255
217 233 255
217 233 255
217 233 255
217 233 255
217 233 255
217 233 255
217 233 255
217 233 255
217 233 255
217 233 255
217 233 255
217 233 255
217 233 255
217 233 255
217 233 255
217 233 255
217 233 255
217 233 255
217 233 255
217 233 255
217 233 255
217 233 255
217 233 255
217 233 255
217 233 255
217 233 255
217 233 255
217 233 255
217 233 255
217 233 255
217 233 255
217 233 255
217 233 255
217 233 255
217 233 255
217 233 255
217 233 255
217 233 255
217 233 255
217 233 255
217 233 255
217 233 255
217 233 255
217 233 255
217 233 255
217 233 255
217 233 255
217 233 255
217 233 255
217 233 255
217 233 255
217 233 255
217 233 255
217 233 255
217 233 255
217 233 255
217 233 255
217 233 255
217 233 255
217 233 255
217 233 255
217 233 255
217 233 255
217 233 255
217 233 255
217 233 255
217 233 255
217 233 255
217 233 255
217 233 255
217 233 255
217 233 255
218 233 255
218 233 255
218 233 255
218 233 255
218 233 255
218 233 255
218 233 255
218 233 255
218 233 255
218 233 255
218 234 255
218 234 255
218 234 255
218 234 255
218 234 255
218 234 255
218 234 255
218 234 255
218 234 255
218 234 255
218 234 255
218 234 255
218 234 255
218 234 255
218 234 255
218 234 255
218 234 255
218 234 255
218 234 255
218 234 255
218 234 255
218 234 255
218 234 255
218 234 255
218 234 255
218 234 255
218 234 255
218 234 255
218 234 255
218 234 255
218 234 255
218 234 255
218 234 255
218 234 255
218 234 255
218 234 255
218 234 255
218 234 255
218 234 255
218 234 255
218 234 255
218 234 255
218 234 255
218 234 255
218 234 255
218 234 255
218 234 255
218 234 255
218 234 255
218 234 255
218 234 255
218 234 255
218 234 255
218 234 255
218 234 255
218 234 255
218 234 255
218 234 255
218 234 255
218 234 255
218 234 255
218 234 255
218 234 255
218 234 255
218 234 255
218 234 255
218 234 255
218 234 255
218 234 255
218 234 255
218 234 255
218 234 255
218 234 255
218 234 255
218 234 255
218 234 255
218 234 255
218 234 255
218 234 255
218 234 255
218 234 255
218 234 255
218 234 255
218 234 255
219 234 255
219 234 255
219 234 255
219 234 255
219 234 255
219 234 255
219 234 255
219 234 255
219 234 255
219 234 255
219 234 255
219 234 255
219 234 255
219 234 255
219 234 255
219 234 255
219 234 255
219 234 255
219 234 255
219 234 255
219 234 255
219 234 255
219 234 255
219 234 255
219 234 255
219 234 255
219 234 255
219 234 255
219 234 255
219 234 255
219 234 255
219 234 255
219 234 255
219 234 255
219 234 255
219 234 255
219 234 255
219 234 255
219 234 255
219 234 255
219 234 255
219 234 255
219 234 255
219 234 255
219 234 255
219 234 255
219 234 255
219 234 255
219 234 255
219 234 255
219 234 255
219 234 255
219 234 255
219 234 255
219 234 255
219 234 255
219 234 255
219 234 255
219 234 255
219 234 255
219 234 255
219 234 255
219 234 255
219 234 255
219 234 255
219 234 255
219 234 255
219 234 255
219 234 255
219 234 255
219 234 255
219 234 255
219 234 255
219 234 255
219 234 255
219 234 255
219 234 255
219 234 255
219 234 255
219 234 255
219 234 255
219 234 255
219 234 255
219 234 255
219 234 255
219 234 255
219 234 255
218 234 255
218 234 255
218 234 255
218 234 255
218 234 255
218 234 255
218 234 255
218 234 255
218 234 255
218 234 255
218 234 255
218 234 255
218 234 255
218 234 255
218 234 255
218 234 255
218 234 255
218 234 255
218 234 255
218 234 255
218 234 255
218 234 255
218 234 255
218 234 255
218 234 255
218 234 255
218 234 255
218 234 255
218 234 255
218 234 255
218 234 255
218 234 255
218 234 255
218 234 255
218 234 255
218 234 255
218 234 255
218 234 255
218 234 255
218 234 255
218 234 255
218 234 255
218 234 255
218 234 255
218 234 255
218 234 255
218 234 255
218 234 255
218 234 255
218 234 255
218 234 255
218 234 255
218 234 255
218 234 255
218 234 255
218 234 255
218 234 255
218 234 255
218 234 255
218 234 255
218 234 255
218 234 255
218 234 255
218 234 255
218 234 255
218 234 255
218 234 255
218 234 255
218 234 255
218 234 255
218 234 255
218 234 255
218 234 255
218 234 255
218 234 255
218 234 255
218 234 255
218 234 255
218 234 255
218 234 255
218 234 255
218 234 255
218 234 255
218 234 255
218 234 255
218 233 255
218 233 255
218 233 255
218 233 255
218 233 255
218 233 255
218 233 255
218 233 255
218 233 255
218 233 255
218 233 255
218 233 255
217 233 255
217 233 255
217 233 255
217 233 255
217 233 255
217 233 255
217 233 255
217 233 255
217 233 255
217 233 255
217 233 255
217 233 255
217 233 255
217 233 255
217 233 255
217 233 255
217 233 255
217 233 255
217 233 255
217 233 255
217 233 255
217 233 255
217 233 255
217 233 255
217 233 255
217 233 255
217 233 255
217 233 255
217 233 255
217 233 255
217 233 255
217 233 255
217 233 255
217 233 255
217 233 255
217 233 255
217 233 255
217 233 255
217 233 255
217 233 255
217 233 255
217 233 255
217 233 255
217 233 255
217 233 255
217 233 255
217 233 255
217 233 255
217 233 255
217 233 255
217 233 255
217 233 255
217 233 255
217 233 255
217 233 255
217 233 255
217 233 255
217 233 255
217 233 255
217 233 255
217 233 255
217 233 255
217 233 255
217 233 255
217 233 255
217 233 255
217 233 255
217 233 255
217 233 255
217 233 255
217 233 255
217 233 255
217 233 255
217 233 255
217 233 255
217 233 255
217 233 255
217 233 255
217 233 255
217 233 255
217 233 255
217 233 255
217 233 255
217 233 255
217 233 255
217 233 255
217 233 255
217 233 255
217 233 255
217 233 255
217 233 255
217 233 255
217 233 255
217 233 255
217 233 255
217 233 255
217 233 255
217 233 255
217 233 255
217 233 255
217 233 255
217 233 255
218 233 255
218 233 255
218 233 255
218 233 255
218 233 255
218 233 255
218 233 255
218 233 255
218 233 255
218 233 255
218 233 255
218 233 255
218 234 255
218 234 255
218 234 255
218 234 255
218 234 255
218 234 255
218 234 255
218 234 255
218 234 255
218 234 255
218 234 255
218 234 255
218 234 255
218 234 255
218 234 255
218 234 255
218 234 255
218 234 255
218 234 255
218 234 255
218 234 255
218 234 255
218 234 255
218 234 255
218 234 255
218 234 255
218 234 255
218 234 255
218 234 255
218 234 255
218 234 255
218 234 255
218 234 255
218 234 255
218 234 255
218 234 255
218 234 255
218 234 255
218 234 255
218 234 255
218 234 255
218 234 255
218 234 255
218 234 255
218 234 255
218 234 255
218 234 255
218 234 255
218 234 255
218 234 255
218 234 255
218 234 255
218 234 255
218 234 255
218 234 255
218 234 255
218 234 255
218 234 255
218 234 255
218 234 255
218 234 255
218 234 255
218 234 255
218 234 255
218 234 255
218 234 255
218 234 255
218 234 255
218 234 255
218 234 255
218 234 255
218 234 255
218 234 255
218 234 255
218 234 255
218 234 255
218 234 255
218 234 255
218 234 255
218 234 255
218 234 255
218 234 255
218 234 255
218 234 255
218 234 255
218 234 255
219 234 255
219 234 255
219 234 255
219 234 255
219 234 255
219 234 255
219 234 255
219 234 255
219 234 255
219 234 255
219 234 255
219 234 255
219 234 255
219 234 255
219 234 255
219 234 255
219 234 255
219 234 255
219 234 255
219 234 255
219 234 255
219 234 255
219 234 255
219 234 255
219 234 255
219 234 255
219 234 255
219 234 255
219 234 255
219 234 255
219 234 255
219 234 255
219 234 255
219 234 255
219 234 255
219 234 255
219 234 255
219 234 255
219 234 255
219 234 255
219 234 255
219 234 255
219 234 255
219 234 255
219 234 255
219 234 255
219 234 255
219 234 255
219 234 255
219 234 255
219 234 255
219 234 255
219 234 255
219 234 255
219 234 255
219 234 255
219 234 255
219 234 255
219 234 255
219 234 255
219 234 255
219 234 255
219 234 255
219 234 255
219 234 255
219 234 255
219 234 255
219 234 255
219 234 255
219 234 255
219 234 255
219 234 255
219 234 255
219 234 255
219 234 255
219 234 255
219 234 255
219 234 255
219 234 255
219 234 255
219 234 255
219 234 255
219 234 255
219 234 255
219 234 255
219 234 255
219 234 255
219 234 255
219 234 255
219 234 255
219 234 255
219 234 255
219 234 255
219 234 255
219 234 255
219 234 255
219 234 255
219 234 255
219 234 255
219 234 255
219 234 255
219 234 255
219 234 255
219 234 255
219 234 255
219 234 255
219 234 255
219 234 255
219 234 255
219 234 255
219 234 255
219 234 255
219 234 255
219 234 255
219 234 255
219 234 255
219 234 255
218 234 255
218 234 255
218 234 255
218 234 255
218 234 255
218 234 255
218 234 255
218 234 255
218 234 255
218 234 255
218 234 255
218 234 255
218 234 255
218 234 255
218 234 255
218 234 255
218 234 255
218 234 255
218 234 255
218 234 255
218 234 255
218 234 255
218 234 255
218 234 255
218 234 255
218 234 255
218 234 255
218 234 255
218 234 255
218 234 255
218 234 255
218 234 255
218 234 255
218 234 255
218 234 255
218 234 255
218 234 255
218 234 255
218 234 255
218 234 255
218 234 255
218 234 255
218 234 255
218 234 255
218 234 255
218 234 255
218 234 255
218 234 255
218 234 255
218 234 255
218 234 255
218 234 255
218 234 255
218 234 255
218 234 255
218 234 255
218 234 255
218 234 255
218 234 255
218 234 255
218 234 255
218 234 255
218 234 255
218 234 255
218 234 255
218 234 255
218 234 255
218 234 255
218 234 255
218 234 255
218 234 255
218 234 255
218 234 255
218 234 255
218 234 255
218 234 255
218 234 255
218 234 255
218 234 255
218 234 255
218 234 255
218 234 255
218 234 255
218 234 255
218 234 255
218 234 255
218 234 255
218 234 255
218 234 255
218 234 255
218 234 255
218 234 255
218 234 255
218 233 255
218 234 255
218 234 255
218 234 255
218 233 255
218 233 255
218 233 255
218 233 255
218 233 255
218 233 255
218 233 255
218 233 255
218 233 255
218 233 255
218 233 255
218 233 255
218 233 255
218 233 255
218 233 255
218 233 255
218 233 255
218 233 255
218 233 255
217 233 255
217 233 255
218 233 255
218 233 255
217 233 255
217 233 255
217 233 255
217 233 255
217 233 255
217 233 255
217 233 255
217 233 255
217 233 255
217 233 255
217 233 255
217 233 255
217 233 255
217 233 255
217 233 255
217 233 255
217 233 255
217 233 255
217 233 255
217 233 255
217 233 255
217 233 255
217 233 255
217 233 255
217 233 255
217 233 255
217 233 255
217 233 255
217 233 255
217 233 255
218 233 255
218 233 255
218 233 255
218 233 255
218 233 255
218 233 255
218 233 255
218 233 255
218 233 255
218 233 255
218 233 255
218 233 255
218 233 255
218 233 255
218 233 255
218 233 255
218 233 255
218 233 255
218 233 255
218 233 255
218 233 255
218 233 255
218 234 255
218 233 255
218 234 255
218 234 255
218 234 255
218 234 255
218 234 255
218 234 255
218 234 255
218 234 255
218 234 255
218 234 255
218 234 255
218 234 255
218 234 255
218 234 255
218 234 255
218 234 255
218 234 255
218 234 255
218 234 255
218 234 255
218 234 255
218 234 255
218 234 255
218 234 255
218 234 255
218 234 255
218 234 255
218 234 255
218 234 255
218 234 255
218 234 255
218 234 255
218 234 255
218 234 255
218 234 255
218 234 255
218 234 255
218 234 255
218 234 255
218 234 255
218 234 255
218 234 255
218 234 255
218 234 255
218 234 255
218 234 255
218 234 255
218 234 255
218 234 255
218 234 255
218 234 255
218 234 255
218 234 255
218 234 255
218 234 255
218 234 255
218 234 255
218 234 255
218 234 255
218 234 255
218 234 255
218 234 255
218 234 255
218 234 255
218 234 255
218 234 255
218 234 255
218 234 255
218 234 255
218 234 255
218 234 255
218 234 255
218 234 255
218 234 255
218 234 255
218 234 255
218 234 255
218 234 255
218 234 255
218 234 255
218 234 255
218 234 255
218 234 255
218 234 255
218 234 255
218 234 255
218 234 255
218 234 255
218 234 255
218 234 255
218 234 255
218 234 255
218 234 255
219 234 255
219 234 255
219 234 255
219 234 255
219 234 255
219 234 255
219 234 255
219 234 255
219 234 255
219 234 255
219 234 255
219 234 255
219 234 255
219 234 255
219 234 255
219 234 255
219 234 255
219 234 255
219 234 255
219 234 255
219 234 255
219 234 255
219 234 255
219 234 255
219 234 255
219 234 255
219 234 255
219 234 255
219 234 255
219 234 255
219 234 255
219 234 255
219 234 255
219 234 255
219 234 255
219 234 255
219 234 255
219 234 255
219 234 255
219 234 255
219 234 255
219 234 255
219 234 255
219 234 255
219 234 255
219 234 255
219 234 255
219 234 255
219 234 255
219 234 255
219 234 255
219 234 255
219 234 255
219 234 255
219 234 255
219 234 255
219 234 255
219 234 255
219 234 255
219 234 255
219 234 255
219 234 255
219 234 255
219 234 255
219 234 255
219 234 255
219 234 255
219 234 255
219 234 255
219 234 255
219 234 255
219 234 255
219 234 255
219 234 255
219 234 255
219 234 255
219 234 255
219 234 255
219 234 255
219 234 255
219 234 255
219 234 255
219 234 255
219 234 255
219 234 255
219 234 255
219 234 255
219 234 255
219 234 255
219 234 255
219 234 255
219 234 255
219 234 255
219 234 255
219 234 255
219 234 255
219 234 255
219 234 255
219 234 255
219 234 255
219 234 255
219 234 255
219 234 255
219 234 255
219 234 255
219 234 255
219 234 255
219 234 255
219 234 255
219 234 255
219 234 255
219 234 255
219 234 255
219 234 255
219 234 255
219 234 255
219 234 255
219 234 255
219 234 255
219 234 255
219 234 255
219 234 255
219 234 255
219 234 255
219 234 255
219 234 255
219 234 255
219 234 255
219 234 255
219 234 255
219 234 255
219 234 255
219 234 255
219 234 255
219 234 255
219 234 255
219 234 255
219 234 255
219 234 255
219 234 255
219 234 255
219 234 255
219 234 255
219 234 255
219 234 255
219 234 255
219 234 255
219 234 255
219 234 255
219 234 255
219 234 255
218 234 255
218 234 255
218 234 255
218 234 255
218 234 255
218 234 255
218 234 255
218 234 255
218 234 255
218 234 255
218 234 255
218 234 255
218 234 255
218 234 255
218 234 255
218 234 255
218 234 255
218 234 255
218 234 255
218 234 255
218 234 255
218 234 255
218 234 255
218 234 255
218 234 255
218 234 255
218 234 255
218 234 255
218 234 255
218 234 255
218 234 255
218 234 255
218 234 255
218 234 255
218 234 255
218 234 255
218 234 255
218 234 255
218 234 255
218 234 255
218 234 255
218 234 255
218 234 255
218 234 255
218 234 255
218 234 255
218 234 255
218 234 255
218 234 255
218 234 255
218 234 255
218 234 255
218 234 255
218 234 255
218 234 255
218 234 255
218 234 255
218 234 255
218 234 255
218 234 255
218 234 255
218 234 255
218 234 255
218 234 255
218 234 255
218 234 255
218 234 255
218 234 255
218 234 255
218 234 255
218 234 255
218 234 255
218 234 255
218 234 255
218 234 255
218 234 255
218 234 255
218 234 255
218 234 255
218 234 255
218 234 255
218 234 255
218 234 255
218 234 255
218 234 255
218 234 255
218 234 255
218 234 255
218 234 255
218 234 255
218 234 255
218 234 255
218 234 255
218 234 255
218 234 255
218 234 255
218 234 255
218 234 255
218 234 255
218 234 255
218 234 255
218 234 255
218 234 255
218 234 255
218 234 255
218 234 255
218 234 255
218 234 255
218 234 255
218 234 255
218 234 255
218 234 255
218 234 255
218 234 255
218 234 255
218 234 255
218 234 255
218 234 255
218 234 255
218 234 255
218 234 255
218 234 255
218 234 255
218 234 255
218 234 255
218 234 255
218 234 255
218 234 255
218 234 255
218 234 255
218 234 255
218 234 255
218 234 255
218 234 255
218 234 255
218 234 255
218 234 255
218 234 255
218 234 255
218 234 255
218 234 255
218 234 255
218 234 255
218 234 255
218 234 255
218 234 255
218 234 255
218 234 255
218 234 255
218 234 255
218 234 255
218 234 255
218 234 255
218 234 255
218 234 255
218 234 255
218 234 255
218 234 255
218 234 255
218 234 255
218 234 255
218 234 255
218 234 255
218 234 255
218 234 255
218 234 255
218 234 255
218 234 255
218 234 255
218 234 255
218 234 255
218 234 255
218 234 255
218 234 255
218 234 255
218 234 255
218 234 255
218 234 255
218 234 255
218 234 255
218 234 255
218 234 255
218 234 255
218 234 255
218 234 255
218 234 255
218 234 255
218 234 255
218 234 255
218 234 255
218 234 255
218 234 255
218 234 255
218 234 255
218 234 255
218 234 255
218 234 255
218 234 255
218 234 255
218 234 255
218 234 255
218 234 255
218 234 255
218 234 255
218 234 255
218 234 255
218 234 255
218 234 255
218 234 255
218 234 255
218 234 255
218 234 255
218 234 255
218 234 255
218 234 255
218 234 255
218 234 255
218 234 255
218 234 255
218 234 255
218 234 255
218 234 255
218 234 255
218 234 255
218 234 255
218 234 255
218 234 255
218 234 255
218 234 255
218 234 255
218 234 255
218 234 255
219 234 255
219 234 255
219 234 255
219 234 255
219 234 255
219 234 255
219 234 255
219 234 255
219 234 255
219 234 255
219 234 255
219 234 255
219 234 255
219 234 255
219 234 255
219 234 255
219 234 255
219 234 255
219 234 255
219 234 255
219 234 255
219 234 255
219 234 255
219 234 255
219 234 255
219 234 255
219 234 255
219 234 255
219 234 255
219 234 255
219 234 255
219 234 255
219 234 255
219 234 255
219 234 255
219 234 255
219 234 255
219 234 255
219 234 255
219 234 255
219 234 255
219 234 255
219 234 255
219 234 255
219 234 255
219 234 255
219 234 255
219 234 255
219 234 255
219 234 255
219 234 255
219 234 255
219 234 255
219 234 255
219 234 255
219 234 255
219 234 255
219 234 255
219 234 255
219 234 255
219 234 255
219 234 255
219 234 255
219 234 255
219 234 255
219 234 255
219 234 255
219 234 255
219 234 255
219 234 255
219 234 255
219 234 255
219 234 255
219 234 255
219 234 255
219 234 255
219 234 255
219 234 255
219 234 255
219 234 255
219 234 255
219 234 255
219 234 255
219 234 255
219 234 255
219 234 255
219 234 255
219 234 255
219 234 255
219 234 255
219 234 255
219 234 255
219 234 255
219 234 255
219 234 255
219 234 255
219 234 255
219 234 255
219 234 255
219 234 255
219 234 255
219 234 255
219 234 255
219 234 255
219 234 255
219 234 255
219 234 255
219 234 255
219 234 255
219 234 255
219 234 255
219 234 255
219 234 255
219 234 255
219 234 255
219 234 255
219 234 255
219 234 255
219 234 255
219 234 255
219 234 255
219 234 255
219 234 255
219 234 255
219 234 255
219 234 255
219 234 255
219 234 255
219 234 255
219 234 255
219 234 255
219 234 255
219 234 255
219 234 255
219 234 255
219 234 255
219 234 255
219 234 255
219 234 255
219 234 255
219 234 255
219 234 255
219 234 255
219 234 255
219 234 255
219 234 255
219 234 255
219 234 255
219 234 255
219 234 255
219 234 255
219 234 255
219 234 255
219 234 255
219 234 255
219 234 255
219 234 255
219 234 255
219 234 255
219 234 255
219 234 255
219 234 255
219 234 255
219 234 255
219 234 255
219 234 255
219 234 255
219 234 255
219 234 255
219 234 255
219 234 255
219 234 255
219 234 255
219 234 255
219 234 255
219 234 255
219 234 255
219 234 255
219 234 255
219 234 255
219 234 255
219 234 255
219 234 255
219 234 255
219 234 255
219 234 255
219 234 255
219 234 255
219 234 255
218 234 255
218 234 255
218 234 255
218 234 255
218 234 255
218 234 255
218 234 255
218 234 255
218 234 255
218 234 255
218 234 255
218 234 255
218 234 255
218 234 255
218 234 255
218 234 255
218 234 255
218 234 255
218 234 255
218 234 255
218 234 255
218 234 255
218 234 255
218 234 255
218 234 255
218 234 255
218 234 255
218 234 255
218 234 255
218 234 255
218 234 255
218 234 255
218 234 255
218 234 255
218 234 255
218 234 255
218 234 255
218 234 255
218 234 255
218 234 255
218 234 255
218 234 255
218 234 255
218 234 255
218 234 255
218 234 255
218 234 255
218 234 255
218 234 255
218 234 255
218 234 255
218 234 255
218 234 255
218 234 255
218 234 255
218 234 255
218 234 255
218 234 255
218 234 255
218 234 255
218 234 255
218 234 255
218 234 255
218 234 255
218 234 255
218 234 255
218 234 255
218 234 255
218 234 255
218 234 255
218 234 255
218 234 255
218 234 255
218 234 255
218 234 255
218 234 255
218 234 255
218 234 255
218 234 255
218 234 255
218 234 255
218 234 255
218 234 255
218 234 255
218 234 255
218 234 255
218 234 255
218 234 255
218 234 255
218 234 255
218 234 255
218 234 255
218 234 255
218 234 255
218 234 255
218 234 255
218 234 255
218 234 255
218 234 255
218 234 255
218 234 255
218 234 255
218 234 255
218 234 255
218 234 255
218 234 255
218 234 255
218 234 255
218 234 255
218 234 255
218 234 255
218 234 255
218 234 255
218 234 255
218 234 255
218 234 255
218 234 255
218 234 255
218 234 255
218 234 255
218 234 255
218 234 255
218 234 255
218 234 255
218 234 255
218 234 255
218 234 255
218 234 255
218 234 255
218 234 255
218 234 255
218 234 255
218 234 255
218 234 255
218 234 255
218 234 255
218 234 255
218 234 255
218 234 255
218 234 255
218 234 255
218 234 255
218 234 255
218 234 255
218 234 255
218 234 255
218 234 255
218 234 255
218 234 255
218 234 255
218 234 255
218 234 255
218 234 255
218 234 255
218 234 255
218 234 255
218 234 255
218 234 255
218 234 255
218 234 255
218 234 255
218 234 255
218 234 255
218 234 255
218 234 255
218 234 255
218 234 255
218 234 255
218 234 255
218 234 255
218 234 255
218 234 255
218 234 255
218 234 255
218 234 255
218 234 255
218 234 255
218 234 255
218 234 255
218 234 255
218 234 255
218 234 255
218 234 255
218 234 255
218 234 255
218 234 255
218 234 255
218 234 255
218 234 255
218 234 255
218 234 255
218 234 255
219 234 255
218 234 255
219 234 255
219 234 255
219 234 255
219 234 255
219 234 255
219 234 255
219 234 255
219 234 255
219 234 255
219 234 255
219 234 255
219 234 255
219 234 255
219 234 255
219 234 255
219 234 255
219 234 255
219 234 255
219 234 255
219 234 255
219 234 255
219 234 255
219 234 255
219 234 255
219 234 255
219 234 255
219 234 255
219 234 255
219 234 255
219 234 255
219 234 255
219 234 255
219 234 255
219 234 255
219 234 255
219 234 255
219 234 255
219 234 255
219 234 255
219 234 255
219 234 255
219 234 255
219 234 255
219 234 255
219 234 255
219 234 255
219 234 255
219 234 255
219 234 255
219 234 255
219 234 255
219 234 255
219 234 255
219 234 255
219 234 255
219 234 255
219 234 255
219 234 255
219 234 255
219 234 255
219 234 255
219 234 255
219 234 255
219 234 255
219 234 255
219 234 255
219 234 255
219 234 255
219 234 255
219 234 255
219 234 255
219 234 255
219 234 255
219 234 255
219 234 255
219 234 255
219 234 255
219 234 255
219 234 255
219 234 255
219 234 255
219 234 255
219 234 255
219 234 255
219 234 255
219 234 255
219 234 255
219 234 255
219 234 255
219 234 255
219 234 255
219 234 255
219 234 255
219 234 255
219 234 255
219 234 255
219 234 255
219 234 255
219 234 255
219 234 255
219 234 255
219 234 255
219 235 255
219 235 255
219 235 255
219 235 255
219 235 255
219 235 255
219 235 255
219 235 255
219 235 255
219 235 255
219 235 255
219 234 255
219 234 255
219 234 255
219 234 255
219 234 255
219 234 255
219 234 255
219 234 255
219 234 255
219 234 255
219 234 255
219 234 255
219 234 255
219 234 255
219 234 255
219 234 255
219 234 255
219 234 255
219 234 255
219 234 255
219 234 255
219 234 255
219 234 255
219 234 255
219 234 255
219 234 255
219 234 255
219 234 255
219 234 255
219 234 255
219 234 255
219 234 255
219 234 255
219 234 255
219 234 255
219 234 255
219 234 255
219 234 255
219 234 255
219 234 255
219 234 255
219 234 255
219 234 255
219 234 255
219 234 255
219 234 255
219 234 255
219 234 255
219 234 255
219 234 255
219 234 255
219 234 255
219 234 255
219 234 255
219 234 255
219 234 255
219 234 255
219 234 255
219 234 255
219 234 255
219 234 255
219 234 255
219 234 255
219 234 255
219 234 255
219 234 255
219 234 255
219 234 255
219 234 255
219 234 255
219 234 255
219 234 255
219 234 255
219 234 255
219 234 255
219 234 255
219 234 255
219 234 255
219 234 255
219 234 255
219 234 255
219 234 255
219 234 255
219 234 255
219 234 255
219 234 255
219 234 255
219 234 255
219 234 255
219 234 255
219 234 255
219 234 255
219 234 255
219 234 255
219 234 255
219 234 255
219 234 255
219 234 255
219 234 255
219 234 255
219 234 255
219 234 255
219 234 255
219 234 255
219 234 255
219 234 255
219 234 255
219 234 255
219 234 255
219 234 255
219 234 255
219 234 255
219 234 255
219 234 255
218 234 255
218 234 255
218 234 255
218 234 255
218 234 255
218 234 255
218 234 255
218 234 255
218 234 255
218 234 255
218 234 255
218 234 255
218 234 255
218 234 255
218 234 255
218 234 255
218 234 255
218 234 255
218 234 255
218 234 255
218 234 255
218 234 255
218 234 255
218 234 255
218 234 255
218 234 255
218 234 255
218 234 255
218 234 255
218 234 255
218 234 255
218 234 255
218 234 255
218 234 255
218 234 255
218 234 255
218 234 255
218 234 255
218 234 255
218 234 255
218 234 255
218 234 255
218 234 255
218 234 255
218 234 255
218 234 255
218 234 255
218 234 255
218 234 255
218 234 255
218 234 255
218 234 255
218 234 255
218 234 255
218 234 255
218 234 255
218 234 255
218 234 255
218 234 255
218 234 255
218 234 255
218 234 255
218 234 255
218 234 255
218 234 255
218 234 255
218 234 255
218 234 255
218 234 255
218 234 255
218 234 255
218 234 255
218 234 255
218 234 255
218 234 255
218 234 255
218 234 255
218 234 255
218 234 255
218 234 255
218 234 255
218 234 255
218 234 255
218 234 255
218 234 255
218 234 255
218 234 255
218 234 255
218 234 255
218 234 255
218 234 255
218 234 255
218 234 255
218 234 255
218 234 255
218 234 255
218 234 255
218 234 255
218 234 255
218 234 255
218 234 255
218 234 255
218 234 255
218 234 255
218 234 255
218 234 255
218 234 255
218 234 255
218 234 255
218 234 255
218 234 255
218 234 255
218 234 255
218 234 255
218 234 255
218 234 255
218 234 255
218 234 255
218 234 255
218 234 255
218 234 255
218 234 255
218 234 255
218 234 255
218 234 255
218 234 255
218 234 255
218 234 255
218 234 255
218 234 255
218 234 255
218 234 255
218 234 255
218 234 255
218 234 255
218 234 255
218 234 255
218 234 255
218 234 255
218 234 255
218 234 255
218 234 255
218 234 255
218 234 255
218 234 255
218 234 255
218 234 255
218 234 255
218 234 255
218 234 255
219 234 255
219 234 255
219 234 255
219 234 255
219 234 255
219 234 255
219 234 255
219 234 255
219 234 255
219 234 255
219 234 255
219 234 255
219 234 255
219 234 255
219 234 255
219 234 255
219 234 255
219 234 255
219 234 255
219 234 255
219 234 255
219 234 255
219 234 255
219 234 255
219 234 255
219 234 255
219 234 255
219 234 255
219 234 255
219 234 255
219 234 255
219 234 255
219 234 255
219 234 255
219 234 255
219 234 255
219 234 255
219 234 255
219 234 255
219 234 255
219 234 255
219 234 255
219 234 255
219 234 255
219 234 255
219 234 255
219 234 255
219 234 255
219 234 255
219 234 255
219 234 255
219 234 255
219 234 255
219 234 255
219 234 255
219 234 255
219 234 255
219 234 255
219 234 255
219 234 255
219 234 255
219 234 255
219 234 255
219 234 255
219 234 255
219 234 255
219 234 255
219 234 255
219 234 255
219 234 255
219 234 255
219 234 255
219 234 255
219 234 255
219 234 255
219 234 255
219 234 255
219 234 255
219 234 255
219 234 255
219 234 255
219 234 255
219 234 255
219 234 255
219 234 255
219 234 255
219 234 255
219 234 255
219 234 255
219 234 255
219 234 255
219 234 255
219 234 255
219 234 255
219 234 255
219 234 255
219 234 255
219 234 255
219 234 255
219 234 255
219 234 255
219 234 255
219 234 255
219 234 255
219 234 255
219 234 255
219 234 255
219 234 255
219 234 255
219 234 255
219 234 255
219 234 255
219 234 255
219 234 255
219 235 255
219 235 255
219 235 255
219 235 255
219 235 255
219 235 255
219 235 255
219 235 255
219 235 255
219 235 255
219 235 255
220 235 255
220 235 255
220 235 255
220 235 255
220 235 255
220 235 255
220 235 255
220 235 255
220 235 255
220 235 255
220 235 255
220 235 255
220 235 255
220 235 255
219 235 255
220 235 255
219 235 255
219 235 255
219 235 255
219 235 255
219 235 255
219 235 255
219 235 255
219 235 255
219 235 255
219 235 255
219 235 255
219 235 255
219 235 255
219 235 255
219 235 255
219 235 255
219 235 255
219 234 255
219 234 255
219 234 255
219 234 255
219 234 255
219 234 255
219 234 255
219 234 255
219 234 255
219 234 255
219 234 255
219 234 255
219 234 255
219 234 255
219 234 255
219 234 255
219 234 255
219 234 255
219 234 255
219 234 255
219 234 255
219 234 255
219 234 255
219 234 255
219 234 255
219 234 255
219 234 255
219 234 255
219 234 255
219 234 255
219 234 255
219 234 255
219 234 255
219 234 255
219 234 255
219 234 255
219 234 255
219 234 255
219 234 255
219 234 255
219 234 255
219 234 255
219 234 255
219 234 255
219 234 255
219 234 255
219 234 255
219 234 255
219 234 255
219 234 255
219 234 255
219 234 255
219 234 255
219 234 255
219 234 255
219 234 255
219 234 255
219 234 255
219 234 255
219 234 255
219 234 255
219 234 255
219 234 255
219 234 255
219 234 255
219 234 255
219 234 255
219 234 255
219 234 255
219 234 255
219 234 255
219 234 255
219 234 255
219 234 255
219 234 255
219 234 255
219 234 255
219 234 255
219 234 255
219 234 255
219 234 255
219 234 255
219 234 255
219 234 255
219 234 255
219 234 255
219 234 255
219 234 255
219 234 255
219 234 255
219 234 255
219 234 255
219 234 255
219 234 255
219 234 255
219 234 255
219 234 255
219 234 255
219 234 255
219 234 255
219 234 255
219 234 255
219 234 255
219 234 255
219 234 255
219 234 255
219 234 255
219 234 255
219 234 255
219 234 255
219 234 255
219 234 255
219 234 255
219 234 255
219 234 255
219 234 255
219 234 255
219 234 255
218 234 255
219 234 255
219 234 255
218 234 255
218 234 255
218 234 255
218 234 255
218 234 255
218 234 255
218 234 255
218 234 255
218 234 255
218 234 255
218 234 255
218 234 255
218 234 255
218 234 255
218 234 255
218 234 255
218 234 255
218 234 255
218 234 255
218 234 255
218 234 255
218 234 255
218 234 255
218 234 255
218 234 255
218 234 255
218 234 255
218 234 255
218 234 255
218 234 255
218 234 255
218 234 255
218 234 255
218 234 255
218 234 255
218 234 255
218 234 255
218 234 255
218 234 255
218 234 255
218 234 255
218 234 255
218 234 255
218 234 255
218 234 255
218 234 255
218 234 255
218 234 255
218 234 255
218 234 255
218 234 255
218 234 255
218 234 255
218 234 255
218 234 255
218 234 255
218 234 255
218 234 255
218 234 255
218 234 255
218 234 255
218 234 255
218 234 255
218 234 255
218 234 255
218 234 255
218 234 255
218 234 255
218 234 255
218 234 255
218 234 255
218 234 255
218 234 255
218 234 255
218 234 255
218 234 255
218 234 255
218 234 255
218 234 255
218 234 255
218 234 255
218 234 255
218 234 255
218 234 255
218 234 255
218 234 255
218 234 255
218 234 255
218 234 255
218 234 255
218 234 255
218 234 255
219 234 255
219 234 255
219 234 255
219 234 255
219 234 255
219 234 255
219 234 255
219 234 255
219 234 255
219 234 255
219 234 255
219 234 255
219 234 255
219 234 255
219 234 255
219 234 255
219 234 255
219 234 255
219 234 255
219 234 255
219 234 255
219 234 255
219 234 255
219 234 255
219 234 255
219 234 255
219 234 255
219 234 255
219 234 255
219 234 255
219 234 255
219 234 255
219 234 255
219 234 255
219 234 255
219 234 255
219 234 255
219 234 255
219 234 255
219 234 255
219 234 255
219 234 255
219 234 255
219 234 255
219 234 255
219 234 255
219 234 255
219 234 255
219 234 255
219 234 255
219 234 255
219 234 255
219 234 255
219 234 255
219 234 255
219 234 255
219 234 255
219 234 255
219 234 255
219 234 255
219 234 255
219 234 255
219 234 255
219 234 255
219 234 255
219 234 255
219 234 255
219 234 255
219 234 255
219 234 255
219 234 255
219 234 255
219 234 255
219 234 255
219 234 255
219 234 255
219 234 255
219 234 255
219 234 255
219 234 255
219 234 255
219 234 255
219 234 255
219 234 255
219 234 255
219 234 255
219 234 255
219 234 255
219 234 255
219 234 255
219 234 255
219 234 255
219 234 255
219 234 255
219 234 255
219 234 255
219 234 255
219 234 255
219 234 255
219 234 255
219 234 255
219 234 255
219 234 255
219 234 255
219 234 255
219 234 255
219 234 255
219 234 255
219 234 255
219 234 255
219 234 255
219 234 255
219 234 255
219 234 255
219 234 255
219 234 255
219 234 255
219 234 255
219 234 255
219 235 255
219 235 255
219 235 255
219 235 255
219 235 255
219 235 255
219 235 255
219 235 255
219 235 255
219 235 255
219 235 255
219 235 255
219 235 255
219 235 255
219 235 255
219 235 255
219 235 255
219 235 255
219 235 255
220 235 255
220 235 255
220 235 255
220 235 255
220 235 255
220 235 255
220 235 255
220 235 255
220 235 255
220 235 255
220 235 255
220 235 255
220 235 255
220 235 255
220 235 255
220 235 255
220 235 255
220 235 255
220 235 255
220 235 255
220 235 255
220 235 255
220 235 255
220 235 255
220 235 255
220 235 255
220 235 255
220 235 255
220 235 255
220 235 255
220 235 255
220 235 255
220 235 255
220 235 255
220 235 255
220 235 255
220 235 255
220 235 255
220 235 255
220 235 255
220 235 255
220 235 255
220 235 255
220 235 255
220 235 255
220 235 255
220 235 255
220 235 255
220 235 255
220 235 255
220 235 255
220 235 255
220 235 255
220 235 255
219 235 255
219 235 255
219 235 255
219 235 255
219 235 255
219 235 255
219 235 255
219 235 255
219 235 255
219 235 255
219 235 255
219 235 255
219 235 255
219 235 255
219 235 255
219 235 255
219 235 255
219 235 255
219 234 255
219 234 255
219 234 255
219 234 255
219 234 255
219 234 255
219 234 255
219 234 255
219 234 255
219 234 255
219 234 255
219 234 255
219 234 255
219 234 255
219 234 255
219 234 255
219 234 255
219 234 255
219 234 255
219 234 255
219 234 255
219 234 255
219 234 255
219 234 255
219 234 255
219 234 255
219 234 255
219 234 255
219 234 255
219 234 255
219 234 255
219 234 255
219 234 255
219 234 255
219 234 255
219 234 255
219 234 255
219 234 255
219 234 255
219 234 255
219 234 255
219 234 255
219 234 255
219 234 255
219 234 255
219 234 255
219 234 255
219 234 255
219 234 255
219 234 255
219 234 255
219 234 255
219 234 255
219 234 255
219 234 255
219 234 255
219 234 255
219 234 255
219 234 255
219 234 255
219 234 255
219 234 255
219 234 255
219 234 255
219 234 255
219 234 255
219 234 255
219 234 255
219 234 255
219 234 255
219 234 255
219 234 255
219 234 255
219 234 255
219 234 255
219 234 255
219 234 255
219 234 255
219 234 255
219 234 255
219 234 255
219 234 255
219 234 255
219 234 255
219 234 255
219 234 255
219 234 255
219 234 255
219 234 255
219 234 255
219 234 255
219 234 255
219 234 255
219 234 255
219 234 255
219 234 255
219 234 255
219 234 255
219 234 255
219 234 255
219 234 255
219 234 255
219 234 255
219 234 255
219 234 255
219 234 255
219 234 255
219 234 255
219 234 255
219 234 255
219 234 255
219 234 255
219 234 255
219 234 255
219 234 255
219 234 255
219 234 255
219 234 255
219 234 255
219 234 255
219 234 255
219 234 255
219 234 255
219 234 255
219 234 255
219 234 255
219 234 255
219 234 255
219 234 255
219 234 255
219 234 255
219 234 255
219 234 255
219 234 255
219 234 255
219 234 255
219 234 255
219 234 255
219 234 255
219 234 255
219 234 255
219 234 255
219 234 255
219 234 255
219 234 255
219 234 255
219 234 255
219 234 255
219 234 255
219 234 255
219 234 255
219 234 255
219 234 255
219 234 255
219 234 255
219 234 255
219 234 255
219 234 255
219 234 255
219 234 255
219 234 255
219 234 255
219 234 255
219 234 255
219 234 255
219 234 255
219 234 255
219 234 255
219 234 255
219 234 255
219 234 255
219 234 255
219 234 255
219 234 255
219 234 255
219 234 255
219 234 255
219 234 255
219 234 255
219 234 255
219 234 255
219 234 255
219 234 255
219 234 255
219 234 255
219 234 255
219 234 255
219 234 255
219 234 255
219 234 255
219 234 255
219 234 255
219 234 255
219 234 255
219 234 255
219 234 255
219 234 255
219 234 255
219 234 255
219 234 255
219 234 255
219 234 255
219 234 255
219 234 255
219 234 255
219 234 255
219 234 255
219 234 255
219 234 255
219 234 255
219 234 255
219 234 255
219 234 255
219 234 255
219 234 255
219 234 255
219 234 255
219 234 255
219 234 255
219 234 255
219 234 255
219 234 255
219 234 255
219 234 255
219 234 255
219 234 255
219 234 255
219 234 255
219 234 255
219 234 255
219 234 255
219 234 255
219 234 255
219 234 255
219 234 255
219 234 255
219 234 255
219 234 255
219 234 255
219 234 255
219 234 255
219 234 255
219 234 255
219 234 255
219 234 255
219 234 255
219 234 255
219 234 255
219 234 255
219 234 255
219 234 255
219 234 255
219 234 255
219 234 255
219 234 255
219 234 255
219 234 255
219 234 255
219 234 255
219 234 255
219 234 255
219 234 255
219 234 255
219 234 255
219 234 255
219 234 255
219 234 255
219 234 255
219 234 255
219 234 255
219 234 255
219 234 255
219 234 255
219 234 255
219 234 255
219 234 255
219 234 255
219 234 255
219 234 255
219 234 255
219 234 255
219 234 255
219 234 255
219 234 255
219 234 255
219 234 255
219 235 255
219 235 255
219 235 255
219 235 255
219 235 255
219 235 255
219 235 255
219 235 255
219 235 255
219 235 255
219 235 255
219 235 255
219 235 255
219 235 255
219 235 255
219 235 255
219 235 255
219 235 255
220 235 255
220 235 255
220 235 255
220 235 255
220 235 255
220 235 255
220 235 255
220 235 255
220 235 255
220 235 255
220 235 255
220 235 255
220 235 255
220 235 255
220 235 255
220 235 255
220 235 255
220 235 255
220 235 255
220 235 255
220 235 255
220 235 255
220 235 255
220 235 255
220 235 255
220 235 255
220 235 255
220 235 255
220 235 255
220 235 255
220 235 255
220 235 255
220 235 255
220 235 255
220 235 255
220 235 255
220 235 255
220 235 255
220 235 255
220 235 255
220 235 255
220 235 255
220 235 255
220 235 255
220 235 255
220 235 255
220 235 255
220 235 255
220 235 255
220 235 255
220 235 255
220 235 255
220 235 255
220 235 255
220 235 255
220 235 255
220 235 255
220 235 255
220 235 255
220 235 255
220 235 255
220 235 255
220 235 255
220 235 255
220 235 255
220 235 255
220 235 255
220 235 255
220 235 255
220 235 255
220 235 255
220 235 255
220 235 255
220 235 255
220 235 255
220 235 255
220 235 255
220 235 255
220 235 255
220 235 255
220 235 255
220 235 255
220 235 255
220 235 255
220 235 255
220 235 255
220 235 255
220 235 255
220 235 255
220 235 255
220 235 255
220 235 255
220 235 255
220 235 255
220 235 255
220 235 255
220 235 255
220 235 255
220 235 255
220 235 255
220 235 255
220 235 255
219 235 255
219 235 255
219 235 255
219 235 255
219 235 255
219 235 255
219 235 255
219 235 255
219 235 255
219 235 255
219 235 255
219 235 255
219 235 255
219 235 255
219 235 255
219 235 255
219 235 255
219 235 255
219 235 255
219 234 255
219 234 255
219 234 255
219 234 255
219 234 255
219 234 255
219 234 255
219 234 255
219 234 255
219 234 255
219 234 255
219 234 255
219 234 255
219 234 255
219 234 255
219 234 255
219 234 255
219 234 255
219 234 255
219 234 255
219 234 255
219 234 255
219 234 255
219 234 255
219 234 255
219 234 255
219 234 255
219 234 255
219 234 255
219 234 255
219 234 255
219 234 255
219 234 255
219 234 255
219 234 255
219 234 255
219 234 255
219 234 255
219 234 255
219 234 255
219 234 255
219 234 255
219 234 255
219 234 255
219 234 255
219 234 255
219 234 255
219 234 255
219 234 255
219 234 255
219 234 255
219 234 255
219 234 255
219 234 255
219 234 255
219 234 255
219 234 255
219 234 255
219 234 255
219 234 255
219 234 255
219 234 255
219 234 255
219 234 255
219 234 255
219 234 255
219 234 255
219 234 255
219 234 255
219 234 255
219 234 255
219 234 255
219 234 255
219 234 255
219 234 255
219 234 255
219 234 255
219 234 255
219 234 255
219 234 255
219 234 255
219 234 255
219 234 255
219 234 255
219 234 255
219 234 255
219 234 255
219 234 255
219 234 255
219 234 255
219 234 255
219 234 255
219 234 255
219 234 255
219 234 255
219 234 255
219 234 255
219 234 255
219 234 255
219 234 255
219 234 255
219 234 255
219 234 255
219 234 255
219 234 255
219 234 255
219 234 255
219 234 255
219 234 255
219 234 255
219 234 255
219 234 255
219 234 255
219 234 255
219 234 255
219 234 255
219 234 255
219 234 255
219 234 255
219 234 255
219 234 255
219 234 255
219 234 255
219 234 255
219 234 255
219 234 255
219 234 255
219 234 255
219 234 255
219 234 255
219 234 255
219 234 255
219 234 255
219 234 255
219 234 255
219 234 255
219 234 255
219 234 255
219 234 255
219 234 255
219 234 255
219 234 255
219 234 255
219 234 255
219 234 255
219 234 255
219 234 255
219 234 255
219 234 255
219 234 255
219 234 255
219 234 255
219 234 255
219 234 255
219 234 255
219 234 255
219 234 255
219 234 255
219 234 255
219 234 255
219 234 255
219 234 255
219 234 255
219 234 255
219 234 255
219 234 255
219 234 255
219 234 255
219 234 255
219 234 255
219 234 255
219 234 255
219 234 255
219 234 255
219 234 255
219 234 255
219 234 255
219 234 255
219 234 255
219 234 255
219 234 255
219 234 255
219 234 255
219 234 255
219 234 255
219 234 255
219 234 255
219 234 255
219 234 255
219 234 255
219 234 255
219 234 255
219 234 255
219 234 255
219 234 255
219 234 255
219 234 255
219 234 255
219 234 255
219 234 255
219 234 255
219 234 255
219 234 255
219 234 255
219 234 255
219 234 255
219 234 255
219 234 255
219 234 255
219 234 255
219 234 255
219 234 255
219 234 255
219 234 255
219 234 255
219 234 255
219 234 255
219 234 255
219 234 255
219 234 255
219 234 255
219 234 255
219 234 255
219 234 255
219 234 255
219 234 255
219 234 255
219 234 255
219 234 255
219 234 255
219 234 255
219 234 255
219 234 255
219 234 255
219 234 255
219 234 255
219 235 255
219 234 255
219 235 255
219 235 255
219 235 255
219 235 255
219 235 255
219 235 255
219 235 255
219 235 255
219 235 255
219 235 255
219 235 255
219 235 255
219 235 255
219 235 255
219 235 255
220 235 255
219 235 255
219 235 255
220 235 255
220 235 255
220 235 255
220 235 255
220 235 255
220 235 255
220 235 255
220 235 255
220 235 255
220 235 255
220 235 255
220 235 255
220 235 255
220 235 255
220 235 255
220 235 255
220 235 255
220 235 255
220 235 255
220 235 255
220 235 255
220 235 255
220 235 255
220 235 255
220 235 255
220 235 255
220 235 255
220 235 255
220 235 255
220 235 255
220 235 255
220 235 255
220 235 255
220 235 255
220 235 255
220 235 255
220 235 255
220 235 255
220 235 255
220 235 255
220 235 255
220 235 255
220 235 255
220 235 255
220 235 255
220 235 255
220 235 255
220 235 255
220 235 255
220 235 255
220 235 255
220 235 255
220 235 255
220 235 255
220 235 255
220 235 255
220 235 255
220 235 255
220 235 255
220 235 255
220 235 255
220 235 255
220 235 255
220 235 255
220 235 255
220 235 255
220 235 255
220 235 255
220 235 255
220 235 255
220 235 255
220 235 255
220 235 255
220 235 255
220 235 255
220 235 255
220 235 255
220 235 255
220 235 255
220 235 255
220 235 255
220 235 255
220 235 255
220 235 255
220 235 255
220 235 255
220 235 255
220 235 255
220 235 255
220 235 255
220 235 255
220 235 255
220 235 255
220 235 255
220 235 255
220 235 255
220 235 255
220 235 255
220 235 255
220 235 255
220 235 255
220 235 255
220 235 255
220 235 255
220 235 255
220 235 255
220 235 255
220 235 255
220 235 255
220 235 255
220 235 255
220 235 255
220 235 255
220 235 255
220 235 255
220 235 255
220 235 255
220 235 255
220 235 255
220 235 255
220 235 255
220 235 255
220 235 255
220 235 255
220 235 255
220 235 255
220 235 255
220 235 255
220 235 255
220 235 255
220 235 255
220 235 255
220 235 255
220 235 255
220 235 255
220 235 255
220 235 255
220 235 255
220 235 255
220 235 255
220 235 255
220 235 255
220 235 255
220 235 255
220 235 255
220 235 255
220 235 255
220 235 255
220 235 255
220 235 255
220 235 255
220 235 255
220 235 255
220 235 255
219 235 255
219 235 255
219 235 255
219 235 255
219 235 255
219 235 255
219 235 255
219 235 255
219 235 255
219 235 255
219 235 255
219 235 255
219 235 255
219 235 255
219 235 255
219 235 255
219 235 255
219 235 255
219 234 255
219 234 255
219 234 255
219 234 255
219 234 255
219 234 255
219 234 255
219 234 255
219 234 255
219 234 255
219 234 255
219 234 255
219 234 255
219 234 255
219 234 255
219 234 255
219 234 255
219 234 255
219 234 255
219 234 255
219 234 255
219 234 255
219 234 255
219 234 255
219 234 255
219 234 255
219 234 255
219 234 255
219 234 255
219 234 255
219 234 255
219 234 255
219 234 255
219 234 255
219 234 255
219 234 255
219 234 255
219 234 255
219 234 255
219 234 255
219 234 255
219 234 255
219 234 255
219 234 255
219 234 255
219 234 255
219 234 255
219 234 255
219 234 255
219 234 255
219 234 255
219 234 255
219 234 255
219 234 255
219 234 255
219 234 255
219 234 255
219 234 255
219 234 255
219 234 255
219 234 255
219 234 255
219 234 255
219 234 255
219 234 255
219 234 255
219 234 255
219 234 255
219 234 255
219 234 255
219 234 255
219 234 255
219 234 255
219 234 255
219 234 255
219 234 255
219 234 255
219 234 255
219 234 255
219 234 255
219 234 255
219 234 255
219 234 255
219 234 255
219 234 255
219 234 255
219 234 255
219 234 255
219 234 255
219 234 255
219 234 255
219 234 255
219 234 255
219 234 255
219 234 255
219 234 255
219 234 255
219 234 255
219 234 255
219 234 255
219 234 255
219 234 255
219 234 255
219 234 255
219 234 255
219 234 255
219 234 255
219 234 255
219 234 255
219 234 255
219 234 255
219 234 255
219 234 255
219 234 255
219 234 255
219 234 255
219 234 255
219 234 255
219 234 255
219 234 255
219 234 255
219 234 255
219 234 255
219 234 255
219 234 255
219 234 255
219 234 255
219 234 255
219 234 255
219 234 255
219 234 255
219 234 255
219 234 255
219 234 255
219 234 255
219 234 255
219 234 255
219 234 255
219 234 255
219 234 255
219 234 255
219 234 255
219 234 255
219 234 255
219 234 255
219 234 255
219 234 255
219 234 255
219 234 255
219 234 255
219 234 255
219 234 255
219 234 255
219 234 255
219 234 255
219 234 255
219 234 255
219 234 255
219 234 255
219 234 255
219 234 255
219 234 255
219 234 255
219 234 255
219 234 255
219 234 255
219 234 255
219 234 255
219 234 255
219 234 255
219 234 255
219 234 255
219 234 255
219 234 255
219 234 255
219 234 255
219 234 255
219 234 255
219 234 255
219 234 255
219 235 255
219 234 255
219 235 255
219 235 255
219 235 255
219 235 255
219 235 255
219 235 255
219 235 255
219 235 255
219 235 255
219 235 255
219 235 255
219 235 255
219 235 255
219 235 255
219 235 255
220 235 255
219 235 255
219 235 255
220 235 255
219 235 255
220 235 255
220 235 255
220 235 255
220 235 255
220 235 255
220 235 255
220 235 255
220 235 255
220 235 255
220 235 255
220 235 255
220 235 255
220 235 255
220 235 255
220 235 255
220 235 255
220 235 255
220 235 255
220 235 255
220 235 255
220 235 255
220 235 255
220 235 255
220 235 255
220 235 255
220 235 255
220 235 255
220 235 255
220 235 255
220 235 255
220 235 255
220 235 255
220 235 255
220 235 255
220 235 255
220 235 255
220 235 255
220 235 255
220 235 255
220 235 255
220 235 255
220 235 255
220 235 255
220 235 255
220 235 255
220 235 255
220 235 255
220 235 255
220 235 255
220 235 255
220 235 255
220 235 255
220 235 255
220 235 255
220 235 255
220 235 255
220 235 255
220 235 255
220 235 255
220 235 255
220 235 255
220 235 255
220 235 255
220 235 255
220 235 255
220 235 255
220 235 255
220 235 255
220 235 255
220 235 255
220 235 255
220 235 255
220 235 255
220 235 255
220 235 255
220 235 255
220 235 255
220 235 255
220 235 255
220 235 255
220 235 255
220 235 255
220 235 255
220 235 255
220 235 255
220 235 255
220 235 255
220 235 255
220 235 255
220 235 255
220 235 255
220 235 255
220 235 255
220 235 255
220 235 255
220 235 255
220 235 255
220 235 255
220 235 255
220 235 255
220 235 255
220 235 255
220 235 255
220 235 255
220 235 255
220 235 255
220 235 255
220 235 255
220 235 255
220 235 255
220 235 255
220 235 255
220 235 255
220 235 255
220 235 255
220 235 255
220 235 255
220 235 255
220 235 255
220 235 255
220 235 255
220 235 255
220 235 255
220 235 255
220 235 255
220 235 255
220 235 255
220 235 255
220 235 255
220 235 255
220 235 255
220 235 255
220 235 255
220 235 255
220 235 255
220 235 255
220 235 255
220 235 255
220 235 255
220 235 255
220 235 255
220 235 255
220 235 255
220 235 255
220 235 255
220 235 255
220 235 255
220 235 255
220 235 255
220 235 255
220 235 255
220 235 255
220 235 255
220 235 255
220 235 255
220 235 255
220 235 255
220 235 255
220 235 255
220 235 255
220 235 255
220 235 255
220 235 255
220 235 255
220 235 255
220 235 255
220 235 255
220 235 255
220 235 255
220 235 255
220 235 255
220 235 255
220 235 255
220 235 255
220 235 255
220 235 255
220 235 255
220 235 255
220 235 255
220 235 255
220 235 255
220 235 255
220 235 255
220 235 255
220 235 255
220 235 255
220 235 255
220 235 255
220 235 255
220 235 255
220 235 255
220 235 255
220 235 255
220 235 255
220 235 255
220 235 255
220 235 255
220 235 255
220 235 255
220 235 255
220 235 255
220 235 255
220 235 255
220 235 255
220 235 255
220 235 255
220 235 255
220 235 255
220 235 255
220 235 255
219 235 255
219 235 255
220 235 255
220 235 255
219 235 255
219 235 255
219 235 255
219 235 255
219 235 255
219 235 255
219 235 255
219 235 255
219 235 255
219 235 255
219 235 255
219 235 255
219 235 255
219 235 255
219 235 255
219 235 255
219 235 255
219 235 255
219 235 255
219 235 255
219 235 255
219 234 255
219 234 255
219 234 255
219 234 255
219 234 255
219 234 255
219 234 255
219 234 255
219 234 255
219 234 255
219 234 255
219 234 255
219 234 255
219 234 255
219 234 255
219 234 255
219 234 255
219 234 255
219 234 255
219 234 255
219 234 255
219 234 255
219 234 255
219 234 255
219 234 255
219 234 255
219 234 255
219 234 255
219 234 255
219 234 255
219 234 255
219 234 255
219 234 255
219 234 255
219 234 255
219 234 255
219 234 255
219 234 255
219 234 255
219 234 255
219 234 255
219 234 255
219 234 255
219 234 255
219 234 255
219 234 255
219 234 255
219 234 255
219 234 255
219 234 255
219 234 255
219 234 255
219 234 255
219 234 255
219 234 255
219 234 255
219 234 255
219 234 255
219 234 255
219 234 255
219 234 255
219 234 255
219 234 255
219 234 255
219 234 255
219 234 255
219 234 255
219 234 255
219 234 255
219 234 255
219 234 255
219 234 255
219 234 255
219 234 255
219 234 255
219 234 255
219 234 255
219 234 255
219 234 255
219 234 255
219 234 255
219 234 255
219 234 255
219 234 255
219 234 255
219 234 255
219 234 255
219 234 255
219 234 255
219 234 255
219 234 255
219 234 255
219 234 255
219 234 255
219 234 255
219 234 255
219 234 255
219 234 255
219 234 255
219 234 255
219 234 255
219 234 255
219 234 255
219 234 255
219 234 255
219 234 255
219 234 255
219 234 255
219 234 255
219 235 255
219 235 255
219 235 255
219 235 255
219 235 255
219 235 255
219 235 255
219 235 255
219 235 255
219 235 255
219 235 255
219 235 255
219 235 255
219 235 255
219 235 255
219 235 255
219 235 255
219 235 255
219 235 255
219 235 255
219 235 255
220 235 255
220 235 255
220 235 255
220 235 255
220 235 255
220 235 255
220 235 255
220 235 255
220 235 255
220 235 255
220 235 255
220 235 255
220 235 255
220 235 255
220 235 255
220 235 255
220 235 255
220 235 255
220 235 255
220 235 255
220 235 255
220 235 255
220 235 255
220 235 255
220 235 255
220 235 255
220 235 255
220 235 255
220 235 255
220 235 255
220 235 255
220 235 255
220 235 255
220 235 255
220 235 255
220 235 255
220 235 255
220 235 255
220 235 255
220 235 255
220 235 255
220 235 255
220 235 255
220 235 255
220 235 255
220 235 255
220 235 255
220 235 255
220 235 255
220 235 255
220 235 255
220 235 255
220 235 255
220 235 255
220 235 255
220 235 255
220 235 255
220 235 255
220 235 255
220 235 255
220 235 255
220 235 255
220 235 255
220 235 255
220 235 255
220 235 255
220 235 255
220 235 255
220 235 255
220 235 255
220 235 255
220 235 255
220 235 255
220 235 255
220 235 255
220 235 255
220 235 255
220 235 255
220 235 255
220 235 255
220 235 255
220 235 255
220 235 255
220 235 255
220 235 255
220 235 255
220 235 255
220 235 255
220 235 255
220 235 255
220 235 255
220 235 255
220 235 255
220 235 255
220 235 255
220 235 255
220 235 255
220 235 255
220 235 255
220 235 255
220 235 255
220 235 255
220 235 255
220 235 255
220 235 255
220 235 255
220 235 255
220 235 255
220 235 255
220 235 255
220 235 255
220 235 255
220 235 255
220 235 255
220 235 255
220 235 255
220 235 255
220 235 255
220 235 255
220 235 255
220 235 255
220 235 255
220 235 255
220 235 255
220 235 255
220 235 255
220 235 255
220 235 255
220 235 255
220 235 255
220 235 255
220 235 255
220 235 255
220 235 255
220 235 255
220 235 255
220 235 255
220 235 255
220 235 255
220 235 255
220 235 255
220 235 255
220 235 255
220 235 255
220 235 255
220 235 255
220 235 255
220 235 255
220 235 255
220 235 255
220 235 255
220 235 255
220 235 255
220 235 255
220 235 255
220 235 255
220 235 255
220 235 255
220 235 255
220 235 255
220 235 255
220 235 255
220 235 255
220 235 255
220 235 255
220 235 255
220 235 255
220 235 255
220 235 255
220 235 255
220 235 255
220 235 255
220 235 255
220 235 255
220 235 255
220 235 255
220 235 255
220 235 255
220 235 255
220 235 255
220 235 255
220 235 255
220 235 255
220 235 255
220 235 255
220 235 255
220 235 255
220 235 255
220 235 255
220 235 255
220 235 255
220 235 255
220 235 255
220 235 255
220 235 255
220 235 255
220 235 255
220 235 255
220 235 255
220 235 255
220 235 255
220 235 255
220 235 255
220 235 255
220 235 255
220 235 255
220 235 255
220 235 255
220 235 255
220 235 255
220 235 255
220 235 255
220 235 255
220 235 255
220 235 255
220 235 255
220 235 255
220 235 255
220 235 255
220 235 255
220 235 255
220 235 255
220 235 255
220 235 255
220 235 255
220 235 255
220 235 255
220 235 255
220 235 255
220 235 255
220 235 255
220 235 255
220 235 255
220 235 255
220 235 255
220 235 255
220 235 255
220 235 255
220 235 255
220 235 255
220 235 255
220 235 255
220 235 255
220 235 255
220 235 255
220 235 255
220 235 255
220 235 255
220 235 255
220 235 255
220 235 255
220 235 255
220 235 255
220 235 255
220 235 255
220 235 255
220 235 255
220 235 255
220 235 255
220 235 255
220 235 255
220 235 255
220 235 255
220 235 255
220 235 255
220 235 255
220 235 255
220 235 255
220 235 255
220 235 255
220 235 255
220 235 255
220 235 255
220 235 255
220 235 255
220 235 255
220 235 255
220 235 255
220 235 255
220 235 255
220 235 255
220 235 255
220 235 255
220 235 255
220 235 255
220 235 255
220 235 255
220 235 255
220 235 255
220 235 255
220 235 255
220 235 255
220 235 255
220 235 255
220 235 255
220 235 255
219 235 255
220 235 255
220 235 255
220 235 255
219 235 255
220 235 255
219 235 255
219 235 255
219 235 255
219 235 255
219 235 255
219 235 255
219 235 255
219 235 255
219 235 255
219 235 255
219 235 255
219 235 255
219 235 255
219 235 255
219 235 255
219 235 255
219 235 255
219 235 255
219 235 255
219 235 255
219 235 255
219 235 255
219 235 255
219 235 255
219 235 255
219 235 255
219 235 255
219 235 255
219 235 255
219 235 255
219 235 255
219 235 255
219 235 255
219 235 255
219 235 255
219 235 255
219 235 255
219 235 255
219 235 255
219 235 255
219 235 255
219 235 255
219 235 255
219 235 255
220 235 255
220 235 255
220 235 255
219 235 255
220 235 255
220 235 255
220 235 255
220 235 255
220 235 255
220 235 255
220 235 255
220 235 255
220 235 255
220 235 255
220 235 255
220 235 255
220 235 255
220 235 255
220 235 255
220 235 255
220 235 255
220 235 255
220 235 255
220 235 255
220 235 255
220 235 255
220 235 255
220 235 255
220 235 255
220 235 255
220 235 255
220 235 255
220 235 255
220 235 255
220 235 255
220 235 255
220 235 255
220 235 255
220 235 255
220 235 255
220 235 255
220 235 255
220 235 255
220 235 255
220 235 255
220 235 255
220 235 255
220 235 255
220 235 255
220 235 255
220 235 255
220 235 255
220 235 255
220 235 255
220 235 255
220 235 255
220 235 255
220 235 255
220 235 255
220 235 255
220 235 255
220 235 255
220 235 255
220 235 255
220 235 255
220 235 255
220 235 255
220 235 255
220 235 255
220 235 255
220 235 255
220 235 255
220 235 255
220 235 255
220 235 255
220 235 255
220 235 255
220 235 255
220 235 255
220 235 255
220 235 255
220 235 255
220 235 255
220 235 255
220 235 255
220 235 255
220 235 255
220 235 255
220 235 255
220 235 255
220 235 255
220 235 255
220 235 255
220 235 255
220 235 255
220 235 255
220 235 255
220 235 255
220 235 255
220 235 255
220 235 255
220 235 255
220 235 255
220 235 255
220 235 255
220 235 255
220 235 255
220 235 255
220 235 255
220 235 255
220 235 255
220 235 255
220 235 255
220 235 255
220 235 255
220 235 255
220 235 255
220 235 255
220 235 255
220 235 255
220 235 255
220 235 255
220 235 255
220 235 255
220 235 255
220 235 255
220 235 255
220 235 255
220 235 255
220 235 255
220 235 255
220 235 255
220 235 255
220 235 255
220 235 255
220 235 255
220 235 255
220 235 255
220 235 255
220 235 255
220 235 255
220 235 255
220 235 255
220 235 255
220 235 255
220 235 255
220 235 255
220 235 255
220 235 255
220 235 255
220 235 255
220 235 255
220 235 255
220 235 255
220 235 255
220 235 255
220 235 255
220 235 255
220 235 255
220 235 255
220 235 255
220 235 255
220 235 255
220 235 255
220 235 255
220 235 255
220 235 255
220 235 255
220 235 255
220 235 255
220 235 255
220 235 255
220 235 255
220 235 255
220 235 255
220 235 255
220 235 255
220 235 255
220 235 255
220 235 255
220 235 255
220 235 255
220 235 255
220 235 255
220 235 255
220 235 255
220 235 255
220 235 255
220 235 255
220 235 255
220 235 255
220 235 255
220 235 255
220 235 255
220 235 255
220 235 255
220 235 255
220 235 255
220 235 255
220 235 255
220 235 255
220 235 255
220 235 255
220 235 255
220 235 255
220 235 255
220 235 255
220 235 255
220 235 255
220 235 255
220 235 255
220 235 255
220 235 255
220 235 255
220 235 255
220 235 255
220 235 255
220 235 255
220 235 255
220 235 255
220 235 255
220 235 255
220 235 255
220 235 255
220 235 255
220 235 255
220 235 255
220 235 255
220 235 255
220 235 255
220 235 255
220 235 255
220 235 255
220 235 255
220 235 255
220 235 255
220 235 255
220 235 255
220 235 255
220 235 255
220 235 255
220 235 255
220 235 255
220 235 255
220 235 255
220 235 255
220 235 255
220 235 255
220 235 255
220 235 255
220 235 255
220 235 255
220 235 255
220 235 255
220 235 255
220 235 255
220 235 255
220 235 255
220 235 255
220 235 255
220 235 255
220 235 255
220 235 255
220 235 255
220 235 255
220 235 255
220 235 255
220 235 255
220 235 255
220 235 255
220 235 255
220 235 255
220 235 255
220 235 255
220 235 255
220 235 255
220 235 255
220 235 255
220 235 255
220 235 255
220 235 255
220 235 255
220 235 255
220 235 255
220 235 255
220 235 255
220 235 255
220 235 255
220 235 255
220 235 255
220 235 255
220 235 255
220 235 255
220 235 255
220 235 255
220 235 255
220 235 255
220 235 255
220 235 255
220 235 255
220 235 255
220 235 255
220 235 255
220 235 255
220 235 255
220 235 255
220 235 255
220 235 255
220 235 255
220 235 255
220 235 255
220 235 255
220 235 255
220 235 255
220 235 255
220 235 255
220 235 255
220 235 255
220 235 255
220 235 255
220 235 255
220 235 255
220 235 255
220 235 255
220 235 255
220 235 255
220 235 255
220 235 255
220 235 255
220 235 255
220 235 255
220 235 255
220 235 255
220 235 255
220 235 255
220 235 255
220 235 255
220 235 255
220 235 255
220 235 255
220 235 255
220 235 255
220 235 255
220 235 255
220 235 255
220 235 255
220 235 255
220 235 255
220 235 255
220 235 255
220 235 255
220 235 255
220 235 255
220 235 255
220 235 255
220 235 255
220 235 255
220 235 255
220 235 255
220 235 255
220 235 255
220 235 255
220 235 255
220 235 255
220 235 255
220 235 255
220 235 255
220 235 255
220 235 255
220 235 255
220 235 255
220 235 255
220 235 255
220 235 255
220 235 255
220 235 255
220 235 255
220 235 255
220 235 255
220 235 255
220 235 255
220 235 255
220 235 255
220 235 255
220 235 255
220 235 255
220 235 255
220 235 255
220 235 255
220 235 255
220 235 255
220 235 255
220 235 255
220 235 255
220 235 255
220 235 255
220 235 255
220 235 255
220 235 255
220 235 255
220 235 255
220 235 255
220 235 255
220 235 255
220 235 255
220 235 255
220 235 255
220 235 255
220 235 255
220 235 255
220 235 255
220 235 255
220 235 255
220 235 255
220 235 255
220 235 255
220 235 255
220 235 255
220 235 255
220 235 255
220 235 255
220 235 255
220 235 255
220 235 255
220 235 255
220 235 255
220 235 255
220 235 255
220 235 255
220 235 255
220 235 255
220 235 255
220 235 255
220 235 255
220 235 255
220 235 255
220 235 255
220 235 255
220 235 255
220 235 255
220 235 255
220 235 255
220 235 255
220 235 255
220 235 255
220 235 255
220 235 255
220 235 255
220 235 255
220 235 255
220 235 255
220 235 255
220 235 255
220 235 255
220 235 255
220 235 255
220 235 255
220 235 255
220 235 255
220 235 255
220 235 255
220 235 255
220 235 255
220 235 255
220 235 255
220 235 255
220 235 255
220 235 255
220 235 255
220 235 255
220 235 255
220 235 255
220 235 255
220 235 255
220 235 255
220 235 255
220 235 255
220 235 255
220 235 255
220 235 255
220 235 255
220 235 255
220 235 255
220 235 255
220 235 255
220 235 255
220 235 255
220 235 255
220 235 255
220 235 255
220 235 255
220 235 255
220 235 255
220 235 255
220 235 255
220 235 255
220 235 255
220 235 255
220 235 255
220 235 255
220 235 255
220 235 255
220 235 255
220 235 255
220 235 255
220 235 255
220 235 255
220 235 255
220 235 255
220 235 255
220 235 255
220 235 255
220 235 255
220 235 255
220 235 255
220 235 255
220 235 255
220 235 255
220 235 255
220 235 255
220 235 255
220 235 255
220 235 255
220 235 255
220 235 255
220 235 255
220 235 255
220 235 255
220 235 255
220 235 255
220 235 255
220 235 255
220 235 255
220 235 255
220 235 255
220 235 255
220 235 255
220 235 255
220 235 255
220 235 255
220 235 255
220 235 255
220 235 255
220 235 255
220 235 255
220 235 255
220 235 255
220 235 255
220 235 255
220 235 255
220 235 255
220 235 255
220 235 255
220 235 255
220 235 255
220 235 255
220 235 255
220 235 255
220 235 255
220 235 255
220 235 255
220 235 255
220 235 255
220 235 255
220 235 255
220 235 255
220 235 255
220 235 255
220 235 255
220 235 255
220 235 255
220 235 255
220 235 255
220 235 255
220 235 255
220 235 255
220 235 255
220 235 255
221 235 255
220 235 255
220 235 255
220 235 255
220 235 255
220 235 255
220 235 255
220 235 255
220 235 255
220 235 255
220 235 255
220 235 255
220 235 255
220 235 255
220 235 255
220 235 255
220 235 255
220 235 255
220 235 255
220 235 255
220 235 255
220 235 255
220 235 255
220 235 255
220 235 255
220 235 255
220 235 255
220 235 255
220 235 255
220 235 255
220 235 255
220 235 255
220 235 255
220 235 255
220 235 255
220 235 255
220 235 255
220 235 255
220 235 255
220 235 255
220 235 255
220 235 255
220 235 255
220 235 255
220 235 255
220 235 255
220 235 255
220 235 255
220 235 255
220 235 255
220 235 255
220 235 255
220 235 255
220 235 255
220 235 255
220 235 255
220 235 255
220 235 255
220 235 255
220 235 255
220 235 255
220 235 255
220 235 255
220 235 255
220 235 255
220 235 255
220 235 255
220 235 255
220 235 255
220 235 255
220 235 255
220 235 255
220 235 255
220 235 255
220 235 255
220 235 255
220 235 255
220 235 255
220 235 255
220 235 255
220 235 255
220 235 255
220 235 255
220 235 255
220 235 255
220 235 255
220 235 255
220 235 255
220 235 255
220 235 255
220 235 255
220 235 255
220 235 255
220 235 255
220 235 255
220 235 255
220 235 255
220 235 255
220 235 255
220 235 255
220 235 255
220 235 255
220 235 255
220 235 255
220 235 255
220 235 255
220 235 255
220 235 255
220 235 255
220 235 255
220 235 255
220 235 255
220 235 255
220 235 255
220 235 255
220 235 255
220 235 255
220 235 255
220 235 255
220 235 255
220 235 255
220 235 255
220 235 255
220 235 255
220 235 255
220 235 255
220 235 255
220 235 255
220 235 255
220 235 255
220 235 255
220 235 255
220 235 255
220 235 255
220 235 255
220 235 255
220 235 255
220 235 255
220 235 255
220 235 255
220 235 255
220 235 255
220 235 255
220 235 255
220 235 255
220 235 255
220 235 255
220 235 255
220 235 255
220 235 255
220 235 255
220 235 255
220 235 255
220 235 255
220 235 255
220 235 255
220 235 255
220 235 255
220 235 255
220 235 255
220 235 255
220 235 255
220 235 255
220 235 255
220 235 255
220 235 255
220 235 255
220 235 255
220 235 255
220 235 255
220 235 255
220 235 255
220 235 255
220 235 255
220 235 255
220 235 255
220 235 255
220 235 255
220 235 255
220 235 255
220 235 255
220 235 255
220 235 255
220 235 255
220 235 255
220 235 255
220 235 255
220 235 255
220 235 255
220 235 255
220 235 255
220 235 255
220 235 255
220 235 255
220 235 255
220 235 255
220 235 255
220 235 255
220 235 255
220 235 255
220 235 255
220 235 255
220 235 255
220 235 255
220 235 255
220 235 255
220 235 255
220 235 255
220 235 255
220 235 255
220 235 255
220 235 255
220 235 255
220 235 255
220 235 255
220 235 255
220 235 255
220 235 255
220 235 255
220 235 255
220 235 255
220 235 255
220 235 255
220 235 255
220 235 255
220 235 255
220 235 255
220 235 255
220 235 255
220 235 255
220 235 255
220 235 255
220 235 255
220 235 255
220 235 255
220 235 255
220 235 255
220 235 255
220 235 255
220 235 255
220 235 255
220 235 255
220 235 255
220 235 255
220 235 255
220 235 255
220 235 255
220 235 255
220 235 255
220 235 255
220 235 255
220 235 255
220 235 255
220 235 255
220 235 255
220 235 255
220 235 255
220 235 255
220 235 255
220 235 255
220 235 255
220 235 255
220 235 255
220 235 255
220 235 255
220 235 255
220 235 255
220 235 255
220 235 255
220 235 255
220 235 255
220 235 255
220 235 255
220 235 255
220 235 255
220 235 255
220 235 255
220 235 255
220 235 255
220 235 255
220 235 255
220 235 255
220 235 255
220 235 255
220 235 255
220 235 255
220 235 255
220 235 255
220 235 255
220 235 255
220 235 255
220 235 255
220 235 255
220 235 255
220 235 255
220 235 255
220 235 255
220 235 255
220 235 255
220 235 255
220 235 255
220 235 255
220 235 255
220 235 255
220 235 255
220 235 255
220 235 255
220 235 255
220 235 255
220 235 255
220 235 255
220 235 255
220 235 255
220 235 255
220 235 255
220 235 255
220 235 255
220 235 255
220 235 255
220 235 255
220 235 255
220 235 255
220 235 255
220 235 255
220 235 255
220 235 255
220 235 255
220 235 255
220 235 255
220 235 255
220 235 255
220 235 255
220 235 255
220 235 255
220 235 255
220 235 255
220 235 255
220 235 255
220 235 255
220 235 255
220 235 255
220 235 255
220 235 255
220 235 255
220 235 255
220 235 255
220 235 255
220 235 255
220 235 255
220 235 255
220 235 255
220 235 255
220 235 255
220 235 255
220 235 255
220 235 255
220 235 255
220 235 255
220 235 255
220 235 255
220 235 255
220 235 255
220 235 255
220 235 255
220 235 255
220 235 255
220 235 255
220 235 255
220 235 255
220 235 255
220 235 255
220 235 255
220 235 255
220 235 255
220 235 255
220 235 255
220 235 255
220 235 255
220 235 255
220 235 255
220 235 255
220 235 255
220 235 255
220 235 255
220 235 255
220 235 255
220 235 255
220 235 255
220 235 255
220 235 255
220 235 255
220 235 255
220 235 255
220 235 255
220 235 255
220 235 255
220 235 255
220 235 255
220 235 255
220 235 255
221 235 255
221 235 255
221 235 255
221 235 255
221 235 255
221 235 255
221 235 255
221 235 255
221 235 255
221 235 255
221 235 255
221 235 255
221 235 255
221 235 255
221 235 255
221 235 255
221 235 255
221 235 255
221 235 255
221 235 255
221 235 255
221 235 255
221 235 255
221 235 255
221 235 255
221 235 255
221 235 255
221 235 255
221 235 255
221 235 255
221 235 255
221 235 255
221 235 255
221 235 255
221 235 255
221 235 255
221 235 255
221 235 255
221 235 255
221 235 255
221 235 255
221 235 255
221 235 255
221 235 255
221 235 255
221 235 255
221 235 255
221 235 255
221 235 255
221 235 255
221 235 255
221 235 255
221 235 255
221 235 255
221 235 255
220 235 255
221 235 255
221 235 255
220 235 255
220 235 255
220 235 255
220 235 255
220 235 255
220 235 255
220 235 255
220 235 255
220 235 255
220 235 255
220 235 255
220 235 255
220 235 255
220 235 255
220 235 255
220 235 255
220 235 255
220 235 255
220 235 255
220 235 255
220 235 255
220 235 255
220 235 255
220 235 255
220 235 255
220 235 255
220 235 255
220 235 255
220 235 255
220 235 255
220 235 255
220 235 255
220 235 255
220 235 255
220 235 255
220 235 255
220 235 255
220 235 255
220 235 255
220 235 255
220 235 255
220 235 255
220 235 255
220 235 255
220 235 255
220 235 255
220 235 255
220 235 255
220 235 255
220 235 255
220 235 255
220 235 255
220 235 255
220 235 255
220 235 255
220 235 255
220 235 255
220 235 255
220 235 255
220 235 255
220 235 255
220 235 255
220 235 255
220 235 255
220 235 255
220 235 255
220 235 255
220 235 255
220 235 255
220 235 255
220 235 255
220 235 255
220 235 255
220 235 255
220 235 255
220 235 255
220 235 255
220 235 255
220 235 255
220 235 255
220 235 255
220 235 255
220 235 255
220 235 255
220 235 255
220 235 255
220 235 255
220 235 255
220 235 255
220 235 255
220 235 255
220 235 255
220 235 255
220 235 255
220 235 255
220 235 255
220 235 255
220 235 255
220 235 255
220 235 255
220 235 255
220 235 255
220 235 255
220 235 255
220 235 255
220 235 255
220 235 255
220 235 255
220 235 255
220 235 255
220 235 255
220 235 255
220 235 255
220 235 255
220 235 255
220 235 255
220 235 255
220 235 255
220 235 255
220 235 255
220 235 255
220 235 255
220 235 255
220 235 255
220 235 255
220 235 255
220 235 255
220 235 255
220 235 255
220 235 255
220 235 255
220 235 255
220 235 255
220 235 255
220 235 255
220 235 255
220 235 255
220 235 255
220 235 255
220 235 255
220 235 255
220 235 255
220 235 255
220 235 255
220 235 255
220 235 255
220 235 255
220 235 255
220 235 255
220 235 255
220 235 255
220 235 255
220 235 255
220 235 255
220 235 255
220 235 255
220 235 255
220 235 255
220 235 255
220 235 255
220 235 255
220 235 255
220 235 255
220 235 255
220 235 255
220 235 255
220 235 255
220 235 255
220 235 255
220 235 255
220 235 255
220 235 255
220 235 255
220 235 255
220 235 255
220 235 255
220 235 255
220 235 255
220 235 255
220 235 255
220 235 255
220 235 255
220 235 255
220 235 255
220 235 255
220 235 255
220 235 255
220 235 255
220 235 255
220 235 255
220 235 255
220 235 255
220 235 255
220 235 255
220 235 255
220 235 255
220 235 255
220 235 255
220 235 255
220 235 255
220 235 255
220 235 255
220 235 255
220 235 255
220 235 255
220 235 255
220 235 255
220 235 255
220 235 255
220 235 255
220 235 255
220 235 255
220 235 255
220 235 255
220 235 255
220 235 255
220 235 255
220 235 255
220 235 255
220 235 255
220 235 255
220 235 255
220 235 255
220 235 255
220 235 255
220 235 255
220 235 255
220 235 255
220 235 255
220 235 255
220 235 255
220 235 255
220 235 255
220 235 255
220 235 255
220 235 255
220 235 255
220 235 255
220 235 255
220 235 255
220 235 255
220 235 255
220 235 255
220 235 255
220 235 255
220 235 255
220 235 255
220 235 255
220 235 255
220 235 255
220 235 255
220 235 255
220 235 255
220 235 255
220 235 255
220 235 255
220 235 255
220 235 255
220 235 255
220 235 255
220 235 255
220 235 255
220 235 255
220 235 255
220 235 255
220 235 255
220 235 255
220 235 255
220 235 255
220 235 255
220 235 255
220 235 255
220 235 255
220 235 255
220 235 255
220 235 255
220 235 255
220 235 255
220 235 255
220 235 255
220 235 255
220 235 255
220 235 255
221 235 255
220 235 255
221 235 255
221 235 255
221 235 255
221 235 255
221 235 255
221 235 255
221 235 255
221 235 255
221 235 255
221 235 255
221 235 255
221 235 255
221 235 255
221 235 255
221 235 255
221 235 255
221 235 255
221 235 255
221 235 255
221 235 255
221 235 255
221 235 255
221 235 255
221 235 255
221 235 255
221 235 255
221 235 255
221 235 255
221 235 255
221 235 255
221 235 255
221 235 255
221 235 255
221 235 255
221 235 255
221 235 255
221 235 255
221 235 255
221 235 255
221 235 255
221 235 255
221 235 255
221 235 255
221 235 255
221 235 255
221 235 255
221 235 255
221 235 255
221 235 255
221 235 255
221 235 255
221 235 255
221 235 255
221 235 255
221 235 255
221 235 255
221 235 255
221 235 255
221 235 255
221 235 255
221 235 255
221 235 255
221 235 255
221 235 255
221 235 255
221 235 255
221 235 255
221 235 255
221 235 255
221 235 255
221 235 255
221 235 255
221 235 255
221 235 255
221 235 255
221 235 255
221 235 255
221 235 255
221 235 255
221 235 255
221 235 255
221 235 255
221 235 255
221 235 255
221 235 255
221 235 255
221 235 255
221 235 255
221 235 255
221 235 255
221 235 255
221 235 255
221 235 255
221 235 255
221 235 255
221 235 255
221 235 255
221 235 255
221 235 255
221 235 255
221 235 255
221 235 255
221 235 255
221 235 255
221 235 255
221 235 255
221 235 255
221 235 255
221 235 255
221 235 255
221 235 255
221 235 255
221 235 255
221 235 255
221 235 255
221 235 255
221 235 255
221 235 255
221 235 255
221 235 255
221 235 255
221 235 255
221 235 255
221 235 255
221 235 255
221 235 255
221 235 255
221 235 255
221 235 255
221 235 255
221 235 255
221 235 255
221 235 255
221 235 255
221 235 255
221 235 255
221 235 255
221 235 255
221 235 255
221 235 255
221 235 255
221 235 255
221 235 255
221 235 255
221 235 255
221 235 255
221 235 255
221 235 255
221 235 255
221 235 255
221 235 255
221 235 255
221 235 255
221 235 255
221 235 255
221 235 255
221 235 255
221 235 255
221 235 255
221 235 255
221 235 255
221 235 255
221 235 255
221 235 255
221 235 255
221 235 255
221 235 255
221 235 255
221 235 255
221 235 255
221 235 255
221 235 255
221 235 255
221 235 255
221 235 255
221 235 255
221 235 255
221 235 255
221 235 255
221 235 255
221 235 255
221 235 255
221 235 255
221 235 255
221 235 255
221 235 255
221 235 255
220 235 255
220 235 255
220 235 255
220 235 255
220 235 255
220 235 255
220 235 255
220 235 255
220 235 255
220 235 255
220 235 255
220 235 255
220 235 255
220 235 255
220 235 255
220 235 255
220 235 255
220 235 255
220 235 255
220 235 255
220 235 255
220 235 255
220 235 255
220 235 255
220 235 255
220 235 255
220 235 255
220 235 255
220 235 255
220 235 255
220 235 255
220 235 255
220 235 255
220 235 255
220 235 255
220 235 255
220 235 255
220 235 255
220 235 255
220 235 255
220 235 255
220 235 255
220 235 255
220 235 255
220 235 255
220 235 255
220 235 255
220 235 255
220 235 255
220 235 255
220 235 255
220 235 255
220 235 255
220 235 255
220 235 255
220 235 255
220 235 255
220 235 255
220 235 255
220 235 255
220 235 255
220 235 255
220 235 255
220 235 255
220 235 255
220 235 255
220 235 255
220 235 255
220 235 255
220 235 255
220 235 255
220 235 255
220 235 255
220 235 255
220 235 255
220 235 255
220 235 255
220 235 255
220 235 255
220 235 255
220 235 255
220 235 255
220 235 255
220 235 255
220 235 255
220 235 255
220 235 255
220 235 255
220 235 255
220 235 255
220 235 255
220 235 255
220 235 255
220 235 255
220 235 255
220 235 255
220 235 255
220 235 255
220 235 255
220 235 255
220 235 255
220 235 255
220 235 255
220 235 255
220 235 255
220 235 255
220 235 255
220 235 255
220 235 255
220 235 255
220 235 255
220 235 255
220 235 255
220 235 255
220 235 255
220 235 255
220 235 255
220 235 255
220 235 255
220 235 255
220 235 255
220 235 255
220 235 255
220 235 255
220 235 255
220 235 255
220 235 255
220 235 255
220 235 255
220 235 255
220 235 255
220 235 255
220 235 255
221 235 255
220 235 255
220 235 255
221 235 255
221 235 255
220 235 255
221 235 255
221 235 255
221 235 255
221 235 255
221 235 255
221 235 255
221 235 255
221 235 255
221 235 255
221 235 255
221 235 255
221 235 255
221 235 255
221 235 255
221 235 255
221 235 255
221 235 255
221 235 255
221 235 255
221 235 255
221 235 255
221 235 255
221 235 255
221 235 255
221 235 255
221 235 255
221 235 255
221 235 255
221 235 255
221 235 255
221 235 255
221 235 255
221 235 255
221 235 255
221 235 255
221 235 255
221 235 255
221 235 255
221 235 255
221 235 255
221 235 255
221 235 255
221 235 255
221 235 255
221 235 255
221 235 255
221 235 255
221 235 255
221 235 255
221 235 255
221 235 255
221 235 255
221 235 255
221 235 255
221 235 255
221 235 255
221 235 255
221 235 255
221 235 255
221 235 255
221 235 255
221 235 255
221 235 255
221 235 255
221 235 255
221 235 255
221 235 255
221 235 255
221 235 255
221 235 255
221 235 255
221 235 255
221 235 255
221 235 255
221 235 255
221 235 255
221 235 255
221 235 255
221 235 255
221 235 255
221 235 255
221 235 255
221 235 255
221 235 255
221 235 255
221 235 255
221 235 255
221 235 255
221 235 255
221 235 255
221 235 255
221 235 255
221 235 255
221 235 255
221 235 255
221 235 255
221 235 255
221 235 255
221 235 255
221 235 255
221 235 255
221 235 255
221 235 255
221 235 255
221 235 255
221 235 255
221 235 255
221 235 255
221 235 255
221 235 255
221 235 255
221 235 255
221 235 255
221 235 255
221 235 255
221 235 255
221 235 255
221 235 255
221 235 255
221 235 255
221 235 255
221 235 255
221 235 255
221 235 255
221 235 255
221 235 255
221 235 255
221 235 255
221 235 255
221 235 255
221 235 255
221 235 255
221 235 255
221 235 255
221 235 255
221 235 255
221 235 255
221 235 255
221 235 255
221 235 255
221 235 255
221 235 255
221 235 255
221 235 255
221 235 255
221 235 255
221 235 255
221 235 255
221 235 255
221 235 255
221 235 255
221 235 255
221 235 255
221 235 255
221 235 255
221 235 255
221 235 255
221 235 255
221 235 255
221 235 255
221 235 255
221 235 255
221 235 255
221 235 255
221 235 255
221 235 255
221 235 255
221 235 255
221 235 255
221 235 255
221 235 255
221 235 255
221 235 255
221 235 255
221 235 255
221 235 255
221 235 255
221 235 255
221 235 255
221 235 255
221 235 255
221 235 255
221 235 255
221 235 255
221 235 255
221 235 255
221 235 255
221 235 255
221 235 255
221 235 255
221 235 255
221 235 255
221 235 255
221 235 255
221 235 255
221 235 255
221 235 255
221 235 255
221 235 255
221 235 255
221 235 255
221 235 255
221 235 255
221 235 255
221 235 255
221 235 255
221 235 255
221 235 255
221 235 255
221 235 255
221 235 255
221 235 255
221 235 255
221 235 255
221 235 255
221 235 255
221 235 255
221 235 255
221 235 255
221 235 255
221 235 255
221 235 255
221 235 255
221 235 255
221 235 255
221 235 255
221 235 255
221 235 255
221 235 255
221 235 255
221 235 255
221 235 255
221 235 255
221 235 255
221 235 255
221 235 255
221 235 255
221 235 255
221 235 255
221 235 255
221 235 255
221 235 255
221 235 255
221 235 255
221 235 255
221 235 255
221 235 255
221 235 255
221 235 255
221 235 255
221 235 255
221 235 255
221 235 255
221 235 255
221 235 255
221 235 255
221 235 255
221 235 255
221 235 255
221 235 255
221 235 255
221 235 255
221 235 255
221 235 255
221 235 255
221 235 255
221 235 255
221 235 255
221 235 255
221 235 255
221 235 255
221 235 255
221 235 255
221 235 255
221 235 255
221 235 255
221 235 255
221 235 255
221 235 255
221 235 255
221 235 255
221 235 255
221 235 255
221 235 255
221 235 255
221 235 255
221 235 255
221 235 255
221 235 255
221 235 255
221 235 255
221 235 255
221 235 255
221 235 255
221 235 255
221 235 255
221 235 255
221 235 255
221 235 255
221 235 255
221 235 255
221 235 255
221 235 255
221 235 255
221 235 255
221 235 255
221 235 255
221 235 255
221 235 255
221 235 255
221 235 255
221 235 255
221 235 255
221 235 255
221 235 255
221 235 255
221 235 255
221 235 255
221 235 255
221 235 255
221 235 255
221 235 255
221 235 255
221 235 255
221 235 255
221 235 255
221 235 255
221 235 255
221 235 255
221 235 255
221 235 255
221 235 255
221 235 255
221 235 255
221 235 255
221 235 255
221 235 255
221 235 255
221 235 255
221 235 255
221 235 255
221 235 255
221 235 255
221 235 255
221 235 255
221 235 255
221 235 255
221 235 255
221 235 255
221 235 255
221 235 255
221 235 255
221 235 255
221 235 255
221 235 255
221 235 255
221 235 255
221 235 255
221 235 255
221 235 255
221 235 255
221 235 255
221 235 255
221 235 255
221 235 255
221 235 255
221 235 255
221 235 255
221 235 255
221 235 255
221 235 255
221 235 255
221 235 255
221 235 255
221 235 255
221 235 255
221 235 255
221 235 255
221 235 255
221 235 255
221 235 255
221 235 255
221 235 255
221 235 255
221 235 255
221 235 255
221 235 255
221 235 255
221 235 255
221 235 255
221 235 255
221 235 255
221 235 255
221 235 255
221 235 255
221 235 255
221 235 255
221 235 255
221 235 255
221 235 255
221 235 255
221 235 255
221 235 255
221 235 255
221 235 255
221 235 255
221 235 255
221 235 255
221 235 255
221 235 255
221 235 255
221 235 255
221 235 255
221 235 255
221 235 255
221 235 255
221 235 255
221 235 255
221 235 255
221 235 255
221 235 255
221 235 255
221 235 255
221 235 255
221 235 255
221 235 255
221 235 255
221 235 255
221 235 255
221 235 255
221 235 255
221 235 255
221 235 255
221 235 255
221 235 255
221 235 255
221 235 255
221 235 255
221 235 255
221 235 255
221 235 255
221 235 255
221 235 255
221 235 255
221 235 255
221 235 255
221 235 255
221 235 255
221 235 255
221 235 255
221 235 255
221 235 255
221 235 255
221 235 255
221 235 255
221 235 255
221 235 255
221 235 255
221 235 255
221 235 255
221 235 255
221 235 255
221 235 255
221 235 255
221 235 255
221 235 255
221 235 255
221 235 255
221 235 255
221 235 255
221 235 255
221 235 255
221 235 255
221 235 255
221 235 255
221 235 255
221 235 255
221 235 255
221 235 255
221 235 255
221 235 255
221 235 255
221 235 255
221 235 255
221 235 255
221 235 255
221 235 255
221 235 255
221 235 255
221 235 255
221 235 255
221 235 255
221 235 255
221 235 255
221 235 255
221 235 255
221 235 255
221 235 255
221 235 255
221 235 255
221 235 255
221 235 255
221 235 255
221 235 255
221 235 255
221 235 255
221 235 255
221 235 255
221 235 255
221 235 255
221 235 255
221 235 255
221 235 255
221 235 255
221 235 255
221 235 255
221 235 255
221 235 255
221 235 255
221 235 255
221 235 255
221 235 255
221 235 255
221 235 255
221 235 255
221 235 255
221 235 255
221 235 255
221 235 255
221 235 255
221 235 255
221 235 255
221 235 255
221 235 255
221 235 255
221 235 255
221 235 255
221 235 255
221 235 255
221 235 255
221 235 255
221 235 255
221 235 255
221 235 255
221 235 255
221 235 255
221 235 255
221 235 255
221 235 255
221 235 255
221 235 255
221 235 255
221 235 255
221 235 255
221 235 255
221 235 255
221 235 255
221 235 255
221 235 255
221 235 255
221 235 255
221 235 255
221 235 255
221 235 255
221 235 255
221 235 255
221 235 255
221 235 255
221 235 255
221 235 255
221 235 255
221 235 255
221 235 255
221 235 255
221 235 255
221 235 255
221 235 255
221 235 255
221 235 255
221 235 255
221 235 255
221 235 255
221 235 255
221 235 255
221 235 255
221 235 255
221 235 255
221 235 255
221 235 255
221 235 255
221 235 255
221 235 255
221 235 255
221 235 255
221 235 255
221 235 255
221 235 255
221 235 255
221 235 255
221 235 255
221 235 255
221 235 255
221 235 255
221 235 255
221 235 255
221 235 255
221 235 255
221 235 255
221 235 255
221 235 255
221 235 255
221 235 255
221 235 255
221 235 255
221 235 255
221 235 255
221 235 255
221 235 255
221 235 255
221 235 255
221 235 255
221 235 255
221 235 255
221 235 255
221 235 255
221 235 255
221 235 255
221 235 255
221 235 255
221 235 255
221 235 255
221 235 255
221 235 255
221 235 255
221 235 255
221 235 255
221 235 255
221 235 255
221 235 255
221 235 255
221 235 255
221 235 255
221 235 255
221 235 255
221 235 255
221 235 255
221 235 255
221 235 255
221 235 255
221 235 255
221 235 255
221 235 255
221 235 255
221 235 255
221 235 255
221 235 255
221 235 255
221 235 255
221 235 255
221 235 255
221 235 255
221 235 255
221 235 255
221 235 255
221 235 255
221 235 255
221 235 255
221 235 255
221 235 255
221 235 255
221 235 255
221 235 255
221 235 255
221 235 255
221 235 255
221 235 255
221 235 255
221 235 255
221 235 255
221 235 255
221 235 255
221 235 255
221 235 255
221 235 255
221 235 255
221 235 255
221 235 255
221 235 255
221 235 255
221 235 255
221 235 255
221 235 255
221 235 255
221 235 255
221 235 255
221 235 255
221 235 255
221 235 255
221 235 255
221 235 255
221 235 255
221 235 255
221 235 255
221 235 255
221 235 255
221 235 255
221 235 255
221 235 255
221 235 255
221 235 255
221 235 255
221 235 255
221 235 255
221 235 255
221 235 255
221 235 255
221 235 255
221 235 255
221 235 255
221 235 255
221 235 255
221 235 255
221 235 255
221 235 255
221 235 255
221 235 255
221 235 255
221 235 255
221 235 255
221 235 255
221 235 255
221 235 255
221 235 255
221 235 255
221 235 255
221 235 255
221 235 255
221 235 255
221 235 255
221 235 255
221 235 255
221 235 255
221 235 255
221 235 255
221 235 255
221 235 255
221 235 255
221 235 255
221 235 255
221 235 255
221 235 255
221 235 255
221 235 255
221 235 255
221 235 255
221 235 255
221 235 255
221 235 255
221 235 255
221 235 255
221 235 255
221 235 255
221 235 255
221 235 255
221 235 255
221 235 255
221 235 255
221 235 255
221 235 255
221 235 255
221 235 255
221 235 255
221 235 255
221 235 255
221 235 255
221 235 255
221 235 255
221 235 255
221 235 255
221 235 255
221 235 255
221 235 255
221 235 255
221 235 255
221 235 255
221 235 255
221 235 255
221 235 255
221 235 255
221 235 255
221 235 255
221 235 255
221 235 255
221 235 255
221 235 255
221 235 255
221 235 255
221 235 255
221 235 255
221 235 255
221 235 255
221 235 255
221 235 255
221 235 255
221 235 255
221 235 255
221 235 255
221 235 255
221 235 255
221 235 255
221 235 255
221 235 255
221 235 255
221 235 255
221 235 255
221 235 255
221 235 255
221 235 255
221 235 255
221 235 255
221 235 255
221 235 255
221 235 255
221 235 255
221 235 255
221 235 255
221 235 255
221 235 255
221 235 255
221 235 255
221 235 255
221 235 255
221 235 255
221 235 255
221 235 255
221 235 255
221 235 255
221 235 255
221 235 255
221 235 255
221 235 255
221 235 255
221 235 255
221 235 255
221 235 255
221 235 255
221 235 255
221 235 255
221 235 255
221 235 255
221 235 255
221 235 255
221 235 255
221 235 255
221 235 255
221 235 255
221 235 255
221 235 255
221 235 255
221 235 255
221 235 255
221 235 255
221 235 255
221 235 255
221 235 255
221 235 255
221 235 255
221 235 255
221 235 255
221 235 255
221 235 255
221 235 255
221 235 255
221 235 255
221 235 255
221 235 255
221 235 255
221 235 255
221 235 255
221 235 255
221 235 255
221 235 255
221 235 255
221 235 255
221 235 255
221 235 255
221 235 255
221 235 255
221 235 255
221 235 255
221 235 255
221 235 255
221 235 255
221 235 255
221 235 255
221 235 255
221 235 255
221 235 255
221 235 255
221 235 255
221 235 255
221 235 255
221 235 255
221 235 255
221 235 255
221 235 255
221 235 255
221 235 255
221 235 255
221 235 255
221 235 255
221 235 255
221 235 255
221 235 255
221 235 255
221 235 255
221 235 255
221 235 255
221 235 255
221 235 255
221 235 255
221 235 255
221 235 255
221 235 255
221 235 255
221 235 255
221 235 255
221 235 255
221 235 255
221 235 255
221 235 255
221 235 255
221 235 255
221 235 255
221 235 255
221 235 255
221 235 255
221 235 255
221 235 255
221 235 255
221 235 255
221 235 255
221 235 255
221 235 255
221 235 255
221 235 255
221 235 255
221 235 255
221 235 255
221 235 255
221 235 255
221 235 255
221 235 255
221 235 255
221 235 255
221 235 255
221 235 255
221 235 255
221 236 255
221 235 255
221 235 255
221 235 255
221 235 255
221 235 255
221 235 255
221 235 255
221 235 255
221 235 255
221 235 255
221 235 255
221 235 255
221 235 255
221 235 255
221 235 255
221 235 255
221 235 255
221 235 255
221 235 255
221 235 255
221 235 255
221 235 255
221 235 255
221 235 255
221 235 255
221 235 255
221 235 255
221 235 255
221 235 255
221 235 255
221 235 255
221 235 255
221 235 255
221 235 255
221 235 255
221 235 255
221 235 255
221 235 255
221 235 255
221 235 255
221 235 255
221 235 255
221 235 255
221 235 255
221 235 255
221 235 255
221 235 255
221 235 255
221 235 255
221 235 255
221 235 255
221 235 255
221 235 255
221 235 255
221 235 255
221 235 255
221 235 255
221 235 255
221 235 255
221 235 255
221 235 255
221 235 255
221 235 255
221 235 255
221 235 255
221 235 255
221 235 255
221 235 255
221 235 255
221 235 255
221 235 255
221 235 255
221 235 255
221 235 255
221 235 255
221 235 255
221 235 255
221 235 255
221 235 255
221 235 255
221 235 255
221 235 255
221 235 255
221 235 255
221 235 255
221 235 255
221 235 255
221 235 255
221 235 255
221 235 255
221 235 255
221 235 255
221 235 255
221 235 255
221 235 255
221 235 255
221 235 255
221 235 255
221 235 255
221 235 255
221 235 255
221 235 255
221 235 255
221 235 255
221 235 255
221 235 255
221 235 255
221 235 255
221 235 255
221 235 255
221 235 255
221 235 255
221 235 255
221 235 255
221 235 255
221 235 255
221 235 255
221 235 255
221 235 255
221 235 255
221 235 255
221 235 255
221 235 255
221 235 255
221 235 255
221 235 255
221 235 255
221 235 255
221 235 255
221 235 255
221 235 255
221 235 255
221 235 255
221 235 255
221 235 255
221 235 255
221 235 255
221 235 255
221 235 255
221 235 255
221 235 255
221 235 255
221 235 255
221 235 255
221 235 255
221 235 255
221 235 255
221 235 255
221 235 255
221 235 255
221 235 255
221 235 255
221 235 255
221 235 255
221 235 255
221 235 255
221 235 255
221 235 255
221 235 255
221 235 255
221 235 255
221 235 255
221 235 255
221 235 255
221 235 255
221 235 255
221 235 255
221 235 255
221 235 255
221 235 255
221 235 255
221 235 255
221 235 255
221 235 255
221 235 255
221 235 255
221 235 255
221 235 255
221 235 255
221 235 255
221 235 255
221 235 255
221 235 255
221 235 255
221 235 255
221 235 255
221 235 255
221 235 255
221 235 255
221 235 255
221 235 255
221 235 255
221 235 255
221 235 255
221 235 255
221 235 255
221 235 255
221 235 255
221 235 255
221 235 255
221 235 255
221 235 255
221 235 255
221 235 255
221 235 255
221 235 255
221 235 255
221 235 255
221 235 255
221 235 255
221 235 255
221 235 255
221 235 255
221 235 255
221 235 255
221 235 255
221 235 255
221 235 255
221 235 255
221 235 255
221 235 255
221 235 255
221 235 255
221 235 255
221 235 255
221 235 255
221 235 255
221 235 255
221 235 255
221 235 255
221 235 255
221 235 255
221 235 255
221 235 255
221 235 255
221 235 255
221 235 255
221 235 255
221 235 255
221 235 255
221 235 255
221 235 255
221 235 255
221 235 255
221 235 255
221 235 255
221 235 255
221 235 255
221 235 255
221 235 255
221 235 255
221 235 255
221 235 255
221 235 255
221 235 255
221 235 255
221 235 255
221 235 255
221 235 255
221 235 255
221 235 255
221 235 255
221 235 255
221 235 255
221 235 255
221 235 255
221 235 255
221 235 255
221 235 255
221 235 255
221 235 255
221 235 255
221 235 255
221 235 255
221 235 255
221 235 255
221 235 255
221 235 255
221 235 255
221 235 255
221 235 255
221 235 255
221 235 255
221 235 255
221 235 255
221 235 255
221 235 255
221 235 255
221 235 255
221 235 255
221 235 255
221 235 255
221 235 255
221 235 255
221 235 255
221 235 255
221 235 255
221 235 255
221 235 255
221 235 255
221 235 255
221 235 255
221 235 255
221 235 255
221 235 255
221 235 255
221 235 255
221 235 255
221 235 255
221 235 255
221 235 255
221 235 255
221 235 255
221 235 255
221 235 255
221 235 255
221 235 255
221 235 255
221 235 255
221 235 255
221 235 255
221 235 255
221 235 255
221 235 255
221 235 255
221 235 255
221 235 255
221 235 255
221 235 255
221 235 255
221 235 255
221 235 255
221 235 255
221 235 255
221 235 255
221 235 255
221 235 255
221 235 255
221 235 255
221 235 255
221 236 255
221 235 255
221 235 255
221 235 255
221 235 255
221 235 255
221 235 255
221 235 255
221 236 255
221 235 255
221 235 255
221 235 255
221 236 255
221 235 255
221 235 255
221 235 255
221 235 255
221 235 255
221 235 255
221 235 255
221 235 255
221 235 255
221 235 255
221 235 255
221 235 255
221 235 255
221 235 255
221 235 255
221 235 255
221 235 255
221 235 255
221 235 255
221 236 255
221 236 255
221 236 255
221 236 255
221 236 255
221 236 255
221 236 255
221 236 255
221 236 255
221 236 255
221 236 255
221 236 255
221 236 255
221 236 255
221 236 255
221 236 255
221 236 255
221 236 255
221 236 255
221 236 255
221 236 255
221 236 255
221 236 255
221 236 255
221 236 255
221 236 255
221 236 255
221 236 255
221 236 255
221 236 255
221 236 255
221 236 255
221 236 255
221 236 255
221 236 255
221 236 255
221 236 255
221 236 255
221 236 255
221 236 255
221 236 255
221 236 255
221 236 255
221 236 255
221 236 255
221 236 255
221 236 255
221 236 255
221 236 255
221 236 255
221 236 255
221 236 255
221 236 255
221 236 255
221 236 255
221 236 255
221 236 255
221 236 255
221 236 255
221 236 255
221 236 255
221 236 255
221 236 255
221 236 255
221 236 255
221 236 255
221 236 255
221 236 255
221 236 255
221 236 255
221 236 255
221 236 255
221 236 255
221 236 255
221 236 255
221 236 255
221 236 255
221 236 255
221 236 255
221 236 255
221 236 255
221 236 255
221 236 255
221 236 255
221 236 255
221 236 255
221 236 255
221 236 255
221 236 255
221 236 255
221 236 255
221 236 255
221 236 255
221 236 255
221 236 255
221 236 255
221 236 255
221 236 255
221 236 255
221 236 255
221 236 255
221 236 255
221 236 255
221 236 255
221 236 255
221 236 255
221 236 255
221 236 255
221 236 255
221 236 255
221 236 255
221 236 255
221 236 255
221 236 255
221 236 255
221 236 255
221 236 255
221 236 255
221 236 255
221 236 255
221 236 255
221 236 255
221 236 255
221 236 255
221 236 255
221 236 255
221 236 255
221 236 255
221 236 255
221 236 255
221 236 255
221 236 255
221 236 255
221 236 255
221 236 255
221 236 255
221 236 255
221 236 255
221 236 255
221 236 255
221 236 255
221 236 255
221 236 255
221 236 255
221 236 255
221 236 255
221 236 255
221 236 255
221 236 255
221 236 255
221 236 255
221 236 255
221 236 255
221 236 255
221 236 255
221 236 255
221 236 255
221 236 255
221 236 255
221 236 255
221 236 255
221 236 255
221 236 255
221 236 255
221 236 255
221 236 255
221 236 255
221 236 255
221 236 255
221 236 255
221 236 255
221 236 255
221 236 255
221 236 255
221 236 255
221 236 255
221 236 255
221 236 255
221 236 255
221 236 255
221 236 255
221 236 255
221 236 255
221 236 255
221 236 255
221 236 255
221 236 255
221 236 255
221 236 255
221 236 255
221 236 255
221 236 255
221 236 255
221 236 255
221 236 255
221 236 255
221 236 255
221 236 255
221 236 255
221 236 255
221 236 255
221 236 255
221 236 255
221 236 255
221 236 255
221 236 255
221 236 255
221 236 255
221 236 255
221 236 255
221 236 255
221 236 255
221 236 255
221 236 255
221 236 255
221 236 255
221 236 255
221 236 255
221 236 255
221 236 255
221 236 255
221 236 255
221 236 255
221 236 255
221 236 255
221 236 255
221 236 255
221 236 255
221 236 255
221 236 255
221 236 255
221 236 255
221 236 255
221 236 255
221 236 255
221 236 255
221 236 255
221 236 255
221 236 255
221 236 255
221 236 255
221 236 255
221 236 255
221 236 255
221 236 255
221 236 255
221 236 255
221 236 255
221 236 255
221 236 255
221 236 255
221 236 255
221 236 255
221 236 255
221 236 255
221 236 255
221 236 255
221 236 255
221 236 255
221 236 255
221 236 255
221 236 255
221 236 255
221 236 255
221 236 255
221 236 255
221 236 255
221 236 255
221 236 255
221 236 255
221 236 255
221 236 255
221 236 255
221 236 255
221 236 255
221 236 255
221 236 255
221 236 255
221 236 255
221 236 255
221 236 255
221 236 255
221 236 255
221 236 255
221 236 255
221 236 255
221 236 255
221 236 255
221 236 255
221 236 255
221 236 255
221 236 255
221 236 255
221 236 255
221 236 255
221 236 255
221 236 255
221 236 255
221 236 255
221 236 255
221 236 255
221 236 255
221 236 255
221 236 255
221 236 255
221 236 255
221 236 255
221 236 255
221 236 255
221 236 255
221 236 255
221 236 255
221 236 255
221 236 255
221 236 255
221 236 255
221 236 255
221 236 255
221 236 255
221 236 255
221 236 255
221 236 255
221 236 255
221 236 255
221 236 255
221 236 255
221 236 255
221 236 255
221 236 255
221 236 255
221 236 255
221 236 255
221 236 255
221 236 255
221 236 255
221 236 255
221 236 255
221 236 255
221 236 255
221 236 255
221 236 255
221 236 255
221 236 255
221 236 255
221 236 255
221 236 255
221 236 255
221 236 255
221 236 255
221 236 255
221 236 255
221 236 255
221 236 255
221 236 255
221 236 255
221 236 255
221 236 255
221 236 255
221 236 255
221 236 255
221 236 255
221 236 255
221 236 255
221 236 255
221 236 255
221 236 255
221 236 255
221 236 255
221 236 255
221 236 255
221 236 255
221 236 255
221 236 255
221 236 255
221 236 255
221 236 255
221 236 255
221 236 255
221 236 255
221 236 255
221 236 255
221 236 255
221 236 255
221 236 255
221 236 255
221 236 255
221 236 255
221 236 255
221 236 255
221 236 255
221 236 255
221 236 255
221 236 255
221 236 255
221 236 255
221 236 255
221 236 255
221 236 255
221 236 255
221 236 255
221 236 255
221 236 255
221 236 255
221 236 255
221 236 255
221 236 255
221 236 255
221 236 255
221 236 255
221 236 255
221 236 255
221 236 255
221 236 255
221 236 255
221 236 255
221 236 255
221 236 255
221 236 255
221 236 255
221 236 255
221 236 255
221 236 255
221 236 255
221 236 255
221 236 255
221 236 255
221 236 255
221 236 255
221 236 255
221 236 255
221 236 255
221 236 255
221 236 255
221 236 255
221 236 255
221 236 255
221 236 255
221 236 255
221 236 255
221 236 255
221 236 255
221 236 255
221 236 255
221 236 255
221 236 255
221 236 255
221 236 255
221 236 255
221 236 255
221 236 255
221 236 255
221 236 255
221 236 255
221 236 255
221 236 255
221 236 255
221 236 255
221 236 255
221 236 255
221 236 255
221 236 255
222 236 255
221 236 255
221 236 255
222 236 255
222 236 255
221 236 255
221 236 255
221 236 255
221 236 255
221 236 255
222 236 255
222 236 255
221 236 255
222 236 255
222 236 255
222 236 255
222 236 255
222 236 255
221 236 255
222 236 255
221 236 255
222 236 255
222 236 255
222 236 255
222 236 255
222 236 255
222 236 255
222 236 255
222 236 255
222 236 255
222 236 255
222 236 255
222 236 255
222 236 255
222 236 255
222 236 255
222 236 255
222 236 255
222 236 255
222 236 255
222 236 255
222 236 255
222 236 255
222 236 255
222 236 255
222 236 255
222 236 255
222 236 255
222 236 255
222 236 255
222 236 255
222 236 255
222 236 255
222 236 255
222 236 255
222 236 255
222 236 255
222 236 255
222 236 255
222 236 255
222 236 255
222 236 255
222 236 255
222 236 255
222 236 255
222 236 255
222 236 255
222 236 255
222 236 255
222 236 255
222 236 255
222 236 255
222 236 255
222 236 255
222 236 255
222 236 255
222 236 255
222 236 255
222 236 255
222 236 255
222 236 255
222 236 255
222 236 255
222 236 255
222 236 255
222 236 255
222 236 255
222 236 255
222 236 255
222 236 255
222 236 255
222 236 255
222 236 255
222 236 255
222 236 255
222 236 255
222 236 255
222 236 255
222 236 255
222 236 255
222 236 255
222 236 255
222 236 255
222 236 255
222 236 255
222 236 255
222 236 255
222 236 255
222 236 255
222 236 255
222 236 255
222 236 255
222 236 255
222 236 255
222 236 255
222 236 255
222 236 255
222 236 255
222 236 255
222 236 255
222 236 255
222 236 255
222 236 255
222 236 255
222 236 255
222 236 255
222 236 255
222 236 255
222 236 255
222 236 255
222 236 255
222 236 255
222 236 255
222 236 255
222 236 255
222 236 255
222 236 255
222 236 255
222 236 255
222 236 255
222 236 255
222 236 255
222 236 255
222 236 255
222 236 255
222 236 255
222 236 255
222 236 255
222 236 255
222 236 255
222 236 255
222 236 255
222 236 255
222 236 255
222 236 255
222 236 255
222 236 255
222 236 255
222 236 255
222 236 255
222 236 255
222 236 255
222 236 255
222 236 255
222 236 255
222 236 255
222 236 255
222 236 255
222 236 255
222 236 255
222 236 255
222 236 255
222 236 255
222 236 255
222 236 255
222 236 255
222 236 255
222 236 255
222 236 255
222 236 255
222 236 255
222 236 255
222 236 255
222 236 255
222 236 255
222 236 255
222 236 255
222 236 255
222 236 255
222 236 255
222 236 255
222 236 255
222 236 255
222 236 255
222 236 255
222 236 255
222 236 255
222 236 255
222 236 255
222 236 255
222 236 255
222 236 255
222 236 255
222 236 255
222 236 255
222 236 255
222 236 255
222 236 255
222 236 255
222 236 255
222 236 255
222 236 255
222 236 255
222 236 255
222 236 255
222 236 255
222 236 255
222 236 255
222 236 255
222 236 255
222 236 255
222 236 255
222 236 255
222 236 255
222 236 255
222 236 255
222 236 255
222 236 255
222 236 255
222 236 255
222 236 255
222 236 255
222 236 255
222 236 255
222 236 255
222 236 255
222 236 255
222 236 255
222 236 255
222 236 255
222 236 255
222 236 255
222 236 255
222 236 255
222 236 255
222 236 255
222 236 255
222 236 255
222 236 255
222 236 255
222 236 255
222 236 255
222 236 255
222 236 255
222 236 255
222 236 255
222 236 255
222 236 255
222 236 255
222 236 255
222 236 255
222 236 255
222 236 255
221 236 255
222 236 255
222 236 255
222 236 255
222 236 255
221 236 255
221 236 255
222 236 255
222 236 255
221 236 255
221 236 255
221 236 255
221 236 255
221 236 255
221 236 255
221 236 255
221 236 255
221 236 255
221 236 255
221 236 255
221 236 255
221 236 255
221 236 255
221 236 255
221 236 255
221 236 255
221 236 255
221 236 255
221 236 255
221 236 255
221 236 255
221 236 255
221 236 255
221 236 255
221 236 255
221 236 255
221 236 255
221 236 255
221 236 255
221 236 255
221 236 255
221 236 255
221 236 255
221 236 255
221 236 255
221 236 255
221 236 255
221 236 255
221 236 255
221 236 255
221 236 255
221 236 255
221 236 255
221 236 255
221 236 255
221 236 255
221 236 255
221 236 255
221 236 255
221 236 255
221 236 255
221 236 255
221 236 255
221 236 255
221 236 255
221 236 255
221 236 255
221 236 255
221 236 255
221 236 255
221 236 255
221 236 255
221 236 255
221 236 255
221 236 255
221 236 255
222 236 255
222 236 255
222 236 255
222 236 255
222 236 255
222 236 255
222 236 255
222 236 255
222 236 255
222 236 255
222 236 255
222 236 255
222 236 255
222 236 255
222 236 255
222 236 255
222 236 255
222 236 255
222 236 255
222 236 255
222 236 255
222 236 255
222 236 255
222 236 255
222 236 255
222 236 255
222 236 255
222 236 255
222 236 255
222 236 255
222 236 255
222 236 255
222 236 255
222 236 255
222 236 255
222 236 255
222 236 255
222 236 255
222 236 255
222 236 255
222 236 255
222 236 255
222 236 255
222 236 255
222 236 255
222 236 255
222 236 255
222 236 255
222 236 255
222 236 255
222 236 255
222 236 255
222 236 255
222 236 255
222 236 255
222 236 255
222 236 255
222 236 255
222 236 255
222 236 255
222 236 255
222 236 255
222 236 255
222 236 255
222 236 255
222 236 255
222 236 255
222 236 255
222 236 255
222 236 255
222 236 255
222 236 255
222 236 255
222 236 255
222 236 255
222 236 255
222 236 255
222 236 255
222 236 255
222 236 255
222 236 255
222 236 255
222 236 255
222 236 255
222 236 255
222 236 255
222 236 255
222 236 255
222 236 255
222 236 255
222 236 255
222 236 255
222 236 255
222 236 255
222 236 255
222 236 255
222 236 255
222 236 255
222 236 255
222 236 255
222 236 255
222 236 255
222 236 255
222 236 255
222 236 255
222 236 255
222 236 255
222 236 255
222 236 255
222 236 255
222 236 255
222 236 255
222 236 255
222 236 255
222 236 255
222 236 255
222 236 255
222 236 255
222 236 255
222 236 255
222 236 255
222 236 255
222 236 255
222 236 255
222 236 255
222 236 255
222 236 255
222 236 255
222 236 255
222 236 255
222 236 255
222 236 255
222 236 255
222 236 255
222 236 255
222 236 255
222 236 255
222 236 255
222 236 255
222 236 255
222 236 255
222 236 255
222 236 255
222 236 255
222 236 255
222 236 255
222 236 255
222 236 255
222 236 255
222 236 255
222 236 255
222 236 255
222 236 255
222 236 255
222 236 255
222 236 255
222 236 255
222 236 255
222 236 255
222 236 255
222 236 255
222 236 255
222 236 255
222 236 255
222 236 255
222 236 255
222 236 255
222 236 255
222 236 255
222 236 255
222 236 255
222 236 255
222 236 255
222 236 255
222 236 255
222 236 255
222 236 255
222 236 255
222 236 255
222 236 255
222 236 255
222 236 255
222 236 255
222 236 255
222 236 255
222 236 255
222 236 255
222 236 255
222 236 255
222 236 255
222 236 255
222 236 255
222 236 255
222 236 255
222 236 255
222 236 255
222 236 255
222 236 255
222 236 255
222 236 255
222 236 255
222 236 255
222 236 255
222 236 255
222 236 255
222 236 255
222 236 255
222 236 255
222 236 255
222 236 255
222 236 255
222 236 255
222 236 255
222 236 255
222 236 255
222 236 255
222 236 255
222 236 255
222 236 255
222 236 255
222 236 255
222 236 255
222 236 255
222 236 255
222 236 255
222 236 255
222 236 255
222 236 255
222 236 255
222 236 255
222 236 255
222 236 255
222 236 255
222 236 255
222 236 255
222 236 255
222 236 255
222 236 255
222 236 255
222 236 255
222 236 255
222 236 255
222 236 255
222 236 255
222 236 255
222 236 255
222 236 255
222 236 255
222 236 255
222 236 255
222 236 255
222 236 255
222 236 255
222 236 255
222 236 255
222 236 255
222 236 255
222 236 255
222 236 255
222 236 255
222 236 255
222 236 255
222 236 255
222 236 255
222 236 255
222 236 255
222 236 255
222 236 255
222 236 255
222 236 255
222 236 255
222 236 255
222 236 255
222 236 255
222 236 255
222 236 255
222 236 255
222 236 255
222 236 255
222 236 255
222 236 255
222 236 255
222 236 255
222 236 255
222 236 255
222 236 255
222 236 255
222 236 255
222 236 255
222 236 255
222 236 255
222 236 255
222 236 255
222 236 255
222 236 255
222 236 255
222 236 255
222 236 255
222 236 255
222 236 255
222 236 255
222 236 255
222 236 255
222 236 255
222 236 255
222 236 255
222 236 255
222 236 255
222 236 255
222 236 255
222 236 255
222 236 255
222 236 255
222 236 255
222 236 255
222 236 255
222 236 255
222 236 255
222 236 255
222 236 255
222 236 255
222 236 255
222 236 255
222 236 255
222 236 255
222 236 255
222 236 255
222 236 255
222 236 255
222 236 255
222 236 255
222 236 255
222 236 255
222 236 255
222 236 255
222 236 255
222 236 255
222 236 255
222 236 255
222 236 255
222 236 255
222 236 255
222 236 255
222 236 255
222 236 255
222 236 255
222 236 255
222 236 255
222 236 255
222 236 255
222 236 255
222 236 255
222 236 255
222 236 255
222 236 255
222 236 255
222 236 255
222 236 255
222 236 255
222 236 255
222 236 255
222 236 255
222 236 255
222 236 255
222 236 255
222 236 255
222 236 255
222 236 255
222 236 255
222 236 255
222 236 255
222 236 255
222 236 255
222 236 255
222 236 255
222 236 255
222 236 255
222 236 255
222 236 255
222 236 255
222 236 255
222 236 255
222 236 255
222 236 255
222 236 255
222 236 255
222 236 255
222 236 255
222 236 255
222 236 255
222 236 255
222 236 255
222 236 255
222 236 255
222 236 255
222 236 255
222 236 255
222 236 255
222 236 255
222 236 255
222 236 255
222 236 255
222 236 255
222 236 255
222 236 255
222 236 255
222 236 255
222 236 255
222 236 255
222 236 255
222 236 255
222 236 255
222 236 255
222 236 255
222 236 255
222 236 255
222 236 255
222 236 255
222 236 255
222 236 255
222 236 255
222 236 255
222 236 255
222 236 255
222 236 255
222 236 255
222 236 255
222 236 255
222 236 255
222 236 255
222 236 255
222 236 255
222 236 255
222 236 255
222 236 255
222 236 255
222 236 255
222 236 255
222 236 255
222 236 255
222 236 255
222 236 255
222 236 255
222 236 255
222 236 255
222 236 255
222 236 255
222 236 255
222 236 255
222 236 255
222 236 255
222 236 255
222 236 255
222 236 255
222 236 255
222 236 255
222 236 255
222 236 255
222 236 255
222 236 255
222 236 255
222 236 255
222 236 255
222 236 255
222 236 255
222 236 255
222 236 255
222 236 255
222 236 255
222 236 255
222 236 255
222 236 255
222 236 255
222 236 255
222 236 255
222 236 255
222 236 255
222 236 255
222 236 255
222 236 255
222 236 255
222 236 255
222 236 255
222 236 255
222 236 255
222 236 255
222 236 255
222 236 255
222 236 255
222 236 255
222 236 255
222 236 255
222 236 255
222 236 255
222 236 255
222 236 255
222 236 255
222 236 255
222 236 255
222 236 255
222 236 255
222 236 255
222 236 255
222 236 255
222 236 255
222 236 255
222 236 255
222 236 255
222 236 255
222 236 255
222 236 255
222 236 255
222 236 255
222 236 255
222 236 255
222 236 255
222 236 255
222 236 255
222 236 255
222 236 255
222 236 255
222 236 255
222 236 255
222 236 255
222 236 255
222 236 255
222 236 255
222 236 255
222 236 255
222 236 255
222 236 255
222 236 255
222 236 255
222 236 255
222 236 255
222 236 255
222 236 255
222 236 255
222 236 255
222 236 255
222 236 255
222 236 255
222 236 255
222 236 255
222 236 255
222 236 255
222 236 255
222 236 255
222 236 255
222 236 255
222 236 255
222 236 255
222 236 255
222 236 255
222 236 255
222 236 255
222 236 255
222 236 255
222 236 255
222 236 255
222 236 255
222 236 255
222 236 255
222 236 255
222 236 255
222 236 255
222 236 255
222 236 255
222 236 255
222 236 255
222 236 255
222 236 255
222 236 255
222 236 255
222 236 255
222 236 255
222 236 255
222 236 255
222 236 255
222 236 255
222 236 255
222 236 255
222 236 255
222 236 255
222 236 255
222 236 255
222 236 255
222 236 255
222 236 255
222 236 255
222 236 255
222 236 255
222 236 255
222 236 255
222 236 255
222 236 255
222 236 255
222 236 255
222 236 255
222 236 255
222 236 255
222 236 255
222 236 255
222 236 255
222 236 255
222 236 255
222 236 255
222 236 255
222 236 255
222 236 255
222 236 255
222 236 255
222 236 255
222 236 255
222 236 255
222 236 255
222 236 255
222 236 255
222 236 255
222 236 255
222 236 255
222 236 255
222 236 255
222 236 255
222 236 255
222 236 255
222 236 255
222 236 255
222 236 255
222 236 255
222 236 255
222 236 255
222 236 255
222 236 255
222 236 255
222 236 255
222 236 255
222 236 255
222 236 255
222 236 255
222 236 255
222 236 255
222 236 255
222 236 255
222 236 255
222 236 255
222 236 255
222 236 255
222 236 255
222 236 255
222 236 255
222 236 255
222 236 255
222 236 255
222 236 255
222 236 255
222 236 255
222 236 255
222 236 255
222 236 255
222 236 255
222 236 255
222 236 255
222 236 255
222 236 255
222 236 255
222 236 255
222 236 255
222 236 255
222 236 255
222 236 255
222 236 255
222 236 255
222 236 255
222 236 255
222 236 255
222 236 255
222 236 255
222 236 255
222 236 255
222 236 255
222 236 255
222 236 255
222 236 255
222 236 255
222 236 255
222 236 255
222 236 255
222 236 255
222 236 255
222 236 255
222 236 255
222 236 255
222 236 255
222 236 255
222 236 255
222 236 255
222 236 255
222 236 255
222 236 255
222 236 255
222 236 255
222 236 255
222 236 255
222 236 255
222 236 255
222 236 255
222 236 255
222 236 255
222 236 255
222 236 255
222 236 255
222 236 255
222 236 255
222 236 255
222 236 255
222 236 255
222 236 255
222 236 255
222 236 255
222 236 255
222 236 255
222 236 255
222 236 255
222 236 255
222 236 255
222 236 255
222 236 255
222 236 255
222 236 255
222 236 255
222 236 255
222 236 255
222 236 255
222 236 255
222 236 255
222 236 255
222 236 255
222 236 255
222 236 255
222 236 255
222 236 255
222 236 255
222 236 255
222 236 255
222 236 255
222 236 255
222 236 255
222 236 255
222 236 255
222 236 255
222 236 255
222 236 255
222 236 255
222 236 255
222 236 255
222 236 255
222 236 255
222 236 255
222 236 255
222 236 255
222 236 255
222 236 255
222 236 255
222 236 255
222 236 255
222 236 255
222 236 255
222 236 255
222 236 255
222 236 255
222 236 255
222 236 255
222 236 255
222 236 255
222 236 255
222 236 255
222 236 255
222 236 255
222 236 255
222 236 255
222 236 255
222 236 255
222 236 255
222 236 255
222 236 255
222 236 255
222 236 255
222 236 255
222 236 255
222 236 255
222 236 255
222 236 255
222 236 255
222 236 255
222 236 255
222 236 255
222 236 255
222 236 255
222 236 255
222 236 255
222 236 255
222 236 255
222 236 255
222 236 255
222 236 255
222 236 255
222 236 255
222 236 255
222 236 255
222 236 255
222 236 255
222 236 255
222 236 255
222 236 255
222 236 255
222 236 255
222 236 255
222 236 255
222 236 255
222 236 255
222 236 255
222 236 255
222 236 255
222 236 255
222 236 255
222 236 255
222 236 255
222 236 255
222 236 255
222 236 255
222 236 255
222 236 255
222 236 255
222 236 255
222 236 255
222 236 255
222 236 255
222 236 255
222 236 255
222 236 255
222 236 255
222 236 255
222 236 255
222 236 255
222 236 255
222 236 255
222 236 255
222 236 255
222 236 255
222 236 255
222 236 255
222 236 255
222 236 255
222 236 255
222 236 255
222 236 255
222 236 255
222 236 255
222 236 255
222 236 255
222 236 255
222 236 255
222 236 255
222 236 255
222 236 255
222 236 255
222 236 255
222 236 255
222 236 255
222 236 255
222 236 255
222 236 255
222 236 255
222 236 255
222 236 255
222 236 255
222 236 255
222 236 255
222 236 255
222 236 255
222 236 255
222 236 255
222 236 255
222 236 255
222 236 255
222 236 255
222 236 255
222 236 255
222 236 255
222 236 255
222 236 255
222 236 255
222 236 255
222 236 255
222 236 255
222 236 255
222 236 255
222 236 255
222 236 255
222 236 255
222 236 255
222 236 255
222 236 255
222 236 255
222 236 255
222 236 255
222 236 255
222 236 255
222 236 255
222 236 255
222 236 255
222 236 255
222 236 255
222 236 255
222 236 255
222 236 255
222 236 255
222 236 255
222 236 255
222 236 255
222 236 255
222 236 255
222 236 255
222 236 255
222 236 255
222 236 255
222 236 255
222 236 255
222 236 255
222 236 255
222 236 255
222 236 255
222 236 255
222 236 255
222 236 255
222 236 255
222 236 255
222 236 255
222 236 255
222 236 255
222 236 255
222 236 255
222 236 255
222 236 255
222 236 255
222 236 255
222 236 255
222 236 255
222 236 255
222 236 255
222 236 255
222 236 255
222 236 255
222 236 255
222 236 255
222 236 255
222 236 255
222 236 255
222 236 255
222 236 255
222 236 255
222 236 255
222 236 255
222 236 255
222 236 255
222 236 255
222 236 255
222 236 255
222 236 255
222 236 255
222 236 255
222 236 255
222 236 255
222 236 255
222 236 255
222 236 255
222 236 255
222 236 255
222 236 255
222 236 255
222 236 255
222 236 255
222 236 255
222 236 255
222 236 255
222 236 255
222 236 255
222 236 255
222 236 255
222 236 255
222 236 255
222 236 255
222 236 255
222 236 255
222 236 255
222 236 255
222 236 255
222 236 255
222 236 255
222 236 255
222 236 255
222 236 255
222 236 255
222 236 255
222 236 255
222 236 255
222 236 255
222 236 255
222 236 255
222 236 255
222 236 255
222 236 255
222 236 255
222 236 255
222 236 255
222 236 255
222 236 255
222 236 255
222 236 255
222 236 255
222 236 255
222 236 255
222 236 255
222 236 255
222 236 255
222 236 255
222 236 255
222 236 255
222 236 255
222 236 255
222 236 255
222 236 255
222 236 255
222 236 255
222 236 255
222 236 255
222 236 255
222 236 255
222 236 255
222 236 255
222 236 255
222 236 255
222 236 255
222 236 255
222 236 255
222 236 255
222 236 255
222 236 255
222 236 255
222 236 255
222 236 255
222 236 255
222 236 255
222 236 255
222 236 255
222 236 255
222 236 255
222 236 255
222 236 255
222 236 255
222 236 255
222 236 255
222 236 255
222 236 255
222 236 255
222 236 255
222 236 255
222 236 255
222 236 255
222 236 255
222 236 255
222 236 255
222 236 255
222 236 255
222 236 255
222 236 255
222 236 255
222 236 255
222 236 255
222 236 255
222 236 255
222 236 255
222 236 255
222 236 255
222 236 255
222 236 255
222 236 255
222 236 255
222 236 255
222 236 255
222 236 255
222 236 255
222 236 255
222 236 255
222 236 255
222 236 255
222 236 255
222 236 255
222 236 255
222 236 255
222 236 255
222 236 255
222 236 255
222 236 255
222 236 255
222 236 255
222 236 255
222 236 255
222 236 255
222 236 255
222 236 255
222 236 255
222 236 255
222 236 255
222 236 255
222 236 255
222 236 255
222 236 255
222 236 255
222 236 255
222 236 255
222 236 255
222 236 255
222 236 255
222 236 255
222 236 255
222 236 255
222 236 255
222 236 255
222 236 255
222 236 255
222 236 255
222 236 255
222 236 255
222 236 255
222 236 255
222 236 255
222 236 255
222 236 255
222 236 255
222 236 255
222 236 255
222 236 255
222 236 255
222 236 255
222 236 255
222 236 255
222 236 255
222 236 255
222 236 255
222 236 255
222 236 255
222 236 255
222 236 255
222 236 255
222 236 255
222 236 255
222 236 255
222 236 255
222 236 255
222 236 255
222 236 255
222 236 255
222 236 255
222 236 255
222 236 255
222 236 255
222 236 255
222 236 255
222 236 255
222 236 255
222 236 255
222 236 255
222 236 255
222 236 255
222 236 255
222 236 255
222 236 255
222 236 255
222 236 255
222 236 255
222 236 255
222 236 255
222 236 255
222 236 255
222 236 255
222 236 255
222 236 255
222 236 255
222 236 255
222 236 255
222 236 255
222 236 255
222 236 255
222 236 255
222 236 255
222 236 255
222 236 255
222 236 255
222 236 255
222 236 255
222 236 255
222 236 255
222 236 255
222 236 255
222 236 255
222 236 255
222 236 255
222 236 255
222 236 255
222 236 255
222 236 255
222 236 255
222 236 255
222 236 255
222 236 255
222 236 255
222 236 255
222 236 255
222 236 255
222 236 255
222 236 255
222 236 255
222 236 255
222 236 255
222 236 255
222 236 255
222 236 255
222 236 255
222 236 255
222 236 255
222 236 255
222 236 255
222 236 255
222 236 255
222 236 255
222 236 255
222 236 255
222 236 255
222 236 255
222 236 255
222 236 255
222 236 255
222 236 255
222 236 255
222 236 255
222 236 255
222 236 255
222 236 255
222 236 255
222 236 255
222 236 255
222 236 255
222 236 255
222 236 255
222 236 255
222 236 255
222 236 255
222 236 255
222 236 255
222 236 255
222 236 255
222 236 255
222 236 255
222 236 255
222 236 255
222 236 255
222 236 255
222 236 255
222 236 255
222 236 255
222 236 255
222 236 255
222 236 255
222 236 255
222 236 255
222 236 255
222 236 255
222 236 255
222 236 255
222 236 255
222 236 255
222 236 255
222 236 255
222 236 255
222 236 255
222 236 255
222 236 255
222 236 255
222 236 255
222 236 255
222 236 255
222 236 255
222 236 255
222 236 255
222 236 255
222 236 255
222 236 255
222 236 255
222 236 255
222 236 255
222 236 255
222 236 255
222 236 255
222 236 255
222 236 255
222 236 255
222 236 255
222 236 255
222 236 255
222 236 255
222 236 255
222 236 255
222 236 255
222 236 255
222 236 255
222 236 255
222 236 255
222 236 255
222 236 255
222 236 255
222 236 255
222 236 255
222 236 255
222 236 255
222 236 255
222 236 255
222 236 255
222 236 255
222 236 255
222 236 255
222 236 255
222 236 255
222 236 255
222 236 255
222 236 255
222 236 255
222 236 255
222 236 255
222 236 255
222 236 255
222 236 255
222 236 255
223 236 255
223 236 255
222 236 255
223 236 255
223 236 255
223 236 255
223 236 255
223 236 255
223 236 255
223 236 255
223 236 255
223 236 255
223 236 255
223 236 255
223 236 255
223 236 255
223 236 255
223 236 255
223 236 255
223 236 255
223 236 255
223 236 255
223 236 255
223 236 255
223 236 255
223 236 255
223 236 255
223 236 255
223 236 255
223 236 255
223 236 255
223 236 255
223 236 255
223 236 255
223 236 255
223 236 255
223 236 255
223 236 255
223 236 255
223 236 255
223 236 255
223 236 255
223 236 255
223 236 255
223 236 255
223 236 255
223 236 255
223 236 255
223 236 255
223 236 255
223 236 255
223 236 255
223 236 255
223 236 255
223 236 255
223 236 255
223 236 255
223 236 255
223 236 255
223 236 255
223 236 255
223 236 255
223 236 255
223 236 255
223 236 255
223 236 255
223 236 255
223 236 255
223 236 255
223 236 255
223 236 255
223 236 255
223 236 255
223 236 255
223 236 255
223 236 255
223 236 255
223 236 255
223 236 255
223 236 255
223 236 255
223 236 255
223 236 255
223 236 255
223 236 255
223 236 255
223 236 255
223 236 255
223 236 255
223 236 255
223 236 255
223 236 255
223 236 255
223 236 255
223 236 255
223 236 255
223 236 255
223 236 255
223 236 255
223 236 255
223 236 255
223 236 255
223 236 255
223 236 255
223 236 255
223 236 255
223 236 255
222 236 255
223 236 255
222 236 255
223 236 255
223 236 255
222 236 255
222 236 255
222 236 255
222 236 255
222 236 255
222 236 255
222 236 255
222 236 255
222 236 255
222 236 255
222 236 255
222 236 255
222 236 255
222 236 255
222 236 255
222 236 255
222 236 255
222 236 255
222 236 255
222 236 255
222 236 255
222 236 255
222 236 255
222 236 255
222 236 255
222 236 255
222 236 255
222 236 255
222 236 255
222 236 255
222 236 255
222 236 255
222 236 255
222 236 255
222 236 255
222 236 255
222 236 255
222 236 255
222 236 255
222 236 255
222 236 255
222 236 255
222 236 255
222 236 255
222 236 255
222 236 255
222 236 255
222 236 255
222 236 255
222 236 255
222 236 255
222 236 255
222 236 255
222 236 255
222 236 255
222 236 255
222 236 255
222 236 255
222 236 255
222 236 255
222 236 255
222 236 255
222 236 255
222 236 255
222 236 255
222 236 255
222 236 255
222 236 255
222 236 255
222 236 255
222 236 255
222 236 255
222 236 255
222 236 255
222 236 255
222 236 255
222 236 255
222 236 255
222 236 255
222 236 255
222 236 255
222 236 255
222 236 255
222 236 255
222 236 255
222 236 255
222 236 255
222 236 255
222 236 255
222 236 255
222 236 255
222 236 255
222 236 255
222 236 255
222 236 255
222 236 255
222 236 255
222 236 255
222 236 255
222 236 255
222 236 255
222 236 255
222 236 255
222 236 255
222 236 255
222 236 255
222 236 255
222 236 255
222 236 255
222 236 255
222 236 255
222 236 255
222 236 255
222 236 255
222 236 255
222 236 255
222 236 255
222 236 255
222 236 255
222 236 255
222 236 255
222 236 255
222 236 255
222 236 255
222 236 255
222 236 255
222 236 255
222 236 255
222 236 255
222 236 255
222 236 255
222 236 255
222 236 255
222 236 255
222 236 255
222 236 255
222 236 255
222 236 255
222 236 255
222 236 255
222 236 255
222 236 255
222 236 255
222 236 255
222 236 255
222 236 255
222 236 255
222 236 255
222 236 255
222 236 255
222 236 255
222 236 255
222 236 255
222 236 255
222 236 255
222 236 255
222 236 255
222 236 255
222 236 255
222 236 255
222 236 255
222 236 255
222 236 255
222 236 255
222 236 255
222 236 255
222 236 255
222 236 255
222 236 255
222 236 255
222 236 255
222 236 255
222 236 255
222 236 255
222 236 255
222 236 255
222 236 255
222 236 255
222 236 255
222 236 255
222 236 255
222 236 255
222 236 255
222 236 255
222 236 255
222 236 255
222 236 255
222 236 255
222 236 255
222 236 255
222 236 255
222 236 255
222 236 255
222 236 255
222 236 255
222 236 255
222 236 255
222 236 255
222 236 255
222 236 255
222 236 255
222 236 255
222 236 255
222 236 255
222 236 255
222 236 255
222 236 255
222 236 255
222 236 255
222 236 255
222 236 255
222 236 255
222 236 255
222 236 255
222 236 255
222 236 255
222 236 255
222 236 255
222 236 255
222 236 255
222 236 255
222 236 255
222 236 255
222 236 255
222 236 255
222 236 255
222 236 255
222 236 255
222 236 255
222 236 255
222 236 255
222 236 255
222 236 255
222 236 255
222 236 255
222 236 255
222 236 255
222 236 255
222 236 255
222 236 255
222 236 255
223 236 255
223 236 255
223 236 255
223 236 255
223 236 255
223 236 255
223 236 255
223 236 255
223 236 255
223 236 255
223 236 255
223 236 255
223 236 255
223 236 255
223 236 255
223 236 255
223 236 255
223 236 255
223 236 255
223 236 255
223 236 255
223 236 255
223 236 255
223 236 255
223 236 255
223 236 255
223 236 255
223 236 255
223 236 255
223 236 255
223 236 255
223 236 255
223 236 255
223 236 255
223 236 255
223 236 255
223 236 255
223 236 255
223 236 255
223 236 255
223 236 255
223 236 255
223 236 255
223 236 255
223 236 255
223 236 255
223 236 255
223 236 255
223 236 255
223 236 255
223 236 255
223 236 255
223 236 255
223 236 255
223 236 255
223 236 255
223 236 255
223 236 255
223 236 255
223 236 255
223 236 255
223 236 255
223 236 255
223 236 255
223 236 255
223 236 255
223 236 255
223 236 255
223 236 255
223 236 255
223 236 255
223 236 255
223 236 255
223 236 255
223 236 255
223 236 255
223 236 255
223 236 255
223 236 255
223 236 255
223 236 255
223 236 255
223 236 255
223 236 255
223 236 255
223 236 255
223 236 255
223 236 255
223 236 255
223 236 255
223 236 255
223 236 255
223 236 255
223 236 255
223 236 255
223 236 255
223 236 255
223 236 255
223 236 255
223 236 255
223 236 255
223 236 255
223 236 255
223 236 255
223 236 255
223 236 255
223 236 255
223 236 255
223 236 255
223 236 255
223 236 255
223 236 255
223 236 255
223 236 255
223 236 255
223 236 255
223 236 255
223 236 255
223 236 255
223 236 255
223 236 255
223 236 255
223 236 255
223 236 255
223 236 255
223 236 255
223 236 255
223 236 255
223 236 255
223 236 255
223 236 255
223 236 255
223 236 255
223 236 255
223 236 255
223 236 255
223 236 255
223 236 255
223 236 255
223 236 255
223 236 255
223 236 255
223 236 255
223 236 255
223 236 255
223 236 255
223 236 255
223 236 255
223 236 255
223 236 255
223 236 255
223 236 255
223 236 255
223 236 255
223 236 255
223 236 255
223 236 255
223 236 255
223 236 255
223 236 255
223 236 255
223 236 255
223 236 255
223 236 255
223 236 255
223 236 255
223 236 255
223 236 255
223 236 255
223 236 255
223 236 255
223 236 255
223 236 255
223 236 255
223 236 255
223 236 255
223 236 255
223 236 255
223 236 255
223 236 255
223 236 255
223 236 255
223 236 255
223 236 255
223 236 255
223 236 255
223 236 255
223 236 255
223 236 255
223 236 255
223 236 255
223 236 255
223 236 255
223 236 255
223 236 255
223 236 255
223 236 255
223 236 255
223 236 255
223 236 255
223 236 255
223 236 255
223 236 255
223 236 255
222 236 255
222 236 255
222 236 255
222 236 255
222 236 255
222 236 255
222 236 255
222 236 255
222 236 255
222 236 255
222 236 255
222 236 255
222 236 255
222 236 255
222 236 255
222 236 255
222 236 255
222 236 255
222 236 255
222 236 255
222 236 255
222 236 255
222 236 255
222 236 255
222 236 255
222 236 255
222 236 255
222 236 255
222 236 255
222 236 255
222 236 255
222 236 255
222 236 255
222 236 255
222 236 255
222 236 255
222 236 255
222 236 255
222 236 255
222 236 255
222 236 255
222 236 255
222 236 255
222 236 255
222 236 255
222 236 255
222 236 255
222 236 255
222 236 255
222 236 255
222 236 255
222 236 255
222 236 255
222 236 255
222 236 255
222 236 255
222 236 255
222 236 255
222 236 255
222 236 255
222 236 255
222 236 255
222 236 255
222 236 255
222 236 255
222 236 255
222 236 255
222 236 255
222 236 255
222 236 255
222 236 255
222 236 255
222 236 255
222 236 255
222 236 255
222 236 255
222 236 255
222 236 255
222 236 255
222 236 255
222 236 255
222 236 255
222 236 255
222 236 255
222 236 255
222 236 255
222 236 255
222 236 255
222 236 255
222 236 255
222 236 255
222 236 255
222 236 255
222 236 255
222 236 255
222 236 255
222 236 255
222 236 255
222 236 255
222 236 255
222 236 255
222 236 255
222 236 255
222 236 255
222 236 255
222 236 255
222 236 255
222 236 255
222 236 255
222 236 255
222 236 255
222 236 255
222 236 255
222 236 255
222 236 255
222 236 255
222 236 255
222 236 255
222 236 255
222 236 255
222 236 255
222 236 255
222 236 255
222 236 255
222 236 255
222 236 255
222 236 255
222 236 255
222 236 255
222 236 255
222 236 255
222 236 255
222 236 255
222 236 255
222 236 255
222 236 255
222 236 255
222 236 255
222 236 255
222 236 255
222 236 255
222 236 255
222 236 255
222 236 255
222 236 255
222 236 255
222 236 255
222 236 255
222 236 255
222 236 255
222 236 255
222 236 255
222 236 255
222 236 255
222 236 255
222 236 255
222 236 255
222 236 255
222 236 255
223 236 255
223 236 255
223 236 255
223 236 255
223 236 255
223 236 255
223 236 255
223 236 255
223 236 255
223 236 255
223 236 255
223 236 255
223 236 255
223 236 255
223 236 255
223 236 255
223 236 255
223 236 255
223 236 255
223 236 255
223 236 255
223 236 255
223 236 255
223 236 255
223 236 255
223 236 255
223 236 255
223 236 255
223 236 255
223 236 255
223 236 255
223 236 255
223 236 255
223 236 255
223 236 255
223 236 255
223 236 255
223 236 255
223 236 255
223 236 255
223 236 255
223 236 255
223 236 255
223 236 255
223 236 255
223 236 255
223 236 255
223 236 255
223 236 255
223 236 255
223 236 255
223 236 255
223 236 255
223 236 255
223 236 255
223 236 255
223 236 255
223 236 255
223 236 255
223 236 255
223 236 255
223 236 255
223 236 255
223 236 255
223 236 255
223 236 255
223 236 255
223 236 255
223 236 255
223 236 255
223 236 255
223 236 255
223 236 255
223 236 255
223 236 255
223 236 255
223 236 255
223 236 255
223 236 255
223 237 255
223 237 255
223 237 255
223 237 255
223 237 255
223 237 255
223 237 255
223 237 255
223 237 255
223 237 255
223 237 255
223 237 255
223 237 255
223 237 255
223 237 255
223 237 255
223 237 255
223 237 255
223 237 255
223 237 255
223 237 255
223 237 255
223 237 255
223 237 255
223 237 255
223 237 255
223 237 255
223 237 255
223 237 255
223 237 255
223 237 255
223 237 255
223 237 255
223 237 255
223 237 255
223 237 255
223 237 255
223 237 255
223 237 255
223 237 255
223 237 255
223 237 255
223 237 255
223 237 255
223 237 255
223 237 255
223 237 255
223 237 255
223 237 255
223 237 255
223 237 255
223 237 255
223 237 255
223 237 255
223 237 255
223 237 255
223 237 255
223 237 255
223 237 255
223 237 255
223 237 255
223 237 255
223 237 255
223 237 255
223 237 255
223 237 255
223 237 255
223 237 255
223 237 255
223 237 255
223 237 255
223 237 255
223 237 255
223 237 255
223 237 255
223 237 255
223 237 255
223 237 255
223 237 255
223 237 255
223 237 255
223 237 255
223 237 255
223 237 255
223 237 255
223 237 255
223 237 255
223 237 255
223 237 255
223 237 255
223 237 255
223 237 255
223 237 255
223 237 255
223 237 255
223 237 255
223 237 255
223 237 255
223 237 255
223 237 255
223 237 255
223 237 255
223 237 255
223 237 255
223 237 255
223 237 255
223 237 255
223 237 255
223 237 255
223 237 255
223 237 255
223 237 255
223 237 255
223 237 255
223 237 255
223 237 255
223 237 255
223 237 255
223 237 255
223 237 255
223 237 255
223 236 255
223 236 255
223 236 255
223 236 255
223 236 255
223 236 255
223 236 255
223 236 255
223 236 255
223 236 255
223 236 255
223 236 255
223 236 255
223 236 255
223 236 255
223 236 255
223 236 255
223 236 255
223 236 255
223 236 255
223 236 255
223 236 255
223 236 255
223 236 255
223 236 255
223 236 255
223 236 255
223 236 255
223 236 255
223 236 255
223 236 255
223 236 255
223 236 255
223 236 255
223 236 255
223 236 255
223 236 255
223 236 255
223 236 255
223 236 255
223 236 255
223 236 255
223 236 255
223 236 255
223 236 255
223 236 255
223 236 255
223 236 255
223 236 255
223 236 255
223 236 255
223 236 255
223 236 255
223 236 255
223 236 255
223 236 255
223 236 255
223 236 255
223 236 255
223 236 255
223 236 255
223 236 255
223 236 255
223 236 255
223 236 255
223 236 255
223 236 255
223 236 255
223 236 255
223 236 255
223 236 255
223 236 255
223 236 255
223 236 255
223 236 255
223 236 255
223 236 255
222 236 255
222 236 255
222 236 255
222 236 255
222 236 255
222 236 255
222 236 255
222 236 255
222 236 255
222 236 255
222 236 255
222 236 255
222 236 255
222 236 255
222 236 255
222 236 255
222 236 255
222 236 255
222 236 255
222 236 255
222 236 255
222 236 255
222 236 255
222 236 255
222 236 255
222 236 255
222 236 255
222 236 255
222 236 255
222 236 255
222 236 255
222 236 255
222 236 255
222 236 255
222 236 255
222 236 255
222 236 255
222 236 255
222 236 255
222 236 255
222 236 255
222 236 255
222 236 255
222 236 255
222 236 255
222 236 255
222 236 255
222 236 255
222 236 255
222 236 255
222 236 255
222 236 255
222 236 255
222 236 255
222 236 255
222 236 255
222 236 255
222 236 255
222 236 255
222 236 255
222 236 255
222 236 255
222 236 255
222 236 255
222 236 255
222 236 255
222 236 255
222 236 255
222 236 255
222 236 255
222 236 255
222 236 255
222 236 255
222 236 255
222 236 255
222 236 255
222 236 255
222 236 255
222 236 255
222 236 255
222 236 255
222 236 255
222 236 255
222 236 255
222 236 255
222 236 255
222 236 255
222 236 255
222 236 255
222 236 255
223 236 255
222 236 255
223 236 255
222 236 255
223 236 255
223 236 255
223 236 255
223 236 255
223 236 255
223 236 255
223 236 255
223 236 255
223 236 255
223 236 255
223 236 255
223 236 255
223 236 255
223 236 255
223 236 255
223 236 255
223 236 255
223 236 255
223 236 255
223 236 255
223 236 255
223 236 255
223 236 255
223 236 255
223 236 255
223 236 255
223 236 255
223 236 255
223 236 255
223 236 255
223 236 255
223 236 255
223 236 255
223 236 255
223 236 255
223 236 255
223 236 255
223 236 255
223 236 255
223 236 255
223 236 255
223 236 255
223 236 255
223 236 255
223 236 255
223 236 255
223 236 255
223 236 255
223 236 255
223 236 255
223 236 255
223 236 255
223 236 255
223 236 255
223 236 255
223 236 255
223 236 255
223 236 255
223 236 255
223 236 255
223 236 255
223 236 255
223 236 255
223 236 255
223 236 255
223 236 255
223 236 255
223 236 255
223 236 255
223 236 255
223 236 255
223 236 255
223 237 255
223 236 255
223 237 255
223 237 255
223 237 255
223 237 255
223 237 255
223 237 255
223 237 255
223 237 255
223 237 255
223 237 255
223 237 255
223 237 255
223 237 255
223 237 255
223 237 255
223 237 255
223 237 255
223 237 255
223 237 255
223 237 255
223 237 255
223 237 255
223 237 255
223 237 255
223 237 255
223 237 255
223 237 255
223 237 255
223 237 255
223 237 255
223 237 255
223 237 255
223 237 255
223 237 255
223 237 255
223 237 255
223 237 255
223 237 255
223 237 255
223 237 255
223 237 255
223 237 255
223 237 255
223 237 255
223 237 255
223 237 255
223 237 255
223 237 255
223 237 255
223 237 255
223 237 255
223 237 255
223 237 255
223 237 255
223 237 255
223 237 255
223 237 255
223 237 255
223 237 255
223 237 255
223 237 255
223 237 255
223 237 255
223 237 255
223 237 255
223 237 255
223 237 255
223 237 255
223 237 255
223 237 255
223 237 255
223 237 255
223 237 255
223 237 255
223 237 255
223 237 255
223 237 255
223 237 255
223 237 255
223 237 255
223 237 255
223 237 255
223 237 255
223 237 255
223 237 255
223 237 255
223 237 255
223 237 255
223 237 255
223 237 255
223 237 255
223 237 255
223 237 255
223 237 255
223 237 255
223 237 255
223 237 255
223 237 255
223 237 255
223 237 255
223 237 255
223 237 255
223 237 255
223 237 255
223 237 255
223 237 255
223 237 255
223 237 255
223 237 255
223 237 255
223 237 255
223 237 255
223 237 255
223 237 255
223 237 255
223 237 255
223 237 255
223 237 255
223 237 255
223 237 255
223 237 255
223 237 255
223 237 255
223 237 255
223 237 255
223 237 255
223 237 255
223 237 255
223 237 255
223 237 255
223 237 255
223 237 255
223 237 255
223 237 255
223 237 255
223 237 255
223 237 255
223 237 255
223 237 255
223 237 255
223 237 255
223 237 255
223 237 255
223 237 255
223 237 255
223 237 255
223 237 255
223 237 255
223 237 255
223 237 255
223 237 255
223 237 255
223 237 255
223 237 255
223 237 255
223 237 255
223 237 255
223 237 255
223 237 255
223 237 255
223 237 255
223 237 255
223 237 255
223 237 255
223 237 255
223 237 255
223 237 255
223 237 255
223 237 255
223 237 255
223 237 255
223 237 255
223 237 255
223 237 255
223 237 255
223 237 255
223 237 255
223 237 255
223 237 255
223 237 255
223 237 255
223 237 255
223 237 255
223 237 255
223 237 255
223 237 255
223 237 255
223 237 255
223 237 255
223 237 255
223 236 255
223 236 255
223 236 255
223 236 255
223 236 255
223 236 255
223 236 255
223 236 255
223 236 255
223 236 255
223 236 255
223 236 255
223 236 255
223 236 255
223 236 255
223 236 255
223 236 255
223 236 255
223 236 255
223 236 255
223 236 255
223 236 255
223 236 255
223 236 255
223 236 255
223 236 255
223 236 255
223 236 255
223 236 255
223 236 255
223 236 255
223 236 255
223 236 255
223 236 255
223 236 255
223 236 255
223 236 255
223 236 255
223 236 255
223 236 255
223 236 255
223 236 255
223 236 255
223 236 255
223 236 255
223 236 255
223 236 255
223 236 255
223 236 255
223 236 255
223 236 255
223 236 255
223 236 255
223 236 255
223 236 255
223 236 255
223 236 255
223 236 255
223 236 255
223 236 255
223 236 255
223 236 255
223 236 255
223 236 255
223 236 255
223 236 255
223 236 255
223 236 255
223 236 255
223 236 255
223 236 255
223 236 255
223 236 255
223 236 255
223 236 255
223 236 255
222 236 255
222 236 255
222 236 255
222 236 255
222 236 255
222 236 255
222 236 255
222 236 255
222 236 255
222 236 255
222 236 255
222 236 255
222 236 255
222 236 255
222 236 255
222 236 255
222 236 255
222 236 255
222 236 255
222 236 255
222 236 255
222 236 255
222 236 255
222 236 255
222 236 255
222 236 255
222 236 255
222 236 255
222 236 255
222 236 255
223 236 255
223 236 255
223 236 255
223 236 255
223 236 255
223 236 255
223 236 255
223 236 255
223 236 255
223 236 255
223 236 255
223 236 255
223 236 255
223 236 255
223 236 255
223 236 255
223 236 255
223 236 255
223 236 255
223 236 255
223 236 255
223 236 255
223 236 255
223 236 255
223 236 255
223 236 255
223 236 255
223 236 255
223 236 255
223 236 255
223 236 255
223 236 255
223 236 255
223 236 255
223 236 255
223 236 255
223 236 255
223 236 255
223 236 255
223 236 255
223 236 255
223 236 255
223 236 255
223 236 255
223 236 255
223 236 255
223 236 255
223 236 255
223 236 255
223 236 255
223 236 255
223 236 255
223 236 255
223 236 255
223 236 255
223 236 255
223 236 255
223 236 255
223 236 255
223 236 255
223 236 255
223 236 255
223 236 255
223 236 255
223 236 255
223 236 255
223 236 255
223 236 255
223 236 255
223 236 255
223 236 255
223 236 255
223 236 255
223 236 255
223 236 255
223 237 255
223 237 255
223 237 255
223 237 255
223 237 255
223 237 255
223 237 255
223 237 255
223 237 255
223 237 255
223 237 255
223 237 255
223 237 255
223 237 255
223 237 255
223 237 255
223 237 255
223 237 255
223 237 255
223 237 255
223 237 255
223 237 255
223 237 255
223 237 255
223 237 255
223 237 255
223 237 255
223 237 255
223 237 255
223 237 255
223 237 255
223 237 255
223 237 255
223 237 255
223 237 255
223 237 255
223 237 255
223 237 255
223 237 255
223 237 255
223 237 255
223 237 255
223 237 255
223 237 255
223 237 255
223 237 255
223 237 255
223 237 255
223 237 255
223 237 255
223 237 255
223 237 255
223 237 255
223 237 255
223 237 255
223 237 255
223 237 255
223 237 255
223 237 255
223 237 255
223 237 255
223 237 255
223 237 255
223 237 255
223 237 255
223 237 255
223 237 255
223 237 255
223 237 255
223 237 255
223 237 255
223 237 255
223 237 255
223 237 255
223 237 255
223 237 255
223 237 255
223 237 255
223 237 255
223 237 255
223 237 255
224 237 255
223 237 255
224 237 255
224 237 255
224 237 255
224 237 255
224 237 255
224 237 255
224 237 255
224 237 255
224 237 255
224 237 255
224 237 255
224 237 255
224 237 255
224 237 255
224 237 255
224 237 255
224 237 255
224 237 255
224 237 255
224 237 255
224 237 255
224 237 255
224 237 255
224 237 255
224 237 255
224 237 255
224 237 255
224 237 255
224 237 255
224 237 255
224 237 255
224 237 255
224 237 255
224 237 255
224 237 255
224 237 255
224 237 255
224 237 255
224 237 255
224 237 255
224 237 255
224 237 255
224 237 255
224 237 255
224 237 255
224 237 255
224 237 255
224 237 255
224 237 255
224 237 255
224 237 255
224 237 255
224 237 255
224 237 255
224 237 255
224 237 255
224 237 255
224 237 255
224 237 255
224 237 255
224 237 255
224 237 255
224 237 255
224 237 255
224 237 255
224 237 255
224 237 255
224 237 255
224 237 255
224 237 255
224 237 255
224 237 255
224 237 255
224 237 255
224 237 255
224 237 255
224 237 255
224 237 255
224 237 255
224 237 255
224 237 255
224 237 255
223 237 255
224 237 255
223 237 255
223 237 255
223 237 255
223 237 255
223 237 255
223 237 255
223 237 255
223 237 255
223 237 255
223 237 255
223 237 255
223 237 255
223 237 255
223 237 255
223 237 255
223 237 255
223 237 255
223 237 255
223 237 255
223 237 255
223 237 255
223 237 255
223 237 255
223 237 255
223 237 255
223 237 255
223 237 255
223 237 255
223 237 255
223 237 255
223 237 255
223 237 255
223 237 255
223 237 255
223 237 255
223 237 255
223 237 255
223 237 255
223 237 255
223 237 255
223 237 255
223 237 255
223 237 255
223 237 255
223 237 255
223 237 255
223 237 255
223 237 255
223 237 255
223 237 255
223 237 255
223 237 255
223 237 255
223 237 255
223 237 255
223 237 255
223 237 255
223 237 255
223 237 255
223 237 255
223 237 255
223 237 255
223 237 255
223 237 255
223 237 255
223 237 255
223 237 255
223 237 255
223 237 255
223 237 255
223 237 255
223 237 255
223 237 255
223 237 255
223 237 255
223 237 255
223 237 255
223 237 255
223 237 255
223 236 255
223 237 255
223 236 255
223 236 255
223 236 255
223 236 255
223 236 255
223 236 255
223 236 255
223 236 255
223 236 255
223 236 255
223 236 255
223 236 255
223 236 255
223 236 255
223 236 255
223 236 255
223 236 255
223 236 255
223 236 255
223 236 255
223 236 255
223 236 255
223 236 255
223 236 255
223 236 255
223 236 255
223 236 255
223 236 255
223 236 255
223 236 255
223 236 255
223 236 255
223 236 255
223 236 255
223 236 255
223 236 255
223 236 255
223 236 255
223 236 255
223 236 255
223 236 255
223 236 255
223 236 255
223 236 255
223 236 255
223 236 255
223 236 255
223 236 255
223 236 255
223 236 255
223 236 255
223 236 255
223 236 255
223 236 255
223 236 255
223 236 255
223 236 255
223 236 255
223 236 255
223 236 255
223 236 255
223 236 255
223 236 255
223 236 255
223 236 255
223 236 255
223 236 255
223 236 255
223 236 255
223 236 255
223 236 255
223 236 255
223 236 255
223 236 255
223 236 255
222 236 255
223 236 255
223 236 255
223 236 255
223 236 255
223 236 255
223 236 255
223 236 255
223 236 255
223 236 255
223 236 255
223 236 255
223 236 255
223 236 255
223 236 255
223 236 255
223 236 255
223 236 255
223 236 255
223 236 255
223 236 255
223 236 255
223 236 255
223 236 255
223 236 255
223 236 255
223 236 255
223 236 255
223 236 255
223 236 255
223 236 255
223 236 255
223 236 255
223 236 255
223 236 255
223 236 255
223 236 255
223 236 255
223 236 255
223 236 255
223 236 255
223 236 255
223 236 255
223 236 255
223 236 255
223 236 255
223 236 255
223 236 255
223 236 255
223 236 255
223 236 255
223 237 255
223 237 255
223 237 255
223 237 255
223 237 255
223 237 255
223 237 255
223 237 255
223 237 255
223 237 255
223 237 255
223 237 255
223 237 255
223 237 255
223 237 255
223 237 255
223 237 255
223 237 255
223 237 255
223 237 255
223 237 255
223 237 255
223 237 255
223 237 255
223 237 255
223 237 255
223 237 255
223 237 255
223 237 255
223 237 255
223 237 255
223 237 255
223 237 255
223 237 255
223 237 255
223 237 255
223 237 255
223 237 255
223 237 255
223 237 255
223 237 255
223 237 255
223 237 255
223 237 255
223 237 255
223 237 255
223 237 255
223 237 255
223 237 255
223 237 255
223 237 255
223 237 255
223 237 255
223 237 255
223 237 255
223 237 255
223 237 255
223 237 255
223 237 255
223 237 255
223 237 255
223 237 255
223 237 255
223 237 255
223 237 255
223 237 255
223 237 255
223 237 255
223 237 255
223 237 255
223 237 255
223 237 255
223 237 255
224 237 255
224 237 255
224 237 255
224 237 255
224 237 255
224 237 255
224 237 255
224 237 255
224 237 255
224 237 255
224 237 255
224 237 255
224 237 255
224 237 255
224 237 255
224 237 255
224 237 255
224 237 255
224 237 255
224 237 255
224 237 255
224 237 255
224 237 255
224 237 255
224 237 255
224 237 255
224 237 255
224 237 255
224 237 255
224 237 255
224 237 255
224 237 255
224 237 255
224 237 255
224 237 255
224 237 255
224 237 255
224 237 255
224 237 255
224 237 255
224 237 255
224 237 255
224 237 255
224 237 255
224 237 255
224 237 255
224 237 255
224 237 255
224 237 255
224 237 255
224 237 255
224 237 255
224 237 255
224 237 255
224 237 255
224 237 255
224 237 255
224 237 255
224 237 255
224 237 255
224 237 255
224 237 255
224 237 255
224 237 255
224 237 255
224 237 255
224 237 255
224 237 255
224 237 255
224 237 255
224 237 255
224 237 255
224 237 255
224 237 255
224 237 255
224 237 255
224 237 255
224 237 255
224 237 255
224 237 255
224 237 255
224 237 255
224 237 255
224 237 255
224 237 255
224 237 255
224 237 255
224 237 255
224 237 255
224 237 255
224 237 255
224 237 255
224 237 255
224 237 255
224 237 255
224 237 255
224 237 255
224 237 255
224 237 255
224 237 255
224 237 255
224 237 255
224 237 255
224 237 255
224 237 255
224 237 255
224 237 255
224 237 255
224 237 255
224 237 255
224 237 255
224 237 255
224 237 255
224 237 255
224 237 255
224 237 255
224 237 255
224 237 255
224 237 255
224 237 255
224 237 255
224 237 255
224 237 255
224 237 255
224 237 255
224 237 255
224 237 255
224 237 255
224 237 255
224 237 255
224 237 255
224 237 255
224 237 255
224 237 255
224 237 255
224 237 255
224 237 255
224 237 255
224 237 255
224 237 255
224 237 255
224 237 255
224 237 255
224 237 255
224 237 255
224 237 255
224 237 255
224 237 255
224 237 255
224 237 255
224 237 255
224 237 255
224 237 255
224 237 255
224 237 255
223 237 255
223 237 255
223 237 255
223 237 255
223 237 255
223 237 255
223 237 255
223 237 255
223 237 255
223 237 255
223 237 255
223 237 255
223 237 255
223 237 255
223 237 255
223 237 255
223 237 255
223 237 255
223 237 255
223 237 255
223 237 255
223 237 255
223 237 255
223 237 255
223 237 255
223 237 255
223 237 255
223 237 255
223 237 255
223 237 255
223 237 255
223 237 255
223 237 255
223 237 255
223 237 255
223 237 255
223 237 255
223 237 255
223 237 255
223 237 255
223 237 255
223 237 255
223 237 255
223 237 255
223 237 255
223 237 255
223 237 255
223 237 255
223 237 255
223 237 255
223 237 255
223 237 255
223 237 255
223 237 255
223 237 255
223 237 255
223 237 255
223 237 255
223 237 255
223 237 255
223 237 255
223 237 255
223 237 255
223 237 255
223 237 255
223 237 255
223 237 255
223 237 255
223 237 255
223 237 255
223 237 255
223 236 255
223 236 255
223 236 255
223 236 255
223 236 255
223 236 255
223 236 255
223 236 255
223 236 255
223 236 255
223 236 255
223 236 255
223 236 255
223 236 255
223 236 255
223 236 255
223 236 255
223 236 255
223 236 255
223 236 255
223 236 255
223 236 255
223 236 255
223 236 255
223 236 255
223 236 255
223 236 255
223 236 255
223 236 255
223 236 255
223 236 255
223 236 255
223 236 255
223 236 255
223 236 255
223 236 255
223 236 255
223 236 255
223 236 255
223 236 255
223 236 255
223 236 255
223 236 255
223 236 255
223 236 255
223 236 255
223 236 255
223 236 255
223 236 255
223 236 255
223 236 255
223 236 255
223 236 255
223 236 255
223 236 255
223 236 255
223 236 255
223 236 255
223 236 255
223 236 255
223 236 255
223 236 255
223 236 255
223 236 255
223 236 255
223 236 255
223 236 255
223 236 255
223 236 255
223 236 255
223 236 255
223 236 255
223 236 255
223 236 255
223 236 255
223 236 255
223 236 255
223 236 255
223 236 255
223 237 255
223 237 255
223 237 255
223 237 255
223 237 255
223 237 255
223 237 255
223 237 255
223 237 255
223 237 255
223 237 255
223 237 255
223 237 255
223 237 255
223 237 255
223 237 255
223 237 255
223 237 255
223 237 255
223 237 255
223 237 255
223 237 255
223 237 255
223 237 255
223 237 255
223 237 255
223 237 255
223 237 255
223 237 255
223 237 255
223 237 255
223 237 255
223 237 255
223 237 255
223 237 255
223 237 255
223 237 255
223 237 255
223 237 255
223 237 255
223 237 255
223 237 255
223 237 255
223 237 255
223 237 255
223 237 255
223 237 255
223 237 255
223 237 255
223 237 255
223 237 255
223 237 255
223 237 255
223 237 255
223 237 255
223 237 255
223 237 255
223 237 255
223 237 255
223 237 255
223 237 255
223 237 255
223 237 255
223 237 255
223 237 255
223 237 255
223 237 255
223 237 255
223 237 255
223 237 255
223 237 255
224 237 255
224 237 255
224 237 255
224 237 255
224 237 255
224 237 255
224 237 255
224 237 255
224 237 255
224 237 255
224 237 255
224 237 255
224 237 255
224 237 255
224 237 255
224 237 255
224 237 255
224 237 255
224 237 255
224 237 255
224 237 255
224 237 255
224 237 255
224 237 255
224 237 255
224 237 255
224 237 255
224 237 255
224 237 255
224 237 255
224 237 255
224 237 255
224 237 255
224 237 255
224 237 255
224 237 255
224 237 255
224 237 255
224 237 255
224 237 255
224 237 255
224 237 255
224 237 255
224 237 255
224 237 255
224 237 255
224 237 255
224 237 255
224 237 255
224 237 255
224 237 255
224 237 255
224 237 255
224 237 255
224 237 255
224 237 255
224 237 255
224 237 255
224 237 255
224 237 255
224 237 255
224 237 255
224 237 255
224 237 255
224 237 255
224 237 255
224 237 255
224 237 255
224 237 255
224 237 255
224 237 255
224 237 255
224 237 255
224 237 255
224 237 255
224 237 255
224 237 255
224 237 255
224 237 255
224 237 255
224 237 255
224 237 255
224 237 255
224 237 255
224 237 255
224 237 255
224 237 255
224 237 255
224 237 255
224 237 255
224 237 255
224 237 255
224 237 255
224 237 255
224 237 255
224 237 255
224 237 255
224 237 255
224 237 255
224 237 255
224 237 255
224 237 255
224 237 255
224 237 255
224 237 255
224 237 255
224 237 255
224 237 255
224 237 255
224 237 255
224 237 255
224 237 255
224 237 255
224 237 255
224 237 255
224 237 255
224 237 255
224 237 255
224 237 255
224 237 255
224 237 255
224 237 255
224 237 255
224 237 255
224 237 255
224 237 255
224 237 255
224 237 255
224 237 255
224 237 255
224 237 255
224 237 255
224 237 255
224 237 255
224 237 255
224 237 255
224 237 255
224 237 255
224 237 255
224 237 255
224 237 255
224 237 255
224 237 255
224 237 255
224 237 255
224 237 255
224 237 255
224 237 255
224 237 255
224 237 255
224 237 255
224 237 255
224 237 255
224 237 255
224 237 255
224 237 255
224 237 255
224 237 255
224 237 255
224 237 255
224 237 255
224 237 255
224 237 255
224 237 255
224 237 255
224 237 255
224 237 255
224 237 255
224 237 255
224 237 255
224 237 255
224 237 255
224 237 255
224 237 255
224 237 255
224 237 255
224 237 255
224 237 255
224 237 255
224 237 255
224 237 255
224 237 255
224 237 255
224 237 255
224 237 255
224 237 255
224 237 255
224 237 255
224 237 255
224 237 255
224 237 255
224 237 255
224 237 255
224 237 255
224 237 255
224 237 255
224 237 255
224 237 255
224 237 255
224 237 255
224 237 255
224 237 255
223 237 255
223 237 255
223 237 255
223 237 255
223 237 255
223 237 255
223 237 255
223 237 255
223 237 255
223 237 255
223 237 255
223 237 255
223 237 255
223 237 255
223 237 255
223 237 255
223 237 255
223 237 255
223 237 255
223 237 255
223 237 255
223 237 255
223 237 255
223 237 255
223 237 255
223 237 255
223 237 255
223 237 255
223 237 255
223 237 255
223 237 255
223 237 255
223 237 255
223 237 255
223 237 255
223 237 255
223 237 255
223 237 255
223 237 255
223 237 255
223 237 255
223 237 255
223 237 255
223 237 255
223 237 255
223 237 255
223 237 255
223 237 255
223 237 255
223 237 255
223 237 255
223 237 255
223 237 255
223 237 255
223 237 255
223 237 255
223 237 255
223 237 255
223 237 255
223 237 255
223 237 255
223 237 255
223 237 255
223 237 255
223 237 255
223 237 255
223 237 255
223 237 255
223 237 255
223 237 255
223 237 255
223 236 255
223 236 255
223 236 255
223 236 255
223 236 255
223 236 255
223 236 255
223 236 255
223 236 255
223 236 255
223 236 255
223 236 255
223 236 255
223 236 255
223 236 255
223 236 255
223 236 255
223 236 255
223 236 255
223 236 255
223 236 255
223 236 255
223 236 255
223 236 255
223 236 255
223 236 255
223 236 255
223 236 255
223 236 255
223 236 255
223 236 255
223 236 255
223 237 255
223 237 255
223 237 255
223 237 255
223 237 255
223 237 255
223 237 255
223 237 255
223 237 255
223 237 255
223 237 255
223 237 255
223 237 255
223 237 255
223 237 255
223 237 255
223 237 255
223 237 255
223 237 255
223 237 255
223 237 255
223 237 255
223 237 255
223 237 255
223 237 255
223 237 255
223 237 255
223 237 255
223 237 255
223 237 255
223 237 255
223 237 255
223 237 255
223 237 255
223 237 255
223 237 255
223 237 255
223 237 255
223 237 255
223 237 255
223 237 255
223 237 255
223 237 255
223 237 255
223 237 255
223 237 255
223 237 255
223 237 255
223 237 255
223 237 255
223 237 255
223 237 255
223 237 255
223 237 255
223 237 255
223 237 255
223 237 255
223 237 255
223 237 255
223 237 255
223 237 255
223 237 255
223 237 255
223 237 255
223 237 255
223 237 255
223 237 255
223 237 255
223 237 255
223 237 255
223 237 255
223 237 255
223 237 255
223 237 255
224 237 255
224 237 255
224 237 255
224 237 255
224 237 255
224 237 255
224 237 255
224 237 255
224 237 255
224 237 255
224 237 255
224 237 255
224 237 255
224 237 255
224 237 255
224 237 255
224 237 255
224 237 255
224 237 255
224 237 255
224 237 255
224 237 255
224 237 255
224 237 255
224 237 255
224 237 255
224 237 255
224 237 255
224 237 255
224 237 255
224 237 255
224 237 255
224 237 255
224 237 255
224 237 255
224 237 255
224 237 255
224 237 255
224 237 255
224 237 255
224 237 255
224 237 255
224 237 255
224 237 255
224 237 255
224 237 255
224 237 255
224 237 255
224 237 255
224 237 255
224 237 255
224 237 255
224 237 255
224 237 255
224 237 255
224 237 255
224 237 255
224 237 255
224 237 255
224 237 255
224 237 255
224 237 255
224 237 255
224 237 255
224 237 255
224 237 255
224 237 255
224 237 255
224 237 255
224 237 255
224 237 255
224 237 255
224 237 255
224 237 255
224 237 255
224 237 255
224 237 255
224 237 255
224 237 255
224 237 255
224 237 255
224 237 255
224 237 255
224 237 255
224 237 255
224 237 255
224 237 255
224 237 255
224 237 255
224 237 255
224 237 255
224 237 255
224 237 255
224 237 255
224 237 255
224 237 255
224 237 255
224 237 255
224 237 255
224 237 255
224 237 255
224 237 255
224 237 255
224 237 255
224 237 255
224 237 255
224 237 255
224 237 255
224 237 255
224 237 255
224 237 255
224 237 255
224 237 255
224 237 255
224 237 255
224 237 255
224 237 255
224 237 255
224 237 255
224 237 255
224 237 255
224 237 255
224 237 255
224 237 255
224 237 255
224 237 255
224 237 255
224 237 255
224 237 255
224 237 255
224 237 255
224 237 255
224 237 255
224 237 255
224 237 255
224 237 255
224 237 255
224 237 255
224 237 255
224 237 255
224 237 255
224 237 255
224 237 255
224 237 255
224 237 255
224 237 255
224 237 255
224 237 255
224 237 255
224 237 255
224 237 255
224 237 255
224 237 255
224 237 255
224 237 255
224 237 255
224 237 255
224 237 255
224 237 255
224 237 255
224 237 255
224 237 255
224 237 255
224 237 255
224 237 255
224 237 255
224 237 255
224 237 255
224 237 255
224 237 255
224 237 255
224 237 255
224 237 255
224 237 255
224 237 255
224 237 255
224 237 255
224 237 255
224 237 255
224 237 255
224 237 255
224 237 255
224 237 255
224 237 255
224 237 255
224 237 255
224 237 255
224 237 255
224 237 255
224 237 255
224 237 255
224 237 255
224 237 255
224 237 255
224 237 255
224 237 255
224 237 255
224 237 255
224 237 255
224 237 255
224 237 255
224 237 255
224 237 255
224 237 255
224 237 255
224 237 255
224 237 255
224 237 255
224 237 255
224 237 255
224 237 255
224 237 255
224 237 255
224 237 255
224 237 255
224 237 255
224 237 255
224 237 255
224 237 255
224 237 255
224 237 255
224 237 255
224 237 255
224 237 255
224 237 255
224 237 255
224 237 255
224 237 255
224 237 255
224 237 255
224 237 255
224 237 255
224 237 255
224 237 255
224 237 255
224 237 255
224 237 255
224 237 255
224 237 255
224 237 255
224 237 255
224 237 255
224 237 255
224 237 255
223 237 255
223 237 255
223 237 255
223 237 255
223 237 255
223 237 255
223 237 255
223 237 255
223 237 255
223 237 255
223 237 255
223 237 255
223 237 255
223 237 255
223 237 255
223 237 255
223 237 255
223 237 255
223 237 255
223 237 255
223 237 255
223 237 255
223 237 255
223 237 255
223 237 255
223 237 255
223 237 255
223 237 255
223 237 255
223 237 255
223 237 255
223 237 255
223 237 255
223 237 255
223 237 255
223 237 255
223 237 255
223 237 255
223 237 255
223 237 255
223 237 255
223 237 255
223 237 255
223 237 255
223 237 255
223 237 255
223 237 255
223 237 255
223 237 255
223 237 255
223 237 255
223 237 255
223 237 255
223 237 255
223 237 255
223 237 255
223 237 255
223 237 255
223 237 255
223 237 255
223 237 255
223 237 255
223 237 255
223 237 255
223 237 255
223 237 255
223 237 255
223 237 255
223 237 255
223 237 255
223 237 255
223 237 255
223 236 255
223 236 255
223 236 255
223 236 255
223 236 255
223 236 255
223 237 255
223 237 255
223 237 255
223 237 255
223 237 255
223 237 255
223 237 255
223 237 255
223 237 255
223 237 255
223 237 255
223 237 255
223 237 255
223 237 255
223 237 255
223 237 255
223 237 255
223 237 255
223 237 255
223 237 255
223 237 255
223 237 255
223 237 255
223 237 255
223 237 255
223 237 255
223 237 255
223 237 255
223 237 255
223 237 255
223 237 255
223 237 255
223 237 255
223 237 255
223 237 255
223 237 255
223 237 255
223 237 255
223 237 255
223 237 255
223 237 255
223 237 255
223 237 255
223 237 255
223 237 255
223 237 255
223 237 255
223 237 255
223 237 255
223 237 255
223 237 255
223 237 255
223 237 255
223 237 255
223 237 255
223 237 255
223 237 255
223 237 255
224 237 255
224 237 255
224 237 255
224 237 255
224 237 255
224 237 255
224 237 255
224 237 255
224 237 255
224 237 255
224 237 255
224 237 255
224 237 255
224 237 255
224 237 255
224 237 255
224 237 255
224 237 255
224 237 255
224 237 255
224 237 255
224 237 255
224 237 255
224 237 255
224 237 255
224 237 255
224 237 255
224 237 255
224 237 255
224 237 255
224 237 255
224 237 255
224 237 255
224 237 255
224 237 255
224 237 255
224 237 255
224 237 255
224 237 255
224 237 255
224 237 255
224 237 255
224 237 255
224 237 255
224 237 255
224 237 255
224 237 255
224 237 255
224 237 255
224 237 255
224 237 255
224 237 255
224 237 255
224 237 255
224 237 255
224 237 255
224 237 255
224 237 255
224 237 255
224 237 255
224 237 255
224 237 255
224 237 255
224 237 255
224 237 255
224 237 255
224 237 255
224 237 255
224 237 255
224 237 255
224 237 255
224 237 255
224 237 255
224 237 255
224 237 255
224 237 255
224 237 255
224 237 255
224 237 255
224 237 255
224 237 255
224 237 255
224 237 255
224 237 255
224 237 255
224 237 255
224 237 255
224 237 255
224 237 255
224 237 255
224 237 255
224 237 255
224 237 255
224 237 255
224 237 255
224 237 255
224 237 255
224 237 255
224 237 255
224 237 255
225 237 255
225 237 255
225 237 255
225 237 255
225 237 255
225 237 255
225 237 255
225 237 255
225 237 255
225 237 255
225 237 255
225 237 255
225 237 255
225 237 255
225 237 255
225 237 255
225 237 255
225 237 255
225 237 255
225 237 255
225 237 255
225 237 255
225 237 255
225 237 255
225 237 255
225 237 255
225 237 255
225 237 255
225 237 255
225 237 255
225 237 255
225 237 255
225 237 255
225 237 255
225 237 255
225 237 255
225 237 255
225 237 255
225 237 255
225 237 255
225 237 255
225 237 255
225 237 255
225 237 255
225 237 255
225 237 255
225 237 255
225 237 255
225 237 255
225 237 255
225 237 255
225 237 255
225 237 255
225 237 255
225 237 255
225 237 255
225 237 255
225 237 255
225 237 255
225 237 255
225 237 255
225 237 255
225 237 255
225 237 255
225 237 255
225 237 255
225 237 255
225 237 255
225 237 255
225 237 255
225 237 255
225 237 255
225 237 255
225 237 255
225 237 255
225 237 255
225 237 255
225 237 255
225 237 255
225 237 255
225 237 255
225 237 255
225 237 255
224 237 255
224 237 255
224 237 255
224 237 255
224 237 255
224 237 255
224 237 255
224 237 255
224 237 255
224 237 255
224 237 255
224 237 255
224 237 255
224 237 255
224 237 255
224 237 255
224 237 255
224 237 255
224 237 255
224 237 255
224 237 255
224 237 255
224 237 255
224 237 255
224 237 255
224 237 255
224 237 255
224 237 255
224 237 255
224 237 255
224 237 255
224 237 255
224 237 255
224 237 255
224 237 255
224 237 255
224 237 255
224 237 255
224 237 255
224 237 255
224 237 255
224 237 255
224 237 255
224 237 255
224 237 255
224 237 255
224 237 255
224 237 255
224 237 255
224 237 255
224 237 255
224 237 255
224 237 255
224 237 255
224 237 255
224 237 255
224 237 255
224 237 255
224 237 255
224 237 255
224 237 255
224 237 255
224 237 255
224 237 255
224 237 255
224 237 255
224 237 255
224 237 255
224 237 255
224 237 255
224 237 255
224 237 255
224 237 255
224 237 255
224 237 255
224 237 255
224 237 255
224 237 255
224 237 255
224 237 255
224 237 255
224 237 255
224 237 255
224 237 255
224 237 255
224 237 255
224 237 255
224 237 255
224 237 255
224 237 255
224 237 255
224 237 255
224 237 255
224 237 255
224 237 255
224 237 255
224 237 255
224 237 255
224 237 255
224 237 255
223 237 255
223 237 255
223 237 255
223 237 255
223 237 255
223 237 255
223 237 255
223 237 255
223 237 255
223 237 255
223 237 255
223 237 255
223 237 255
223 237 255
223 237 255
223 237 255
223 237 255
223 237 255
223 237 255
223 237 255
223 237 255
223 237 255
223 237 255
223 237 255
223 237 255
223 237 255
223 237 255
223 237 255
223 237 255
223 237 255
223 237 255
223 237 255
223 237 255
223 237 255
223 237 255
223 237 255
223 237 255
223 237 255
223 237 255
223 237 255
223 237 255
223 237 255
223 237 255
223 237 255
223 237 255
223 237 255
223 237 255
223 237 255
223 237 255
223 237 255
223 237 255
223 237 255
223 237 255
223 237 255
223 237 255
223 237 255
223 237 255
223 237 255
223 237 255
223 237 255
223 237 255
223 237 255
223 237 255
223 237 255
223 237 255
223 237 255
223 237 255
223 237 255
223 237 255
223 237 255
223 237 255
223 237 255
223 237 255
223 237 255
223 237 255
223 237 255
223 237 255
223 237 255
223 237 255
223 237 255
223 237 255
223 237 255
223 237 255
223 237 255
223 237 255
223 237 255
223 237 255
223 237 255
223 237 255
223 237 255
223 237 255
223 237 255
223 237 255
223 237 255
223 237 255
223 237 255
223 237 255
223 237 255
223 237 255
224 237 255
224 237 255
224 237 255
224 237 255
224 237 255
224 237 255
224 237 255
224 237 255
224 237 255
224 237 255
224 237 255
224 237 255
224 237 255
224 237 255
224 237 255
224 237 255
224 237 255
224 237 255
224 237 255
224 237 255
224 237 255
224 237 255
224 237 255
224 237 255
224 237 255
224 237 255
224 237 255
224 237 255
224 237 255
224 237 255
224 237 255
224 237 255
224 237 255
224 237 255
224 237 255
224 237 255
224 237 255
224 237 255
224 237 255
224 237 255
224 237 255
224 237 255
224 237 255
224 237 255
224 237 255
224 237 255
224 237 255
224 237 255
224 237 255
224 237 255
224 237 255
224 237 255
224 237 255
224 237 255
224 237 255
224 237 255
224 237 255
224 237 255
224 237 255
224 237 255
224 237 255
224 237 255
224 237 255
224 237 255
224 237 255
224 237 255
224 237 255
224 237 255
224 237 255
224 237 255
224 237 255
224 237 255
224 237 255
224 237 255
224 237 255
224 237 255
224 237 255
224 237 255
224 237 255
224 237 255
224 237 255
224 237 255
224 237 255
224 237 255
224 237 255
224 237 255
224 237 255
224 237 255
224 237 255
224 237 255
224 237 255
224 237 255
224 237 255
225 237 255
225 237 255
225 237 255
225 237 255
225 237 255
225 237 255
225 237 255
225 237 255
225 237 255
225 237 255
225 237 255
225 237 255
225 237 255
225 237 255
225 237 255
225 237 255
225 237 255
225 237 255
225 237 255
225 237 255
225 238 255
225 238 255
225 238 255
225 238 255
225 238 255
225 238 255
225 238 255
225 238 255
225 238 255
225 238 255
225 238 255
225 238 255
225 238 255
225 238 255
225 238 255
225 238 255
225 238 255
225 238 255
225 238 255
225 238 255
225 238 255
225 238 255
225 238 255
225 238 255
225 238 255
225 238 255
225 238 255
225 238 255
225 238 255
225 238 255
225 238 255
225 238 255
225 238 255
225 238 255
225 238 255
225 238 255
225 238 255
225 238 255
225 238 255
225 238 255
225 238 255
225 238 255
225 238 255
225 238 255
225 238 255
225 238 255
225 238 255
225 238 255
225 238 255
225 238 255
225 238 255
225 238 255
225 238 255
225 238 255
225 238 255
225 238 255
225 238 255
225 238 255
225 238 255
225 238 255
225 238 255
225 238 255
225 238 255
225 238 255
225 238 255
225 238 255
225 238 255
225 238 255
225 238 255
225 238 255
225 238 255
225 238 255
225 238 255
225 238 255
225 238 255
225 238 255
225 238 255
225 238 255
225 238 255
225 238 255
225 238 255
225 238 255
225 238 255
225 238 255
225 238 255
225 238 255
225 238 255
225 238 255
225 238 255
225 238 255
225 238 255
225 238 255
225 237 255
225 237 255
225 237 255
225 237 255
225 237 255
225 237 255
225 237 255
225 237 255
225 237 255
225 237 255
225 237 255
225 237 255
225 237 255
225 237 255
225 237 255
225 237 255
225 237 255
225 237 255
225 237 255
224 237 255
224 237 255
224 237 255
224 237 255
224 237 255
224 237 255
224 237 255
224 237 255
224 237 255
224 237 255
224 237 255
224 237 255
224 237 255
224 237 255
224 237 255
224 237 255
224 237 255
224 237 255
224 237 255
224 237 255
224 237 255
224 237 255
224 237 255
224 237 255
224 237 255
224 237 255
224 237 255
224 237 255
224 237 255
224 237 255
224 237 255
224 237 255
224 237 255
224 237 255
224 237 255
224 237 255
224 237 255
224 237 255
224 237 255
224 237 255
224 237 255
224 237 255
224 237 255
224 237 255
224 237 255
224 237 255
224 237 255
224 237 255
224 237 255
224 237 255
224 237 255
224 237 255
224 237 255
224 237 255
224 237 255
224 237 255
224 237 255
224 237 255
224 237 255
224 237 255
224 237 255
224 237 255
224 237 255
224 237 255
224 237 255
224 237 255
224 237 255
224 237 255
224 237 255
224 237 255
224 237 255
224 237 255
224 237 255
224 237 255
224 237 255
224 237 255
224 237 255
224 237 255
224 237 255
224 237 255
224 237 255
224 237 255
224 237 255
224 237 255
224 237 255
224 237 255
224 237 255
224 237 255
224 237 255
224 237 255
224 237 255
224 237 255
224 237 255
224 237 255
224 237 255
224 237 255
223 237 255
223 237 255
223 237 255
223 237 255
223 237 255
223 237 255
223 237 255
223 237 255
223 237 255
223 237 255
223 237 255
223 237 255
223 237 255
223 237 255
223 237 255
223 237 255
223 237 255
223 237 255
223 237 255
223 237 255
223 237 255
223 237 255
223 237 255
223 237 255
223 237 255
223 237 255
223 237 255
223 237 255
223 237 255
223 237 255
223 237 255
223 237 255
223 237 255
223 237 255
223 237 255
223 237 255
223 237 255
223 237 255
223 237 255
223 237 255
223 237 255
223 237 255
223 237 255
223 237 255
223 237 255
223 237 255
223 237 255
223 237 255
223 237 255
223 237 255
223 237 255
223 237 255
223 237 255
223 237 255
223 237 255
223 237 255
223 237 255
223 237 255
223 237 255
223 237 255
223 237 255
223 237 255
223 237 255
224 237 255
224 237 255
224 237 255
224 237 255
224 237 255
224 237 255
224 237 255
224 237 255
224 237 255
224 237 255
224 237 255
224 237 255
224 237 255
224 237 255
224 237 255
224 237 255
224 237 255
224 237 255
224 237 255
224 237 255
224 237 255
224 237 255
224 237 255
224 237 255
224 237 255
224 237 255
224 237 255
224 237 255
224 237 255
224 237 255
224 237 255
224 237 255
224 237 255
224 237 255
224 237 255
224 237 255
224 237 255
224 237 255
224 237 255
224 237 255
224 237 255
224 237 255
224 237 255
224 237 255
224 237 255
224 237 255
224 237 255
224 237 255
224 237 255
224 237 255
224 237 255
224 237 255
224 237 255
224 237 255
224 237 255
224 237 255
224 237 255
224 237 255
224 237 255
224 237 255
224 237 255
224 237 255
224 237 255
224 237 255
224 237 255
224 237 255
224 237 255
224 237 255
224 237 255
224 237 255
224 237 255
224 237 255
224 237 255
224 237 255
224 237 255
224 237 255
224 237 255
224 237 255
224 237 255
224 237 255
224 237 255
224 237 255
224 237 255
224 237 255
224 237 255
224 237 255
224 237 255
224 237 255
224 237 255
224 237 255
224 237 255
224 237 255
225 237 255
225 237 255
225 237 255
225 237 255
225 237 255
225 237 255
225 237 255
225 237 255
225 237 255
225 237 255
225 237 255
225 237 255
225 237 255
225 237 255
225 237 255
225 238 255
225 237 255
225 238 255
225 238 255
225 238 255
225 238 255
225 238 255
225 238 255
225 238 255
225 238 255
225 238 255
225 238 255
225 238 255
225 238 255
225 238 255
225 238 255
225 238 255
225 238 255
225 238 255
225 238 255
225 238 255
225 238 255
225 238 255
225 238 255
225 238 255
225 238 255
225 238 255
225 238 255
225 238 255
225 238 255
225 238 255
225 238 255
225 238 255
225 238 255
225 238 255
225 238 255
225 238 255
225 238 255
225 238 255
225 238 255
225 238 255
225 238 255
225 238 255
225 238 255
225 238 255
225 238 255
225 238 255
225 238 255
225 238 255
225 238 255
225 238 255
225 238 255
225 238 255
225 238 255
225 238 255
225 238 255
225 238 255
225 238 255
225 238 255
225 238 255
225 238 255
225 238 255
225 238 255
225 238 255
225 238 255
225 238 255
225 238 255
225 238 255
225 238 255
225 238 255
225 238 255
225 238 255
225 238 255
225 238 255
225 238 255
225 238 255
225 238 255
225 238 255
225 238 255
225 238 255
225 238 255
225 238 255
225 238 255
225 238 255
225 238 255
225 238 255
225 238 255
225 238 255
225 238 255
225 238 255
225 238 255
225 238 255
225 238 255
225 238 255
225 238 255
225 238 255
225 238 255
225 238 255
225 238 255
225 238 255
225 238 255
225 238 255
225 238 255
225 238 255
225 238 255
225 238 255
225 238 255
225 238 255
225 238 255
225 238 255
225 238 255
225 238 255
225 238 255
225 238 255
225 238 255
225 238 255
225 238 255
225 238 255
225 238 255
225 238 255
225 238 255
225 238 255
225 238 255
225 238 255
225 238 255
225 238 255
225 238 255
225 238 255
225 238 255
225 238 255
225 238 255
225 238 255
225 238 255
225 238 255
225 238 255
225 238 255
225 238 255
225 237 255
225 237 255
225 237 255
225 237 255
225 237 255
225 237 255
225 237 255
225 237 255
225 237 255
225 237 255
225 237 255
225 237 255
225 237 255
225 237 255
225 237 255
225 237 255
225 237 255
225 237 255
225 237 255
224 237 255
224 237 255
224 237 255
224 237 255
224 237 255
224 237 255
224 237 255
224 237 255
224 237 255
224 237 255
224 237 255
224 237 255
224 237 255
224 237 255
224 237 255
224 237 255
224 237 255
224 237 255
224 237 255
224 237 255
224 237 255
224 237 255
224 237 255
224 237 255
224 237 255
224 237 255
224 237 255
224 237 255
224 237 255
224 237 255
224 237 255
224 237 255
224 237 255
224 237 255
224 237 255
224 237 255
224 237 255
224 237 255
224 237 255
224 237 255
224 237 255
224 237 255
224 237 255
224 237 255
224 237 255
224 237 255
224 237 255
224 237 255
224 237 255
224 237 255
224 237 255
224 237 255
224 237 255
224 237 255
224 237 255
224 237 255
224 237 255
224 237 255
224 237 255
224 237 255
224 237 255
224 237 255
224 237 255
224 237 255
224 237 255
224 237 255
224 237 255
224 237 255
224 237 255
224 237 255
224 237 255
224 237 255
224 237 255
224 237 255
224 237 255
224 237 255
224 237 255
224 237 255
224 237 255
224 237 255
224 237 255
224 237 255
224 237 255
224 237 255
224 237 255
224 237 255
224 237 255
224 237 255
224 237 255
223 237 255
223 237 255
223 237 255
223 237 255
223 237 255
223 237 255
223 237 255
223 237 255
223 237 255
223 237 255
223 237 255
223 237 255
223 237 255
223 237 255
223 237 255
223 237 255
223 237 255
223 237 255
223 237 255
223 237 255
223 237 255
223 237 255
223 237 255
223 237 255
223 237 255
223 237 255
223 237 255
223 237 255
223 237 255
223 237 255
223 237 255
224 237 255
224 237 255
224 237 255
224 237 255
224 237 255
224 237 255
224 237 255
224 237 255
224 237 255
224 237 255
224 237 255
224 237 255
224 237 255
224 237 255
224 237 255
224 237 255
224 237 255
224 237 255
224 237 255
224 237 255
224 237 255
224 237 255
224 237 255
224 237 255
224 237 255
224 237 255
224 237 255
224 237 255
224 237 255
224 237 255
224 237 255
224 237 255
224 237 255
224 237 255
224 237 255
224 237 255
224 237 255
224 237 255
224 237 255
224 237 255
224 237 255
224 237 255
224 237 255
224 237 255
224 237 255
224 237 255
224 237 255
224 237 255
224 237 255
224 237 255
224 237 255
224 237 255
224 237 255
224 237 255
224 237 255
224 237 255
224 237 255
224 237 255
224 237 255
224 237 255
224 237 255
224 237 255
224 237 255
224 237 255
224 237 255
224 237 255
224 237 255
224 237 255
224 237 255
224 237 255
224 237 255
224 237 255
224 237 255
224 237 255
224 237 255
224 237 255
224 237 255
224 237 255
224 237 255
224 237 255
224 237 255
224 237 255
224 237 255
224 237 255
224 237 255
224 237 255
224 237 255
224 237 255
224 237 255
224 237 255
224 237 255
225 237 255
225 237 255
225 237 255
225 237 255
225 237 255
225 237 255
225 237 255
225 237 255
225 237 255
225 237 255
225 237 255
225 237 255
225 237 255
225 237 255
225 237 255
225 237 255
225 237 255
225 237 255
225 238 255
225 238 255
225 238 255
225 238 255
225 238 255
225 238 255
225 238 255
225 238 255
225 238 255
225 238 255
225 238 255
225 238 255
225 238 255
225 238 255
225 238 255
225 238 255
225 238 255
225 238 255
225 238 255
225 238 255
225 238 255
225 238 255
225 238 255
225 238 255
225 238 255
225 238 255
225 238 255
225 238 255
225 238 255
225 238 255
225 238 255
225 238 255
225 238 255
225 238 255
225 238 255
225 238 255
225 238 255
225 238 255
225 238 255
225 238 255
225 238 255
225 238 255
225 238 255
225 238 255
225 238 255
225 238 255
225 238 255
225 238 255
225 238 255
225 238 255
225 238 255
225 238 255
225 238 255
225 238 255
225 238 255
225 238 255
225 238 255
225 238 255
225 238 255
225 238 255
225 238 255
225 238 255
225 238 255
225 238 255
225 238 255
225 238 255
225 238 255
225 238 255
225 238 255
225 238 255
225 238 255
225 238 255
225 238 255
225 238 255
225 238 255
225 238 255
225 238 255
225 238 255
225 238 255
225 238 255
225 238 255
225 238 255
225 238 255
225 238 255
225 238 255
225 238 255
225 238 255
225 238 255
225 238 255
225 238 255
225 238 255
225 238 255
225 238 255
225 238 255
225 238 255
225 238 255
225 238 255
225 238 255
225 238 255
225 238 255
225 238 255
225 238 255
225 238 255
225 238 255
225 238 255
225 238 255
225 238 255
225 238 255
225 238 255
225 238 255
225 238 255
225 238 255
225 238 255
225 238 255
225 238 255
225 238 255
225 238 255
225 238 255
225 238 255
225 238 255
225 238 255
225 238 255
225 238 255
225 238 255
225 238 255
225 238 255
225 238 255
225 238 255
225 238 255
225 238 255
225 238 255
225 238 255
225 238 255
225 238 255
225 238 255
225 238 255
225 238 255
225 238 255
225 238 255
225 238 255
225 238 255
225 238 255
225 238 255
225 238 255
225 238 255
225 238 255
225 238 255
225 238 255
225 238 255
225 238 255
225 238 255
225 238 255
225 238 255
225 238 255
225 238 255
225 238 255
225 238 255
225 238 255
225 238 255
225 238 255
225 238 255
225 238 255
225 238 255
225 238 255
225 238 255
225 238 255
225 238 255
225 238 255
225 238 255
225 238 255
225 237 255
225 237 255
225 237 255
225 237 255
225 237 255
225 237 255
225 237 255
225 237 255
225 237 255
225 237 255
225 237 255
225 237 255
225 237 255
225 237 255
225 237 255
225 237 255
225 237 255
224 237 255
224 237 255
224 237 255
224 237 255
224 237 255
224 237 255
224 237 255
224 237 255
224 237 255
224 237 255
224 237 255
224 237 255
224 237 255
224 237 255
224 237 255
224 237 255
224 237 255
224 237 255
224 237 255
224 237 255
224 237 255
224 237 255
224 237 255
224 237 255
224 237 255
224 237 255
224 237 255
224 237 255
224 237 255
224 237 255
224 237 255
224 237 255
224 237 255
224 237 255
224 237 255
224 237 255
224 237 255
224 237 255
224 237 255
224 237 255
224 237 255
224 237 255
224 237 255
224 237 255
224 237 255
224 237 255
224 237 255
224 237 255
224 237 255
224 237 255
224 237 255
224 237 255
224 237 255
224 237 255
224 237 255
224 237 255
224 237 255
224 237 255
224 237 255
224 237 255
224 237 255
224 237 255
224 237 255
224 237 255
224 237 255
224 237 255
224 237 255
224 237 255
224 237 255
224 237 255
224 237 255
224 237 255
224 237 255
224 237 255
224 237 255
224 237 255
224 237 255
224 237 255
224 237 255
224 237 255
224 237 255
224 237 255
224 237 255
224 237 255
224 237 255
224 237 255
224 237 255
224 237 255
224 237 255
224 237 255
224 237 255
223 237 255
223 237 255
223 237 255
223 237 255
223 237 255
223 237 255
223 237 255
224 237 255
224 237 255
224 237 255
224 237 255
224 237 255
224 237 255
224 237 255
224 237 255
224 237 255
224 237 255
224 237 255
224 237 255
224 237 255
224 237 255
224 237 255
224 237 255
224 237 255
224 237 255
224 237 255
224 237 255
224 237 255
224 237 255
224 237 255
224 237 255
224 237 255
224 237 255
224 237 255
224 237 255
224 237 255
224 237 255
224 237 255
224 237 255
224 237 255
224 237 255
224 237 255
224 237 255
224 237 255
224 237 255
224 237 255
224 237 255
224 237 255
224 237 255
224 237 255
224 237 255
224 237 255
224 237 255
224 237 255
224 237 255
224 237 255
224 237 255
224 237 255
224 237 255
224 237 255
224 237 255
224 237 255
224 237 255
224 237 255
224 237 255
224 237 255
224 237 255
224 237 255
224 237 255
224 237 255
224 237 255
224 237 255
224 237 255
224 237 255
224 237 255
224 237 255
224 237 255
224 237 255
224 237 255
224 237 255
224 237 255
224 237 255
224 237 255
224 237 255
224 237 255
224 237 255
224 237 255
224 237 255
224 237 255
225 237 255
225 237 255
225 237 255
225 237 255
225 237 255
225 237 255
225 237 255
225 237 255
225 237 255
225 237 255
225 237 255
225 237 255
225 237 255
225 237 255
225 237 255
225 237 255
225 238 255
225 238 255
225 238 255
225 238 255
225 238 255
225 238 255
225 238 255
225 238 255
225 238 255
225 238 255
225 238 255
225 238 255
225 238 255
225 238 255
225 238 255
225 238 255
225 238 255
225 238 255
225 238 255
225 238 255
225 238 255
225 238 255
225 238 255
225 238 255
225 238 255
225 238 255
225 238 255
225 238 255
225 238 255
225 238 255
225 238 255
225 238 255
225 238 255
225 238 255
225 238 255
225 238 255
225 238 255
225 238 255
225 238 255
225 238 255
225 238 255
225 238 255
225 238 255
225 238 255
225 238 255
225 238 255
225 238 255
225 238 255
225 238 255
225 238 255
225 238 255
225 238 255
225 238 255
225 238 255
225 238 255
225 238 255
225 238 255
225 238 255
225 238 255
225 238 255
226 238 255
226 238 255
226 238 255
226 238 255
226 238 255
226 238 255
226 238 255
226 238 255
226 238 255
226 238 255
226 238 255
226 238 255
226 238 255
226 238 255
226 238 255
226 238 255
226 238 255
226 238 255
226 238 255
226 238 255
226 238 255
226 238 255
226 238 255
226 238 255
226 238 255
226 238 255
226 238 255
226 238 255
226 238 255
226 238 255
226 238 255
226 238 255
226 238 255
226 238 255
226 238 255
226 238 255
226 238 255
226 238 255
226 238 255
226 238 255
226 238 255
226 238 255
226 238 255
226 238 255
226 238 255
226 238 255
226 238 255
226 238 255
226 238 255
226 238 255
226 238 255
226 238 255
226 238 255
226 238 255
226 238 255
226 238 255
226 238 255
226 238 255
226 238 255
226 238 255
226 238 255
226 238 255
226 238 255
226 238 255
226 238 255
226 238 255
226 238 255
226 238 255
226 238 255
226 238 255
226 238 255
226 238 255
226 238 255
226 238 255
226 238 255
226 238 255
226 238 255
226 238 255
226 238 255
226 238 255
226 238 255
226 238 255
225 238 255
226 238 255
226 238 255
225 238 255
225 238 255
225 238 255
225 238 255
225 238 255
225 238 255
225 238 255
225 238 255
225 238 255
225 238 255
225 238 255
225 238 255
225 238 255
225 238 255
225 238 255
225 238 255
225 238 255
225 238 255
225 238 255
225 238 255
225 238 255
225 238 255
225 238 255
225 238 255
225 238 255
225 238 255
225 238 255
225 238 255
225 238 255
225 238 255
225 238 255
225 238 255
225 238 255
225 238 255
225 238 255
225 238 255
225 238 255
225 238 255
225 238 255
225 238 255
225 238 255
225 238 255
225 238 255
225 238 255
225 238 255
225 238 255
225 238 255
225 238 255
225 238 255
225 238 255
225 238 255
225 238 255
225 238 255
225 238 255
225 238 255
225 238 255
225 238 255
225 238 255
225 237 255
225 237 255
225 237 255
225 237 255
225 237 255
225 237 255
225 237 255
225 237 255
225 237 255
225 237 255
225 237 255
225 237 255
225 237 255
225 237 255
225 237 255
224 237 255
224 237 255
224 237 255
224 237 255
224 237 255
224 237 255
224 237 255
224 237 255
224 237 255
224 237 255
224 237 255
224 237 255
224 237 255
224 237 255
224 237 255
224 237 255
224 237 255
224 237 255
224 237 255
224 237 255
224 237 255
224 237 255
224 237 255
224 237 255
224 237 255
224 237 255
224 237 255
224 237 255
224 237 255
224 237 255
224 237 255
224 237 255
224 237 255
224 237 255
224 237 255
224 237 255
224 237 255
224 237 255
224 237 255
224 237 255
224 237 255
224 237 255
224 237 255
224 237 255
224 237 255
224 237 255
224 237 255
224 237 255
224 237 255
224 237 255
224 237 255
224 237 255
224 237 255
224 237 255
224 237 255
224 237 255
224 237 255
224 237 255
224 237 255
224 237 255
224 237 255
224 237 255
224 237 255
224 237 255
224 237 255
224 237 255
224 237 255
224 237 255
224 237 255
224 237 255
224 237 255
224 237 255
224 237 255
224 237 255
224 237 255
224 237 255
224 237 255
224 237 255
224 237 255
224 237 255
224 237 255
224 237 255
224 237 255
224 237 255
224 237 255
224 237 255
224 237 255
224 237 255
224 237 255
224 237 255
224 237 255
224 237 255
224 237 255
224 237 255
224 237 255
224 237 255
224 237 255
224 237 255
224 237 255
224 237 255
224 237 255
224 237 255
224 237 255
224 237 255
224 237 255
224 237 255
224 237 255
224 237 255
224 237 255
224 237 255
224 237 255
224 237 255
224 237 255
224 237 255
224 237 255
224 237 255
224 237 255
224 237 255
224 237 255
224 237 255
224 237 255
224 237 255
224 237 255
224 237 255
224 237 255
224 237 255
224 237 255
224 237 255
224 237 255
224 237 255
224 237 255
224 237 255
224 237 255
224 237 255
224 237 255
224 237 255
224 237 255
224 237 255
224 237 255
224 237 255
224 237 255
224 237 255
224 237 255
224 237 255
224 237 255
224 237 255
224 237 255
224 237 255
224 237 255
224 237 255
224 237 255
224 237 255
224 237 255
225 237 255
225 237 255
225 237 255
225 237 255
225 237 255
225 237 255
225 237 255
225 237 255
225 237 255
225 237 255
225 237 255
225 237 255
225 237 255
225 237 255
225 237 255
225 237 255
225 238 255
225 238 255
225 238 255
225 238 255
225 238 255
225 238 255
225 238 255
225 238 255
225 238 255
225 238 255
225 238 255
225 238 255
225 238 255
225 238 255
225 238 255
225 238 255
225 238 255
225 238 255
225 238 255
225 238 255
225 238 255
225 238 255
225 238 255
225 238 255
225 238 255
225 238 255
225 238 255
225 238 255
225 238 255
225 238 255
225 238 255
225 238 255
225 238 255
225 238 255
225 238 255
225 238 255
225 238 255
225 238 255
225 238 255
225 238 255
225 238 255
225 238 255
225 238 255
225 238 255
225 238 255
225 238 255
225 238 255
225 238 255
225 238 255
225 238 255
225 238 255
225 238 255
225 238 255
226 238 255
226 238 255
226 238 255
226 238 255
226 238 255
226 238 255
226 238 255
226 238 255
226 238 255
226 238 255
226 238 255
226 238 255
226 238 255
226 238 255
226 238 255
226 238 255
226 238 255
226 238 255
226 238 255
226 238 255
226 238 255
226 238 255
226 238 255
226 238 255
226 238 255
226 238 255
226 238 255
226 238 255
226 238 255
226 238 255
226 238 255
226 238 255
226 238 255
226 238 255
226 238 255
226 238 255
226 238 255
226 238 255
226 238 255
226 238 255
226 238 255
226 238 255
226 238 255
226 238 255
226 238 255
226 238 255
226 238 255
226 238 255
226 238 255
226 238 255
226 238 255
226 238 255
226 238 255
226 238 255
226 238 255
226 238 255
226 238 255
226 238 255
226 238 255
226 238 255
226 238 255
226 238 255
226 238 255
226 238 255
226 238 255
226 238 255
226 238 255
226 238 255
226 238 255
226 238 255
226 238 255
226 238 255
226 238 255
226 238 255
226 238 255
226 238 255
226 238 255
226 238 255
226 238 255
226 238 255
226 238 255
226 238 255
226 238 255
226 238 255
226 238 255
226 238 255
226 238 255
226 238 255
226 238 255
226 238 255
226 238 255
226 238 255
226 238 255
226 238 255
226 238 255
226 238 255
226 238 255
226 238 255
226 238 255
226 238 255
226 238 255
226 238 255
226 238 255
226 238 255
226 238 255
226 238 255
226 238 255
226 238 255
226 238 255
226 238 255
226 238 255
226 238 255
226 238 255
226 238 255
226 238 255
226 238 255
226 238 255
226 238 255
226 238 255
226 238 255
226 238 255
226 238 255
225 238 255
225 238 255
225 238 255
225 238 255
225 238 255
225 238 255
225 238 255
225 238 255
225 238 255
225 238 255
225 238 255
225 238 255
225 238 255
225 238 255
225 238 255
225 238 255
225 238 255
225 238 255
225 238 255
225 238 255
225 238 255
225 238 255
225 238 255
225 238 255
225 238 255
225 238 255
225 238 255
225 238 255
225 238 255
225 238 255
225 238 255
225 238 255
225 238 255
225 238 255
225 238 255
225 238 255
225 238 255
225 238 255
225 238 255
225 238 255
225 238 255
225 238 255
225 238 255
225 238 255
225 238 255
225 238 255
225 238 255
225 238 255
225 238 255
225 238 255
225 238 255
225 238 255
225 238 255
225 238 255
225 238 255
225 237 255
225 237 255
225 237 255
225 237 255
225 237 255
225 237 255
225 237 255
225 237 255
225 237 255
225 237 255
225 237 255
225 237 255
225 237 255
225 237 255
224 237 255
224 237 255
224 237 255
224 237 255
224 237 255
224 237 255
224 237 255
224 237 255
224 237 255
224 237 255
224 237 255
224 237 255
224 237 255
224 237 255
224 237 255
224 237 255
224 237 255
224 237 255
224 237 255
224 237 255
224 237 255
224 237 255
224 237 255
224 237 255
224 237 255
224 237 255
224 237 255
224 237 255
224 237 255
224 237 255
224 237 255
224 237 255
224 237 255
224 237 255
224 237 255
224 237 255
224 237 255
224 237 255
224 237 255
224 237 255
224 237 255
224 237 255
224 237 255
224 237 255
224 237 255
224 237 255
224 237 255
224 237 255
224 237 255
224 237 255
224 237 255
224 237 255
224 237 255
224 237 255
224 237 255
224 237 255
224 237 255
224 237 255
224 237 255
224 237 255
224 237 255
224 237 255
224 237 255
224 237 255
224 237 255
224 237 255
224 237 255
224 237 255
224 237 255
224 237 255
224 237 255
224 237 255
224 237 255
224 237 255
224 237 255
224 237 255
224 237 255
224 237 255
224 237 255
224 237 255
224 237 255
224 237 255
224 237 255
224 237 255
224 237 255
224 237 255
224 237 255
224 237 255
224 237 255
224 237 255
224 237 255
224 237 255
224 237 255
224 237 255
224 237 255
224 237 255
224 237 255
224 237 255
224 237 255
224 237 255
224 237 255
224 237 255
224 237 255
224 237 255
224 237 255
224 237 255
224 237 255
224 237 255
224 237 255
224 237 255
224 237 255
224 237 255
224 237 255
224 237 255
224 237 255
224 237 255
224 237 255
224 237 255
224 237 255
224 237 255
224 237 255
224 237 255
224 237 255
224 237 255
224 237 255
224 237 255
224 237 255
225 237 255
225 237 255
225 237 255
225 237 255
225 237 255
225 237 255
225 237 255
225 237 255
225 237 255
225 237 255
225 237 255
225 237 255
225 237 255
225 237 255
225 237 255
225 238 255
225 238 255
225 238 255
225 238 255
225 238 255
225 238 255
225 238 255
225 238 255
225 238 255
225 238 255
225 238 255
225 238 255
225 238 255
225 238 255
225 238 255
225 238 255
225 238 255
225 238 255
225 238 255
225 238 255
225 238 255
225 238 255
225 238 255
225 238 255
225 238 255
225 238 255
225 238 255
225 238 255
225 238 255
225 238 255
225 238 255
225 238 255
225 238 255
225 238 255
225 238 255
225 238 255
225 238 255
225 238 255
225 238 255
225 238 255
225 238 255
225 238 255
225 238 255
225 238 255
225 238 255
225 238 255
225 238 255
225 238 255
225 238 255
225 238 255
225 238 255
226 238 255
226 238 255
226 238 255
226 238 255
226 238 255
226 238 255
226 238 255
226 238 255
226 238 255
226 238 255
226 238 255
226 238 255
226 238 255
226 238 255
226 238 255
226 238 255
226 238 255
226 238 255
226 238 255
226 238 255
226 238 255
226 238 255
226 238 255
226 238 255
226 238 255
226 238 255
226 238 255
226 238 255
226 238 255
226 238 255
226 238 255
226 238 255
226 238 255
226 238 255
226 238 255
226 238 255
226 238 255
226 238 255
226 238 255
226 238 255
226 238 255
226 238 255
226 238 255
226 238 255
226 238 255
226 238 255
226 238 255
226 238 255
226 238 255
226 238 255
226 238 255
226 238 255
226 238 255
226 238 255
226 238 255
226 238 255
226 238 255
226 238 255
226 238 255
226 238 255
226 238 255
226 238 255
226 238 255
226 238 255
226 238 255
226 238 255
226 238 255
226 238 255
226 238 255
226 238 255
226 238 255
226 238 255
226 238 255
226 238 255
226 238 255
226 238 255
226 238 255
226 238 255
226 238 255
226 238 255
226 238 255
226 238 255
226 238 255
226 238 255
226 238 255
226 238 255
226 238 255
226 238 255
226 238 255
226 238 255
226 238 255
226 238 255
226 238 255
226 238 255
226 238 255
226 238 255
226 238 255
226 238 255
226 238 255
226 238 255
226 238 255
226 238 255
226 238 255
226 238 255
226 238 255
226 238 255
226 238 255
226 238 255
226 238 255
226 238 255
226 238 255
226 238 255
226 238 255
226 238 255
226 238 255
226 238 255
226 238 255
226 238 255
226 238 255
226 238 255
226 238 255
226 238 255
226 238 255
226 238 255
226 238 255
226 238 255
226 238 255
226 238 255
226 238 255
226 238 255
226 238 255
226 238 255
226 238 255
226 238 255
226 238 255
226 238 255
226 238 255
226 238 255
226 238 255
226 238 255
226 238 255
226 238 255
226 238 255
226 238 255
226 238 255
226 238 255
226 238 255
226 238 255
226 238 255
226 238 255
226 238 255
226 238 255
226 238 255
226 238 255
225 238 255
225 238 255
225 238 255
225 238 255
225 238 255
225 238 255
225 238 255
225 238 255
225 238 255
225 238 255
225 238 255
225 238 255
225 238 255
225 238 255
225 238 255
225 238 255
225 238 255
225 238 255
225 238 255
225 238 255
225 238 255
225 238 255
225 238 255
225 238 255
225 238 255
225 238 255
225 238 255
225 238 255
225 238 255
225 238 255
225 238 255
225 238 255
225 238 255
225 238 255
225 238 255
225 238 255
225 238 255
225 238 255
225 238 255
225 238 255
225 238 255
225 238 255
225 238 255
225 238 255
225 238 255
225 238 255
225 238 255
225 238 255
225 238 255
225 238 255
225 238 255
225 238 255
225 237 255
225 237 255
225 237 255
225 237 255
225 237 255
225 237 255
225 237 255
225 237 255
225 237 255
225 237 255
225 237 255
225 237 255
225 237 255
225 237 255
225 237 255
225 237 255
224 237 255
224 237 255
224 237 255
224 237 255
224 237 255
224 237 255
224 237 255
224 237 255
224 237 255
224 237 255
224 237 255
224 237 255
224 237 255
224 237 255
224 237 255
224 237 255
224 237 255
224 237 255
224 237 255
224 237 255
224 237 255
224 237 255
224 237 255
224 237 255
224 237 255
224 237 255
224 237 255
224 237 255
224 237 255
224 237 255
224 237 255
224 237 255
224 237 255
224 237 255
224 237 255
224 237 255
224 237 255
224 237 255
224 237 255
224 237 255
224 237 255
224 237 255
224 237 255
224 237 255
224 237 255
224 237 255
224 237 255
224 237 255
224 237 255
224 237 255
224 237 255
224 237 255
224 237 255
224 237 255
224 237 255
224 237 255
224 237 255
224 237 255
224 237 255
224 237 255
224 237 255
224 237 255
224 237 255
224 237 255
224 237 255
224 237 255
224 237 255
224 237 255
224 237 255
224 237 255
224 237 255
224 237 255
224 237 255
224 237 255
224 237 255
224 237 255
224 237 255
224 237 255
224 237 255
224 237 255
224 237 255
224 237 255
224 237 255
224 237 255
224 237 255
224 237 255
224 237 255
224 237 255
224 237 255
224 237 255
224 237 255
224 237 255
224 237 255
224 237 255
224 237 255
224 237 255
224 237 255
224 237 255
225 237 255
225 237 255
225 237 255
225 237 255
225 237 255
225 237 255
225 237 255
225 237 255
225 237 255
225 237 255
225 237 255
225 237 255
225 237 255
225 237 255
225 237 255
225 237 255
225 238 255
225 238 255
225 238 255
225 238 255
225 238 255
225 238 255
225 238 255
225 238 255
225 238 255
225 238 255
225 238 255
225 238 255
225 238 255
225 238 255
225 238 255
225 238 255
225 238 255
225 238 255
225 238 255
225 238 255
225 238 255
225 238 255
225 238 255
225 238 255
225 238 255
225 238 255
225 238 255
225 238 255
225 238 255
225 238 255
225 238 255
225 238 255
225 238 255
225 238 255
225 238 255
225 238 255
225 238 255
225 238 255
225 238 255
225 238 255
225 238 255
225 238 255
225 238 255
225 238 255
225 238 255
225 238 255
225 238 255
225 238 255
225 238 255
225 238 255
225 238 255
226 238 255
226 238 255
226 238 255
226 238 255
226 238 255
226 238 255
226 238 255
226 238 255
226 238 255
226 238 255
226 238 255
226 238 255
226 238 255
226 238 255
226 238 255
226 238 255
226 238 255
226 238 255
226 238 255
226 238 255
226 238 255
226 238 255
226 238 255
226 238 255
226 238 255
226 238 255
226 238 255
226 238 255
226 238 255
226 238 255
226 238 255
226 238 255
226 238 255
226 238 255
226 238 255
226 238 255
226 238 255
226 238 255
226 238 255
226 238 255
226 238 255
226 238 255
226 238 255
226 238 255
226 238 255
226 238 255
226 238 255
226 238 255
226 238 255
226 238 255
226 238 255
226 238 255
226 238 255
226 238 255
226 238 255
226 238 255
226 238 255
226 238 255
226 238 255
226 238 255
226 238 255
226 238 255
226 238 255
226 238 255
226 238 255
226 238 255
226 238 255
226 238 255
226 238 255
226 238 255
226 239 255
226 239 255
226 239 255
227 239 255
227 239 255
227 239 255
227 239 255
227 239 255
227 239 255
227 239 255
227 239 255
227 239 255
227 239 255
227 239 255
227 239 255
227 239 255
227 239 255
227 239 255
227 239 255
227 239 255
227 239 255
227 239 255
227 239 255
227 239 255
227 239 255
227 239 255
227 239 255
227 239 255
227 239 255
227 239 255
227 239 255
227 239 255
227 239 255
227 239 255
227 239 255
226 239 255
227 239 255
226 239 255
226 239 255
226 239 255
226 239 255
226 239 255
226 239 255
226 238 255
226 238 255
226 238 255
226 238 255
226 238 255
226 238 255
226 238 255
226 238 255
226 238 255
226 238 255
226 238 255
226 238 255
226 238 255
226 238 255
226 238 255
226 238 255
226 238 255
226 238 255
226 238 255
226 238 255
226 238 255
226 238 255
226 238 255
226 238 255
226 238 255
226 238 255
226 238 255
226 238 255
226 238 255
226 238 255
226 238 255
226 238 255
226 238 255
226 238 255
226 238 255
226 238 255
226 238 255
226 238 255
226 238 255
226 238 255
226 238 255
226 238 255
226 238 255
226 238 255
226 238 255
226 238 255
226 238 255
226 238 255
226 238 255
226 238 255
226 238 255
226 238 255
226 238 255
226 238 255
226 238 255
226 238 255
226 238 255
226 238 255
226 238 255
226 238 255
226 238 255
226 238 255
226 238 255
226 238 255
226 238 255
226 238 255
226 238 255
226 238 255
225 238 255
225 238 255
225 238 255
225 238 255
225 238 255
225 238 255
225 238 255
225 238 255
225 238 255
225 238 255
225 238 255
225 238 255
225 238 255
225 238 255
225 238 255
225 238 255
225 238 255
225 238 255
225 238 255
225 238 255
225 238 255
225 238 255
225 238 255
225 238 255
225 238 255
225 238 255
225 238 255
225 238 255
225 238 255
225 238 255
225 238 255
225 238 255
225 238 255
225 238 255
225 238 255
225 238 255
225 238 255
225 238 255
225 238 255
225 238 255
225 238 255
225 238 255
225 238 255
225 238 255
225 238 255
225 238 255
225 238 255
225 238 255
225 238 255
225 238 255
225 238 255
225 237 255
225 237 255
225 237 255
225 237 255
225 237 255
225 237 255
225 237 255
225 237 255
225 237 255
225 237 255
225 237 255
225 237 255
225 237 255
225 237 255
225 237 255
224 237 255
224 237 255
224 237 255
224 237 255
224 237 255
224 237 255
224 237 255
224 237 255
224 237 255
224 237 255
224 237 255
224 237 255
224 237 255
224 237 255
224 237 255
224 237 255
224 237 255
224 237 255
224 237 255
224 237 255
224 237 255
224 237 255
224 237 255
224 237 255
224 237 255
224 237 255
224 237 255
224 237 255
224 237 255
224 237 255
224 237 255
224 237 255
224 237 255
224 237 255
224 237 255
224 237 255
224 237 255
224 237 255
224 237 255
224 237 255
224 237 255
224 237 255
224 237 255
224 237 255
224 237 255
224 237 255
224 237 255
224 237 255
224 237 255
224 237 255
224 237 255
224 237 255
224 237 255
224 237 255
224 237 255
224 237 255
224 237 255
224 237 255
224 237 255
224 237 255
224 237 255
224 237 255
224 237 255
224 237 255
224 237 255
224 237 255
224 237 255
224 237 255
224 237 255
224 237 255
224 237 255
224 237 255
224 237 255
224 237 255
224 237 255
225 237 255
225 237 255
225 237 255
225 237 255
225 237 255
225 237 255
225 237 255
225 237 255
225 237 255
225 237 255
225 237 255
225 237 255
225 237 255
225 237 255
225 237 255
225 238 255
225 238 255
225 238 255
225 238 255
225 238 255
225 238 255
225 238 255
225 238 255
225 238 255
225 238 255
225 238 255
225 238 255
225 238 255
225 238 255
225 238 255
225 238 255
225 238 255
225 238 255
225 238 255
225 238 255
225 238 255
225 238 255
225 238 255
225 238 255
225 238 255
225 238 255
225 238 255
225 238 255
225 238 255
225 238 255
225 238 255
225 238 255
225 238 255
225 238 255
225 238 255
225 238 255
225 238 255
225 238 255
225 238 255
225 238 255
225 238 255
225 238 255
225 238 255
225 238 255
225 238 255
225 238 255
225 238 255
225 238 255
225 238 255
225 238 255
225 238 255
225 238 255
226 238 255
226 238 255
226 238 255
226 238 255
226 238 255
226 238 255
226 238 255
226 238 255
226 238 255
226 238 255
226 238 255
226 238 255
226 238 255
226 238 255
226 238 255
226 238 255
226 238 255
226 238 255
226 238 255
226 238 255
226 238 255
226 238 255
226 238 255
226 238 255
226 238 255
226 238 255
226 238 255
226 238 255
226 238 255
226 238 255
226 238 255
226 238 255
226 238 255
226 238 255
226 238 255
226 238 255
226 238 255
226 238 255
226 238 255
226 238 255
226 238 255
226 238 255
226 238 255
226 238 255
226 238 255
226 238 255
226 238 255
226 238 255
226 238 255
226 238 255
226 238 255
226 238 255
226 238 255
226 238 255
226 238 255
226 238 255
226 239 255
226 239 255
227 239 255
227 239 255
227 239 255
227 239 255
227 239 255
227 239 255
227 239 255
227 239 255
227 239 255
227 239 255
227 239 255
227 239 255
227 239 255
227 239 255
227 239 255
227 239 255
227 239 255
227 239 255
227 239 255
227 239 255
227 239 255
227 239 255
227 239 255
227 239 255
227 239 255
227 239 255
227 239 255
227 239 255
227 239 255
227 239 255
227 239 255
227 239 255
227 239 255
227 239 255
227 239 255
227 239 255
227 239 255
227 239 255
227 239 255
227 239 255
227 239 255
227 239 255
227 239 255
227 239 255
227 239 255
227 239 255
227 239 255
227 239 255
227 239 255
227 239 255
227 239 255
227 239 255
227 239 255
227 239 255
227 239 255
227 239 255
227 239 255
227 239 255
227 239 255
227 239 255
227 239 255
227 239 255
227 239 255
227 239 255
227 239 255
227 239 255
227 239 255
227 239 255
227 239 255
227 239 255
227 239 255
227 239 255
227 239 255
227 239 255
227 239 255
227 239 255
227 239 255
227 239 255
227 239 255
227 239 255
227 239 255
227 239 255
227 239 255
227 239 255
227 239 255
227 239 255
227 239 255
226 239 255
226 239 255
226 238 255
226 238 255
226 238 255
226 238 255
226 238 255
226 238 255
226 238 255
226 238 255
226 238 255
226 238 255
226 238 255
226 238 255
226 238 255
226 238 255
226 238 255
226 238 255
226 238 255
226 238 255
226 238 255
226 238 255
226 238 255
226 238 255
226 238 255
226 238 255
226 238 255
226 238 255
226 238 255
226 238 255
226 238 255
226 238 255
226 238 255
226 238 255
226 238 255
226 238 255
226 238 255
226 238 255
226 238 255
226 238 255
226 238 255
226 238 255
226 238 255
226 238 255
226 238 255
226 238 255
226 238 255
226 238 255
226 238 255
226 238 255
226 238 255
226 238 255
226 238 255
226 238 255
226 238 255
226 238 255
226 238 255
226 238 255
226 238 255
225 238 255
225 238 255
225 238 255
225 238 255
225 238 255
225 238 255
225 238 255
225 238 255
225 238 255
225 238 255
225 238 255
225 238 255
225 238 255
225 238 255
225 238 255
225 238 255
225 238 255
225 238 255
225 238 255
225 238 255
225 238 255
225 238 255
225 238 255
225 238 255
225 238 255
225 238 255
225 238 255
225 238 255
225 238 255
225 238 255
225 238 255
225 238 255
225 238 255
225 238 255
225 238 255
225 238 255
225 238 255
225 238 255
225 238 255
225 238 255
225 238 255
225 238 255
225 238 255
225 238 255
225 238 255
225 238 255
225 238 255
225 238 255
225 238 255
225 238 255
225 237 255
225 237 255
225 237 255
225 237 255
225 237 255
225 237 255
225 237 255
225 237 255
225 237 255
225 237 255
225 237 255
225 237 255
225 237 255
225 237 255
225 237 255
225 237 255
224 237 255
224 237 255
224 237 255
224 237 255
224 237 255
224 237 255
224 237 255
224 237 255
224 237 255
224 237 255
224 237 255
224 237 255
224 237 255
224 237 255
224 237 255
224 237 255
224 237 255
224 237 255
224 237 255
224 237 255
224 237 255
224 237 255
224 237 255
224 237 255
224 237 255
224 237 255
224 237 255
224 237 255
224 237 255
224 237 255
224 237 255
224 237 255
224 237 255
224 237 255
224 237 255
224 237 255
224 237 255
224 237 255
224 237 255
224 237 255
224 237 255
224 237 255
224 237 255
224 237 255
224 237 255
224 237 255
224 237 255
224 237 255
224 237 255
224 237 255
224 237 255
225 237 255
225 237 255
225 237 255
225 237 255
225 237 255
225 237 255
225 237 255
225 237 255
225 237 255
225 237 255
225 237 255
225 237 255
225 237 255
225 237 255
225 237 255
225 238 255
225 238 255
225 238 255
225 238 255
225 238 255
225 238 255
225 238 255
225 238 255
225 238 255
225 238 255
225 238 255
225 238 255
225 238 255
225 238 255
225 238 255
225 238 255
225 238 255
225 238 255
225 238 255
225 238 255
225 238 255
225 238 255
225 238 255
225 238 255
225 238 255
225 238 255
225 238 255
225 238 255
225 238 255
225 238 255
225 238 255
225 238 255
225 238 255
225 238 255
225 238 255
225 238 255
225 238 255
225 238 255
225 238 255
225 238 255
225 238 255
225 238 255
225 238 255
225 238 255
225 238 255
225 238 255
225 238 255
225 238 255
225 238 255
225 238 255
225 238 255
226 238 255
226 238 255
226 238 255
226 238 255
226 238 255
226 238 255
226 238 255
226 238 255
226 238 255
226 238 255
226 238 255
226 238 255
226 238 255
226 238 255
226 238 255
226 238 255
226 238 255
226 238 255
226 238 255
226 238 255
226 238 255
226 238 255
226 238 255
226 238 255
226 238 255
226 238 255
226 238 255
226 238 255
226 238 255
226 238 255
226 238 255
226 238 255
226 238 255
226 238 255
226 238 255
226 238 255
226 238 255
226 238 255
226 238 255
226 238 255
226 238 255
226 238 255
226 238 255
226 238 255
226 238 255
226 238 255
226 238 255
226 238 255
226 238 255
226 238 255
226 238 255
226 238 255
226 238 255
226 239 255
226 239 255
227 239 255
227 239 255
227 239 255
227 239 255
227 239 255
227 239 255
227 239 255
227 239 255
227 239 255
227 239 255
227 239 255
227 239 255
227 239 255
227 239 255
227 239 255
227 239 255
227 239 255
227 239 255
227 239 255
227 239 255
227 239 255
227 239 255
227 239 255
227 239 255
227 239 255
227 239 255
227 239 255
227 239 255
227 239 255
227 239 255
227 239 255
227 239 255
227 239 255
227 239 255
227 239 255
227 239 255
227 239 255
227 239 255
227 239 255
227 239 255
227 239 255
227 239 255
227 239 255
227 239 255
227 239 255
227 239 255
227 239 255
227 239 255
227 239 255
227 239 255
227 239 255
227 239 255
227 239 255
227 239 255
227 239 255
227 239 255
227 239 255
227 239 255
227 239 255
227 239 255
227 239 255
227 239 255
227 239 255
227 239 255
227 239 255
227 239 255
227 239 255
227 239 255
227 239 255
227 239 255
227 239 255
227 239 255
227 239 255
227 239 255
227 239 255
227 239 255
227 239 255
227 239 255
227 239 255
227 239 255
227 239 255
227 239 255
227 239 255
227 239 255
227 239 255
227 239 255
227 239 255
227 239 255
227 239 255
227 239 255
227 239 255
227 239 255
227 239 255
227 239 255
227 239 255
227 239 255
227 239 255
227 239 255
227 239 255
227 239 255
227 239 255
227 239 255
227 239 255
227 239 255
227 239 255
227 239 255
227 239 255
227 239 255
227 239 255
227 239 255
227 239 255
227 239 255
227 239 255
227 239 255
227 239 255
227 239 255
227 239 255
227 239 255
226 239 255
226 239 255
226 239 255
226 239 255
226 238 255
226 238 255
226 238 255
226 238 255
226 238 255
226 238 255
226 238 255
226 238 255
226 238 255
226 238 255
226 238 255
226 238 255
226 238 255
226 238 255
226 238 255
226 238 255
226 238 255
226 238 255
226 238 255
226 238 255
226 238 255
226 238 255
226 238 255
226 238 255
226 238 255
226 238 255
226 238 255
226 238 255
226 238 255
226 238 255
226 238 255
226 238 255
226 238 255
226 238 255
226 238 255
226 238 255
226 238 255
226 238 255
226 238 255
226 238 255
226 238 255
226 238 255
226 238 255
226 238 255
226 238 255
226 238 255
226 238 255
226 238 255
226 238 255
226 238 255
226 238 255
225 238 255
225 238 255
225 238 255
225 238 255
225 238 255
225 238 255
225 238 255
225 238 255
225 238 255
225 238 255
225 238 255
225 238 255
225 238 255
225 238 255
225 238 255
225 238 255
225 238 255
225 238 255
225 238 255
225 238 255
225 238 255
225 238 255
225 238 255
225 238 255
225 238 255
225 238 255
225 238 255
225 238 255
225 238 255
225 238 255
225 238 255
225 238 255
225 238 255
225 238 255
225 238 255
225 238 255
225 238 255
225 238 255
225 238 255
225 238 255
225 238 255
225 238 255
225 238 255
225 238 255
225 238 255
225 238 255
225 238 255
225 238 255
225 238 255
225 238 255
225 238 255
225 238 255
225 237 255
225 237 255
225 237 255
225 237 255
225 237 255
225 237 255
225 237 255
225 237 255
225 237 255
225 237 255
225 237 255
225 237 255
225 237 255
225 237 255
225 237 255
224 237 255
224 237 255
224 237 255
224 237 255
224 237 255
224 237 255
224 237 255
224 237 255
224 237 255
224 237 255
224 237 255
224 237 255
224 237 255
224 237 255
224 237 255
224 237 255
224 237 255
224 237 255
224 237 255
224 237 255
224 237 255
224 237 255
224 237 255
224 237 255
224 237 255
224 237 255
224 237 255
224 237 255
225 237 255
225 237 255
225 237 255
225 237 255
225 237 255
225 237 255
225 237 255
225 237 255
225 237 255
225 237 255
225 237 255
225 237 255
225 237 255
225 237 255
225 237 255
225 238 255
225 238 255
225 238 255
225 238 255
225 238 255
225 238 255
225 238 255
225 238 255
225 238 255
225 238 255
225 238 255
225 238 255
225 238 255
225 238 255
225 238 255
225 238 255
225 238 255
225 238 255
225 238 255
225 238 255
225 238 255
225 238 255
225 238 255
225 238 255
225 238 255
225 238 255
225 238 255
225 238 255
225 238 255
225 238 255
225 238 255
225 238 255
225 238 255
225 238 255
225 238 255
225 238 255
225 238 255
225 238 255
225 238 255
225 238 255
225 238 255
225 238 255
225 238 255
225 238 255
225 238 255
225 238 255
225 238 255
225 238 255
225 238 255
225 238 255
225 238 255
225 238 255
226 238 255
226 238 255
226 238 255
226 238 255
226 238 255
226 238 255
226 238 255
226 238 255
226 238 255
226 238 255
226 238 255
226 238 255
226 238 255
226 238 255
226 238 255
226 238 255
226 238 255
226 238 255
226 238 255
226 238 255
226 238 255
226 238 255
226 238 255
226 238 255
226 238 255
226 238 255
226 238 255
226 238 255
226 238 255
226 238 255
226 238 255
226 238 255
226 238 255
226 238 255
226 238 255
226 238 255
226 238 255
226 238 255
226 238 255
226 238 255
226 238 255
226 238 255
226 238 255
226 238 255
226 238 255
226 238 255
226 238 255
226 238 255
226 238 255
226 238 255
226 239 255
226 239 255
227 239 255
227 239 255
227 239 255
227 239 255
227 239 255
227 239 255
227 239 255
227 239 255
227 239 255
227 239 255
227 239 255
227 239 255
227 239 255
227 239 255
227 239 255
227 239 255
227 239 255
227 239 255
227 239 255
227 239 255
227 239 255
227 239 255
227 239 255
227 239 255
227 239 255
227 239 255
227 239 255
227 239 255
227 239 255
227 239 255
227 239 255
227 239 255
227 239 255
227 239 255
227 239 255
227 239 255
227 239 255
227 239 255
227 239 255
227 239 255
227 239 255
227 239 255
227 239 255
227 239 255
227 239 255
227 239 255
227 239 255
227 239 255
227 239 255
227 239 255
227 239 255
227 239 255
227 239 255
227 239 255
227 239 255
227 239 255
227 239 255
227 239 255
227 239 255
227 239 255
227 239 255
227 239 255
227 239 255
227 239 255
227 239 255
227 239 255
227 239 255
227 239 255
227 239 255
227 239 255
227 239 255
227 239 255
227 239 255
227 239 255
227 239 255
227 239 255
227 239 255
227 239 255
227 239 255
227 239 255
227 239 255
227 239 255
227 239 255
227 239 255
227 239 255
227 239 255
227 239 255
227 239 255
227 239 255
227 239 255
227 239 255
227 239 255
227 239 255
227 239 255
227 239 255
227 239 255
227 239 255
227 239 255
227 239 255
227 239 255
227 239 255
227 239 255
227 239 255
227 239 255
227 239 255
227 239 255
227 239 255
227 239 255
227 239 255
227 239 255
227 239 255
227 239 255
227 239 255
227 239 255
227 239 255
227 239 255
227 239 255
227 239 255
227 239 255
227 239 255
227 239 255
227 239 255
227 239 255
227 239 255
227 239 255
227 239 255
227 239 255
227 239 255
227 239 255
227 239 255
227 239 255
227 239 255
227 239 255
227 239 255
227 239 255
227 239 255
227 239 255
227 239 255
227 239 255
227 239 255
227 239 255
227 239 255
227 239 255
227 239 255
226 239 255
226 239 255
226 239 255
226 238 255
226 238 255
226 238 255
226 238 255
226 238 255
226 238 255
226 238 255
226 238 255
226 238 255
226 238 255
226 238 255
226 238 255
226 238 255
226 238 255
226 238 255
226 238 255
226 238 255
226 238 255
226 238 255
226 238 255
226 238 255
226 238 255
226 238 255
226 238 255
226 238 255
226 238 255
226 238 255
226 238 255
226 238 255
226 238 255
226 238 255
226 238 255
226 238 255
226 238 255
226 238 255
226 238 255
226 238 255
226 238 255
226 238 255
226 238 255
226 238 255
226 238 255
226 238 255
226 238 255
226 238 255
226 238 255
226 238 255
226 238 255
226 238 255
226 238 255
225 238 255
225 238 255
225 238 255
225 238 255
225 238 255
225 238 255
225 238 255
225 238 255
225 238 255
225 238 255
225 238 255
225 238 255
225 238 255
225 238 255
225 238 255
225 238 255
225 238 255
225 238 255
225 238 255
225 238 255
225 238 255
225 238 255
225 238 255
225 238 255
225 238 255
225 238 255
225 238 255
225 238 255
225 238 255
225 238 255
225 238 255
225 238 255
225 238 255
225 238 255
225 238 255
225 238 255
225 238 255
225 238 255
225 238 255
225 238 255
225 238 255
225 238 255
225 238 255
225 238 255
225 238 255
225 238 255
225 238 255
225 238 255
225 238 255
225 238 255
225 238 255
225 238 255
225 237 255
225 237 255
225 237 255
225 237 255
225 237 255
225 237 255
225 237 255
225 237 255
225 237 255
225 237 255
225 237 255
225 237 255
225 237 255
225 237 255
225 237 255
225 237 255
224 237 255
224 237 255
224 237 255
224 237 255
224 237 255
224 237 255
224 237 255
224 237 255
225 237 255
225 237 255
225 237 255
225 237 255
225 237 255
225 237 255
225 237 255
225 237 255
225 237 255
225 237 255
225 237 255
225 237 255
225 238 255
225 238 255
225 238 255
225 238 255
225 238 255
225 238 255
225 238 255
225 238 255
225 238 255
225 238 255
225 238 255
225 238 255
225 238 255
225 238 255
225 238 255
225 238 255
225 238 255
225 238 255
225 238 255
225 238 255
225 238 255
225 238 255
225 238 255
225 238 255
225 238 255
225 238 255
225 238 255
225 238 255
225 238 255
225 238 255
225 238 255
225 238 255
225 238 255
225 238 255
225 238 255
225 238 255
225 238 255
225 238 255
225 238 255
225 238 255
225 238 255
225 238 255
225 238 255
225 238 255
225 238 255
225 238 255
225 238 255
225 238 255
225 238 255
225 238 255
225 238 255
225 238 255
226 238 255
225 238 255
226 238 255
226 238 255
226 238 255
226 238 255
226 238 255
226 238 255
226 238 255
226 238 255
226 238 255
226 238 255
226 238 255
226 238 255
226 238 255
226 238 255
226 238 255
226 238 255
226 238 255
226 238 255
226 238 255
226 238 255
226 238 255
226 238 255
226 238 255
226 238 255
226 238 255
226 238 255
226 238 255
226 238 255
226 238 255
226 238 255
226 238 255
226 238 255
226 238 255
226 238 255
226 238 255
226 238 255
226 238 255
226 238 255
226 238 255
226 238 255
226 238 255
226 238 255
226 238 255
226 238 255
226 238 255
226 238 255
226 238 255
226 238 255
226 239 255
226 239 255
227 239 255
227 239 255
227 239 255
227 239 255
227 239 255
227 239 255
227 239 255
227 239 255
227 239 255
227 239 255
227 239 255
227 239 255
227 239 255
227 239 255
227 239 255
227 239 255
227 239 255
227 239 255
227 239 255
227 239 255
227 239 255
227 239 255
227 239 255
227 239 255
227 239 255
227 239 255
227 239 255
227 239 255
227 239 255
227 239 255
227 239 255
227 239 255
227 239 255
227 239 255
227 239 255
227 239 255
227 239 255
227 239 255
227 239 255
227 239 255
227 239 255
227 239 255
227 239 255
227 239 255
227 239 255
227 239 255
227 239 255
227 239 255
227 239 255
227 239 255
227 239 255
227 239 255
227 239 255
227 239 255
227 239 255
227 239 255
227 239 255
227 239 255
228 239 255
228 239 255
228 239 255
228 239 255
228 239 255
228 239 255
228 239 255
228 239 255
228 239 255
228 239 255
228 239 255
228 239 255
228 239 255
228 239 255
228 239 255
228 239 255
228 239 255
228 239 255
228 239 255
228 239 255
228 239 255
228 239 255
228 239 255
228 239 255
228 239 255
228 239 255
228 239 255
228 239 255
228 239 255
228 239 255
228 239 255
228 239 255
228 239 255
228 239 255
228 239 255
228 239 255
228 239 255
228 239 255
228 239 255
228 239 255
228 239 255
228 239 255
228 239 255
228 239 255
228 239 255
228 239 255
228 239 255
228 239 255
228 239 255
228 239 255
227 239 255
227 239 255
227 239 255
227 239 255
227 239 255
227 239 255
227 239 255
227 239 255
227 239 255
227 239 255
227 239 255
227 239 255
227 239 255
227 239 255
227 239 255
227 239 255
227 239 255
227 239 255
227 239 255
227 239 255
227 239 255
227 239 255
227 239 255
227 239 255
227 239 255
227 239 255
227 239 255
227 239 255
227 239 255
227 239 255
227 239 255
227 239 255
227 239 255
227 239 255
227 239 255
227 239 255
227 239 255
227 239 255
227 239 255
227 239 255
227 239 255
227 239 255
227 239 255
227 239 255
227 239 255
227 239 255
227 239 255
227 239 255
227 239 255
227 239 255
227 239 255
227 239 255
227 239 255
227 239 255
227 239 255
227 239 255
227 239 255
227 239 255
227 239 255
226 239 255
226 239 255
226 238 255
226 238 255
226 238 255
226 238 255
226 238 255
226 238 255
226 238 255
226 238 255
226 238 255
226 238 255
226 238 255
226 238 255
226 238 255
226 238 255
226 238 255
226 238 255
226 238 255
226 238 255
226 238 255
226 238 255
226 238 255
226 238 255
226 238 255
226 238 255
226 238 255
226 238 255
226 238 255
226 238 255
226 238 255
226 238 255
226 238 255
226 238 255
226 238 255
226 238 255
226 238 255
226 238 255
226 238 255
226 238 255
226 238 255
226 238 255
226 238 255
226 238 255
226 238 255
226 238 255
226 238 255
226 238 255
226 238 255
226 238 255
226 238 255
226 238 255
225 238 255
225 238 255
225 238 255
225 238 255
225 238 255
225 238 255
225 238 255
225 238 255
225 238 255
225 238 255
225 238 255
225 238 255
225 238 255
225 238 255
225 238 255
225 238 255
225 238 255
225 238 255
225 238 255
225 238 255
225 238 255
225 238 255
225 238 255
225 238 255
225 238 255
225 238 255
225 238 255
225 238 255
225 238 255
225 238 255
225 238 255
225 238 255
225 238 255
225 238 255
225 238 255
225 238 255
225 238 255
225 238 255
225 238 255
225 238 255
225 238 255
225 238 255
225 238 255
225 238 255
225 238 255
225 238 255
225 238 255
225 238 255
225 238 255
225 238 255
225 238 255
225 238 255
225 237 255
225 237 255
225 237 255
225 237 255
225 237 255
225 237 255
225 237 255
225 237 255
225 237 255
225 237 255
225 237 255
225 237 255
225 237 255
225 238 255
225 238 255
225 238 255
225 238 255
225 238 255
225 238 255
225 238 255
225 238 255
225 238 255
225 238 255
225 238 255
225 238 255
225 238 255
225 238 255
225 238 255
225 238 255
225 238 255
225 238 255
225 238 255
225 238 255
225 238 255
225 238 255
225 238 255
225 238 255
225 238 255
225 238 255
225 238 255
225 238 255
225 238 255
225 238 255
225 238 255
225 238 255
225 238 255
225 238 255
225 238 255
225 238 255
225 238 255
225 238 255
225 238 255
225 238 255
225 238 255
225 238 255
225 238 255
225 238 255
225 238 255
225 238 255
225 238 255
225 238 255
225 238 255
225 238 255
225 238 255
225 238 255
225 238 255
225 238 255
226 238 255
226 238 255
226 238 255
226 238 255
226 238 255
226 238 255
226 238 255
226 238 255
226 238 255
226 238 255
226 238 255
226 238 255
226 238 255
226 238 255
226 238 255
226 238 255
226 238 255
226 238 255
226 238 255
226 238 255
226 238 255
226 238 255
226 238 255
226 238 255
226 238 255
226 238 255
226 238 255
226 238 255
226 238 255
226 238 255
226 238 255
226 238 255
226 238 255
226 238 255
226 238 255
226 238 255
226 238 255
226 238 255
226 238 255
226 238 255
226 238 255
226 238 255
226 238 255
226 238 255
226 238 255
226 238 255
226 238 255
226 238 255
226 238 255
226 239 255
226 239 255
227 239 255
227 239 255
227 239 255
227 239 255
227 239 255
227 239 255
227 239 255
227 239 255
227 239 255
227 239 255
227 239 255
227 239 255
227 239 255
227 239 255
227 239 255
227 239 255
227 239 255
227 239 255
227 239 255
227 239 255
227 239 255
227 239 255
227 239 255
227 239 255
227 239 255
227 239 255
227 239 255
227 239 255
227 239 255
227 239 255
227 239 255
227 239 255
227 239 255
227 239 255
227 239 255
227 239 255
227 239 255
227 239 255
227 239 255
227 239 255
227 239 255
227 239 255
227 239 255
227 239 255
227 239 255
227 239 255
227 239 255
227 239 255
227 239 255
227 239 255
228 239 255
228 239 255
228 239 255
228 239 255
228 239 255
228 239 255
228 239 255
228 239 255
228 239 255
228 239 255
228 239 255
228 239 255
228 239 255
228 239 255
228 239 255
228 239 255
228 239 255
228 239 255
228 239 255
228 239 255
228 239 255
228 239 255
228 239 255
228 239 255
228 239 255
228 239 255
228 239 255
228 239 255
228 239 255
228 239 255
228 239 255
228 239 255
228 239 255
228 239 255
228 239 255
228 239 255
228 239 255
228 239 255
228 239 255
228 239 255
228 239 255
228 239 255
228 239 255
228 239 255
228 239 255
228 239 255
228 239 255
228 239 255
228 239 255
228 239 255
228 239 255
228 239 255
228 239 255
228 239 255
228 239 255
228 239 255
228 239 255
228 239 255
228 239 255
228 239 255
228 239 255
228 239 255
228 239 255
228 239 255
228 239 255
228 239 255
228 239 255
228 239 255
228 239 255
228 239 255
228 239 255
228 239 255
228 239 255
228 239 255
228 239 255
228 239 255
228 239 255
228 239 255
228 239 255
228 239 255
228 239 255
228 239 255
228 239 255
228 239 255
228 239 255
228 239 255
228 239 255
228 239 255
228 239 255
228 239 255
227 239 255
227 239 255
227 239 255
227 239 255
227 239 255
227 239 255
227 239 255
227 239 255
227 239 255
227 239 255
227 239 255
227 239 255
227 239 255
227 239 255
227 239 255
227 239 255
227 239 255
227 239 255
227 239 255
227 239 255
227 239 255
227 239 255
227 239 255
227 239 255
227 239 255
227 239 255
227 239 255
227 239 255
227 239 255
227 239 255
227 239 255
227 239 255
227 239 255
227 239 255
227 239 255
227 239 255
227 239 255
227 239 255
227 239 255
227 239 255
227 239 255
227 239 255
227 239 255
227 239 255
227 239 255
227 239 255
227 239 255
227 239 255
226 239 255
226 239 255
226 238 255
226 238 255
226 238 255
226 238 255
226 238 255
226 238 255
226 238 255
226 238 255
226 238 255
226 238 255
226 238 255
226 238 255
226 238 255
226 238 255
226 238 255
226 238 255
226 238 255
226 238 255
226 238 255
226 238 255
226 238 255
226 238 255
226 238 255
226 238 255
226 238 255
226 238 255
226 238 255
226 238 255
226 238 255
226 238 255
226 238 255
226 238 255
226 238 255
226 238 255
226 238 255
226 238 255
226 238 255
226 238 255
226 238 255
226 238 255
226 238 255
226 238 255
226 238 255
226 238 255
226 238 255
226 238 255
226 238 255
226 238 255
226 238 255
226 238 255
225 238 255
225 238 255
225 238 255
225 238 255
225 238 255
225 238 255
225 238 255
225 238 255
225 238 255
225 238 255
225 238 255
225 238 255
225 238 255
225 238 255
225 238 255
225 238 255
225 238 255
225 238 255
225 238 255
225 238 255
225 238 255
225 238 255
225 238 255
225 238 255
225 238 255
225 238 255
225 238 255
225 238 255
225 238 255
225 238 255
225 238 255
225 238 255
225 238 255
225 238 255
225 238 255
225 238 255
225 238 255
225 238 255
225 238 255
225 238 255
225 238 255
225 238 255
225 238 255
225 238 255
225 238 255
225 238 255
225 238 255
225 238 255
225 238 255
225 238 255
225 238 255
225 238 255
225 237 255
225 237 255
225 237 255
225 238 255
225 238 255
225 238 255
225 238 255
225 238 255
225 238 255
225 238 255
225 238 255
225 238 255
225 238 255
225 238 255
225 238 255
225 238 255
225 238 255
225 238 255
225 238 255
225 238 255
225 238 255
225 238 255
225 238 255
225 238 255
225 238 255
225 238 255
225 238 255
225 238 255
225 238 255
225 238 255
225 238 255
225 238 255
225 238 255
225 238 255
225 238 255
225 238 255
225 238 255
225 238 255
225 238 255
225 238 255
225 238 255
225 238 255
225 238 255
225 238 255
225 238 255
225 238 255
225 238 255
226 238 255
226 238 255
226 238 255
226 238 255
226 238 255
226 238 255
226 238 255
226 238 255
226 238 255
226 238 255
226 238 255
226 238 255
226 238 255
226 238 255
226 238 255
226 238 255
226 238 255
226 238 255
226 238 255
226 238 255
226 238 255
226 238 255
226 238 255
226 238 255
226 238 255
226 238 255
226 238 255
226 238 255
226 238 255
226 238 255
226 238 255
226 238 255
226 238 255
226 238 255
226 238 255
226 238 255
226 238 255
226 238 255
226 238 255
226 238 255
226 238 255
226 238 255
226 238 255
226 238 255
226 238 255
226 238 255
226 238 255
226 238 255
226 238 255
226 238 255
226 238 255
227 239 255
227 239 255
227 239 255
227 239 255
227 239 255
227 239 255
227 239 255
227 239 255
227 239 255
227 239 255
227 239 255
227 239 255
227 239 255
227 239 255
227 239 255
227 239 255
227 239 255
227 239 255
227 239 255
227 239 255
227 239 255
227 239 255
227 239 255
227 239 255
227 239 255
227 239 255
227 239 255
227 239 255
227 239 255
227 239 255
227 239 255
227 239 255
227 239 255
227 239 255
227 239 255
227 239 255
227 239 255
227 239 255
227 239 255
227 239 255
227 239 255
227 239 255
227 239 255
227 239 255
227 239 255
227 239 255
228 239 255
228 239 255
228 239 255
228 239 255
228 239 255
228 239 255
228 239 255
228 239 255
228 239 255
228 239 255
228 239 255
228 239 255
228 239 255
228 239 255
228 239 255
228 239 255
228 239 255
228 239 255
228 239 255
228 239 255
228 239 255
228 239 255
228 239 255
228 239 255
228 239 255
228 239 255
228 239 255
228 239 255
228 239 255
228 239 255
228 239 255
228 239 255
228 239 255
228 239 255
228 239 255
228 239 255
228 239 255
228 239 255
228 239 255
228 239 255
228 239 255
228 239 255
228 239 255
228 239 255
228 239 255
228 239 255
228 239 255
228 239 255
228 239 255
228 239 255
228 239 255
228 239 255
228 239 255
228 239 255
228 239 255
228 239 255
228 239 255
228 239 255
228 239 255
228 239 255
228 239 255
228 239 255
228 239 255
228 239 255
228 239 255
228 239 255
228 239 255
228 239 255
228 239 255
228 239 255
228 239 255
228 239 255
228 239 255
228 239 255
228 239 255
228 239 255
228 239 255
228 239 255
228 239 255
228 239 255
228 239 255
228 239 255
228 239 255
228 239 255
228 239 255
228 239 255
228 239 255
228 239 255
228 239 255
228 239 255
228 239 255
228 239 255
228 239 255
228 239 255
228 239 255
228 239 255
228 239 255
228 239 255
228 239 255
228 239 255
228 239 255
228 239 255
228 239 255
228 239 255
228 239 255
228 239 255
228 239 255
228 239 255
228 239 255
228 239 255
228 239 255
228 239 255
228 239 255
228 239 255
228 239 255
228 239 255
227 239 255
227 239 255
227 239 255
227 239 255
227 239 255
227 239 255
227 239 255
227 239 255
227 239 255
227 239 255
227 239 255
227 239 255
227 239 255
227 239 255
227 239 255
227 239 255
227 239 255
227 239 255
227 239 255
227 239 255
227 239 255
227 239 255
227 239 255
227 239 255
227 239 255
227 239 255
227 239 255
227 239 255
227 239 255
227 239 255
227 239 255
227 239 255
227 239 255
227 239 255
227 239 255
227 239 255
227 239 255
227 239 255
227 239 255
227 239 255
227 239 255
227 239 255
227 239 255
227 239 255
227 239 255
227 239 255
226 239 255
226 239 255
226 238 255
226 238 255
226 238 255
226 238 255
226 238 255
226 238 255
226 238 255
226 238 255
226 238 255
226 238 255
226 238 255
226 238 255
226 238 255
226 238 255
226 238 255
226 238 255
226 238 255
226 238 255
226 238 255
226 238 255
226 238 255
226 238 255
226 238 255
226 238 255
226 238 255
226 238 255
226 238 255
226 238 255
226 238 255
226 238 255
226 238 255
226 238 255
226 238 255
226 238 255
226 238 255
226 238 255
226 238 255
226 238 255
226 238 255
226 238 255
226 238 255
226 238 255
226 238 255
226 238 255
226 238 255
226 238 255
226 238 255
226 238 255
226 238 255
225 238 255
225 238 255
225 238 255
225 238 255
225 238 255
225 238 255
225 238 255
225 238 255
225 238 255
225 238 255
225 238 255
225 238 255
225 238 255
225 238 255
225 238 255
225 238 255
225 238 255
225 238 255
225 238 255
225 238 255
225 238 255
225 238 255
225 238 255
225 238 255
225 238 255
225 238 255
225 238 255
225 238 255
225 238 255
225 238 255
225 238 255
225 238 255
225 238 255
225 238 255
225 238 255
225 238 255
225 238 255
225 238 255
225 238 255
225 238 255
225 238 255
225 238 255
225 238 255
225 238 255
225 238 255
225 238 255
225 238 255
225 238 255
225 238 255
225 238 255
225 238 255
225 238 255
225 238 255
225 238 255
225 238 255
225 238 255
225 238 255
225 238 255
225 238 255
225 238 255
225 238 255
225 238 255
225 238 255
225 238 255
225 238 255
225 238 255
225 238 255
225 238 255
225 238 255
225 238 255
225 238 255
225 238 255
225 238 255
225 238 255
225 238 255
225 238 255
225 238 255
225 238 255
225 238 255
225 238 255
225 238 255
226 238 255
226 238 255
226 238 255
226 238 255
226 238 255
226 238 255
226 238 255
226 238 255
226 238 255
226 238 255
226 238 255
226 238 255
226 238 255
226 238 255
226 238 255
226 238 255
226 238 255
226 238 255
226 238 255
226 238 255
226 238 255
226 238 255
226 238 255
226 238 255
226 238 255
226 238 255
226 238 255
226 238 255
226 238 255
226 238 255
226 238 255
226 238 255
226 238 255
226 238 255
226 238 255
226 238 255
226 238 255
226 238 255
226 238 255
226 238 255
226 238 255
226 238 255
226 238 255
226 238 255
226 238 255
226 238 255
226 238 255
226 238 255
226 238 255
226 238 255
226 239 255
227 239 255
227 239 255
227 239 255
227 239 255
227 239 255
227 239 255
227 239 255
227 239 255
227 239 255
227 239 255
227 239 255
227 239 255
227 239 255
227 239 255
227 239 255
227 239 255
227 239 255
227 239 255
227 239 255
227 239 255
227 239 255
227 239 255
227 239 255
227 239 255
227 239 255
227 239 255
227 239 255
227 239 255
227 239 255
227 239 255
227 239 255
227 239 255
227 239 255
227 239 255
227 239 255
227 239 255
227 239 255
227 239 255
227 239 255
227 239 255
227 239 255
227 239 255
227 239 255
227 239 255
228 239 255
228 239 255
228 239 255
228 239 255
228 239 255
228 239 255
228 239 255
228 239 255
228 239 255
228 239 255
228 239 255
228 239 255
228 239 255
228 239 255
228 239 255
228 239 255
228 239 255
228 239 255
228 239 255
228 239 255
228 239 255
228 239 255
228 239 255
228 239 255
228 239 255
228 239 255
228 239 255
228 239 255
228 239 255
228 239 255
228 239 255
228 239 255
228 239 255
228 239 255
228 239 255
228 239 255
228 239 255
228 240 255
228 240 255
228 240 255
228 240 255
228 240 255
228 240 255
228 240 255
228 240 255
228 240 255
228 240 255
228 240 255
228 240 255
228 240 255
228 240 255
228 240 255
228 240 255
228 240 255
228 240 255
228 240 255
228 240 255
228 240 255
228 240 255
228 240 255
228 240 255
228 240 255
228 240 255
228 240 255
228 240 255
228 240 255
228 240 255
228 240 255
228 240 255
228 240 255
228 240 255
228 240 255
228 240 255
228 240 255
228 240 255
228 240 255
228 240 255
228 240 255
228 240 255
228 240 255
228 240 255
228 240 255
228 240 255
228 240 255
228 240 255
228 240 255
228 240 255
228 240 255
228 240 255
228 240 255
228 240 255
228 240 255
228 240 255
228 240 255
228 240 255
228 240 255
228 240 255
228 240 255
228 240 255
228 240 255
228 240 255
228 240 255
228 240 255
228 239 255
228 239 255
228 239 255
228 239 255
228 239 255
228 239 255
228 239 255
228 239 255
228 239 255
228 239 255
228 239 255
228 239 255
228 239 255
228 239 255
228 239 255
228 239 255
228 239 255
228 239 255
228 239 255
228 239 255
228 239 255
228 239 255
228 239 255
228 239 255
228 239 255
228 239 255
228 239 255
228 239 255
228 239 255
228 239 255
228 239 255
228 239 255
228 239 255
228 239 255
228 239 255
227 239 255
227 239 255
227 239 255
227 239 255
227 239 255
227 239 255
227 239 255
227 239 255
227 239 255
227 239 255
227 239 255
227 239 255
227 239 255
227 239 255
227 239 255
227 239 255
227 239 255
227 239 255
227 239 255
227 239 255
227 239 255
227 239 255
227 239 255
227 239 255
227 239 255
227 239 255
227 239 255
227 239 255
227 239 255
227 239 255
227 239 255
227 239 255
227 239 255
227 239 255
227 239 255
227 239 255
227 239 255
227 239 255
227 239 255
227 239 255
227 239 255
227 239 255
227 239 255
227 239 255
227 239 255
226 239 255
226 238 255
226 238 255
226 238 255
226 238 255
226 238 255
226 238 255
226 238 255
226 238 255
226 238 255
226 238 255
226 238 255
226 238 255
226 238 255
226 238 255
226 238 255
226 238 255
226 238 255
226 238 255
226 238 255
226 238 255
226 238 255
226 238 255
226 238 255
226 238 255
226 238 255
226 238 255
226 238 255
226 238 255
226 238 255
226 238 255
226 238 255
226 238 255
226 238 255
226 238 255
226 238 255
226 238 255
226 238 255
226 238 255
226 238 255
226 238 255
226 238 255
226 238 255
226 238 255
226 238 255
226 238 255
226 238 255
226 238 255
226 238 255
226 238 255
226 238 255
225 238 255
225 238 255
225 238 255
225 238 255
225 238 255
225 238 255
225 238 255
225 238 255
225 238 255
225 238 255
225 238 255
225 238 255
225 238 255
225 238 255
225 238 255
225 238 255
225 238 255
225 238 255
225 238 255
225 238 255
225 238 255
225 238 255
225 238 255
225 238 255
225 238 255
225 238 255
225 238 255
225 238 255
225 238 255
225 238 255
225 238 255
225 238 255
225 238 255
225 238 255
225 238 255
225 238 255
225 238 255
225 238 255
225 238 255
225 238 255
225 238 255
225 238 255
225 238 255
225 238 255
225 238 255
225 238 255
225 238 255
225 238 255
225 238 255
225 238 255
225 238 255
225 238 255
225 238 255
225 238 255
225 238 255
225 238 255
225 238 255
225 238 255
225 238 255
225 238 255
225 238 255
225 238 255
226 238 255
226 238 255
226 238 255
226 238 255
226 238 255
226 238 255
226 238 255
226 238 255
226 238 255
226 238 255
226 238 255
226 238 255
226 238 255
226 238 255
226 238 255
226 238 255
226 238 255
226 238 255
226 238 255
226 238 255
226 238 255
226 238 255
226 238 255
226 238 255
226 238 255
226 238 255
226 238 255
226 238 255
226 238 255
226 238 255
226 238 255
226 238 255
226 238 255
226 238 255
226 238 255
226 238 255
226 238 255
226 238 255
226 238 255
226 238 255
226 238 255
226 238 255
226 238 255
226 238 255
226 238 255
226 238 255
226 238 255
226 238 255
226 238 255
226 238 255
226 239 255
227 239 255
227 239 255
227 239 255
227 239 255
227 239 255
227 239 255
227 239 255
227 239 255
227 239 255
227 239 255
227 239 255
227 239 255
227 239 255
227 239 255
227 239 255
227 239 255
227 239 255
227 239 255
227 239 255
227 239 255
227 239 255
227 239 255
227 239 255
227 239 255
227 239 255
227 239 255
227 239 255
227 239 255
227 239 255
227 239 255
227 239 255
227 239 255
227 239 255
227 239 255
227 239 255
227 239 255
227 239 255
227 239 255
227 239 255
227 239 255
227 239 255
227 239 255
227 239 255
228 239 255
228 239 255
228 239 255
228 239 255
228 239 255
228 239 255
228 239 255
228 239 255
228 239 255
228 239 255
228 239 255
228 239 255
228 239 255
228 239 255
228 239 255
228 239 255
228 239 255
228 239 255
228 239 255
228 239 255
228 239 255
228 239 255
228 239 255
228 239 255
228 239 255
228 239 255
228 239 255
228 239 255
228 239 255
228 239 255
228 239 255
228 239 255
228 240 255
228 240 255
228 240 255
228 240 255
228 240 255
228 240 255
228 240 255
228 240 255
228 240 255
228 240 255
228 240 255
228 240 255
228 240 255
228 240 255
228 240 255
228 240 255
229 240 255
229 240 255
229 240 255
229 240 255
229 240 255
229 240 255
229 240 255
229 240 255
229 240 255
229 240 255
229 240 255
229 240 255
229 240 255
229 240 255
229 240 255
229 240 255
229 240 255
229 240 255
229 240 255
229 240 255
229 240 255
229 240 255
229 240 255
229 240 255
229 240 255
229 240 255
229 240 255
229 240 255
229 240 255
229 240 255
229 240 255
229 240 255
229 240 255
229 240 255
229 240 255
229 240 255
229 240 255
229 240 255
229 240 255
229 240 255
229 240 255
229 240 255
229 240 255
229 240 255
229 240 255
229 240 255
229 240 255
229 240 255
229 240 255
229 240 255
229 240 255
229 240 255
229 240 255
229 240 255
229 240 255
229 240 255
229 240 255
229 240 255
229 240 255
229 240 255
229 240 255
229 240 255
229 240 255
229 240 255
228 240 255
228 240 255
228 240 255
228 240 255
228 240 255
228 240 255
228 240 255
228 240 255
228 240 255
228 240 255
228 240 255
228 240 255
228 240 255
228 240 255
228 240 255
228 239 255
228 239 255
228 239 255
228 239 255
228 239 255
228 239 255
228 239 255
228 239 255
228 239 255
228 239 255
228 239 255
228 239 255
228 239 255
228 239 255
228 239 255
228 239 255
228 239 255
228 239 255
228 239 255
228 239 255
228 239 255
228 239 255
228 239 255
228 239 255
228 239 255
228 239 255
228 239 255
228 239 255
228 239 255
228 239 255
228 239 255
227 239 255
227 239 255
227 239 255
227 239 255
227 239 255
227 239 255
227 239 255
227 239 255
227 239 255
227 239 255
227 239 255
227 239 255
227 239 255
227 239 255
227 239 255
227 239 255
227 239 255
227 239 255
227 239 255
227 239 255
227 239 255
227 239 255
227 239 255
227 239 255
227 239 255
227 239 255
227 239 255
227 239 255
227 239 255
227 239 255
227 239 255
227 239 255
227 239 255
227 239 255
227 239 255
227 239 255
227 239 255
227 239 255
227 239 255
227 239 255
227 239 255
227 239 255
227 239 255
226 239 255
226 239 255
226 238 255
226 238 255
226 238 255
226 238 255
226 238 255
226 238 255
226 238 255
226 238 255
226 238 255
226 238 255
226 238 255
226 238 255
226 238 255
226 238 255
226 238 255
226 238 255
226 238 255
226 238 255
226 238 255
226 238 255
226 238 255
226 238 255
226 238 255
226 238 255
226 238 255
226 238 255
226 238 255
226 238 255
226 238 255
226 238 255
226 238 255
226 238 255
226 238 255
226 238 255
226 238 255
226 238 255
226 238 255
226 238 255
226 238 255
226 238 255
226 238 255
226 238 255
226 238 255
226 238 255
226 238 255
226 238 255
226 238 255
226 238 255
226 238 255
225 238 255
225 238 255
225 238 255
225 238 255
225 238 255
225 238 255
225 238 255
225 238 255
225 238 255
225 238 255
225 238 255
225 238 255
225 238 255
225 238 255
225 238 255
225 238 255
225 238 255
225 238 255
225 238 255
225 238 255
225 238 255
225 238 255
225 238 255
225 238 255
225 238 255
225 238 255
225 238 255
225 238 255
225 238 255
225 238 255
225 238 255
225 238 255
225 238 255
225 238 255
225 238 255
225 238 255
225 238 255
225 238 255
225 238 255
225 238 255
225 238 255
225 238 255
225 238 255
225 238 255
225 238 255
226 238 255
226 238 255
226 238 255
226 238 255
226 238 255
226 238 255
226 238 255
226 238 255
226 238 255
226 238 255
226 238 255
226 238 255
226 238 255
226 238 255
226 238 255
226 238 255
226 238 255
226 238 255
226 238 255
226 238 255
226 238 255
226 238 255
226 238 255
226 238 255
226 238 255
226 238 255
226 238 255
226 238 255
226 238 255
226 238 255
226 238 255
226 238 255
226 238 255
226 238 255
226 238 255
226 238 255
226 238 255
226 238 255
226 238 255
226 238 255
226 238 255
226 238 255
226 238 255
226 238 255
226 238 255
226 238 255
226 238 255
226 238 255
226 238 255
226 238 255
226 239 255
226 239 255
227 239 255
227 239 255
227 239 255
227 239 255
227 239 255
227 239 255
227 239 255
227 239 255
227 239 255
227 239 255
227 239 255
227 239 255
227 239 255
227 239 255
227 239 255
227 239 255
227 239 255
227 239 255
227 239 255
227 239 255
227 239 255
227 239 255
227 239 255
227 239 255
227 239 255
227 239 255
227 239 255
227 239 255
227 239 255
227 239 255
227 239 255
227 239 255
227 239 255
227 239 255
227 239 255
227 239 255
227 239 255
227 239 255
227 239 255
227 239 255
227 239 255
227 239 255
228 239 255
228 239 255
228 239 255
228 239 255
228 239 255
228 239 255
228 239 255
228 239 255
228 239 255
228 239 255
228 239 255
228 239 255
228 239 255
228 239 255
228 239 255
228 239 255
228 239 255
228 239 255
228 239 255
228 239 255
228 239 255
228 239 255
228 239 255
228 239 255
228 239 255
228 239 255
228 239 255
228 239 255
228 240 255
228 240 255
228 240 255
228 240 255
228 240 255
228 240 255
228 240 255
228 240 255
228 240 255
228 240 255
228 240 255
228 240 255
228 240 255
229 240 255
228 240 255
229 240 255
229 240 255
229 240 255
229 240 255
229 240 255
229 240 255
229 240 255
229 240 255
229 240 255
229 240 255
229 240 255
229 240 255
229 240 255
229 240 255
229 240 255
229 240 255
229 240 255
229 240 255
229 240 255
229 240 255
229 240 255
229 240 255
229 240 255
229 240 255
228 239 253
226 238 248
225 237 245
217 231 223
214 228 214
218 231 223
209 224 198
218 231 226
210 225 201
207 223 194
198 216 161
205 221 188
205 221 188
201 217 165
205 221 188
203 220 177
203 219 177
205 221 184
196 214 157
208 223 191
202 219 177
194 213 144
203 219 177
200 218 173
207 222 188
202 219 173
205 222 191
201 217 161
205 221 184
209 224 194
203 220 181
207 222 191
211 226 204
213 227 207
215 229 217
218 231 226
214 228 214
211 226 207
220 233 231
219 232 228
225 237 245
223 235 240
226 238 248
229 240 255
229 240 255
229 240 255
229 240 255
229 240 255
229 240 255
229 240 255
229 240 255
229 240 255
229 240 255
229 240 255
229 240 255
229 240 255
229 240 255
229 240 255
229 240 255
229 240 255
229 240 255
229 240 255
229 240 255
229 240 255
229 240 255
229 240 255
229 240 255
228 240 255
228 240 255
228 240 255
228 240 255
228 240 255
228 240 255
228 240 255
228 240 255
228 240 255
228 240 255
228 240 255
228 240 255
228 240 255
228 239 255
228 239 255
228 239 255
228 239 255
228 239 255
228 239 255
228 239 255
228 239 255
228 239 255
228 239 255
228 239 255
228 239 255
228 239 255
228 239 255
228 239 255
228 239 255
228 239 255
228 239 255
228 239 255
228 239 255
228 239 255
228 239 255
228 239 255
228 239 255
228 239 255
228 239 255
228 239 255
228 239 255
228 239 255
227 239 255
227 239 255
227 239 255
227 239 255
227 239 255
227 239 255
227 239 255
227 239 255
227 239 255
227 239 255
227 239 255
227 239 255
227 239 255
227 239 255
227 239 255
227 239 255
227 239 255
227 239 255
227 239 255
227 239 255
227 239 255
227 239 255
227 239 255
227 239 255
227 239 255
227 239 255
227 239 255
227 239 255
227 239 255
227 239 255
227 239 255
227 239 255
227 239 255
227 239 255
227 239 255
227 239 255
227 239 255
227 239 255
227 239 255
227 239 255
227 239 255
227 239 255
227 239 255
226 239 255
226 239 255
226 238 255
226 238 255
226 238 255
226 238 255
226 238 255
226 238 255
226 238 255
226 238 255
226 238 255
226 238 255
226 238 255
226 238 255
226 238 255
226 238 255
226 238 255
226 238 255
226 238 255
226 238 255
226 238 255
226 238 255
226 238 255
226 238 255
226 238 255
226 238 255
226 238 255
226 238 255
226 238 255
226 238 255
226 238 255
226 238 255
226 238 255
226 238 255
226 238 255
226 238 255
226 238 255
226 238 255
226 238 255
226 238 255
226 238 255
226 238 255
226 238 255
226 238 255
226 238 255
226 238 255
226 238 255
226 238 255
226 238 255
226 238 255
226 238 255
226 238 255
225 238 255
225 238 255
225 238 255
225 238 255
225 238 255
225 238 255
225 238 255
225 238 255
225 238 255
225 238 255
225 238 255
225 238 255
225 238 255
225 238 255
225 238 255
225 238 255
225 238 255
225 238 255
225 238 255
225 238 255
225 238 255
225 238 255
225 238 255
225 238 255
225 238 255
225 238 255
226 238 255
226 238 255
226 238 255
226 238 255
226 238 255
226 238 255
226 238 255
226 238 255
226 238 255
226 238 255
226 238 255
226 238 255
226 238 255
226 238 255
226 238 255
226 238 255
226 238 255
226 238 255
226 238 255
226 238 255
226 238 255
226 238 255
226 238 255
226 238 255
226 238 255
226 238 255
226 238 255
226 238 255
226 238 255
226 238 255
226 238 255
226 238 255
226 238 255
226 238 255
226 238 255
226 238 255
226 238 255
226 238 255
226 238 255
226 238 255
226 238 255
226 238 255
226 238 255
226 238 255
226 238 255
226 238 255
226 238 255
226 238 255
226 238 255
226 238 255
226 238 255
226 238 255
226 239 255
227 239 255
227 239 255
227 239 255
227 239 255
227 239 255
227 239 255
227 239 255
227 239 255
227 239 255
227 239 255
227 239 255
227 239 255
227 239 255
227 239 255
227 239 255
227 239 255
227 239 255
227 239 255
227 239 255
227 239 255
227 239 255
227 239 255
227 239 255
227 239 255
227 239 255
227 239 255
227 239 255
227 239 255
227 239 255
227 239 255
227 239 255
227 239 255
227 239 255
227 239 255
227 239 255
227 239 255
227 239 255
227 239 255
227 239 255
227 239 255
227 239 255
227 239 255
228 239 255
228 239 255
228 239 255
228 239 255
228 239 255
228 239 255
228 239 255
228 239 255
228 239 255
228 239 255
228 239 255
228 239 255
228 239 255
228 239 255
228 239 255
228 239 255
228 239 255
228 239 255
228 239 255
228 239 255
228 239 255
228 239 255
228 239 255
228 239 255
228 239 255
228 239 255
228 239 255
228 240 255
228 240 255
228 240 255
228 240 255
228 240 255
228 240 255
228 240 255
228 240 255
228 240 255
228 240 255
228 240 255
229 240 255
229 240 255
229 240 255
229 240 255
229 240 255
229 240 255
229 240 255
229 240 255
229 240 255
229 240 255
229 240 255
229 240 255
229 240 255
229 240 255
229 240 255
229 240 255
229 240 255
229 240 255
229 240 255
229 240 255
229 240 255
229 240 255
228 239 253
223 235 240
220 232 228
212 226 207
209 224 198
208 223 191
202 218 169
209 224 194
203 219 177
192 211 140
191 210 135
185 206 108
180 202 72
178 200 51
180 202 72
175 198 0
172 197 0
176 199 0
173 197 0
173 197 0
175 198 0
175 198 0
176 199 0
173 197 0
176 199 0
174 198 0
174 198 0
173 197 0
175 198 0
173 197 0
178 200 0
173 197 0
176 198 0
174 198 0
176 198 0
174 198 0
174 198 0
175 198 0
176 199 0
175 198 0
174 198 0
176 199 0
173 197 0
176 198 0
174 198 0
175 198 0
175 198 0
177 199 0
176 198 0
175 198 0
175 198 0
177 199 0
174 198 0
174 198 0
175 198 0
174 198 0
177 199 0
176 199 0
173 197 0
179 201 51
192 211 135
185 206 108
186 206 108
190 210 130
201 218 169
200 217 169
201 218 177
210 225 204
208 223 191
218 231 226
221 234 234
221 234 234
229 240 255
229 240 255
229 240 255
229 240 255
229 240 255
229 240 255
229 240 255
229 240 255
229 240 255
229 240 255
229 240 255
229 240 255
229 240 255
229 240 255
229 240 255
229 240 255
229 240 255
229 240 255
229 240 255
229 240 255
229 240 255
229 240 255
228 240 255
228 240 255
228 240 255
228 240 255
228 240 255
228 240 255
228 240 255
228 240 255
228 240 255
228 240 255
228 240 255
228 240 255
228 239 255
228 239 255
228 239 255
228 239 255
228 239 255
228 239 255
228 239 255
228 239 255
228 239 255
228 239 255
228 239 255
228 239 255
228 239 255
228 239 255
228 239 255
228 239 255
228 239 255
228 239 255
228 239 255
228 239 255
228 239 255
228 239 255
228 239 255
228 239 255
228 239 255
228 239 255
228 239 255
227 239 255
227 239 255
227 239 255
227 239 255
227 239 255
227 239 255
227 239 255
227 239 255
227 239 255
227 239 255
227 239 255
227 239 255
227 239 255
227 239 255
227 239 255
227 239 255
227 239 255
227 239 255
227 239 255
227 239 255
227 239 255
227 239 255
227 239 255
227 239 255
227 239 255
227 239 255
227 239 255
227 239 255
227 239 255
227 239 255
227 239 255
227 239 255
227 239 255
227 239 255
227 239 255
227 239 255
227 239 255
227 239 255
227 239 255
227 239 255
227 239 255
227 239 255
226 239 255
226 239 255
226 238 255
226 238 255
226 238 255
226 238 255
226 238 255
226 238 255
226 238 255
226 238 255
226 238 255
226 238 255
226 238 255
226 238 255
226 238 255
226 238 255
226 238 255
226 238 255
226 238 255
226 238 255
226 238 255
226 238 255
226 238 255
226 238 255
226 238 255
226 238 255
226 238 255
226 238 255
226 238 255
226 238 255
226 238 255
226 238 255
226 238 255
226 238 255
226 238 255
226 238 255
226 238 255
226 238 255
226 238 255
226 238 255
226 238 255
226 238 255
226 238 255
226 238 255
226 238 255
226 238 255
226 238 255
226 238 255
226 238 255
226 238 255
226 238 255
226 238 255
226 238 255
225 238 255
225 238 255
225 238 255
225 238 255
225 238 255
225 238 255
225 238 255
225 238 255
225 238 255
226 238 255
226 238 255
226 238 255
226 238 255
226 238 255
226 238 255
226 238 255
226 238 255
226 238 255
226 238 255
226 238 255
226 238 255
226 238 255
226 238 255
226 238 255
226 238 255
226 238 255
226 238 255
226 238 255
226 238 255
226 238 255
226 238 255
226 238 255
226 238 255
226 238 255
226 238 255
226 238 255
226 238 255
226 238 255
226 238 255
226 238 255
226 238 255
226 238 255
226 238 255
226 238 255
226 238 255
226 238 255
226 238 255
226 238 255
226 238 255
226 238 255
226 238 255
226 238 255
226 238 255
226 238 255
226 238 255
226 238 255
226 238 255
226 238 255
226 238 255
226 238 255
226 239 255
226 239 255
226 239 255
227 239 255
227 239 255
227 239 255
227 239 255
227 239 255
227 239 255
227 239 255
227 239 255
227 239 255
227 239 255
227 239 255
227 239 255
227 239 255
227 239 255
227 239 255
227 239 255
227 239 255
227 239 255
227 239 255
227 239 255
227 239 255
227 239 255
227 239 255
227 239 255
227 239 255
227 239 255
227 239 255
227 239 255
227 239 255
227 239 255
227 239 255
227 239 255
227 239 255
227 239 255
227 239 255
227 239 255
227 239 255
227 239 255
227 239 255
227 239 255
227 239 255
228 239 255
228 239 255
228 239 255
228 239 255
228 239 255
228 239 255
228 239 255
228 239 255
228 239 255
228 239 255
228 239 255
228 239 255
228 239 255
228 239 255
228 239 255
228 239 255
228 239 255
228 239 255
228 239 255
228 239 255
228 239 255
228 239 255
228 239 255
228 239 255
228 239 255
228 239 255
228 239 255
228 240 255
228 240 255
228 240 255
228 240 255
228 240 255
228 240 255
228 240 255
228 240 255
228 240 255
228 240 255
229 240 255
229 240 255
229 240 255
229 240 255
229 240 255
229 240 255
229 240 255
229 240 255
229 240 255
229 240 255
229 240 255
229 240 255
229 240 255
229 240 255
229 240 255
229 240 255
229 240 255
229 240 255
229 240 255
229 240 255
229 240 255
227 238 250
215 229 217
216 229 217
207 223 191
209 224 194
201 218 173
197 215 157
190 210 130
187 207 108
179 201 51
175 198 0
173 197 0
174 198 0
176 198 0
176 198 0
176 199 0
175 198 0
173 197 0
174 198 0
174 197 0
173 197 0
174 198 0
173 197 0
175 198 0
174 198 0
175 198 0
175 198 0
176 199 0
175 198 0
175 198 0
173 197 0
177 199 0
175 198 0
175 198 0
175 198 0
173 197 0
175 198 0
173 197 0
173 197 0
176 198 0
175 198 0
174 198 0
174 198 0
177 199 0
174 198 0
176 199 0
175 198 0
174 197 0
174 198 0
173 197 0
175 198 0
173 197 0
175 198 0
176 198 0
176 199 0
175 198 0
174 198 0
176 199 0
174 198 0
175 198 0
174 198 0
175 198 0
175 198 0
174 198 0
173 197 0
173 197 0
178 200 0
174 197 0
175 198 0
176 199 0
174 198 0
173 197 0
174 198 0
175 198 0
174 197 0
177 199 0
176 199 0
172 196 0
175 198 0
175 198 0
176 199 0
173 197 0
177 200 36
176 199 51
184 205 102
199 216 153
186 206 108
195 213 149
209 224 198
205 221 188
213 228 214
220 233 231
227 238 250
229 240 255
229 240 255
229 240 255
229 240 255
229 240 255
229 240 255
229 240 255
229 240 255
229 240 255
229 240 255
229 240 255
229 240 255
229 240 255
229 240 255
229 240 255
229 240 255
229 240 255
229 240 255
229 240 255
229 240 255
229 240 255
228 240 255
228 240 255
228 240 255
228 240 255
228 240 255
228 240 255
228 240 255
228 240 255
228 240 255
228 240 255
228 240 255
228 239 255
228 239 255
228 239 255
228 239 255
228 239 255
228 239 255
228 239 255
228 239 255
228 239 255
228 239 255
228 239 255
228 239 255
228 239 255
228 239 255
228 239 255
228 239 255
228 239 255
228 239 255
228 239 255
228 239 255
228 239 255
228 239 255
228 239 255
228 239 255
228 239 255
228 239 255
227 239 255
227 239 255
227 239 255
227 239 255
227 239 255
227 239 255
227 239 255
227 239 255
227 239 255
227 239 255
227 239 255
227 239 255
227 239 255
227 239 255
227 239 255
227 239 255
227 239 255
227 239 255
227 239 255
227 239 255
227 239 255
227 239 255
227 239 255
227 239 255
227 239 255
227 239 255
227 239 255
227 239 255
227 239 255
227 239 255
227 239 255
227 239 255
227 239 255
227 239 255
227 239 255
227 239 255
227 239 255
227 239 255
227 239 255
227 239 255
227 239 255
226 239 255
226 239 255
226 239 255
226 238 255
226 238 255
226 238 255
226 238 255
226 238 255
226 238 255
226 238 255
226 238 255
226 238 255
226 238 255
226 238 255
226 238 255
226 238 255
226 238 255
226 238 255
226 238 255
226 238 255
226 238 255
226 238 255
226 238 255
226 238 255
226 238 255
226 238 255
226 238 255
226 238 255
226 238 255
226 238 255
226 238 255
226 238 255
226 238 255
226 238 255
226 238 255
226 238 255
226 238 255
226 238 255
226 238 255
226 238 255
226 238 255
226 238 255
226 238 255
226 238 255
226 238 255
226 238 255
226 238 255
226 238 255
226 238 255
226 238 255
226 238 255
226 238 255
226 238 255
226 238 255
225 238 255
226 238 255
226 238 255
226 238 255
226 238 255
226 238 255
226 238 255
226 238 255
226 238 255
226 238 255
226 238 255
226 238 255
226 238 255
226 238 255
226 238 255
226 238 255
226 238 255
226 238 255
226 238 255
226 238 255
226 238 255
226 238 255
226 238 255
226 238 255
226 238 255
226 238 255
226 238 255
226 238 255
226 238 255
226 238 255
226 238 255
226 238 255
226 238 255
226 238 255
226 238 255
226 238 255
226 238 255
226 238 255
226 238 255
226 238 255
226 238 255
226 238 255
226 238 255
226 238 255
226 238 255
226 239 255
227 239 255
227 239 255
227 239 255
227 239 255
227 239 255
227 239 255
227 239 255
227 239 255
227 239 255
227 239 255
227 239 255
227 239 255
227 239 255
227 239 255
227 239 255
227 239 255
227 239 255
227 239 255
227 239 255
227 239 255
227 239 255
227 239 255
227 239 255
227 239 255
227 239 255
227 239 255
227 239 255
227 239 255
227 239 255
227 239 255
227 239 255
227 239 255
227 239 255
227 239 255
227 239 255
227 239 255
227 239 255
227 239 255
227 239 255
227 239 255
227 239 255
227 239 255
228 239 255
228 239 255
228 239 255
228 239 255
228 239 255
228 239 255
228 239 255
228 239 255
228 239 255
228 239 255
228 239 255
228 239 255
228 239 255
228 239 255
228 239 255
228 239 255
228 239 255
228 239 255
228 239 255
228 239 255
228 239 255
228 239 255
228 239 255
228 239 255
228 239 255
228 239 255
228 240 255
228 240 255
228 240 255
228 240 255
228 240 255
228 240 255
228 240 255
228 240 255
228 240 255
228 240 255
229 240 255
229 240 255
229 240 255
229 240 255
229 240 255
229 240 255
229 240 255
229 240 255
229 240 255
229 240 255
229 240 255
229 240 255
229 240 255
229 240 255
229 240 255
229 240 255
229 240 255
229 240 255
229 240 255
229 240 255
229 240 255
228 239 253
211 226 207
212 227 211
205 221 188
204 220 177
202 218 173
187 207 114
186 206 114
179 201 62
173 197 0
174 197 0
175 198 0
174 197 0
175 198 0
176 199 0
175 198 0
175 198 0
174 198 0
175 198 0
175 198 0
174 197 0
173 197 0
176 198 0
175 198 0
179 200 0
174 197 0
175 198 0
174 198 0
175 198 0
173 197 0
173 197 0
176 198 0
177 199 0
176 198 0
175 198 0
177 199 0
175 198 0
175 198 0
174 198 0
177 199 0
176 199 0
175 198 0
173 197 0
173 197 0
173 197 0
176 198 0
174 198 0
177 199 0
175 198 0
173 197 0
175 198 0
175 198 0
174 197 0
178 200 0
173 197 0
176 199 0
174 198 0
176 199 0
174 198 0
174 198 0
175 198 0
174 197 0
176 199 0
174 198 0
177 199 0
173 197 0
175 198 0
177 199 0
172 197 0
176 198 0
175 198 0
174 197 0
178 199 0
177 199 0
173 197 0
174 198 0
174 197 0
176 199 0
173 197 0
175 198 0
176 199 0
175 198 0
173 197 0
174 198 0
175 198 0
176 198 0
175 198 0
175 198 0
176 198 0
175 198 0
176 199 0
175 198 0
173 197 0
175 198 0
173 197 0
175 198 0
175 198 0
178 199 0
176 198 0
175 198 0
173 197 0
176 199 0
179 201 62
185 206 108
191 210 130
191 210 135
195 213 149
206 222 191
215 229 220
222 234 237
226 238 248
229 240 255
229 240 255
229 240 255
229 240 255
229 240 255
229 240 255
229 240 255
229 240 255
229 240 255
229 240 255
229 240 255
229 240 255
229 240 255
229 240 255
229 240 255
229 240 255
229 240 255
229 240 255
229 240 255
229 240 255
229 240 255
228 240 255
228 240 255
228 240 255
228 240 255
228 240 255
228 240 255
228 240 255
228 240 255
228 240 255
228 240 255
228 239 255
228 239 255
228 239 255
228 239 255
228 239 255
228 239 255
228 239 255
228 239 255
228 239 255
228 239 255
228 239 255
228 239 255
228 239 255
228 239 255
228 239 255
228 239 255
228 239 255
228 239 255
228 239 255
228 239 255
228 239 255
228 239 255
228 239 255
228 239 255
228 239 255
227 239 255
227 239 255
227 239 255
227 239 255
227 239 255
227 239 255
227 239 255
227 239 255
227 239 255
227 239 255
227 239 255
227 239 255
227 239 255
227 239 255
227 239 255
227 239 255
227 239 255
227 239 255
227 239 255
227 239 255
227 239 255
227 239 255
227 239 255
227 239 255
227 239 255
227 239 255
227 239 255
227 239 255
227 239 255
227 239 255
227 239 255
227 239 255
227 239 255
227 239 255
227 239 255
227 239 255
227 239 255
227 239 255
227 239 255
227 239 255
227 239 255
227 239 255
226 239 255
226 239 255
226 238 255
226 238 255
226 238 255
226 238 255
226 238 255
226 238 255
226 238 255
226 238 255
226 238 255
226 238 255
226 238 255
226 238 255
226 238 255
226 238 255
226 238 255
226 238 255
226 238 255
226 238 255
226 238 255
226 238 255
226 238 255
226 238 255
226 238 255
226 238 255
226 238 255
226 238 255
226 238 255
226 238 255
226 238 255
226 238 255
226 238 255
226 238 255
226 238 255
226 238 255
226 238 255
226 238 255
226 238 255
226 238 255
226 238 255
226 238 255
226 238 255
226 238 255
226 238 255
226 238 255
226 238 255
226 238 255
226 238 255
226 238 255
226 238 255
226 238 255
226 238 255
226 238 255
226 238 255
226 238 255
226 238 255
226 238 255
226 238 255
226 238 255
226 238 255
226 238 255
226 238 255
226 238 255
226 238 255
226 238 255
226 238 255
226 238 255
226 238 255
226 238 255
226 238 255
226 238 255
226 238 255
226 238 255
226 238 255
226 238 255
226 238 255
226 238 255
226 238 255
226 238 255
226 238 255
226 238 255
226 238 255
226 239 255
226 239 255
227 239 255
227 239 255
227 239 255
227 239 255
227 239 255
227 239 255
227 239 255
227 239 255
227 239 255
227 239 255
227 239 255
227 239 255
227 239 255
227 239 255
227 239 255
227 239 255
227 239 255
227 239 255
227 239 255
227 239 255
227 239 255
227 239 255
227 239 255
227 239 255
227 239 255
227 239 255
227 239 255
227 239 255
227 239 255
227 239 255
227 239 255
227 239 255
227 239 255
227 239 255
227 239 255
227 239 255
227 239 255
227 239 255
227 239 255
227 239 255
227 239 255
227 239 255
228 239 255
228 239 255
228 239 255
228 239 255
228 239 255
228 239 255
228 239 255
228 239 255
228 239 255
228 239 255
228 239 255
228 239 255
228 239 255
228 239 255
228 239 255
228 239 255
228 239 255
228 239 255
228 239 255
228 239 255
228 239 255
228 239 255
228 239 255
228 239 255
228 239 255
228 239 255
228 240 255
228 240 255
228 240 255
228 240 255
228 240 255
228 240 255
228 240 255
228 240 255
228 240 255
228 240 255
229 240 255
229 240 255
229 240 255
229 240 255
229 240 255
229 240 255
229 240 255
229 240 255
229 240 255
229 240 255
229 240 255
229 240 255
229 240 255
229 240 255
229 240 255
229 240 255
229 240 255
229 240 255
229 240 255
229 240 255
227 238 250
223 235 240
217 230 220
211 226 204
199 216 165
201 218 173
190 209 120
182 203 80
174 198 0
174 197 0
173 197 0
176 198 0
174 198 0
175 198 0
175 198 0
176 199 0
176 199 0
174 197 0
173 197 0
174 198 0
175 198 0
170 196 0
172 197 0
176 199 0
174 198 0
176 199 0
177 199 0
177 199 0
179 200 0
176 199 0
176 199 0
173 197 0
174 197 0
178 200 0
175 198 0
175 198 0
174 198 0
174 198 0
175 198 0
174 198 0
175 198 0
173 197 0
175 198 0
175 198 0
175 198 0
176 199 0
174 198 0
176 199 0
174 198 0
174 198 0
173 197 0
176 199 0
175 198 0
175 198 0
175 198 0
176 199 0
174 197 0
175 198 0
174 197 0
174 198 0
176 199 0
175 198 0
176 199 0
174 198 0
175 198 0
175 198 0
174 198 0
175 198 0
174 198 0
175 198 0
175 198 0
177 199 0
176 199 0
175 198 0
174 198 0
176 199 0
174 197 0
173 197 0
176 198 0
174 197 0
176 199 0
175 198 0
174 197 0
172 197 0
173 197 0
176 199 0
177 199 0
175 198 0
175 198 0
173 197 0
176 199 0
176 198 0
174 198 0
176 199 0
174 198 0
175 198 0
175 198 0
175 198 0
178 200 0
174 198 0
174 198 0
175 198 0
174 198 0
176 199 0
176 199 0
174 198 0
175 198 0
174 198 0
174 198 0
174 197 0
177 199 0
174 198 0
173 197 0
174 198 0
177 199 0
175 198 0
172 196 0
175 198 0
177 199 0
179 201 62
189 209 120
194 212 140
205 221 188
218 231 223
216 230 220
225 237 245
229 240 255
229 240 255
229 240 255
229 240 255
229 240 255
229 240 255
229 240 255
229 240 255
229 240 255
229 240 255
229 240 255
229 240 255
229 240 255
229 240 255
229 240 255
229 240 255
229 240 255
229 240 255
229 240 255
229 240 255
229 240 255
229 240 255
228 240 255
228 240 255
228 240 255
228 240 255
228 240 255
228 240 255
228 240 255
228 240 255
228 240 255
228 239 255
228 239 255
228 239 255
228 239 255
228 239 255
228 239 255
228 239 255
228 239 255
228 239 255
228 239 255
228 239 255
228 239 255
228 239 255
228 239 255
228 239 255
228 239 255
228 239 255
228 239 255
228 239 255
228 239 255
228 239 255
228 239 255
228 239 255
228 239 255
228 239 255
228 239 255
227 239 255
227 239 255
227 239 255
227 239 255
227 239 255
227 239 255
227 239 255
227 239 255
227 239 255
227 239 255
227 239 255
227 239 255
227 239 255
227 239 255
227 239 255
227 239 255
227 239 255
227 239 255
227 239 255
227 239 255
227 239 255
227 239 255
227 239 255
227 239 255
227 239 255
227 239 255
227 239 255
227 239 255
227 239 255
227 239 255
227 239 255
227 239 255
227 239 255
227 239 255
227 239 255
227 239 255
227 239 255
227 239 255
227 239 255
227 239 255
227 239 255
227 239 255
226 239 255
226 239 255
226 238 255
226 238 255
226 238 255
226 238 255
226 238 255
226 238 255
226 238 255
226 238 255
226 238 255
226 238 255
226 238 255
226 238 255
226 238 255
226 238 255
226 238 255
226 238 255
226 238 255
226 238 255
226 238 255
226 238 255
226 238 255
226 238 255
226 238 255
226 238 255
226 238 255
226 238 255
226 238 255
226 238 255
226 238 255
226 238 255
226 238 255
226 238 255
226 238 255
226 238 255
226 238 255
226 238 255
226 238 255
226 238 255
226 238 255
226 238 255
226 238 255
226 238 255
226 238 255
226 238 255
226 238 255
226 238 255
226 238 255
226 238 255
226 238 255
226 238 255
226 238 255
226 238 255
226 238 255
226 238 255
226 238 255
226 238 255
226 238 255
226 238 255
226 238 255
226 238 255
226 238 255
226 238 255
226 238 255
226 238 255
226 238 255
226 238 255
226 239 255
226 239 255
227 239 255
227 239 255
227 239 255
227 239 255
227 239 255
227 239 255
227 239 255
227 239 255
227 239 255
227 239 255
227 239 255
227 239 255
227 239 255
227 239 255
227 239 255
227 239 255
227 239 255
227 239 255
227 239 255
227 239 255
227 239 255
227 239 255
227 239 255
227 239 255
227 239 255
227 239 255
227 239 255
227 239 255
227 239 255
227 239 255
227 239 255
227 239 255
227 239 255
227 239 255
227 239 255
227 239 255
227 239 255
227 239 255
227 239 255
227 239 255
227 239 255
228 239 255
228 239 255
228 239 255
228 239 255
228 239 255
228 239 255
228 239 255
228 239 255
228 239 255
228 239 255
228 239 255
228 239 255
228 239 255
228 239 255
228 239 255
228 239 255
228 239 255
228 239 255
228 239 255
228 239 255
228 239 255
228 239 255
228 239 255
228 239 255
228 239 255
228 239 255
228 240 255
228 240 255
228 240 255
228 240 255
228 240 255
228 240 255
228 240 255
228 240 255
228 240 255
229 240 255
229 240 255
229 240 255
229 240 255
229 240 255
229 240 255
229 240 255
229 240 255
229 240 255
229 240 255
229 240 255
229 240 255
229 240 255
229 240 255
229 240 255
229 240 255
229 240 255
229 240 255
229 240 255
229 240 255
229 240 255
229 240 255
229 240 255
221 234 234
215 228 214
212 226 201
199 216 161
191 210 125
186 206 102
173 197 0
174 198 0
177 199 0
174 198 0
173 197 0
174 197 0
174 197 0
174 198 0
174 198 0
173 197 0
174 198 0
176 198 0
175 198 0
173 197 0
174 198 0
177 199 0
174 198 0
172 196 0
175 198 0
175 198 0
174 198 0
174 197 0
176 199 0
177 199 0
175 198 0
178 200 0
174 198 0
171 196 0
175 198 0
172 196 0
174 198 0
173 197 0
175 198 0
176 199 0
172 197 0
174 197 0
175 198 0
173 197 0
175 198 0
175 198 0
176 199 0
175 198 0
173 197 0
174 198 0
173 197 0
174 197 0
173 197 0
175 198 0
175 198 0
175 198 0
175 198 0
173 197 0
175 198 0
175 198 0
174 198 0
176 199 0
174 197 0
175 198 0
176 199 0
175 198 0
175 198 0
175 198 0
174 198 0
175 198 0
175 198 0
173 197 0
176 199 0
174 198 0
174 197 0
175 198 0
176 199 0
174 198 0
173 197 0
173 197 0
174 198 0
174 198 0
175 198 0
175 198 0
174 198 0
174 198 0
175 198 0
175 198 0
174 198 0
176 198 0
175 198 0
175 198 0
174 198 0
174 198 0
176 199 0
175 198 0
173 197 0
174 198 0
174 197 0
176 198 0
177 199 0
174 198 0
173 197 0
174 197 0
175 198 0
175 198 0
176 199 0
174 198 0
176 199 0
174 198 0
175 198 0
176 198 0
174 198 0
175 198 0
174 198 0
171 196 0
174 198 0
176 199 0
177 199 0
175 198 0
178 200 0
173 197 0
175 198 0
178 199 0
175 198 0
174 198 0
173 197 0
174 197 0
175 198 0
175 198 0
177 199 0
174 198 0
176 199 0
183 205 102
188 208 125
198 216 161
204 221 184
214 228 214
219 232 228
229 240 255
229 240 255
229 240 255
229 240 255
229 240 255
229 240 255
229 240 255
229 240 255
229 240 255
229 240 255
229 240 255
229 240 255
229 240 255
229 240 255
229 240 255
229 240 255
229 240 255
229 240 255
229 240 255
229 240 255
229 240 255
229 240 255
228 240 255
228 240 255
228 240 255
228 240 255
228 240 255
228 240 255
228 240 255
228 240 255
228 240 255
228 240 255
228 239 255
228 239 255
228 239 255
228 239 255
228 239 255
228 239 255
228 239 255
228 239 255
228 239 255
228 239 255
228 239 255
228 239 255
228 239 255
228 239 255
228 239 255
228 239 255
228 239 255
228 239 255
228 239 255
228 239 255
228 239 255
228 239 255
228 239 255
228 239 255
228 239 255
228 239 255
227 239 255
227 239 255
227 239 255
227 239 255
227 239 255
227 239 255
227 239 255
227 239 255
227 239 255
227 239 255
227 239 255
227 239 255
227 239 255
227 239 255
227 239 255
227 239 255
227 239 255
227 239 255
227 239 255
227 239 255
227 239 255
227 239 255
227 239 255
227 239 255
227 239 255
227 239 255
227 239 255
227 239 255
227 239 255
227 239 255
227 239 255
227 239 255
227 239 255
227 239 255
227 239 255
227 239 255
227 239 255
227 239 255
227 239 255
227 239 255
227 239 255
226 239 255
226 239 255
226 238 255
226 238 255
226 238 255
226 238 255
226 238 255
226 238 255
226 238 255
226 238 255
226 238 255
226 238 255
226 238 255
226 238 255
226 238 255
226 238 255
226 238 255
226 238 255
226 238 255
226 238 255
226 238 255
226 238 255
226 238 255
226 238 255
226 238 255
226 238 255
226 238 255
226 238 255
226 238 255
226 238 255
226 238 255
226 238 255
226 238 255
226 238 255
226 238 255
226 238 255
226 238 255
226 238 255
226 238 255
226 238 255
226 238 255
226 238 255
226 238 255
226 238 255
226 238 255
226 238 255
226 238 255
226 238 255
226 238 255
226 238 255
226 238 255
226 238 255
226 238 255
226 239 255
226 239 255
227 239 255
227 239 255
227 239 255
227 239 255
227 239 255
227 239 255
227 239 255
227 239 255
227 239 255
227 239 255
227 239 255
227 239 255
227 239 255
227 239 255
227 239 255
227 239 255
227 239 255
227 239 255
227 239 255
227 239 255
227 239 255
227 239 255
227 239 255
227 239 255
227 239 255
227 239 255
227 239 255
227 239 255
227 239 255
227 239 255
227 239 255
227 239 255
227 239 255
227 239 255
227 239 255
227 239 255
227 239 255
227 239 255
227 239 255
227 239 255
227 239 255
227 239 255
227 239 255
228 239 255
228 239 255
228 239 255
228 239 255
228 239 255
228 239 255
228 239 255
228 239 255
228 239 255
228 239 255
228 239 255
228 239 255
228 239 255
228 239 255
228 239 255
228 239 255
228 239 255
228 239 255
228 239 255
228 239 255
228 239 255
228 239 255
228 239 255
228 239 255
228 239 255
228 240 255
228 240 255
228 240 255
228 240 255
228 240 255
228 240 255
228 240 255
228 240 255
228 240 255
228 240 255
229 240 255
229 240 255
229 240 255
229 240 255
229 240 255
229 240 255
229 240 255
229 240 255
229 240 255
229 240 255
229 240 255
229 240 255
229 240 255
229 240 255
229 240 255
229 240 255
229 240 255
229 240 255
229 240 255
229 240 255
229 240 255
229 240 255
229 240 255
216 229 214
206 222 188
197 215 161
194 213 149
188 207 114
175 199 36
176 199 0
175 198 0
176 199 0
176 199 0
177 199 0
174 198 0
176 198 0
175 198 0
175 198 0
175 198 0
174 198 0
175 198 0
175 198 0
175 198 0
175 198 0
175 198 0
178 200 0
173 197 0
174 197 0
173 197 0
175 198 0
176 198 0
174 198 0
175 198 0
177 199 0
176 199 0
174 198 0
177 199 0
173 197 0
173 197 0
176 199 0
176 199 0
174 197 0
174 198 0
172 197 0
177 199 0
175 198 0
174 197 0
175 198 0
175 198 0
176 199 0
174 198 0
177 199 0
175 198 0
174 198 0
174 198 0
176 199 0
175 198 0
175 198 0
173 197 0
174 198 0
176 199 0
175 198 0
174 198 0
173 197 0
176 198 0
174 197 0
173 197 0
172 197 0
174 198 0
174 198 0
174 198 0
173 197 0
174 198 0
175 198 0
173 197 0
174 198 0
176 199 0
175 198 0
174 198 0
174 197 0
175 198 0
173 197 0
175 198 0
173 197 0
176 199 0
175 198 0
175 198 0
174 198 0
174 198 0
172 197 0
174 197 0
173 197 0
174 198 0
174 198 0
171 196 0
174 198 0
174 198 0
175 198 0
176 198 0
174 198 0
173 197 0
174 198 0
174 198 0
176 199 0
176 198 0
176 199 0
175 198 0
175 198 0
175 198 0
175 198 0
177 199 0
176 199 0
173 197 0
177 199 0
173 197 0
173 197 0
176 199 0
175 198 0
175 198 0
178 200 0
172 197 0
174 197 0
176 198 0
175 198 0
173 197 0
175 198 0
175 198 0
174 197 0
177 199 0
174 198 0
175 198 0
176 199 0
173 197 0
172 197 0
176 199 0
174 198 0
175 198 0
173 197 0
175 198 0
176 199 0
173 197 0
175 198 0
176 199 0
177 199 0
176 199 0
178 200 0
173 197 0
175 198 0
177 199 0
182 203 80
193 211 140
206 222 188
216 230 220
225 237 245
225 237 245
229 240 255
229 240 255
229 240 255
229 240 255
229 240 255
229 240 255
229 240 255
229 240 255
229 240 255
229 240 255
229 240 255
229 240 255
229 240 255
229 240 255
229 240 255
229 240 255
229 240 255
229 240 255
229 240 255
229 240 255
229 240 255
229 240 255
228 240 255
228 240 255
228 240 255
228 240 255
228 240 255
228 240 255
228 240 255
228 240 255
228 240 255
228 240 255
228 239 255
228 239 255
228 239 255
228 239 255
228 239 255
228 239 255
228 239 255
228 239 255
228 239 255
228 239 255
228 239 255
228 239 255
228 239 255
228 239 255
228 239 255
228 239 255
228 239 255
228 239 255
228 239 255
228 239 255
228 239 255
228 239 255
228 239 255
228 239 255
228 239 255
227 239 255
227 239 255
227 239 255
227 239 255
227 239 255
227 239 255
227 239 255
227 239 255
227 239 255
227 239 255
227 239 255
227 239 255
227 239 255
227 239 255
227 239 255
227 239 255
227 239 255
227 239 255
227 239 255
227 239 255
227 239 255
227 239 255
227 239 255
227 239 255
227 239 255
227 239 255
227 239 255
227 239 255
227 239 255
227 239 255
227 239 255
227 239 255
227 239 255
227 239 255
227 239 255
227 239 255
227 239 255
227 239 255
227 239 255
227 239 255
227 239 255
227 239 255
227 239 255
227 239 255
226 238 255
226 238 255
226 238 255
226 238 255
226 238 255
226 238 255
226 238 255
226 238 255
226 238 255
226 238 255
226 238 255
226 238 255
226 238 255
226 238 255
226 238 255
226 238 255
226 238 255
226 238 255
226 238 255
226 238 255
226 238 255
226 238 255
226 238 255
226 238 255
226 238 255
226 238 255
226 238 255
226 238 255
226 238 255
226 238 255
226 238 255
226 238 255
226 238 255
226 238 255
226 238 255
226 238 255
226 238 255
226 238 255
226 239 255
227 239 255
227 239 255
227 239 255
227 239 255
227 239 255
227 239 255
227 239 255
227 239 255
227 239 255
227 239 255
227 239 255
227 239 255
227 239 255
227 239 255
227 239 255
227 239 255
227 239 255
227 239 255
227 239 255
227 239 255
227 239 255
227 239 255
227 239 255
227 239 255
227 239 255
227 239 255
227 239 255
227 239 255
227 239 255
227 239 255
227 239 255
227 239 255
227 239 255
227 239 255
227 239 255
227 239 255
227 239 255
227 239 255
227 239 255
227 239 255
227 239 255
227 239 255
227 239 255
228 239 255
228 239 255
228 239 255
228 239 255
228 239 255
228 239 255
228 239 255
228 239 255
228 239 255
228 239 255
228 239 255
228 239 255
228 239 255
228 239 255
228 239 255
228 239 255
228 239 255
228 239 255
228 239 255
228 239 255
228 239 255
228 239 255
228 239 255
228 239 255
228 239 255
228 240 255
228 240 255
228 240 255
228 240 255
228 240 255
228 240 255
228 240 255
228 240 255
228 240 255
228 240 255
229 240 255
229 240 255
229 240 255
229 240 255
229 240 255
229 240 255
229 240 255
229 240 255
229 240 255
229 240 255
229 240 255
229 240 255
229 240 255
229 240 255
229 240 255
229 240 255
229 240 255
229 240 255
229 240 255
229 240 255
229 240 255
229 240 255
229 240 255
228 239 250
217 230 220
212 226 204
203 220 184
187 208 120
183 204 80
173 197 0
176 198 0
176 199 0
176 199 0
176 199 0
177 199 0
174 197 0
175 198 0
173 197 0
174 198 0
177 199 0
174 198 0
172 197 0
176 199 0
173 197 0
176 199 0
175 198 0
172 197 0
176 198 0
176 199 0
176 199 0
174 198 0
175 198 0
177 199 0
176 199 0
173 197 0
173 197 0
176 198 0
175 198 0
176 198 0
177 199 0
176 199 0
177 199 0
173 197 0
176 198 0
175 198 0
174 197 0
174 198 0
174 198 0
176 199 0
175 198 0
175 198 0
176 199 0
176 199 0
177 199 0
173 197 0
174 198 0
175 198 0
173 197 0
175 198 0
175 198 0
175 198 0
172 196 0
174 198 0
174 198 0
174 197 0
176 199 0
174 198 0
175 198 0
173 197 0
176 198 0
173 197 0
174 197 0
176 199 0
173 197 0
175 198 0
175 198 0
172 197 0
173 197 0
175 198 0
174 198 0
176 199 0
178 200 0
175 198 0
172 196 0
173 197 0
174 198 0
173 197 0
175 198 0
174 198 0
176 199 0
175 198 0
177 199 0
174 197 0
174 198 0
175 198 0
174 197 0
174 197 0
172 197 0
176 199 0
175 198 0
175 198 0
175 198 0
175 198 0
173 197 0
175 198 0
175 198 0
177 199 0
174 197 0
173 197 0
175 198 0
176 199 0
175 198 0
175 198 0
173 197 0
175 198 0
175 198 0
174 197 0
175 198 0
174 198 0
175 198 0
174 198 0
174 198 0
174 197 0
175 198 0
176 199 0
175 198 0
174 198 0
175 198 0
175 198 0
173 197 0
174 198 0
175 198 0
176 198 0
176 199 0
175 198 0
175 198 0
171 196 0
175 198 0
176 199 0
175 198 0
175 198 0
173 197 0
174 198 0
172 196 0
176 199 0
173 197 0
174 198 0
173 197 0
172 197 0
175 198 0
175 198 0
175 198 0
174 198 0
176 198 0
175 198 0
176 199 0
176 199 0
177 199 0
174 198 0
172 197 0
176 199 0
176 199 0
177 200 62
196 214 157
193 212 140
204 220 177
224 236 240
227 238 250
229 240 255
229 240 255
229 240 255
229 240 255
229 240 255
229 240 255
229 240 255
229 240 255
229 240 255
229 240 255
229 240 255
229 240 255
229 240 255
229 240 255
229 240 255
229 240 255
229 240 255
229 240 255
229 240 255
229 240 255
229 240 255
229 240 255
229 240 255
228 240 255
228 240 255
228 240 255
228 240 255
228 240 255
228 240 255
228 240 255
228 240 255
228 240 255
228 240 255
228 239 255
228 239 255
228 239 255
228 239 255
228 239 255
228 239 255
228 239 255
228 239 255
228 239 255
228 239 255
228 239 255
228 239 255
228 239 255
228 239 255
228 239 255
228 239 255
228 239 255
228 239 255
228 239 255
228 239 255
228 239 255
228 239 255
228 239 255
228 239 255
228 239 255
227 239 255
227 239 255
227 239 255
227 239 255
227 239 255
227 239 255
227 239 255
227 239 255
227 239 255
227 239 255
227 239 255
227 239 255
227 239 255
227 239 255
227 239 255
227 239 255
227 239 255
227 239 255
227 239 255
227 239 255
227 239 255
227 239 255
227 239 255
227 239 255
227 239 255
227 239 255
227 239 255
227 239 255
227 239 255
227 239 255
227 239 255
227 239 255
227 239 255
227 239 255
227 239 255
227 239 255
227 239 255
227 239 255
227 239 255
227 239 255
227 239 255
227 239 255
227 239 255
226 239 255
226 239 255
226 238 255
226 238 255
226 238 255
226 238 255
226 238 255
226 238 255
226 238 255
226 238 255
226 238 255
226 238 255
226 238 255
226 238 255
226 238 255
226 238 255
226 238 255
226 238 255
226 238 255
226 238 255
226 238 255
226 238 255
226 238 255
226 238 255
226 239 255
226 239 255
227 239 255
227 239 255
227 239 255
227 239 255
227 239 255
227 239 255
227 239 255
227 239 255
227 239 255
227 239 255
227 239 255
227 239 255
227 239 255
227 239 255
227 239 255
227 239 255
227 239 255
227 239 255
227 239 255
227 239 255
227 239 255
227 239 255
227 239 255
227 239 255
227 239 255
227 239 255
227 239 255
227 239 255
227 239 255
227 239 255
227 239 255
227 239 255
227 239 255
227 239 255
227 239 255
227 239 255
227 239 255
227 239 255
227 239 255
227 239 255
227 239 255
227 239 255
227 239 255
228 239 255
228 239 255
228 239 255
228 239 255
228 239 255
228 239 255
228 239 255
228 239 255
228 239 255
228 239 255
228 239 255
228 239 255
228 239 255
228 239 255
228 239 255
228 239 255
228 239 255
228 239 255
228 239 255
228 239 255
228 239 255
228 239 255
228 239 255
228 239 255
228 239 255
228 239 255
228 240 255
228 240 255
228 240 255
228 240 255
228 240 255
228 240 255
228 240 255
228 240 255
228 240 255
229 240 255
229 240 255
229 240 255
229 240 255
229 240 255
229 240 255
229 240 255
229 240 255
229 240 255
229 240 255
229 240 255
229 240 255
229 240 255
229 240 255
229 240 255
229 240 255
229 240 255
229 240 255
229 240 255
229 240 255
229 240 255
229 240 255
229 240 255
229 240 255
228 239 253
219 232 228
218 231 226
198 216 161
193 212 140
184 205 102
175 198 0
174 197 0
173 197 0
176 199 0
177 199 0
174 198 0
172 196 0
174 197 0
178 200 0
174 198 0
175 198 0
174 197 0
175 198 0
175 198 0
173 197 0
173 197 0
175 198 0
173 197 0
176 198 0
173 197 0
175 198 0
173 197 0
176 198 0
176 199 0
177 199 0
175 198 0
174 198 0
176 199 0
174 197 0
174 198 0
173 197 0
174 197 0
174 198 0
174 198 0
175 198 0
174 198 0
174 198 0
175 198 0
175 198 0
176 199 0
173 197 0
176 199 0
175 198 0
175 198 0
174 198 0
174 198 0
173 197 0
174 198 0
176 199 0
174 198 0
173 197 0
174 198 0
174 198 0
174 198 0
175 198 0
172 196 0
175 198 0
176 198 0
174 198 0
173 197 0
175 198 0
174 197 0
176 199 0
175 198 0
175 198 0
176 199 0
173 197 0
175 198 0
173 197 0
175 198 0
175 198 0
175 198 0
175 198 0
175 198 0
174 198 0
177 199 0
175 198 0
174 198 0
174 198 0
176 198 0
173 197 0
174 197 0
173 197 0
175 198 0
175 198 0
177 199 0
172 196 0
175 198 0
173 197 0
175 198 0
174 198 0
176 198 0
175 198 0
174 198 0
174 198 0
176 199 0
175 198 0
172 197 0
175 198 0
175 198 0
174 198 0
177 199 0
175 198 0
174 198 0
175 198 0
174 198 0
175 198 0
173 197 0
173 197 0
175 198 0
175 198 0
174 197 0
175 198 0
174 198 0
174 198 0
173 197 0
173 197 0
175 198 0
174 198 0
173 197 0
173 197 0
175 198 0
175 198 0
175 198 0
174 198 0
174 198 0
173 197 0
176 199 0
173 197 0
175 198 0
174 198 0
177 199 0
176 199 0
173 197 0
174 198 0
172 197 0
175 198 0
174 198 0
172 197 0
175 198 0
177 199 0
174 198 0
174 198 0
175 198 0
175 198 0
173 197 0
178 200 0
176 199 0
176 199 0
174 198 0
173 197 0
176 199 0
174 198 0
176 199 0
174 198 0
174 198 0
174 198 0
173 197 0
175 198 0
174 198 0
172 197 0
174 197 0
174 197 0
173 197 0
176 199 0
179 201 72
186 206 108
197 215 157
213 227 211
223 235 237
229 240 255
229 240 255
229 240 255
229 240 255
229 240 255
229 240 255
229 240 255
229 240 255
229 240 255
229 240 255
229 240 255
229 240 255
229 240 255
229 240 255
229 240 255
229 240 255
229 240 255
229 240 255
229 240 255
229 240 255
229 240 255
229 240 255
229 240 255
229 240 255
229 240 255
228 240 255
228 240 255
228 240 255
228 240 255
228 240 255
228 240 255
228 240 255
228 240 255
228 240 255
228 240 255
228 239 255
228 239 255
228 239 255
228 239 255
228 239 255
228 239 255
228 239 255
228 239 255
228 239 255
228 239 255
228 239 255
228 239 255
228 239 255
228 239 255
228 239 255
228 239 255
228 239 255
228 239 255
228 239 255
228 239 255
228 239 255
228 239 255
228 239 255
228 239 255
228 239 255
227 239 255
227 239 255
227 239 255
227 239 255
227 239 255
227 239 255
227 239 255
227 239 255
227 239 255
227 239 255
227 239 255
227 239 255
227 239 255
227 239 255
227 239 255
227 239 255
227 239 255
227 239 255
227 239 255
227 239 255
227 239 255
227 239 255
227 239 255
227 239 255
227 239 255
227 239 255
227 239 255
227 239 255
227 239 255
227 239 255
227 239 255
227 239 255
227 239 255
227 239 255
227 239 255
227 239 255
227 239 255
227 239 255
227 239 255
227 239 255
227 239 255
227 239 255
227 239 255
226 239 255
226 239 255
226 238 255
226 238 255
226 238 255
226 238 255
226 238 255
226 238 255
226 238 255
226 238 255
226 239 255
226 239 255
227 239 255
227 239 255
227 239 255
227 239 255
227 239 255
227 239 255
227 239 255
227 239 255
227 239 255
227 239 255
227 239 255
227 239 255
227 239 255
227 239 255
227 239 255
227 239 255
227 239 255
227 239 255
227 239 255
227 239 255
227 239 255
227 239 255
227 239 255
227 239 255
227 239 255
227 239 255
227 239 255
227 239 255
227 239 255
227 239 255
227 239 255
227 239 255
227 239 255
227 239 255
227 239 255
227 239 255
227 239 255
227 239 255
227 239 255
227 239 255
227 239 255
227 239 255
227 239 255
227 239 255
228 239 255
228 239 255
228 239 255
228 239 255
228 239 255
228 239 255
228 239 255
228 239 255
228 239 255
228 239 255
228 239 255
228 239 255
228 239 255
228 239 255
228 239 255
228 239 255
228 239 255
228 239 255
228 239 255
228 239 255
228 239 255
228 239 255
228 239 255
228 239 255
228 239 255
228 239 255
228 240 255
228 240 255
228 240 255
228 240 255
228 240 255
228 240 255
228 240 255
228 240 255
228 240 255
229 240 255
229 240 255
229 240 255
229 240 255
229 240 255
229 240 255
229 240 255
229 240 255
229 240 255
229 240 255
229 240 255
229 240 255
229 240 255
229 240 255
229 240 255
229 240 255
229 240 255
229 240 255
229 240 255
229 240 255
229 240 255
229 240 255
229 240 255
229 240 255
229 240 255
225 237 245
217 231 223
210 225 201
196 214 153
189 208 120
177 200 51
175 198 0
176 198 0
173 197 0
174 197 0
176 199 0
175 198 0
176 198 0
176 199 0
176 198 0
176 199 0
175 198 0
175 198 0
176 199 0
176 199 0
177 199 0
175 198 0
176 199 0
176 199 0
174 198 0
175 198 0
176 198 0
176 198 0
174 197 0
174 198 0
177 199 0
176 199 0
174 198 0
173 197 0
173 197 0
175 198 0
176 198 0
175 198 0
173 197 0
173 197 0
175 198 0
174 198 0
177 199 0
175 198 0
172 196 0
174 198 0
174 198 0
173 197 0
177 199 0
175 198 0
172 196 0
174 198 0
178 199 0
174 198 0
174 198 0
175 198 0
175 198 0
176 198 0
175 198 0
175 198 0
174 198 0
175 198 0
174 197 0
175 198 0
174 198 0
176 199 0
173 197 0
175 198 0
174 198 0
176 198 0
175 198 0
175 198 0
174 198 0
174 197 0
174 197 0
175 198 0
176 199 0
177 199 0
176 199 0
175 198 0
173 197 0
176 198 0
174 198 0
175 198 0
175 198 0
175 198 0
174 198 0
175 198 0
173 197 0
175 198 0
176 199 0
175 198 0
174 197 0
174 197 0
176 199 0
175 198 0
175 198 0
174 197 0
174 198 0
177 199 0
177 199 0
174 197 0
177 199 0
174 197 0
174 197 0
174 198 0
174 198 0
175 198 0
174 198 0
173 197 0
176 199 0
175 198 0
174 198 0
176 198 0
176 198 0
173 197 0
175 198 0
175 198 0
176 198 0
172 197 0
174 198 0
174 197 0
175 198 0
174 198 0
174 198 0
172 197 0
173 197 0
173 197 0
174 197 0
177 199 0
174 198 0
174 198 0
176 198 0
174 198 0
175 198 0
177 199 0
174 197 0
175 198 0
174 198 0
174 198 0
175 198 0
174 198 0
174 197 0
174 198 0
175 198 0
175 198 0
173 197 0
175 198 0
176 199 0
173 197 0
176 199 0
177 199 0
177 199 0
176 199 0
176 198 0
175 198 0
175 198 0
174 197 0
175 198 0
172 197 0
175 198 0
172 196 0
176 199 0
177 199 0
174 198 0
174 198 0
176 199 0
178 199 0
175 198 0
175 198 0
174 198 0
175 198 0
176 199 0
175 198 0
176 199 0
175 198 0
172 197 0
177 199 0
173 197 0
174 198 0
174 198 0
175 198 36
189 209 120
192 210 130
205 221 188
214 228 214
227 238 248
229 240 255
229 240 255
229 240 255
229 240 255
229 240 255
229 240 255
229 240 255
229 240 255
229 240 255
229 240 255
229 240 255
229 240 255
229 240 255
229 240 255
229 240 255
229 240 255
229 240 255
229 240 255
229 240 255
229 240 255
229 240 255
229 240 255
229 240 255
229 240 255
229 240 255
228 240 255
228 240 255
228 240 255
228 240 255
228 240 255
228 240 255
228 240 255
228 240 255
228 240 255
228 239 255
228 239 255
228 239 255
228 239 255
228 239 255
228 239 255
228 239 255
228 239 255
228 239 255
228 239 255
228 239 255
228 239 255
228 239 255
228 239 255
228 239 255
228 239 255
228 239 255
228 239 255
228 239 255
228 239 255
228 239 255
228 239 255
228 239 255
228 239 255
228 239 255
228 239 255
227 239 255
227 239 255
227 239 255
227 239 255
227 239 255
227 239 255
227 239 255
227 239 255
227 239 255
227 239 255
227 239 255
227 239 255
227 239 255
227 239 255
227 239 255
227 239 255
227 239 255
227 239 255
227 239 255
227 239 255
227 239 255
227 239 255
227 239 255
227 239 255
227 239 255
227 239 255
227 239 255
227 239 255
227 239 255
227 239 255
227 239 255
227 239 255
227 239 255
227 239 255
227 239 255
227 239 255
227 239 255
227 239 255
227 239 255
227 239 255
227 239 255
227 239 255
227 239 255
227 239 255
227 239 255
226 239 255
226 238 255
227 239 255
227 239 255
227 239 255
227 239 255
227 239 255
227 239 255
227 239 255
227 239 255
227 239 255
227 239 255
227 239 255
227 239 255
227 239 255
227 239 255
227 239 255
227 239 255
227 239 255
227 239 255
227 239 255
227 239 255
227 239 255
227 239 255
227 239 255
227 239 255
227 239 255
227 239 255
227 239 255
227 239 255
227 239 255
227 239 255
227 239 255
227 239 255
227 239 255
227 239 255
227 239 255
227 239 255
227 239 255
227 239 255
227 239 255
227 239 255
228 239 255
228 239 255
228 239 255
228 239 255
228 239 255
228 239 255
228 239 255
228 239 255
228 239 255
228 239 255
228 239 255
228 239 255
228 239 255
228 239 255
228 239 255
228 239 255
228 239 255
228 239 255
228 239 255
228 239 255
228 239 255
228 239 255
228 239 255
228 239 255
228 239 255
228 240 255
228 240 255
228 240 255
228 240 255
228 240 255
228 240 255
228 240 255
228 240 255
228 240 255
228 240 255
229 240 255
229 240 255
229 240 255
229 240 255
229 240 255
229 240 255
229 240 255
229 240 255
229 240 255
229 240 255
229 240 255
229 240 255
229 240 255
229 240 255
229 240 255
229 240 255
229 240 255
229 240 255
229 240 255
229 240 255
229 240 255
229 240 255
229 240 255
229 240 255
229 240 255
229 240 255
217 231 226
211 226 204
207 223 191
192 211 140
178 201 62
174 198 0
175 198 0
175 198 0
174 198 0
173 197 0
173 197 0
176 199 0
177 199 0
175 198 0
176 199 0
176 199 0
174 198 0
174 198 0
177 199 0
175 198 0
177 199 0
174 198 0
174 198 0
174 198 0
175 198 0
177 199 0
175 198 0
175 198 0
173 197 0
175 198 0
175 198 0
175 198 0
178 200 0
175 198 0
173 197 0
173 197 0
175 198 0
174 198 0
176 199 0
174 198 0
175 198 0
176 199 0
174 198 0
175 198 0
175 198 0
173 197 0
177 199 0
176 198 0
175 198 0
176 199 0
175 198 0
175 198 0
176 199 0
173 197 0
174 198 0
173 197 0
174 198 0
174 197 0
175 198 0
175 198 0
173 197 0
177 199 0
175 198 0
176 199 0
173 197 0
176 199 0
177 199 0
172 197 0
172 197 0
174 198 0
173 197 0
174 198 0
174 198 0
173 197 0
173 197 0
175 198 0
175 198 0
173 197 0
174 198 0
174 198 0
175 198 0
174 198 0
174 198 0
173 197 0
174 198 0
177 199 0
176 199 0
174 197 0
176 198 0
176 199 0
174 198 0
174 197 0
176 199 0
174 197 0
174 198 0
175 198 0
175 198 0
174 197 0
176 198 0
176 199 0
174 198 0
175 198 0
174 198 0
176 199 0
176 199 0
175 198 0
174 198 0
176 199 0
174 198 0
177 199 0
174 198 0
175 198 0
175 198 0
173 197 0
175 198 0
174 197 0
172 196 0
174 198 0
174 197 0
174 197 0
173 197 0
176 198 0
173 197 0
174 198 0
176 198 0
174 198 0
174 198 0
173 197 0
175 198 0
175 198 0
174 197 0
174 198 0
175 198 0
175 198 0
173 197 0
173 197 0
175 198 0
174 198 0
175 198 0
175 198 0
176 199 0
172 197 0
174 198 0
175 198 0
176 199 0
176 199 0
172 196 0
175 198 0
174 198 0
174 198 0
175 198 0
174 197 0
173 197 0
172 197 0
176 198 0
177 199 0
177 199 0
176 199 0
176 198 0
174 198 0
175 198 0
174 198 0
176 199 0
175 198 0
175 198 0
174 197 0
174 198 0
175 198 0
173 197 0
175 198 0
173 197 0
175 198 0
174 198 0
173 197 0
173 197 0
172 197 0
176 199 0
176 199 0
174 198 0
174 197 0
174 198 0
173 197 0
175 198 0
175 198 0
175 198 0
176 199 0
177 199 0
172 197 0
173 197 0
175 198 0
175 198 0
175 198 0
179 201 51
191 210 130
202 218 173
209 224 194
224 236 240
229 240 255
229 240 255
229 240 255
229 240 255
229 240 255
229 240 255
229 240 255
229 240 255
229 240 255
229 240 255
229 240 255
229 240 255
229 240 255
229 240 255
229 240 255
229 240 255
229 240 255
229 240 255
229 240 255
229 240 255
229 240 255
229 240 255
229 240 255
229 240 255
229 240 255
229 240 255
228 240 255
228 240 255
228 240 255
228 240 255
228 240 255
228 240 255
228 240 255
228 240 255
228 240 255
228 240 255
228 239 255
228 239 255
228 239 255
228 239 255
228 239 255
228 239 255
228 239 255
228 239 255
228 239 255
228 239 255
228 239 255
228 239 255
228 239 255
228 239 255
228 239 255
228 239 255
228 239 255
228 239 255
228 239 255
228 239 255
228 239 255
228 239 255
228 239 255
228 239 255
228 239 255
227 239 255
227 239 255
227 239 255
227 239 255
227 239 255
227 239 255
227 239 255
227 239 255
227 239 255
227 239 255
227 239 255
227 239 255
227 239 255
227 239 255
227 239 255
227 239 255
227 239 255
227 239 255
227 239 255
227 239 255
227 239 255
227 239 255
227 239 255
227 239 255
227 239 255
227 239 255
227 239 255
227 239 255
227 239 255
227 239 255
227 239 255
227 239 255
227 239 255
227 239 255
227 239 255
227 239 255
227 239 255
227 239 255
227 239 255
227 239 255
227 239 255
227 239 255
227 239 255
227 239 255
227 239 255
227 239 255
227 239 255
227 239 255
227 239 255
227 239 255
227 239 255
227 239 255
227 239 255
227 239 255
227 239 255
227 239 255
227 239 255
227 239 255
227 239 255
227 239 255
227 239 255
227 239 255
227 239 255
227 239 255
227 239 255
227 239 255
227 239 255
227 239 255
227 239 255
227 239 255
227 239 255
227 239 255
227 239 255
227 239 255
228 239 255
228 239 255
228 239 255
228 239 255
228 239 255
228 239 255
228 239 255
228 239 255
228 239 255
228 239 255
228 239 255
228 239 255
228 239 255
228 239 255
228 239 255
228 239 255
228 239 255
228 239 255
228 239 255
228 239 255
228 239 255
228 239 255
228 239 255
228 239 255
228 239 255
228 239 255
228 239 255
228 240 255
228 240 255
228 240 255
228 240 255
228 240 255
228 240 255
228 240 255
228 240 255
228 240 255
229 240 255
229 240 255
229 240 255
229 240 255
229 240 255
229 240 255
229 240 255
229 240 255
229 240 255
229 240 255
229 240 255
229 240 255
229 240 255
229 240 255
229 240 255
229 240 255
229 240 255
229 240 255
229 240 255
229 240 255
229 240 255
229 240 255
229 240 255
229 240 255
229 240 255
229 240 255
228 239 253
222 235 237
209 224 198
198 215 157
180 202 72
179 201 51
173 197 0
176 199 0
175 198 0
175 198 0
175 198 0
176 199 0
176 199 0
173 197 0
174 198 0
174 197 0
176 199 0
176 199 0
173 197 0
176 199 0
176 199 0
176 199 0
177 199 0
175 198 0
175 198 0
174 198 0
174 198 0
177 199 0
177 199 0
173 197 0
172 197 0
176 199 0
176 199 0
174 198 0
173 197 0
176 199 0
173 197 0
175 198 0
177 199 0
174 198 0
173 197 0
174 198 0
173 197 0
174 198 0
174 198 0
174 198 0
175 198 0
175 198 0
176 199 0
175 198 0
174 198 0
176 199 0
176 199 0
173 197 0
176 199 0
174 197 0
174 198 0
174 197 0
173 197 0
176 199 0
172 196 0
175 198 0
174 198 0
173 197 0
176 199 0
171 196 0
174 198 0
175 198 0
174 198 0
172 197 0
174 198 0
176 198 0
175 198 0
174 197 0
173 197 0
174 198 0
176 199 0
174 197 0
174 198 0
172 197 0
175 198 0
176 199 0
173 197 0
174 198 0
174 197 0
173 197 0
175 198 0
174 198 0
174 197 0
175 198 0
172 197 0
174 196 0
175 198 0
174 198 0
174 197 0
176 198 0
173 197 0
175 198 0
174 197 0
175 198 0
174 197 0
175 198 0
173 197 0
175 198 0
175 198 0
174 198 0
174 198 0
175 198 0
174 197 0
176 199 0
176 198 0
171 196 0
175 198 0
176 199 0
175 198 0
173 197 0
174 198 0
176 199 0
174 198 0
175 198 0
173 197 0
178 200 0
175 198 0
174 198 0
173 197 0
173 197 0
175 198 0
174 198 0
173 197 0
175 198 0
175 198 0
176 198 0
173 197 0
175 198 0
175 198 0
173 197 0
175 198 0
174 197 0
173 197 0
175 198 0
173 197 0
175 198 0
173 197 0
176 198 0
176 198 0
173 197 0
177 199 0
173 197 0
175 198 0
174 197 0
174 197 0
175 198 0
174 197 0
172 197 0
175 198 0
173 197 0
173 197 0
174 198 0
174 198 0
174 198 0
174 198 0
175 198 0
173 197 0
177 199 0
174 198 0
177 199 0
177 199 0
177 199 0
176 199 0
175 198 0
174 198 0
176 199 0
173 197 0
173 197 0
175 198 0
176 199 0
174 197 0
175 198 0
172 197 0
177 199 0
174 198 0
175 198 0
174 198 0
176 198 0
175 198 0
175 198 0
175 198 0
176 199 0
173 197 0
175 198 0
176 198 0
175 198 0
174 198 0
176 199 0
173 197 0
174 198 0
173 197 0
174 198 0
175 198 0
174 198 0
174 197 0
176 198 0
176 199 0
178 200 36
188 207 114
197 215 157
208 223 194
220 232 228
228 239 253
229 240 255
229 240 255
229 240 255
229 240 255
229 240 255
229 240 255
229 240 255
229 240 255
229 240 255
229 240 255
229 240 255
229 240 255
229 240 255
229 240 255
229 240 255
229 240 255
229 240 255
229 240 255
229 240 255
229 240 255
229 240 255
229 240 255
229 240 255
229 240 255
229 240 255
229 240 255
228 240 255
228 240 255
228 240 255
228 240 255
228 240 255
228 240 255
228 240 255
228 240 255
228 240 255
228 239 255
228 239 255
228 239 255
228 239 255
228 239 255
228 239 255
228 239 255
228 239 255
228 239 255
228 239 255
228 239 255
228 239 255
228 239 255
228 239 255
228 239 255
228 239 255
228 239 255
228 239 255
228 239 255
228 239 255
228 239 255
228 239 255
228 239 255
228 239 255
228 239 255
228 239 255
228 239 255
227 239 255
227 239 255
227 239 255
227 239 255
227 239 255
227 239 255
227 239 255
227 239 255
227 239 255
227 239 255
227 239 255
227 239 255
227 239 255
227 239 255
227 239 255
227 239 255
227 239 255
227 239 255
227 239 255
227 239 255
227 239 255
227 239 255
227 239 255
227 239 255
227 239 255
227 239 255
227 239 255
227 239 255
227 239 255
227 239 255
227 239 255
227 239 255
227 239 255
227 239 255
227 239 255
227 239 255
227 239 255
227 239 255
227 239 255
227 239 255
227 239 255
227 239 255
227 239 255
227 239 255
227 239 255
227 239 255
227 239 255
227 239 255
227 239 255
227 239 255
227 239 255
227 239 255
227 239 255
227 239 255
227 239 255
227 239 255
227 239 255
227 239 255
227 239 255
227 239 255
227 239 255
227 239 255
228 239 255
228 239 255
228 239 255
228 239 255
228 239 255
228 239 255
228 239 255
228 239 255
228 239 255
228 239 255
228 239 255
228 239 255
228 239 255
228 239 255
228 239 255
228 239 255
228 239 255
228 239 255
228 239 255
228 239 255
228 239 255
228 239 255
228 239 255
228 239 255
228 239 255
228 240 255
228 240 255
228 240 255
228 240 255
228 240 255
228 240 255
228 240 255
228 240 255
228 240 255
228 240 255
229 240 255
229 240 255
229 240 255
229 240 255
229 240 255
229 240 255
229 240 255
229 240 255
229 240 255
229 240 255
229 240 255
229 240 255
229 240 255
229 240 255
229 240 255
229 240 255
229 240 255
229 240 255
229 240 255
229 240 255
229 240 255
229 240 255
229 240 255
229 240 255
229 240 255
229 240 255
229 240 255
229 240 253
223 235 240
212 227 207
198 216 161
192 211 140
178 200 62
175 198 0
175 198 0
173 197 0
176 199 0
175 198 0
175 198 0
176 199 0
174 198 0
174 197 0
174 197 0
174 197 0
174 198 0
173 197 0
173 197 0
175 198 0
173 197 0
175 198 0
176 199 0
174 197 0
173 197 0
174 198 0
175 198 0
175 198 0
174 197 0
175 198 0
174 198 0
176 198 0
176 199 0
175 198 0
174 198 0
174 197 0
173 197 0
174 198 0
173 197 0
175 198 0
174 198 0
174 198 0
174 198 0
175 198 0
175 198 0
176 198 0
176 199 0
172 197 0
176 199 0
174 198 0
173 197 0
174 198 0
174 198 0
173 197 0
176 199 0
175 198 0
174 198 0
173 197 0
172 197 0
175 198 0
175 198 0
175 198 0
173 197 0
175 198 0
175 198 0
177 199 0
172 197 0
177 199 0
172 197 0
175 198 0
171 196 0
174 198 0
175 198 0
171 196 0
173 197 0
175 198 0
173 197 0
176 199 0
176 199 0
175 198 0
174 198 0
175 198 0
175 198 0
173 197 0
174 198 0
175 198 0
173 197 0
175 198 0
173 197 0
175 198 0
173 197 0
175 198 0
179 200 0
175 198 0
174 198 0
172 197 0
175 198 0
174 198 0
175 198 0
174 197 0
175 198 0
174 197 0
177 199 0
173 197 0
175 198 0
174 197 0
172 196 0
175 198 0
174 198 0
177 199 0
174 198 0
176 199 0
174 197 0
175 198 0
176 198 0
173 197 0
175 198 0
174 197 0
175 197 0
173 197 0
175 198 0
172 197 0
175 198 0
174 198 0
176 198 0
174 197 0
174 197 0
174 198 0
177 199 0
172 197 0
175 198 0
174 197 0
176 199 0
177 199 0
173 197 0
174 197 0
173 197 0
173 197 0
173 197 0
174 197 0
173 197 0
173 197 0
175 198 0
174 198 0
176 198 0
172 197 0
174 198 0
173 197 0
175 198 0
174 198 0
176 199 0
174 198 0
172 196 0
175 198 0
175 198 0
174 198 0
176 199 0
175 198 0
174 197 0
174 198 0
174 198 0
174 198 0
177 199 0
175 198 0
175 198 0
173 197 0
176 198 0
177 199 0
176 198 0
174 198 0
173 197 0
177 199 0
174 197 0
175 198 0
174 198 0
175 198 0
176 199 0
173 197 0
175 198 0
174 198 0
176 199 0
174 198 0
175 198 0
174 198 0
173 197 0
177 199 0
174 197 0
175 198 0
175 198 0
175 198 0
174 198 0
175 198 0
175 198 0
175 198 0
175 198 0
176 199 0
174 198 0
176 199 0
176 199 0
176 199 0
178 200 0
175 198 0
172 197 0
175 198 0
175 198 0
176 198 0
173 197 0
175 198 0
175 198 0
177 199 0
176 199 0
176 199 0
178 200 36
189 209 125
199 216 161
205 221 184
218 231 226
229 240 253
229 240 255
229 240 255
229 240 255
229 240 255
229 240 255
229 240 255
229 240 255
229 240 255
229 240 255
229 240 255
229 240 255
229 240 255
229 240 255
229 240 255
229 240 255
229 240 255
229 240 255
229 240 255
229 240 255
229 240 255
229 240 255
229 240 255
229 240 255
229 240 255
229 240 255
229 240 255
229 240 255
228 240 255
228 240 255
228 240 255
228 240 255
228 240 255
228 240 255
228 240 255
228 240 255
228 240 255
228 239 255
228 239 255
228 239 255
228 239 255
228 239 255
228 239 255
228 239 255
228 239 255
228 239 255
228 239 255
228 239 255
228 239 255
228 239 255
228 239 255
228 239 255
228 239 255
228 239 255
228 239 255
228 239 255
228 239 255
228 239 255
228 239 255
228 239 255
228 239 255
228 239 255
228 239 255
228 239 255
227 239 255
227 239 255
227 239 255
227 239 255
227 239 255
227 239 255
227 239 255
227 239 255
227 239 255
227 239 255
227 239 255
227 239 255
227 239 255
227 239 255
227 239 255
227 239 255
227 239 255
227 239 255
227 239 255
227 239 255
227 239 255
227 239 255
227 239 255
227 239 255
227 239 255
227 239 255
227 239 255
227 239 255
227 239 255
227 239 255
227 239 255
227 239 255
227 239 255
227 239 255
227 239 255
227 239 255
227 239 255
227 239 255
227 239 255
227 239 255
227 239 255
227 239 255
227 239 255
227 239 255
227 239 255
227 239 255
227 239 255
227 239 255
227 239 255
228 239 255
228 239 255
228 239 255
228 239 255
228 239 255
228 239 255
228 239 255
228 239 255
228 239 255
228 239 255
228 239 255
228 239 255
228 239 255
228 239 255
228 239 255
228 239 255
228 239 255
228 239 255
228 239 255
228 239 255
228 239 255
228 239 255
228 239 255
228 239 255
228 239 255
228 239 255
228 239 255
228 240 255
228 240 255
228 240 255
228 240 255
228 240 255
228 240 255
228 240 255
228 240 255
228 240 255
229 240 255
229 240 255
229 240 255
229 240 255
229 240 255
229 240 255
229 240 255
229 240 255
229 240 255
229 240 255
229 240 255
229 240 255
229 240 255
229 240 255
229 240 255
229 240 255
229 240 255
229 240 255
229 240 255
229 240 255
229 240 255
229 240 255
229 240 255
229 240 255
229 240 255
229 240 255
229 240 255
229 240 255
229 240 255
223 235 237
217 230 220
196 214 149
185 206 108
178 200 51
175 198 0
176 199 0
176 199 0
177 199 0
175 198 0
176 199 0
176 199 0
174 198 0
175 198 0
175 198 0
174 198 0
175 198 0
173 197 0
175 198 0
176 198 0
173 197 0
173 197 0
173 197 0
178 200 0
175 198 0
176 198 0
176 199 0
175 198 0
175 198 0
174 198 0
174 197 0
175 198 0
172 197 0
174 198 0
177 199 0
174 198 0
178 200 0
172 197 0
175 198 0
175 198 0
174 198 0
174 198 0
173 197 0
175 198 0
173 197 0
176 199 0
174 198 0
174 198 0
175 198 0
173 197 0
177 199 0
172 197 0
173 197 0
175 198 0
173 197 0
174 198 0
175 198 0
177 199 0
175 198 0
174 197 0
174 198 0
174 197 0
175 198 0
176 199 0
175 198 0
176 199 0
175 198 0
175 198 0
174 198 0
173 197 0
176 199 0
173 197 0
175 198 0
173 197 0
174 197 0
175 198 0
175 198 0
175 198 0
177 199 0
173 197 0
176 198 0
173 197 0
173 197 0
176 199 0
176 198 0
174 198 0
176 199 0
175 198 0
174 197 0
177 199 0
177 199 0
176 199 0
173 197 0
173 197 0
175 198 0
175 198 0
177 199 0
174 197 0
174 198 0
175 198 0
174 198 0
172 197 0
175 198 0
175 198 0
175 198 0
176 199 0
171 196 0
175 198 0
174 198 0
174 198 0
175 198 0
174 198 0
172 196 0
175 198 0
176 198 0
175 198 0
172 196 0
175 198 0
175 197 0
176 199 0
175 198 0
176 199 0
173 197 0
177 199 0
175 198 0
174 198 0
173 197 0
172 196 0
173 197 0
174 198 0
176 199 0
175 198 0
176 199 0
176 199 0
176 199 0
175 198 0
173 197 0
175 198 0
174 198 0
175 198 0
175 198 0
174 197 0
173 197 0
174 197 0
172 197 0
172 197 0
173 197 0
174 198 0
175 198 0
173 197 0
174 198 0
173 197 0
172 196 0
175 198 0
175 198 0
173 197 0
173 197 0
174 197 0
172 197 0
175 198 0
176 199 0
175 198 0
174 198 0
175 198 0
174 198 0
174 198 0
174 197 0
174 197 0
178 200 0
177 199 0
175 198 0
175 198 0
175 198 0
175 198 0
176 199 0
177 199 0
174 197 0
173 197 0
174 197 0
175 198 0
176 199 0
176 198 0
173 197 0
175 198 0
173 197 0
174 197 0
173 197 0
174 198 0
174 198 0
173 197 0
175 198 0
175 198 0
174 197 0
173 197 0
175 198 0
173 197 0
173 197 0
173 197 0
174 198 0
174 198 0
176 199 0
175 198 0
174 198 0
175 198 0
175 198 0
175 198 0
177 199 0
172 197 0
174 198 0
177 199 0
174 198 0
177 199 0
174 197 0
176 199 0
176 198 0
175 198 0
175 198 0
176 199 0
176 199 0
175 198 0
174 198 0
177 199 0
177 200 36
190 210 135
198 216 157
213 227 207
221 234 234
229 240 255
229 240 255
229 240 255
229 240 255
229 240 255
229 240 255
229 240 255
229 240 255
229 240 255
229 240 255
229 240 255
229 240 255
229 240 255
229 240 255
229 240 255
229 240 255
229 240 255
229 240 255
229 240 255
229 240 255
229 240 255
229 240 255
229 240 255
229 240 255
229 240 255
229 240 255
229 240 255
229 240 255
229 240 255
229 240 255
228 240 255
228 240 255
228 240 255
228 240 255
228 240 255
228 240 255
228 240 255
228 240 255
228 239 255
228 239 255
228 239 255
228 239 255
228 239 255
228 239 255
228 239 255
228 239 255
228 239 255
228 239 255
228 239 255
228 239 255
228 239 255
228 239 255
228 239 255
228 239 255
228 239 255
228 239 255
228 239 255
228 239 255
228 239 255
228 239 255
228 239 255
228 239 255
228 239 255
228 239 255
228 239 255
227 239 255
227 239 255
227 239 255
227 239 255
227 239 255
227 239 255
227 239 255
227 239 255
227 239 255
227 239 255
227 239 255
227 239 255
227 239 255
227 239 255
227 239 255
227 239 255
227 239 255
227 239 255
227 239 255
227 239 255
227 239 255
227 239 255
227 239 255
227 239 255
227 239 255
227 239 255
227 239 255
227 239 255
227 239 255
227 239 255
227 239 255
227 239 255
227 239 255
227 239 255
227 239 255
227 239 255
227 239 255
228 239 255
228 239 255
228 239 255
228 239 255
228 239 255
228 239 255
228 239 255
228 239 255
228 239 255
228 239 255
228 239 255
228 239 255
228 239 255
228 239 255
228 239 255
228 239 255
228 239 255
228 239 255
228 239 255
228 239 255
228 239 255
228 239 255
228 239 255
228 239 255
228 239 255
228 239 255
228 239 255
228 240 255
228 240 255
228 240 255
228 240 255
228 240 255
228 240 255
228 240 255
228 240 255
228 240 255
228 240 255
229 240 255
229 240 255
229 240 255
229 240 255
229 240 255
229 240 255
229 240 255
229 240 255
229 240 255
229 240 255
229 240 255
229 240 255
229 240 255
229 240 255
229 240 255
229 240 255
229 240 255
229 240 255
229 240 255
229 240 255
229 240 255
229 240 255
229 240 255
229 240 255
229 240 255
229 240 255
229 240 255
229 240 255
229 240 255
226 237 245
218 231 223
210 225 198
190 210 135
181 202 80
174 198 0
173 197 0
174 198 0
174 198 0
173 197 0
177 199 0
176 198 0
176 199 0
174 198 0
175 198 0
174 198 0
175 198 0
176 199 0
175 198 0
175 198 0
175 198 0
175 198 0
175 198 0
174 198 0
175 198 0
174 197 0
175 198 0
176 199 0
175 198 0
175 198 0
175 198 0
174 197 0
176 199 0
174 198 0
174 197 0
176 199 0
176 199 0
173 197 0
172 197 0
175 198 0
174 198 0
176 198 0
176 198 0
174 198 0
173 197 0
176 198 0
173 197 0
174 198 0
174 197 0
175 198 0
175 198 0
172 197 0
176 199 0
173 197 0
177 199 0
174 198 0
175 198 0
175 198 0
175 198 0
172 197 0
176 199 0
176 199 0
174 198 0
175 198 0
177 199 0
173 197 0
173 197 0
174 197 0
173 197 0
174 198 0
175 198 0
173 197 0
173 197 0
174 198 0
177 199 0
174 197 0
176 198 0
172 197 0
174 197 0
175 198 0
178 200 0
176 199 0
174 197 0
174 198 0
174 198 0
175 198 0
174 198 0
174 198 0
173 197 0
175 198 0
174 198 0
176 199 0
175 198 0
176 199 0
174 198 0
175 198 0
173 197 0
174 197 0
173 197 0
175 198 0
175 198 0
173 197 0
175 197 0
175 198 0
174 198 0
174 197 0
175 198 0
176 198 0
174 198 0
174 198 0
175 198 0
174 198 0
173 197 0
174 198 0
176 199 0
172 197 0
176 198 0
175 198 0
176 199 0
175 198 0
173 197 0
174 198 0
175 198 0
175 198 0
173 197 0
174 198 0
175 198 0
175 198 0
175 198 0
175 198 0
173 196 0
173 197 0
175 198 0
175 198 0
176 199 0
177 199 0
174 198 0
173 197 0
173 197 0
173 197 0
175 198 0
174 198 0
175 198 0
173 197 0
175 198 0
175 198 0
171 195 0
175 198 0
173 197 0
174 198 0
175 198 0
172 197 0
174 197 0
173 197 0
172 197 0
175 198 0
174 198 0
174 198 0
176 198 0
174 198 0
177 199 0
174 198 0
175 198 0
173 197 0
174 198 0
175 198 0
173 197 0
172 197 0
177 199 0
174 198 0
174 198 0
174 198 0
175 198 0
173 197 0
173 197 0
174 198 0
176 198 0
172 197 0
175 198 0
172 197 0
176 198 0
174 197 0
174 198 0
176 199 0
174 198 0
176 199 0
172 196 0
176 199 0
172 196 0
177 199 0
172 197 0
174 197 0
174 198 0
173 197 0
174 198 0
175 198 0
177 199 0
176 198 0
174 198 0
175 198 0
175 198 0
173 197 0
175 198 0
174 197 0
175 198 0
172 197 0
175 198 0
176 198 0
174 198 0
177 199 0
172 196 0
176 199 0
174 198 0
174 197 0
176 199 0
176 199 0
176 199 0
174 197 0
174 197 0
175 198 0
174 198 0
173 197 0
176 199 0
177 199 0
176 199 0
174 198 0
176 198 0
173 197 0
174 198 0
174 198 0
175 198 0
176 199 0
188 207 114
198 215 149
207 222 188
217 230 220
227 238 248
229 240 255
229 240 255
229 240 255
229 240 255
229 240 255
229 240 255
229 240 255
229 240 255
229 240 255
229 240 255
229 240 255
229 240 255
229 240 255
229 240 255
229 240 255
229 240 255
229 240 255
229 240 255
229 240 255
229 240 255
229 240 255
229 240 255
229 240 255
229 240 255
229 240 255
229 240 255
229 240 255
229 240 255
229 240 255
228 240 255
228 240 255
228 240 255
228 240 255
228 240 255
228 240 255
228 240 255
228 240 255
228 240 255
228 240 255
228 239 255
228 239 255
228 239 255
228 239 255
228 239 255
228 239 255
228 239 255
228 239 255
228 239 255
228 239 255
228 239 255
228 239 255
228 239 255
228 239 255
228 239 255
228 239 255
228 239 255
228 239 255
228 239 255
228 239 255
228 239 255
228 239 255
228 239 255
228 239 255
228 239 255
228 239 255
228 239 255
227 239 255
227 239 255
227 239 255
227 239 255
227 239 255
227 239 255
227 239 255
227 239 255
227 239 255
227 239 255
227 239 255
227 239 255
227 239 255
227 239 255
227 239 255
227 239 255
227 239 255
227 239 255
227 239 255
227 239 255
227 239 255
227 239 255
227 239 255
227 239 255
227 239 255
228 239 255
228 239 255
228 239 255
228 239 255
228 239 255
228 239 255
228 239 255
228 239 255
228 239 255
228 239 255
228 239 255
228 239 255
228 239 255
228 239 255
228 239 255
228 239 255
228 239 255
228 239 255
228 239 255
228 239 255
228 239 255
228 239 255
228 239 255
228 239 255
228 239 255
228 239 255
228 239 255
228 240 255
228 240 255
228 240 255
228 240 255
228 240 255
228 240 255
228 240 255
228 240 255
228 240 255
228 240 255
229 240 255
229 240 255
229 240 255
229 240 255
229 240 255
229 240 255
229 240 255
229 240 255
229 240 255
229 240 255
229 240 255
229 240 255
229 240 255
229 240 255
229 240 255
229 240 255
229 240 255
229 240 255
229 240 255
229 240 255
229 240 255
229 240 255
229 240 255
229 240 255
229 240 255
229 240 255
229 240 255
229 240 255
229 240 255
229 240 255
228 239 253
223 235 240
212 226 204
193 212 140
178 201 62
177 200 51
174 198 0
175 198 0
176 198 0
175 198 0
175 198 0
174 197 0
176 199 0
174 198 0
176 198 0
175 198 0
177 199 0
174 198 0
174 198 0
174 198 0
173 197 0
173 197 0
176 199 0
173 197 0
176 199 0
174 197 0
174 198 0
173 197 0
177 199 0
174 197 0
175 198 0
175 198 0
173 197 0
174 198 0
174 198 0
175 198 0
174 198 0
174 198 0
176 198 0
174 197 0
173 197 0
173 197 0
173 197 0
173 197 0
175 198 0
174 198 0
174 198 0
174 197 0
173 197 0
175 198 0
174 197 0
174 198 0
175 198 0
175 198 0
174 197 0
175 198 0
174 198 0
174 197 0
173 197 0
175 198 0
174 197 0
173 197 0
175 198 0
173 197 0
176 199 0
177 199 0
175 198 0
174 198 0
175 198 0
174 198 0
174 198 0
176 199 0
176 199 0
176 199 0
174 198 0
174 198 0
174 198 0
175 198 0
173 197 0
173 197 0
176 199 0
176 199 0
173 197 0
176 199 0
174 198 0
174 197 0
175 198 0
175 198 0
175 198 0
175 198 0
175 198 0
175 198 0
173 197 0
174 198 0
174 198 0
174 198 0
175 198 0
174 198 0
175 198 0
175 198 0
174 198 0
176 199 0
173 197 0
175 198 0
174 198 0
174 197 0
175 198 0
174 197 0
175 198 0
173 197 0
175 198 0
175 198 0
175 198 0
178 200 0
174 197 0
173 197 0
174 198 0
174 198 0
175 198 0
175 198 0
174 198 0
173 196 0
176 199 0
174 198 0
176 199 0
174 198 0
174 198 0
173 197 0
174 198 0
173 197 0
172 196 0
176 199 0
175 198 0
176 198 0
174 198 0
175 198 0
175 197 0
174 197 0
174 198 0
174 197 0
173 197 0
175 198 0
174 198 0
174 198 0
178 200 0
175 198 0
174 197 0
176 198 0
174 197 0
174 198 0
178 200 0
175 198 0
175 198 0
174 197 0
172 197 0
174 198 0
174 197 0
175 198 0
174 198 0
171 196 0
173 197 0
175 198 0
177 199 0
174 197 0
176 199 0
177 199 0
173 197 0
176 199 0
173 197 0
176 199 0
173 197 0
173 197 0
173 197 0
174 198 0
174 198 0
173 197 0
173 197 0
174 198 0
174 198 0
173 197 0
173 197 0
177 199 0
172 197 0
174 198 0
173 197 0
173 197 0
175 198 0
176 199 0
175 198 0
175 198 0
175 198 0
173 197 0
176 198 0
172 197 0
175 198 0
175 198 0
175 198 0
174 198 0
174 198 0
175 198 0
175 198 0
172 197 0
176 199 0
175 198 0
175 198 0
175 198 0
172 197 0
174 198 0
175 198 0
172 197 0
175 198 0
175 198 0
177 199 0
174 197 0
174 198 0
171 196 0
177 199 0
176 199 0
175 198 0
176 199 0
174 198 0
176 199 0
172 196 0
177 199 0
173 197 0
175 198 0
176 199 0
176 199 0
176 198 0
174 198 0
174 198 0
175 198 0
176 198 0
174 198 0
175 198 0
174 198 0
175 198 0
177 199 0
174 198 0
174 197 0
174 198 0
175 198 0
187 207 108
200 217 165
208 223 191
218 231 223
228 239 253
229 240 255
229 240 255
229 240 255
229 240 255
229 240 255
229 240 255
229 240 255
229 240 255
229 240 255
229 240 255
229 240 255
229 240 255
229 240 255
229 240 255
229 240 255
229 240 255
229 240 255
229 240 255
229 240 255
229 240 255
229 240 255
229 240 255
229 240 255
229 240 255
229 240 255
229 240 255
229 240 255
229 240 255
229 240 255
229 240 255
228 240 255
228 240 255
228 240 255
228 240 255
228 240 255
228 240 255
228 240 255
228 240 255
228 240 255
228 239 255
228 239 255
228 239 255
228 239 255
228 239 255
228 239 255
228 239 255
228 239 255
228 239 255
228 239 255
228 239 255
228 239 255
228 239 255
228 239 255
228 239 255
228 239 255
228 239 255
228 239 255
228 239 255
228 239 255
228 239 255
228 239 255
228 239 255
228 239 255
228 239 255
228 239 255
228 239 255
228 239 255
227 239 255
227 239 255
227 239 255
227 239 255
227 239 255
227 239 255
227 239 255
227 239 255
227 239 255
227 239 255
227 239 255
227 239 255
227 239 255
228 239 255
228 239 255
228 239 255
228 239 255
228 239 255
228 239 255
228 239 255
228 239 255
228 239 255
228 239 255
228 239 255
228 239 255
228 239 255
228 239 255
228 239 255
228 239 255
228 239 255
228 239 255
228 239 255
228 239 255
228 239 255
228 239 255
228 239 255
228 239 255
228 239 255
228 239 255
228 239 255
228 239 255
228 240 255
228 240 255
228 240 255
228 240 255
228 240 255
228 240 255
228 240 255
228 240 255
228 240 255
228 240 255
229 240 255
229 240 255
229 240 255
229 240 255
229 240 255
229 240 255
229 240 255
229 240 255
229 240 255
229 240 255
229 240 255
229 240 255
229 240 255
229 240 255
229 240 255
229 240 255
229 240 255
229 240 255
229 240 255
229 240 255
229 240 255
229 240 255
229 240 255
229 240 255
229 240 255
229 240 255
229 240 255
229 240 255
229 240 255
229 240 255
229 240 255
224 236 242
217 230 220
201 217 161
187 207 114
179 201 51
175 198 0
173 197 0
174 198 0
175 198 0
175 198 0
176 199 0
174 197 0
177 199 0
175 198 0
174 198 0
172 197 0
174 198 0
174 197 0
176 198 0
175 198 0
174 198 0
175 198 0
174 198 0
175 198 0
174 198 0
178 199 0
174 198 0
176 198 0
176 199 0
175 198 0
176 199 0
173 197 0
172 197 0
174 198 0
177 199 0
173 197 0
174 198 0
177 199 0
174 197 0
173 197 0
176 199 0
175 198 0
173 197 0
175 198 0
175 198 0
173 197 0
173 197 0
174 198 0
174 198 0
174 198 0
174 198 0
176 199 0
174 198 0
173 197 0
175 198 0
174 197 0
174 197 0
174 198 0
173 197 0
173 197 0
174 198 0
174 198 0
172 196 0
173 197 0
174 198 0
173 197 0
176 199 0
175 198 0
176 199 0
175 198 0
176 199 0
176 199 0
174 198 0
174 198 0
174 198 0
176 199 0
174 198 0
174 198 0
174 198 0
174 197 0
176 199 0
174 198 0
176 198 0
174 198 0
173 197 0
176 199 0
173 197 0
176 198 0
174 198 0
174 198 0
174 198 0
175 198 0
174 198 0
176 199 0
176 198 0
176 199 0
173 197 0
175 198 0
173 197 0
173 197 0
175 198 0
176 199 0
177 199 0
173 197 0
177 199 0
174 198 0
172 197 0
175 198 0
175 198 0
176 199 0
172 197 0
175 198 0
173 197 0
173 197 0
175 198 0
173 197 0
176 199 0
173 197 0
175 198 0
174 197 0
174 198 0
176 198 0
175 198 0
174 197 0
176 199 0
173 197 0
174 197 0
176 199 0
175 198 0
172 197 0
173 197 0
174 198 0
175 198 0
174 198 0
174 197 0
176 199 0
176 199 0
172 197 0
174 198 0
175 198 0
175 198 0
176 199 0
174 198 0
176 199 0
176 199 0
175 198 0
174 197 0
176 199 0
175 198 0
174 198 0
174 197 0
175 198 0
174 198 0
172 197 0
175 198 0
176 199 0
175 198 0
173 197 0
175 198 0
173 197 0
176 199 0
177 199 0
176 198 0
173 197 0
173 197 0
177 199 0
174 197 0
175 198 0
173 197 0
176 199 0
175 198 0
173 197 0
173 197 0
176 199 0
176 199 0
174 198 0
175 198 0
175 198 0
176 198 0
174 198 0
175 198 0
174 198 0
176 199 0
173 197 0
175 198 0
175 198 0
176 199 0
175 198 0
174 197 0
176 198 0
176 198 0
174 198 0
175 198 0
176 198 0
171 196 0
174 197 0
174 198 0
174 197 0
175 198 0
174 197 0
175 198 0
175 198 0
173 197 0
174 198 0
173 197 0
174 198 0
173 197 0
174 197 0
175 198 0
178 200 0
175 198 0
175 198 0
173 197 0
175 198 0
177 199 0
175 198 0
176 199 0
174 198 0
173 197 0
177 199 0
175 198 0
174 198 0
175 198 0
173 197 0
174 197 0
174 197 0
173 197 0
174 198 0
174 198 0
175 198 0
176 198 0
173 197 0
174 198 0
173 197 0
174 198 0
174 198 0
176 199 0
174 197 0
173 197 0
175 198 0
173 197 0
175 198 0
175 198 0
174 198 0
177 199 0
173 197 0
176 198 0
173 197 0
175 198 0
174 198 0
181 203 80
187 207 114
207 223 188
215 229 217
227 238 248
229 240 255
229 240 255
229 240 255
229 240 255
229 240 255
229 240 255
229 240 255
229 240 255
229 240 255
229 240 255
229 240 255
229 240 255
229 240 255
229 240 255
229 240 255
229 240 255
229 240 255
229 240 255
229 240 255
229 240 255
229 240 255
229 240 255
229 240 255
229 240 255
229 240 255
229 240 255
229 240 255
229 240 255
229 240 255
229 240 255
229 240 255
228 240 255
228 240 255
228 240 255
228 240 255
228 240 255
228 240 255
228 240 255
228 240 255
228 240 255
228 240 255
228 240 255
228 239 255
228 239 255
228 239 255
228 239 255
228 239 255
228 239 255
228 239 255
228 239 255
228 239 255
228 239 255
228 239 255
228 239 255
228 239 255
228 239 255
228 239 255
228 239 255
228 239 255
228 239 255
228 239 255
228 239 255
228 239 255
228 239 255
228 239 255
228 239 255
228 239 255
228 239 255
228 239 255
227 239 255
227 239 255
227 239 255
227 239 255
228 239 255
228 239 255
228 239 255
228 239 255
228 239 255
228 239 255
228 239 255
228 239 255
228 239 255
228 239 255
228 239 255
228 239 255
228 239 255
228 239 255
228 239 255
228 239 255
228 239 255
228 239 255
228 239 255
228 239 255
228 239 255
228 239 255
228 239 255
228 239 255
228 239 255
228 240 255
228 240 255
228 240 255
228 240 255
228 240 255
228 240 255
228 240 255
228 240 255
228 240 255
228 240 255
229 240 255
229 240 255
229 240 255
229 240 255
229 240 255
229 240 255
229 240 255
229 240 255
229 240 255
229 240 255
229 240 255
229 240 255
229 240 255
229 240 255
229 240 255
229 240 255
229 240 255
229 240 255
229 240 255
229 240 255
229 240 255
229 240 255
229 240 255
229 240 255
229 240 255
229 240 255
229 240 255
229 240 255
229 240 255
229 240 255
229 240 255
229 240 255
227 239 250
227 238 248
212 226 204
193 211 130
184 205 95
173 197 0
175 198 0
175 198 0
175 198 0
175 198 0
175 198 0
176 199 0
176 198 0
176 198 0
175 198 0
175 198 0
175 198 0
175 198 0
176 199 0
173 197 0
177 199 0
174 198 0
173 197 0
177 199 0
174 197 0
176 199 0
176 199 0
174 197 0
173 197 0
174 198 0
176 199 0
175 198 0
179 200 0
174 198 0
174 198 0
172 197 0
175 198 0
176 198 0
172 196 0
176 199 0
174 198 0
175 198 0
173 197 0
176 198 0
177 199 0
173 197 0
173 197 0
174 198 0
175 198 0
175 198 0
176 199 0
173 197 0
174 198 0
174 198 0
173 197 0
175 198 0
174 198 0
175 198 0
175 198 0
175 198 0
174 198 0
175 198 0
177 199 0
174 198 0
174 198 0
174 198 0
174 198 0
175 198 0
174 197 0
174 198 0
173 197 0
176 199 0
174 197 0
175 198 0
177 199 0
172 196 0
176 199 0
173 197 0
173 197 0
173 197 0
175 198 0
173 197 0
175 198 0
173 197 0
172 197 0
176 198 0
173 197 0
176 199 0
173 197 0
172 197 0
174 198 0
175 198 0
177 199 0
172 197 0
175 198 0
175 198 0
175 198 0
175 198 0
178 200 0
174 198 0
173 197 0
174 197 0
174 198 0
173 197 0
173 197 0
175 197 0
174 197 0
175 198 0
174 198 0
174 197 0
174 198 0
175 198 0
173 197 0
174 197 0
173 196 0
174 198 0
172 197 0
174 198 0
175 198 0
172 196 0
174 198 0
177 199 0
174 197 0
173 197 0
172 197 0
173 197 0
173 197 0
173 197 0
176 199 0
173 197 0
174 198 0
175 198 0
173 197 0
174 198 0
175 198 0
175 198 0
176 199 0
174 198 0
173 196 0
173 197 0
175 198 0
174 198 0
175 198 0
173 197 0
174 198 0
172 197 0
176 198 0
175 198 0
176 199 0
177 199 0
174 197 0
176 199 0
176 199 0
176 198 0
175 198 0
176 198 0
174 198 0
174 198 0
174 197 0
174 198 0
175 198 0
175 198 0
175 198 0
172 197 0
173 197 0
174 197 0
176 199 0
173 197 0
173 197 0
174 197 0
175 198 0
175 198 0
173 197 0
174 198 0
174 198 0
174 198 0
173 197 0
175 198 0
175 198 0
174 197 0
174 197 0
177 199 0
175 198 0
173 197 0
175 198 0
174 198 0
176 199 0
176 198 0
173 197 0
175 198 0
174 198 0
172 197 0
178 200 0
173 197 0
176 199 0
175 198 0
174 197 0
175 198 0
175 198 0
173 197 0
172 197 0
174 198 0
175 198 0
174 197 0
174 198 0
174 197 0
174 198 0
175 198 0
175 198 0
173 197 0
174 198 0
173 197 0
175 198 0
175 198 0
176 198 0
174 198 0
173 197 0
176 198 0
177 199 0
175 198 0
174 198 0
176 199 0
173 197 0
174 198 0
175 198 0
174 197 0
174 198 0
174 198 0
172 196 0
172 197 0
176 199 0
172 196 0
176 199 0
174 198 0
176 198 0
175 198 0
174 198 0
175 198 0
174 198 0
174 198 0
175 198 0
175 198 0
172 197 0
173 197 0
174 198 0
171 196 0
173 197 0
173 197 0
174 198 0
175 198 0
175 198 0
174 197 0
174 198 0
174 198 0
177 199 0
174 197 0
174 198 0
175 198 0
174 198 0
172 197 0
183 204 95
194 212 144
207 223 194
223 235 240
229 239 253
230 240 255
229 240 255
229 240 255
229 240 255
229 240 255
229 240 255
229 240 255
229 240 255
229 240 255
229 240 255
229 240 255
229 240 255
229 240 255
229 240 255
229 240 255
229 240 255
229 240 255
229 240 255
229 240 255
229 240 255
229 240 255
229 240 255
229 240 255
229 240 255
229 240 255
229 240 255
229 240 255
229 240 255
229 240 255
229 240 255
229 240 255
229 240 255
228 240 255
228 240 255
228 240 255
228 240 255
228 240 255
228 240 255
228 240 255
228 240 255
228 240 255
228 240 255
228 239 255
228 239 255
228 239 255
228 239 255
228 239 255
228 239 255
228 239 255
228 239 255
228 239 255
228 239 255
228 239 255
228 239 255
228 239 255
228 239 255
228 239 255
228 239 255
228 239 255
228 239 255
228 239 255
228 239 255
228 239 255
228 239 255
228 239 255
228 239 255
228 239 255
228 239 255
228 239 255
228 239 255
228 239 255
228 239 255
228 239 255
228 239 255
228 239 255
228 239 255
228 239 255
228 239 255
228 239 255
228 239 255
228 239 255
228 239 255
228 239 255
228 239 255
228 239 255
228 239 255
228 239 255
228 239 255
228 240 255
228 240 255
228 240 255
228 240 255
228 240 255
228 240 255
228 240 255
228 240 255
228 240 255
228 240 255
228 240 255
229 240 255
229 240 255
229 240 255
229 240 255
229 240 255
229 240 255
229 240 255
229 240 255
229 240 255
229 240 255
229 240 255
229 240 255
229 240 255
229 240 255
229 240 255
229 240 255
229 240 255
229 240 255
229 240 255
229 240 255
229 240 255
229 240 255
229 240 255
229 240 255
229 240 255
229 240 255
229 240 255
229 240 255
229 240 255
229 240 255
230 240 255
230 240 255
230 240 255
219 232 226
206 222 184
186 207 120
178 201 72
176 198 0
176 199 0
174 197 0
175 198 0
174 198 0
175 198 0
176 199 0
173 197 0
176 198 0
173 197 0
173 197 0
176 198 0
174 198 0
173 197 0
175 198 0
175 198 0
173 197 0
174 198 0
173 197 0
174 197 0
173 197 0
175 198 0
172 196 0
174 197 0
173 197 0
177 199 0
174 198 0
175 198 0
175 198 0
173 197 0
177 199 0
174 198 0
175 198 0
174 198 0
173 197 0
172 197 0
174 198 0
174 198 0
175 198 0
174 198 0
175 198 0
175 198 0
174 197 0
172 197 0
175 198 0
174 198 0
175 198 0
173 197 0
176 199 0
178 199 0
175 198 0
176 198 0
174 197 0
174 198 0
174 197 0
175 198 0
174 197 0
176 199 0
173 197 0
174 198 0
174 198 0
176 198 0
173 197 0
174 198 0
176 199 0
174 198 0
174 198 0
173 197 0
174 198 0
175 198 0
174 198 0
174 197 0
174 198 0
175 198 0
173 197 0
174 198 0
174 197 0
173 197 0
176 198 0
175 198 0
176 199 0
174 197 0
173 197 0
174 198 0
175 198 0
176 198 0
173 197 0
174 198 0
176 199 0
174 197 0
177 199 0
174 198 0
177 199 0
177 199 0
174 197 0
172 194 0
174 198 0
176 199 0
175 198 0
174 198 0
176 198 0
175 198 0
178 200 0
175 198 0
174 198 0
176 199 0
174 198 0
174 198 0
174 198 0
176 199 0
176 197 0
176 199 0
176 198 0
172 196 0
175 198 0
175 198 0
174 197 0
174 198 0
174 198 0
174 198 0
173 197 0
173 197 0
174 197 0
174 197 0
174 198 0
174 198 0
173 197 0
178 200 0
178 200 0
174 197 0
176 199 0
173 197 0
173 197 0
173 197 0
174 198 0
173 197 0
172 197 0
174 198 0
173 197 0
174 198 0
174 197 0
173 197 0
175 198 0
172 197 0
175 198 0
174 198 0
174 198 0
175 198 0
175 197 0
172 197 0
172 197 0
176 199 0
174 198 0
174 198 0
174 198 0
174 198 0
177 199 0
175 198 0
172 197 0
174 198 0
175 197 0
173 197 0
174 197 0
174 198 0
174 198 0
175 198 0
174 198 0
173 197 0
175 198 0
174 197 0
175 198 0
175 198 0
174 198 0
173 197 0
176 199 0
174 198 0
174 198 0
174 198 0
177 199 0
174 197 0
176 199 0
174 198 0
173 197 0
172 196 0
178 200 0
174 198 0
173 197 0
176 199 0
175 198 0
176 199 0
173 197 0
175 198 0
176 199 0
177 199 0
172 197 0
177 199 0
174 198 0
174 197 0
173 197 0
176 199 0
172 197 0
174 198 0
177 199 0
173 197 0
174 197 0
176 199 0
176 199 0
175 198 0
174 198 0
173 197 0
174 198 0
175 198 0
175 198 0
172 197 0
173 197 0
175 198 0
173 197 0
174 198 0
173 197 0
175 198 0
177 199 0
175 198 0
172 197 0
175 198 0
173 197 0
174 198 0
174 198 0
173 197 0
175 198 0
174 198 0
175 198 0
175 198 0
174 198 0
175 198 0
175 198 0
173 197 0
175 198 0
176 199 0
176 199 0
175 198 0
174 197 0
173 197 0
175 198 0
175 198 0
172 197 0
174 198 0
175 198 0
176 198 0
174 198 0
174 198 0
177 199 0
172 197 0
171 196 0
176 199 0
172 197 0
176 199 0
175 198 0
174 198 0
176 199 0
176 199 0
176 198 0
175 198 0
175 198 0
180 202 72
193 212 140
208 223 194
221 233 231
228 239 250
230 240 255
230 240 255
229 240 255
229 240 255
229 240 255
229 240 255
229 240 255
229 240 255
229 240 255
229 240 255
229 240 255
229 240 255
229 240 255
229 240 255
229 240 255
229 240 255
229 240 255
229 240 255
229 240 255
229 240 255
229 240 255
229 240 255
229 240 255
229 240 255
229 240 255
229 240 255
229 240 255
229 240 255
229 240 255
229 240 255
229 240 255
229 240 255
229 240 255
228 240 255
228 240 255
228 240 255
228 240 255
228 240 255
228 240 255
228 240 255
228 240 255
228 240 255
228 240 255
228 239 255
228 239 255
228 239 255
228 239 255
228 239 255
228 239 255
228 239 255
228 239 255
228 239 255
228 239 255
228 239 255
228 239 255
228 239 255
228 239 255
228 239 255
228 239 255
228 239 255
228 239 255
228 239 255
228 239 255
228 239 255
228 239 255
228 239 255
228 239 255
228 239 255
228 239 255
228 239 255
228 239 255
228 239 255
228 239 255
228 239 255
228 239 255
228 239 255
228 239 255
228 239 255
228 239 255
228 240 255
228 240 255
228 240 255
228 240 255
228 240 255
228 240 255
228 240 255
228 240 255
228 240 255
228 240 255
229 240 255
229 240 255
229 240 255
229 240 255
229 240 255
229 240 255
229 240 255
229 240 255
229 240 255
229 240 255
229 240 255
229 240 255
229 240 255
229 240 255
229 240 255
229 240 255
229 240 255
229 240 255
229 240 255
229 240 255
229 240 255
229 240 255
229 240 255
229 240 255
229 240 255
229 240 255
229 240 255
229 240 255
229 240 255
229 240 255
229 240 255
230 240 255
230 240 255
230 240 255
228 239 250
226 237 242
199 216 165
191 211 140
179 201 51
176 198 0
172 196 0
175 198 0
175 198 0
175 198 0
178 200 0
174 198 0
175 198 0
176 198 0
178 200 0
174 198 0
174 198 0
172 196 0
175 198 0
175 198 0
177 199 0
176 199 0
174 198 0
174 197 0
176 199 0
175 198 0
174 198 0
173 197 0
175 198 0
175 198 0
175 198 0
174 197 0
175 198 0
174 198 0
173 197 0
175 198 0
177 199 0
175 198 0
175 198 0
174 198 0
175 198 0
173 197 0
174 198 0
174 198 0
176 199 0
174 198 0
172 197 0
175 198 0
173 197 0
174 198 0
175 198 0
174 198 0
174 197 0
177 199 0
174 198 0
174 198 0
175 198 0
175 198 0
173 197 0
176 199 0
173 197 0
174 197 0
175 198 0
174 198 0
171 196 0
174 197 0
172 197 0
173 197 0
175 198 0
175 198 0
175 198 0
177 199 0
173 197 0
174 198 0
174 197 0
175 198 0
175 198 0
175 198 0
175 198 0
174 198 0
174 198 0
176 198 0
174 198 0
175 198 0
175 198 0
174 198 0
176 198 0
175 198 0
176 199 0
173 197 0
174 197 0
174 198 0
174 197 0
175 198 0
172 197 0
174 197 0
175 198 0
173 197 0
174 198 0
175 198 0
173 197 0
173 197 0
175 198 0
173 197 0
175 198 0
176 199 0
176 199 0
176 199 0
176 199 0
172 197 0
173 197 0
175 198 0
174 196 0
173 196 0
171 196 0
175 198 0
176 198 0
175 198 0
175 198 0
176 198 0
174 198 0
175 198 0
174 198 0
174 197 0
174 198 0
173 197 0
177 199 0
176 199 0
175 197 0
178 200 0
177 199 0
173 197 0
172 195 0
176 197 0
175 198 0
173 197 0
175 198 0
175 198 0
175 197 0
177 199 0
173 196 0
172 197 0
174 197 0
172 197 0
173 197 0
174 197 0
174 198 0
177 199 0
175 198 0
173 197 0
175 198 0
174 198 0
175 198 0
174 198 0
175 198 0
174 198 0
177 199 0
173 197 0
173 197 0
175 198 0
174 198 0
176 199 0
171 196 0
172 197 0
174 197 0
174 197 0
177 199 0
175 198 0
173 197 0
175 198 0
175 198 0
172 196 0
174 198 0
176 198 0
175 198 0
175 198 0
176 199 0
173 197 0
175 198 0
175 198 0
173 197 0
173 197 0
174 198 0
173 197 0
173 197 0
174 198 0
175 198 0
174 198 0
174 197 0
173 197 0
178 199 0
174 198 0
174 198 0
173 197 0
173 197 0
173 197 0
175 198 0
174 198 0
175 198 0
174 198 0
174 198 0
174 198 0
174 198 0
174 198 0
174 197 0
173 197 0
175 198 0
177 199 0
175 198 0
174 198 0
176 199 0
173 197 0
176 198 0
174 197 0
175 198 0
173 197 0
175 198 0
176 198 0
173 197 0
174 197 0
174 197 0
176 199 0
175 198 0
174 198 0
173 197 0
176 199 0
173 197 0
175 198 0
176 199 0
175 198 0
174 198 0
176 199 0
173 197 0
174 198 0
175 198 0
176 198 0
174 198 0
175 198 0
173 197 0
174 197 0
173 197 0
174 198 0
176 199 0
174 197 0
176 199 0
175 198 0
175 198 0
173 197 0
176 199 0
174 198 0
176 199 0
174 198 0
175 198 0
175 198 0
175 198 0
175 198 0
173 197 0
175 198 0
174 197 0
176 199 0
175 198 0
173 197 0
174 197 0
173 197 0
173 197 0
174 198 0
174 198 0
174 197 0
173 197 0
176 199 0
174 198 0
174 197 0
177 199 0
176 199 0
176 199 0
174 198 0
176 199 36
188 208 114
191 211 135
216 230 217
227 238 248
230 240 255
230 240 255
230 240 255
229 240 255
229 240 255
229 240 255
229 240 255
229 240 255
229 240 255
229 240 255
229 240 255
229 240 255
229 240 255
229 240 255
229 240 255
229 240 255
229 240 255
229 240 255
229 240 255
229 240 255
229 240 255
229 240 255
229 240 255
229 240 255
229 240 255
229 240 255
229 240 255
229 240 255
229 240 255
229 240 255
229 240 255
229 240 255
229 240 255
229 240 255
228 240 255
228 240 255
228 240 255
228 240 255
228 240 255
228 240 255
228 240 255
228 240 255
228 240 255
228 240 255
228 239 255
228 239 255
228 239 255
228 239 255
228 239 255
228 239 255
228 239 255
228 239 255
228 239 255
228 239 255
228 239 255
228 239 255
228 239 255
228 239 255
228 239 255
228 239 255
228 239 255
228 239 255
228 239 255
228 239 255
228 239 255
228 239 255
228 239 255
228 239 255
228 239 255
228 240 255
228 240 255
228 240 255
228 240 255
228 240 255
228 240 255
228 240 255
228 240 255
228 240 255
228 240 255
228 240 255
229 240 255
229 240 255
229 240 255
229 240 255
229 240 255
229 240 255
229 240 255
229 240 255
229 240 255
229 240 255
229 240 255
229 240 255
229 240 255
229 240 255
229 240 255
229 240 255
229 240 255
229 240 255
229 240 255
229 240 255
229 240 255
229 240 255
229 240 255
229 240 255
229 240 255
229 240 255
229 240 255
229 240 255
229 240 255
229 240 255
229 240 255
229 240 255
230 240 255
230 240 255
230 240 255
221 234 231
214 228 214
198 216 165
192 210 125
173 197 0
175 198 0
178 200 0
174 198 0
172 197 0
177 199 0
175 198 0
175 198 0
176 199 0
176 199 0
173 197 0
177 199 0
174 197 0
173 197 0
176 199 0
176 199 0
176 199 0
176 199 0
175 198 0
175 198 0
175 198 0
176 199 0
176 199 0
176 198 0
174 197 0
174 197 0
173 197 0
173 197 0
174 198 0
174 198 0
176 198 0
174 197 0
175 198 0
173 197 0
174 197 0
172 197 0
176 199 0
176 199 0
174 198 0
174 198 0
176 198 0
174 198 0
174 197 0
175 198 0
175 198 0
174 198 0
175 198 0
173 197 0
177 199 0
177 199 0
173 197 0
175 198 0
173 197 0
176 199 0
173 197 0
176 199 0
175 198 0
175 198 0
174 198 0
173 197 0
172 197 0
173 197 0
173 197 0
173 197 0
175 198 0
175 198 0
175 198 0
173 197 0
174 198 0
176 199 0
173 197 0
175 198 0
173 196 0
175 198 0
174 198 0
173 197 0
177 199 0
175 198 0
174 198 0
174 197 0
176 199 0
175 198 0
175 198 0
175 198 0
176 198 0
174 198 0
174 198 0
174 197 0
176 199 0
176 199 0
174 198 0
174 198 0
172 197 0
174 198 0
174 198 0
174 198 0
174 198 0
173 197 0
173 197 0
175 198 0
175 198 0
176 198 0
175 198 0
174 197 0
175 198 0
172 197 0
173 197 0
176 199 0
176 198 0
170 196 0
175 198 0
174 198 0
175 198 0
174 198 0
172 196 0
175 198 0
174 198 0
175 197 0
174 197 0
175 198 0
174 198 0
175 198 0
173 197 0
172 197 0
175 198 0
175 198 0
175 198 0
174 198 0
176 199 0
176 199 0
174 198 0
175 198 0
175 197 0
173 197 0
174 197 0
175 198 0
174 198 0
172 197 0
174 196 0
175 198 0
175 198 0
175 197 0
173 197 0
174 198 0
174 197 0
174 198 0
173 197 0
173 197 0
174 198 0
175 198 0
176 199 0
177 199 0
176 199 0
174 197 0
175 198 0
176 199 0
174 198 0
175 198 0
173 197 0
174 198 0
173 197 0
173 197 0
174 198 0
174 198 0
173 197 0
174 198 0
174 197 0
174 198 0
174 198 0
172 197 0
176 199 0
172 196 0
174 198 0
175 197 0
173 197 0
174 198 0
174 198 0
173 197 0
175 198 0
175 198 0
176 199 0
176 199 0
173 197 0
174 198 0
177 199 0
172 197 0
174 198 0
174 197 0
176 199 0
175 198 0
174 197 0
172 196 0
174 198 0
174 197 0
176 199 0
174 197 0
176 199 0
174 198 0
175 198 0
173 197 0
175 198 0
175 198 0
172 197 0
174 198 0
175 198 0
175 198 0
177 199 0
175 198 0
172 197 0
173 197 0
173 197 0
174 198 0
175 198 0
174 198 0
174 198 0
172 197 0
174 198 0
176 199 0
173 197 0
176 199 0
173 197 0
173 197 0
174 198 0
173 197 0
173 197 0
173 197 0
175 198 0
174 197 0
173 197 0
175 198 0
175 198 0
173 197 0
173 197 0
174 197 0
173 197 0
176 198 0
174 198 0
174 198 0
175 198 0
174 198 0
175 198 0
176 199 0
175 198 0
175 198 0
174 198 0
175 198 0
174 198 0
174 198 0
175 198 0
175 198 0
177 199 0
175 198 0
175 198 0
176 198 0
174 198 0
175 198 0
175 198 0
172 196 0
175 198 0
173 197 0
172 196 0
173 197 0
174 198 0
177 199 0
174 197 0
173 197 0
175 198 0
174 197 0
174 198 0
174 198 0
176 199 0
173 197 0
177 199 0
176 199 0
175 198 0
176 198 0
172 197 0
174 198 0
174 197 0
174 197 0
175 198 0
190 209 125
197 215 153
210 225 201
226 237 245
230 240 255
230 240 255
230 240 255
230 240 255
229 240 255
229 240 255
229 240 255
229 240 255
229 240 255
229 240 255
229 240 255
229 240 255
229 240 255
229 240 255
229 240 255
229 240 255
229 240 255
229 240 255
229 240 255
229 240 255
229 240 255
229 240 255
229 240 255
229 240 255
229 240 255
229 240 255
229 240 255
229 240 255
229 240 255
229 240 255
229 240 255
229 240 255
229 240 255
229 240 255
229 240 255
228 240 255
228 240 255
228 240 255
228 240 255
228 240 255
228 240 255
228 240 255
228 240 255
228 240 255
228 240 255
228 240 255
228 239 255
228 239 255
228 239 255
228 239 255
228 239 255
228 239 255
228 239 255
228 239 255
228 239 255
228 239 255
228 239 255
228 239 255
228 239 255
228 239 255
228 240 255
228 240 255
228 240 255
228 240 255
228 240 255
228 240 255
228 240 255
228 240 255
228 240 255
228 240 255
229 240 255
229 240 255
229 240 255
229 240 255
229 240 255
229 240 255
229 240 255
229 240 255
229 240 255
229 240 255
229 240 255
229 240 255
229 240 255
229 240 255
229 240 255
229 240 255
229 240 255
229 240 255
229 240 255
229 240 255
229 240 255
229 240 255
229 240 255
229 240 255
229 240 255
229 240 255
229 240 255
229 240 255
229 240 255
229 240 255
229 240 255
229 240 255
230 240 255
230 240 255
230 240 255
230 240 255
230 240 255
223 235 237
209 224 194
196 213 144
185 206 108
175 198 0
176 198 0
172 196 0
175 198 0
175 198 0
175 198 0
174 198 0
173 197 0
174 197 0
174 198 0
174 198 0
174 198 0
173 197 0
175 198 0
173 197 0
176 199 0
176 199 0
173 197 0
175 198 0
175 198 0
174 198 0
174 198 0
175 198 0
174 198 0
172 197 0
175 198 0
175 198 0
177 199 0
173 197 0
176 198 0
174 198 0
174 197 0
176 198 0
174 198 0
175 198 0
173 197 0
173 197 0
174 198 0
175 198 0
175 198 0
176 199 0
177 199 0
174 198 0
174 198 0
175 198 0
175 198 0
174 197 0
174 198 0
175 198 0
178 200 0
173 197 0
175 198 0
175 198 0
174 198 0
173 197 0
174 198 0
176 199 0
173 197 0
176 199 0
176 199 0
173 197 0
173 197 0
173 197 0
175 198 0
175 198 0
175 198 0
176 199 0
174 198 0
174 197 0
177 199 0
175 198 0
174 197 0
173 197 0
174 198 0
175 198 0
174 198 0
174 198 0
175 198 0
172 197 0
176 199 0
174 197 0
177 199 0
175 198 0
176 199 0
173 197 0
176 199 0
175 198 0
176 199 0
174 198 0
173 196 0
175 198 0
174 198 0
175 198 0
175 198 0
176 198 0
173 197 0
175 198 0
173 197 0
175 198 0
173 197 0
173 197 0
173 197 0
173 197 0
174 198 0
175 198 0
172 195 0
175 198 0
173 197 0
174 197 0
176 198 0
172 197 0
174 198 0
175 198 0
174 198 0
176 198 0
174 198 0
174 198 0
175 198 0
174 198 0
174 198 0
172 197 0
175 198 0
173 197 0
175 198 0
174 197 0
176 199 0
174 198 0
173 197 0
175 198 0
172 196 0
174 198 0
174 198 0
173 197 0
173 197 0
174 197 0
175 198 0
173 197 0
176 199 0
175 198 0
174 198 0
178 200 0
174 197 0
173 197 0
176 199 0
176 199 0
173 197 0
173 196 0
174 198 0
175 198 0
175 198 0
175 198 0
173 196 0
175 198 0
170 194 0
174 198 0
172 196 0
175 198 0
173 197 0
173 197 0
176 198 0
172 196 0
173 196 0
175 198 0
174 198 0
172 194 0
175 198 0
174 198 0
176 199 0
172 197 0
174 197 0
172 197 0
174 197 0
175 197 0
173 197 0
177 199 0
172 197 0
174 198 0
174 198 0
178 200 0
174 198 0
173 197 0
176 199 0
175 198 0
175 198 0
175 198 0
175 198 0
175 198 0
177 199 0
176 199 0
172 197 0
174 197 0
175 198 0
176 199 0
174 198 0
175 198 0
177 199 0
172 197 0
176 199 0
177 199 0
174 198 0
172 197 0
175 198 0
174 197 0
174 197 0
176 199 0
176 198 0
174 198 0
177 199 0
176 199 0
176 199 0
176 199 0
173 197 0
174 198 0
171 196 0
174 198 0
174 197 0
175 198 0
176 199 0
174 197 0
176 198 0
175 198 0
173 197 0
173 197 0
174 198 0
172 196 0
173 197 0
175 198 0
175 198 0
173 197 0
177 199 0
176 199 0
174 197 0
175 198 0
174 197 0
177 199 0
174 198 0
175 198 0
176 199 0
177 199 0
174 198 0
174 197 0
175 198 0
174 197 0
172 197 0
177 199 0
176 198 0
176 198 0
175 198 0
174 198 0
177 199 0
177 199 0
174 198 0
176 199 0
175 198 0
177 199 0
174 198 0
174 198 0
174 198 0
175 198 0
173 197 0
175 198 0
175 198 0
177 199 0
176 199 0
178 200 0
178 200 0
176 199 0
174 198 0
175 198 0
176 198 0
172 196 0
175 198 0
178 199 0
175 198 0
174 198 0
175 198 0
175 198 0
176 198 0
172 197 0
175 198 0
173 197 0
176 198 0
175 198 0
173 197 0
176 199 0
174 197 0
173 197 0
175 198 0
174 198 0
182 203 88
192 211 130
208 223 194
222 234 234
230 240 255
230 240 255
230 240 255
230 240 255
229 240 255
229 240 255
229 240 255
229 240 255
229 240 255
229 240 255
229 240 255
229 240 255
229 240 255
229 240 255
229 240 255
229 240 255
229 240 255
229 240 255
229 240 255
229 240 255
229 240 255
229 240 255
229 240 255
229 240 255
229 240 255
229 240 255
229 240 255
229 240 255
229 240 255
229 240 255
229 240 255
229 240 255
229 240 255
229 240 255
229 240 255
229 240 255
228 240 255
228 240 255
228 240 255
228 240 255
228 240 255
228 240 255
228 240 255
228 240 255
228 240 255
228 240 255
228 240 255
228 239 255
228 239 255
228 239 255
228 239 255
228 239 255
228 240 255
228 240 255
228 240 255
228 240 255
228 240 255
228 240 255
228 240 255
228 240 255
228 240 255
229 240 255
229 240 255
229 240 255
229 240 255
229 240 255
229 240 255
229 240 255
229 240 255
229 240 255
229 240 255
229 240 255
229 240 255
229 240 255
229 240 255
229 240 255
229 240 255
229 240 255
229 240 255
229 240 255
229 240 255
229 240 255
229 240 255
229 240 255
229 240 255
229 240 255
229 240 255
229 240 255
229 240 255
229 240 255
229 240 255
229 240 255
229 240 255
229 240 255
230 240 255
230 240 255
230 240 255
230 240 255
229 239 253
222 234 234
212 226 204
194 213 149
184 204 80
174 198 0
174 198 0
174 198 0
174 198 0
178 200 0
177 199 0
174 198 0
174 197 0
175 198 0
174 197 0
174 198 0
176 198 0
177 199 0
175 198 0
175 198 0
174 198 0
175 198 0
174 197 0
176 198 0
176 199 0
176 198 0
174 197 0
175 198 0
174 198 0
176 199 0
175 198 0
176 199 0
172 197 0
173 197 0
176 198 0
174 197 0
175 198 0
174 197 0
175 198 0
173 197 0
174 197 0
175 198 0
174 197 0
174 197 0
173 197 0
175 198 0
171 196 0
174 198 0
174 197 0
175 198 0
174 198 0
175 198 0
175 198 0
175 198 0
175 198 0
171 196 0
174 198 0
175 198 0
174 198 0
177 199 0
174 197 0
174 198 0
174 198 0
175 198 0
174 197 0
175 198 0
174 198 0
174 197 0
177 199 0
173 197 0
176 199 0
177 199 0
175 198 0
173 197 0
176 199 0
174 198 0
172 197 0
174 198 0
174 198 0
177 199 0
174 198 0
173 197 0
174 198 0
175 198 0
173 197 0
177 199 0
175 198 0
174 198 0
174 198 0
176 199 0
174 198 0
176 199 0
174 197 0
174 197 0
172 197 0
173 197 0
177 199 0
172 197 0
174 197 0
174 198 0
176 198 0
174 198 0
175 198 0
174 198 0
173 197 0
175 198 0
175 198 0
176 199 0
174 197 0
174 198 0
176 199 0
174 197 0
176 198 0
174 198 0
176 199 0
173 197 0
174 198 0
175 198 0
173 197 0
175 198 0
171 196 0
175 198 0
175 198 0
176 199 0
174 197 0
174 198 0
175 198 0
175 198 0
172 197 0
176 198 0
175 198 0
173 197 0
173 197 0
176 197 0
175 198 0
174 198 0
172 195 0
174 198 0
174 198 0
174 198 0
177 199 0
178 200 0
175 197 0
175 198 0
174 196 0
175 198 0
175 197 0
173 196 0
174 197 0
174 198 0
172 197 0
176 198 0
172 197 0
172 197 0
173 197 0
175 198 0
173 197 0
174 198 0
172 197 0
175 198 0
174 197 0
174 197 0
174 198 0
174 198 0
177 199 0
174 197 0
174 197 0
173 197 0
174 197 0
176 199 0
177 199 0
175 198 0
173 197 0
174 198 0
174 198 0
173 197 0
174 198 0
173 197 0
172 197 0
175 198 0
173 197 0
176 199 0
174 197 0
176 199 0
175 198 0
175 198 0
175 198 0
174 197 0
177 199 0
175 198 0
174 198 0
174 198 0
173 197 0
174 198 0
174 197 0
174 198 0
176 199 0
174 198 0
174 198 0
176 199 0
176 199 0
175 197 0
175 198 0
173 197 0
174 197 0
175 198 0
174 197 0
174 198 0
175 198 0
174 197 0
173 197 0
171 196 0
172 197 0
172 197 0
175 198 0
174 198 0
174 197 0
176 199 0
174 198 0
175 198 0
175 198 0
173 197 0
175 198 0
173 197 0
175 198 0
173 197 0
174 198 0
172 197 0
176 199 0
174 198 0
175 198 0
174 197 0
174 198 0
176 198 0
174 198 0
173 197 0
174 197 0
173 197 0
174 197 0
173 197 0
177 199 0
175 198 0
176 198 0
175 198 0
172 196 0
174 198 0
175 198 0
175 198 0
174 197 0
173 197 0
173 197 0
174 198 0
174 197 0
173 197 0
172 197 0
176 198 0
175 198 0
175 198 0
175 198 0
175 198 0
175 198 0
174 197 0
175 198 0
173 197 0
174 197 0
172 196 0
175 198 0
175 198 0
174 198 0
174 197 0
173 197 0
174 198 0
174 198 0
176 199 0
174 198 0
173 197 0
176 199 0
174 198 0
175 198 0
173 197 0
175 198 0
175 198 0
173 197 0
174 198 0
175 198 0
173 197 0
173 197 0
175 198 0
176 199 0
175 198 0
174 198 0
176 199 0
177 199 0
174 198 0
178 200 0
177 199 0
175 198 0
174 198 0
173 197 0
175 198 0
173 197 0
177 199 0
179 202 80
192 212 144
208 223 191
224 236 240
230 240 255
230 240 255
230 240 255
230 240 255
230 240 255
229 240 255
229 240 255
229 240 255
229 240 255
229 240 255
229 240 255
229 240 255
229 240 255
229 240 255
229 240 255
229 240 255
229 240 255
229 240 255
229 240 255
229 240 255
229 240 255
229 240 255
229 240 255
229 240 255
229 240 255
229 240 255
229 240 255
229 240 255
229 240 255
229 240 255
229 240 255
229 240 255
229 240 255
229 240 255
229 240 255
229 240 255
229 240 255
229 240 255
228 240 255
228 240 255
228 240 255
228 240 255
228 240 255
228 240 255
228 240 255
228 240 255
228 240 255
228 240 255
228 240 255
228 240 255
228 240 255
228 240 255
229 240 255
229 240 255
229 240 255
229 240 255
229 240 255
229 240 255
229 240 255
229 240 255
229 240 255
229 240 255
229 240 255
229 240 255
229 240 255
229 240 255
229 240 255
229 240 255
229 240 255
229 240 255
229 240 255
229 240 255
229 240 255
229 240 255
229 240 255
229 240 255
229 240 255
229 240 255
229 240 255
229 240 255
229 240 255
229 240 255
229 240 255
229 240 255
229 240 255
230 240 255
230 240 255
230 240 255
230 240 255
230 240 255
229 239 253
222 234 234
201 218 173
201 218 169
181 202 72
175 198 0
175 198 0
176 199 0
175 198 0
177 199 0
175 198 0
174 198 0
176 198 0
176 198 0
173 197 0
175 198 0
176 198 0
174 197 0
176 199 0
174 198 0
173 197 0
174 197 0
174 198 0
173 197 0
173 197 0
175 198 0
176 198 0
174 198 0
175 198 0
174 197 0
176 198 0
177 199 0
175 198 0
175 198 0
175 198 0
177 199 0
174 198 0
175 198 0
175 198 0
174 198 0
174 198 0
175 198 0
177 199 0
173 197 0
176 198 0
175 198 0
176 199 0
174 197 0
173 197 0
174 198 0
174 197 0
176 199 0
172 197 0
174 198 0
174 198 0
174 198 0
174 198 0
175 198 0
175 198 0
174 198 0
175 198 0
172 197 0
176 199 0
174 198 0
175 198 0
176 199 0
175 198 0
174 198 0
175 198 0
174 198 0
175 198 0
174 198 0
174 198 0
177 199 0
175 198 0
172 197 0
176 199 0
174 198 0
174 198 0
174 198 0
173 197 0
176 199 0
173 197 0
173 197 0
175 198 0
173 197 0
174 198 0
174 198 0
174 198 0
173 197 0
175 198 0
174 198 0
175 198 0
176 199 0
174 198 0
173 197 0
173 196 0
175 198 0
174 197 0
174 197 0
173 197 0
176 199 0
173 197 0
174 197 0
173 197 0
178 200 0
174 198 0
173 197 0
175 198 0
175 198 0
176 198 0
175 198 0
176 198 0
174 197 0
174 198 0
174 198 0
174 198 0
173 196 0
177 199 0
175 198 0
174 198 0
175 198 0
174 198 0
172 196 0
174 197 0
173 197 0
175 198 0
176 199 0
176 198 0
172 196 0
176 199 0
174 198 0
174 197 0
174 198 0
175 198 0
174 198 0
173 197 0
174 198 0
177 199 0
173 197 0
178 200 0
176 199 36
185 206 120
183 205 102
177 199 36
175 198 36
175 198 0
174 197 0
173 197 0
175 198 0
174 197 0
176 199 0
173 197 0
174 198 0
174 198 0
174 198 0
173 196 0
174 198 0
176 199 0
176 199 0
175 198 0
173 197 0
176 199 0
175 198 0
174 198 0
174 197 0
175 198 0
175 198 0
174 196 0
175 198 0
174 198 0
173 197 0
174 197 0
175 198 0
175 198 0
175 198 0
174 198 0
174 198 0
177 198 0
174 198 0
171 196 0
172 196 0
172 194 0
173 197 0
175 198 0
173 197 0
174 197 0
175 198 0
174 196 0
175 198 0
174 197 0
174 198 0
175 198 0
176 199 0
176 198 0
174 197 0
175 198 0
175 198 0
175 198 0
173 197 0
175 198 0
174 196 0
174 198 0
173 197 0
175 198 0
174 197 0
174 198 0
174 198 0
174 197 0
174 196 0
173 197 0
174 198 0
174 198 0
175 198 0
173 197 0
175 198 0
174 198 0
174 197 0
174 198 0
176 199 0
174 197 0
174 198 0
175 198 0
174 198 0
174 197 0
174 198 0
173 197 0
177 199 0
173 197 0
174 198 0
175 198 0
175 198 0
175 198 0
174 198 0
177 199 0
174 198 0
175 198 0
175 198 0
173 197 0
171 196 0
174 197 0
174 197 0
176 199 0
175 198 0
176 199 0
175 198 0
173 197 0
174 198 0
176 198 0
176 199 0
177 199 0
173 197 0
176 198 0
175 198 0
175 198 0
176 199 0
173 197 0
174 197 0
171 196 0
173 197 0
175 198 0
177 199 0
175 198 0
175 198 0
175 198 0
174 197 0
175 198 0
174 198 0
173 197 0
174 198 0
175 198 0
175 198 0
175 198 0
177 199 0
174 198 0
174 197 0
171 196 0
175 198 0
175 198 0
174 198 0
175 198 0
175 198 0
175 198 0
173 197 0
175 198 0
174 197 0
174 197 0
174 198 0
175 198 0
173 197 0
173 197 0
177 199 0
176 199 0
176 199 0
173 197 0
175 198 0
174 197 0
174 198 0
175 198 0
176 199 0
177 199 0
176 199 0
176 198 0
175 198 0
176 199 0
172 197 0
175 198 0
176 199 0
174 197 0
176 199 0
174 198 36
194 213 149
216 229 217
223 235 237
230 240 255
230 240 255
230 240 255
230 240 255
230 240 255
230 240 255
229 240 255
229 240 255
229 240 255
229 240 255
229 240 255
229 240 255
229 240 255
229 240 255
229 240 255
229 240 255
229 240 255
229 240 255
229 240 255
229 240 255
229 240 255
229 240 255
229 240 255
229 240 255
229 240 255
229 240 255
229 240 255
229 240 255
229 240 255
229 240 255
229 240 255
229 240 255
229 240 255
229 240 255
229 240 255
229 240 255
229 240 255
229 240 255
229 240 255
228 240 255
228 240 255
228 240 255
228 240 255
228 240 255
229 240 255
229 240 255
229 240 255
229 240 255
229 240 255
229 240 255
229 240 255
229 240 255
229 240 255
229 240 255
229 240 255
229 240 255
229 240 255
229 240 255
229 240 255
229 240 255
229 240 255
229 240 255
229 240 255
229 240 255
229 240 255
229 240 255
229 240 255
229 240 255
229 240 255
229 240 255
229 240 255
229 240 255
229 240 255
229 240 255
229 240 255
229 240 255
229 240 255
230 240 255
230 240 255
230 240 255
230 240 255
230 240 255
230 240 255
220 232 228
200 217 165
190 209 120
179 201 72
175 198 0
172 197 0
175 198 0
173 197 0
174 197 0
174 197 0
174 198 0
175 198 0
175 198 0
175 198 0
175 198 0
175 198 0
175 198 0
177 199 0
174 197 0
173 197 0
173 197 0
176 199 0
174 198 0
173 197 0
177 199 0
176 198 0
174 198 0
175 198 0
176 199 0
174 197 0
174 198 0
175 198 0
177 199 0
175 198 0
176 199 0
175 198 0
175 198 0
175 198 0
174 197 0
178 200 0
176 199 0
174 198 0
176 199 0
175 198 0
175 198 0
175 198 0
175 198 0
176 199 0
177 199 0
174 198 0
173 197 0
172 197 0
176 199 0
174 198 0
175 198 0
176 199 0
173 197 0
175 198 0
175 198 0
178 200 0
175 198 0
175 198 0
176 198 0
173 196 0
173 197 0
172 197 0
174 198 0
176 199 0
174 198 0
178 200 0
173 197 0
175 198 0
175 198 0
173 197 0
174 198 0
174 198 0
175 198 0
175 198 0
173 197 0
174 197 0
175 198 0
173 197 0
175 198 0
175 198 0
174 198 0
175 198 0
174 197 0
175 198 0
173 197 0
173 197 0
174 198 0
175 198 0
173 197 0
173 197 0
175 198 0
174 198 0
173 197 0
175 198 0
174 198 0
174 198 0
174 197 0
177 199 0
174 196 0
177 199 0
173 197 0
174 197 0
173 196 0
175 198 0
172 196 0
174 198 0
174 198 0
177 199 0
174 198 0
176 198 0
176 199 0
173 197 0
175 198 0
173 197 0
172 196 0
173 197 0
174 198 0
174 198 0
175 198 0
176 199 0
177 199 0
174 197 0
174 198 0
172 197 0
175 198 0
174 198 0
173 196 0
175 198 0
173 197 0
174 198 0
172 197 0
175 198 0
172 196 0
177 199 0
174 197 0
173 197 0
175 198 0
175 198 0
192 212 157
205 222 214
213 229 240
213 229 242
205 221 231
210 227 231
200 219 204
192 212 153
175 199 51
173 197 0
174 198 0
176 198 0
174 198 0
174 198 0
173 197 0
174 197 0
175 198 0
174 196 0
174 197 0
172 196 0
175 198 0
177 199 0
175 198 0
175 198 0
175 198 0
173 197 0
175 198 0
176 198 0
174 198 0
172 196 0
172 195 0
175 198 0
174 198 0
175 197 0
174 197 0
176 199 0
172 196 0
173 197 0
173 197 0
174 197 0
173 197 0
174 197 0
175 198 0
176 199 0
177 199 0
175 198 0
174 197 0
174 198 0
173 197 0
173 196 0
174 197 0
173 197 0
172 196 0
176 199 0
176 199 0
175 198 0
175 198 0
174 197 0
176 199 0
174 197 0
174 198 0
173 197 0
174 198 0
176 199 0
177 199 0
175 198 0
175 198 0
174 197 0
173 197 0
173 197 0
173 197 0
174 198 0
176 199 0
177 199 0
174 198 0
175 198 0
173 197 0
176 198 0
175 198 0
175 198 0
174 197 0
174 198 0
175 198 0
176 199 0
174 198 0
174 198 0
173 197 0
174 198 0
178 200 0
173 197 0
172 196 0
173 197 0
176 199 0
176 199 0
174 198 0
175 198 0
176 198 0
174 198 0
175 198 0
177 199 0
175 198 0
175 198 0
175 198 0
176 198 0
175 198 0
174 198 0
173 197 0
174 198 0
175 198 0
174 198 0
174 198 0
175 198 0
175 198 0
176 198 0
173 197 0
175 198 0
175 198 0
174 198 0
173 197 0
173 197 0
174 198 0
175 198 0
176 199 0
174 197 0
175 198 0
176 199 0
175 198 0
174 198 0
176 199 0
177 199 0
172 197 0
177 199 0
173 197 0
176 199 0
173 197 0
176 199 0
172 197 0
173 197 0
175 198 0
175 198 0
173 197 0
173 197 0
176 199 0
176 199 0
177 199 0
177 199 0
174 198 0
174 198 0
175 198 0
176 199 0
175 198 0
173 197 0
175 198 0
172 197 0
174 198 0
175 198 0
173 197 0
174 198 0
174 197 0
175 198 0
177 199 0
172 197 0
174 198 0
174 197 0
175 198 0
176 199 0
174 198 0
174 197 0
177 199 0
173 197 0
174 198 0
176 199 0
174 198 0
176 199 0
177 199 0
176 199 51
201 217 165
212 226 204
220 232 228
229 240 253
230 240 255
230 240 255
230 240 255
230 240 255
230 240 255
230 240 255
229 240 255
229 240 255
229 240 255
229 240 255
229 240 255
229 240 255
229 240 255
229 240 255
229 240 255
229 240 255
229 240 255
229 240 255
229 240 255
229 240 255
229 240 255
229 240 255
229 240 255
229 240 255
229 240 255
229 240 255
229 240 255
229 240 255
229 240 255
229 240 255
229 240 255
229 240 255
229 240 255
229 240 255
229 240 255
229 240 255
229 240 255
229 240 255
229 240 255
229 240 255
229 240 255
229 240 255
229 240 255
229 240 255
229 240 255
229 240 255
229 240 255
229 240 255
229 240 255
229 240 255
229 240 255
229 240 255
229 240 255
229 240 255
229 240 255
229 240 255
229 240 255
229 240 255
229 240 255
229 240 255
229 240 255
229 240 255
229 240 255
229 240 255
229 240 255
229 240 255
229 240 255
230 240 255
230 240 255
230 240 255
230 240 255
230 240 255
230 240 255
229 240 253
223 235 240
212 227 204
200 217 169
180 201 62
177 199 0
175 198 0
178 199 0
176 199 0
175 198 0
175 198 0
175 198 0
174 197 0
175 198 0
171 196 0
175 198 0
175 198 0
175 198 0
175 198 0
176 199 0
175 198 0
174 198 0
178 200 0
172 196 0
176 199 0
174 198 0
174 197 0
175 198 0
174 198 0
175 198 0
175 198 0
175 198 0
176 199 0
176 199 0
175 198 0
176 199 0
174 197 0
175 198 0
174 198 0
175 198 0
174 198 0
174 198 0
175 198 0
175 198 0
174 197 0
177 199 0
174 197 0
175 198 0
173 197 0
174 197 0
175 198 0
175 198 0
176 199 0
176 199 0
176 198 0
174 197 0
175 198 0
175 198 0
175 198 0
176 198 0
173 197 0
177 199 0
172 197 0
174 198 0
175 198 0
174 197 0
175 198 0
175 198 0
174 197 0
175 198 0
176 199 0
172 197 0
174 198 0
173 197 0
176 199 0
176 199 0
176 199 0
176 199 0
176 199 0
175 198 0
174 198 0
175 198 0
175 198 0
174 198 0
174 198 0
176 198 0
173 197 0
173 197 0
173 197 0
173 197 0
174 198 0
177 199 0
176 199 0
175 198 0
173 197 0
174 198 0
174 198 0
173 197 0
174 198 0
174 197 0
175 198 0
172 196 0
173 197 0
174 197 0
174 198 0
175 198 0
174 198 0
174 198 0
173 197 0
174 197 0
172 197 0
176 199 0
174 197 0
174 198 0
176 199 0
174 198 0
176 199 0
173 197 0
176 198 0
173 196 0
174 198 0
177 199 0
174 197 0
174 197 0
175 198 0
173 197 0
173 197 0
175 198 0
171 196 0
177 199 0
174 197 0
174 198 0
174 198 0
176 198 0
174 198 0
174 198 0
175 198 0
173 197 0
173 197 0
176 198 0
175 198 0
174 198 0
176 199 0
173 197 0
175 198 0
179 201 72
205 222 204
203 221 211
191 210 165
184 203 140
177 200 95
176 198 62
178 200 88
183 205 114
198 218 188
212 229 234
189 210 140
175 198 0
172 197 0
173 197 0
174 196 0
175 198 0
173 197 0
174 197 0
177 199 0
175 198 0
176 199 0
174 198 0
175 198 0
173 197 0
176 199 0
172 197 0
173 197 0
175 198 0
174 198 0
176 199 0
175 198 0
174 197 0
175 198 0
172 197 0
172 197 0
173 196 0
176 199 0
174 198 0
175 198 0
173 196 0
173 196 0
174 198 0
173 197 0
176 199 0
173 197 0
174 197 0
173 196 0
175 198 0
171 196 0
176 199 0
173 197 0
175 198 0
173 196 0
174 198 0
173 197 0
176 199 0
177 199 0
175 197 0
173 197 0
176 199 0
174 197 0
172 197 0
174 198 0
173 197 0
177 199 0
175 198 0
176 198 0
177 199 0
177 199 0
175 198 0
173 197 0
175 198 0
171 196 0
174 198 0
174 198 0
176 199 0
174 198 0
174 198 0
174 198 0
175 198 0
175 198 0
172 197 0
175 198 0
174 198 0
176 198 0
175 198 0
173 197 0
175 198 0
173 197 0
176 198 0
175 198 0
170 195 0
175 198 0
173 197 0
173 197 0
173 197 0
175 198 0
175 198 0
173 197 0
172 196 0
173 197 0
174 198 0
174 197 0
175 198 0
175 198 0
173 197 0
175 198 0
173 197 0
175 198 0
172 196 0
174 197 0
175 198 0
174 197 0
174 198 0
174 198 0
173 197 0
173 197 0
177 199 0
174 198 0
173 197 0
175 198 0
174 198 0
175 198 0
175 198 0
176 199 0
175 198 0
173 197 0
173 197 0
176 199 0
176 199 0
176 199 0
175 198 0
172 197 0
175 198 0
173 197 0
174 198 0
176 198 0
172 197 0
176 199 0
176 199 0
173 197 0
177 199 0
176 199 0
173 197 0
173 197 0
175 198 0
174 198 0
174 197 0
176 199 0
175 198 0
174 198 0
175 198 0
176 199 0
174 198 0
174 197 0
175 198 0
174 198 0
177 199 0
176 199 0
176 199 0
173 197 0
177 199 0
175 198 0
175 198 0
178 200 0
174 198 0
173 197 0
176 199 0
175 198 0
178 200 0
175 198 0
174 198 0
176 199 0
174 198 0
173 197 0
173 197 0
176 199 0
176 199 0
173 197 0
173 197 0
180 202 72
194 212 140
211 225 201
218 231 226
229 239 253
230 240 255
230 240 255
230 240 255
230 240 255
230 240 255
230 240 255
229 240 255
229 240 255
229 240 255
229 240 255
229 240 255
229 240 255
229 240 255
229 240 255
229 240 255
229 240 255
229 240 255
229 240 255
229 240 255
229 240 255
229 240 255
229 240 255
229 240 255
229 240 255
229 240 255
229 240 255
229 240 255
229 240 255
229 240 255
229 240 255
229 240 255
229 240 255
229 240 255
229 240 255
229 240 255
229 240 255
229 240 255
229 240 255
229 240 255
229 240 255
229 240 255
229 240 255
229 240 255
229 240 255
229 240 255
229 240 255
229 240 255
229 240 255
229 240 255
229 240 255
229 240 255
229 240 255
229 240 255
229 240 255
229 240 255
229 240 255
229 240 255
229 240 255
230 240 255
230 240 255
230 240 255
230 240 255
230 240 255
230 240 255
230 240 255
230 240 255
221 233 231
212 227 207
198 215 157
180 201 62
175 198 0
177 199 0
176 199 0
172 197 0
176 199 0
174 198 0
176 199 0
173 197 0
178 200 0
174 198 0
174 198 0
175 198 0
175 198 0
175 198 0
176 199 0
175 198 0
177 199 0
176 199 0
176 199 0
173 197 0
173 197 0
174 198 0
175 198 0
175 198 0
174 197 0
175 198 0
174 198 0
174 198 0
176 199 0
175 198 0
177 199 0
176 199 0
176 199 0
174 198 0
175 198 0
174 197 0
175 198 0
175 198 0
175 198 0
175 198 0
174 197 0
174 197 0
176 199 0
174 198 0
174 198 0
177 199 0
174 198 0
173 197 0
173 197 0
174 198 0
174 197 0
174 197 0
175 198 0
173 197 0
176 199 0
174 197 0
175 198 0
175 198 0
175 198 0
174 198 0
174 198 0
174 197 0
173 197 0
174 198 0
176 199 0
173 197 0
174 197 0
176 198 0
173 197 0
175 198 0
176 199 0
173 197 0
174 198 0
174 198 0
174 198 0
175 198 0
175 198 0
174 198 0
173 197 0
177 199 0
176 198 0
175 198 0
174 198 0
176 199 0
174 197 0
174 198 0
174 198 0
173 197 0
173 197 0
173 197 0
176 198 0
174 198 0
173 197 0
177 199 0
171 196 0
174 198 0
175 198 0
177 199 0
174 198 0
176 199 0
173 197 0
171 196 0
176 198 0
175 198 0
174 198 0
176 199 0
174 198 0
175 198 0
176 199 0
174 198 0
174 198 0
173 197 0
174 196 0
174 198 0
172 197 0
173 197 0
174 198 0
174 196 0
173 197 0
174 198 0
172 196 0
174 198 0
176 199 0
174 197 0
172 196 0
174 198 0
174 198 0
175 198 0
175 198 0
174 197 0
171 195 0
175 198 0
173 197 0
175 198 0
171 195 0
175 198 0
175 198 0
176 198 0
174 198 0
175 198 0
175 198 0
175 198 0
176 199 0
173 196 36
209 225 223
192 212 169
180 203 108
174 199 80
175 199 95
173 197 72
173 197 95
175 199 95
171 194 80
178 201 88
179 200 108
204 222 211
190 210 140
175 197 0
174 195 0
172 197 0
173 197 0
175 198 0
173 196 0
173 197 0
173 196 0
173 197 0
174 198 0
173 195 0
173 197 0
173 197 0
174 195 0
172 197 0
172 197 0
171 195 0
176 199 0
175 197 0
175 198 0
175 198 0
173 197 0
175 197 0
174 198 0
172 196 0
176 199 0
174 197 0
172 196 0
173 195 0
175 198 0
174 197 0
173 197 0
175 198 0
174 198 0
174 197 0
172 197 0
174 197 0
173 197 0
174 197 0
176 199 0
174 198 0
174 196 0
175 198 0
174 198 0
174 198 0
174 198 0
175 198 0
173 197 0
174 197 0
174 198 0
174 198 0
173 197 0
177 199 0
173 197 0
172 197 0
176 199 0
173 197 0
173 197 0
175 198 0
174 198 0
176 198 0
175 198 0
175 198 0
173 197 0
174 198 0
173 196 0
175 198 0
173 197 0
174 197 0
174 197 0
174 198 0
173 197 0
173 197 0
175 198 0
171 196 0
175 198 0
175 198 0
173 197 0
174 198 0
175 198 0
175 198 0
173 197 0
174 198 0
172 197 0
173 197 0
174 197 0
177 199 0
172 196 0
175 198 0
175 198 0
178 200 0
172 197 0
175 198 0
175 198 0
174 198 0
173 197 0
174 198 0
175 198 0
175 198 0
175 198 0
176 198 0
174 198 0
176 199 0
173 197 0
176 199 0
175 198 0
174 197 0
176 198 0
177 199 0
177 199 0
175 198 0
172 197 0
175 198 0
175 198 0
175 198 0
176 199 0
175 198 0
175 198 0
175 198 0
174 198 0
174 197 0
174 197 0
174 198 0
175 198 0
176 199 0
175 198 0
173 197 0
176 198 0
175 198 0
172 196 0
173 197 0
173 197 0
175 198 0
173 197 0
177 199 0
173 197 0
177 199 0
173 197 0
175 198 0
174 198 0
173 197 0
174 198 0
178 199 0
176 198 0
176 199 0
174 198 0
175 198 0
175 198 0
175 198 0
174 197 0
175 198 0
172 197 0
175 198 0
176 199 0
175 198 0
173 197 0
175 198 0
176 199 0
176 199 0
175 198 0
173 197 0
174 197 0
175 198 0
174 198 0
175 198 0
171 196 0
173 197 0
175 198 0
175 198 0
175 198 0
174 197 0
174 198 0
179 201 72
188 208 114
212 226 204
221 234 234
230 240 255
230 240 255
230 240 255
230 240 255
230 240 255
230 240 255
230 240 255
230 240 255
229 240 255
229 240 255
229 240 255
229 240 255
229 240 255
229 240 255
229 240 255
229 240 255
229 240 255
229 240 255
229 240 255
229 240 255
229 240 255
229 240 255
229 240 255
229 240 255
229 240 255
229 240 255
229 240 255
229 240 255
229 240 255
229 240 255
229 240 255
229 240 255
229 240 255
229 240 255
229 240 255
229 240 255
229 240 255
229 240 255
229 240 255
229 240 255
229 240 255
229 240 255
229 240 255
229 240 255
229 240 255
229 240 255
229 240 255
229 240 255
229 240 255
229 240 255
229 240 255
230 240 255
230 240 255
230 240 255
230 240 255
230 240 255
230 240 255
230 240 255
230 240 255
225 236 242
214 228 211
190 209 130
182 203 80
175 198 0
175 198 0
173 197 0
176 199 0
173 197 0
174 197 0
178 200 0
173 197 0
175 198 0
175 198 0
175 198 0
176 198 0
174 198 0
177 199 0
175 198 0
176 199 0
172 196 0
175 198 0
176 199 0
173 197 0
174 198 0
175 198 0
176 199 0
175 198 0
174 197 0
173 197 0
176 199 0
176 198 0
173 197 0
176 199 0
176 199 0
176 198 0
172 197 0
173 197 0
173 197 0
174 197 0
173 197 0
173 197 0
175 198 0
175 198 0
176 198 0
176 198 0
174 197 0
177 199 0
174 197 0
174 197 0
173 197 0
177 199 0
177 199 0
175 198 0
175 198 0
174 198 0
175 198 0
176 198 0
176 199 0
177 199 0
174 198 0
174 198 0
175 198 0
173 197 0
173 197 0
175 198 0
175 198 0
174 198 0
174 198 0
173 197 0
173 197 0
172 197 0
173 197 0
174 198 0
175 198 0
174 197 0
174 198 0
176 199 0
176 199 0
176 199 0
177 199 0
176 199 0
174 197 0
174 198 0
173 197 0
176 198 0
176 199 0
173 197 0
174 197 0
174 198 0
175 198 0
172 197 0
176 198 0
174 198 0
174 198 0
172 196 0
175 198 0
175 198 0
175 198 0
176 199 0
175 198 0
175 198 0
177 199 0
175 198 0
173 197 0
175 198 0
175 198 0
176 199 0
176 198 0
175 198 0
174 198 0
175 198 0
174 197 0
174 197 0
174 197 0
173 197 0
175 198 0
173 197 0
176 199 0
173 197 0
173 197 0
176 199 0
172 197 0
174 196 0
174 198 0
172 197 0
174 198 0
175 198 0
173 197 0
174 198 0
175 198 0
174 198 0
177 199 0
172 195 0
173 197 0
176 199 0
174 198 0
175 198 0
174 198 0
175 198 0
175 198 0
175 198 0
174 196 0
175 197 0
176 199 0
174 197 0
175 197 0
176 199 0
174 196 0
174 196 0
176 199 36
202 219 188
178 198 130
171 195 72
175 199 72
173 195 108
172 197 108
171 196 62
168 192 80
171 194 72
172 196 80
174 196 72
172 196 80
170 193 62
201 218 184
178 201 62
177 199 0
174 196 0
172 197 0
174 197 0
172 197 0
175 198 0
174 198 0
175 197 0
172 195 0
176 199 0
175 197 0
174 196 0
174 198 0
174 197 0
172 196 0
174 198 0
177 199 0
175 198 0
175 197 0
171 196 0
175 198 0
172 197 0
175 198 0
175 198 0
175 198 0
172 196 0
174 198 0
173 197 0
175 198 0
173 196 0
175 197 0
175 197 0
173 196 0
174 198 0
174 198 0
174 197 0
172 197 0
174 198 0
175 198 0
173 197 0
174 196 0
174 197 0
173 197 0
175 198 0
174 198 0
175 198 0
175 198 0
175 197 0
175 198 0
171 196 0
176 198 0
174 197 0
174 196 0
172 197 0
174 198 0
172 197 0
174 198 0
174 197 0
172 197 0
173 197 0
173 196 0
176 199 0
176 199 0
176 199 0
175 198 0
173 197 0
175 198 0
177 199 0
175 198 0
175 198 0
173 197 0
174 198 0
175 198 0
176 198 0
174 197 0
175 198 0
175 198 0
177 199 0
177 199 0
174 198 0
176 199 0
174 198 0
173 197 0
175 198 0
175 198 0
175 198 0
174 198 0
176 199 0
174 198 0
175 198 0
174 198 0
176 199 0
174 198 0
174 197 0
175 198 0
174 198 0
175 198 0
174 197 0
173 197 0
176 199 0
173 197 0
175 198 0
173 197 0
172 197 0
176 198 0
176 198 0
178 200 0
175 198 0
175 198 0
174 198 0
174 198 0
175 198 0
175 198 0
175 198 0
174 198 0
173 197 0
173 197 0
177 199 0
174 198 0
174 197 0
176 199 0
177 199 0
175 198 0
177 199 0
176 199 0
173 197 0
176 199 0
175 198 0
174 197 0
173 197 0
172 196 0
175 198 0
174 198 0
173 197 0
174 198 0
173 197 0
173 197 0
173 197 0
175 198 0
175 198 0
174 197 0
174 198 0
174 198 0
175 198 0
176 199 0
174 197 0
174 197 0
175 198 0
175 198 0
175 198 0
174 197 0
174 198 0
175 198 0
175 198 0
173 197 0
174 197 0
174 198 0
176 199 0
175 198 0
178 200 0
174 197 0
176 199 0
176 198 0
175 198 0
176 199 0
178 200 0
175 198 0
175 198 0
173 197 0
175 198 0
174 198 0
177 199 0
175 198 0
173 197 0
174 198 0
189 208 120
196 214 153
213 227 207
226 237 245
230 240 255
230 240 255
230 240 255
230 240 255
230 240 255
230 240 255
230 240 255
230 240 255
229 240 255
229 240 255
229 240 255
229 240 255
229 240 255
229 240 255
229 240 255
229 240 255
229 240 255
229 240 255
229 240 255
229 240 255
229 240 255
229 240 255
229 240 255
229 240 255
229 240 255
229 240 255
229 240 255
229 240 255
229 240 255
229 240 255
229 240 255
229 240 255
229 240 255
229 240 255
229 240 255
229 240 255
229 240 255
229 240 255
229 240 255
229 240 255
229 240 255
229 240 255
230 240 255
230 240 255
230 240 255
230 240 255
230 240 255
230 240 255
230 240 255
230 240 255
230 240 255
227 238 248
214 228 211
203 220 177
184 205 95
174 197 0
176 199 0
175 198 0
173 197 0
174 198 0
172 197 0
175 198 0
173 197 0
172 197 0
174 198 0
172 197 0
175 198 0
175 198 0
176 199 0
177 199 0
175 198 0
174 198 0
176 199 0
174 198 0
175 198 0
177 199 0
173 197 0
174 198 0
174 198 0
174 198 0
174 197 0
175 198 0
174 198 0
176 199 0
174 197 0
173 197 0
175 198 0
176 199 0
174 198 0
176 199 0
174 198 0
177 199 0
175 198 0
175 198 0
173 197 0
174 198 0
174 198 0
176 199 0
174 198 0
173 197 0
177 199 0
175 198 0
173 197 0
175 198 0
177 199 0
175 198 0
175 198 0
174 198 0
172 196 0
173 197 0
172 197 0
175 198 0
174 198 0
175 198 0
174 198 0
174 198 0
177 199 0
174 198 0
176 199 0
176 199 0
174 197 0
175 198 0
174 197 0
176 199 0
175 198 0
172 197 0
176 199 0
176 199 0
175 198 0
173 197 0
174 198 0
174 197 0
175 198 0
174 197 0
176 199 0
174 198 0
173 197 0
175 198 0
175 198 0
176 198 0
176 198 0
176 198 0
176 198 0
175 198 0
175 198 0
178 200 0
173 197 0
176 199 0
175 198 0
173 197 0
175 198 0
173 196 0
173 197 0
177 199 0
173 197 0
175 198 0
172 197 0
174 198 0
174 198 0
174 198 0
175 198 0
174 198 0
176 199 0
177 199 0
173 197 0
175 198 0
175 198 0
173 197 0
174 198 0
174 198 0
173 197 0
176 198 0
176 198 0
175 198 0
175 198 0
174 197 0
174 197 0
178 200 0
176 199 0
176 199 0
175 198 0
175 198 0
174 197 0
173 197 0
173 197 0
173 197 0
174 198 0
174 197 0
174 198 0
173 197 0
174 197 0
175 198 0
176 199 0
174 198 0
174 198 0
175 198 0
175 198 0
176 198 0
174 197 0
174 198 0
174 198 0
175 198 0
174 197 0
175 198 0
175 198 0
182 204 102
189 209 149
173 196 62
172 195 51
171 194 80
171 194 80
167 189 62
170 194 62
172 195 62
172 194 72
169 193 72
176 199 95
172 195 62
174 196 51
176 198 72
186 206 125
174 197 0
173 196 0
174 198 0
174 190 44
170 166 93
166 156 106
167 149 117
168 154 110
171 176 79
172 188 44
175 198 0
174 198 0
174 196 0
173 196 0
174 196 0
174 198 0
175 198 0
173 197 0
172 194 0
173 196 0
174 197 0
174 197 0
175 197 0
175 198 0
173 195 0
174 196 0
174 198 0
173 195 0
175 198 0
173 196 0
173 197 0
174 197 0
174 198 0
172 196 0
173 196 0
175 198 0
173 197 0
172 196 0
173 196 0
173 196 0
175 198 0
174 196 0
175 198 0
174 198 0
173 197 0
174 197 0
174 198 0
174 197 0
175 198 0
174 198 0
174 197 0
174 198 0
174 197 0
172 196 0
172 195 0
176 199 0
177 199 0
177 199 0
172 196 0
177 199 0
174 198 0
173 197 0
178 200 0
173 197 0
174 198 0
174 198 0
174 198 0
174 197 0
175 198 0
172 197 0
174 198 0
174 197 0
177 199 0
175 198 0
174 197 0
174 198 0
174 197 0
174 197 0
174 198 0
175 198 0
174 198 0
172 197 0
174 198 0
174 197 0
175 198 0
174 198 0
174 198 0
175 198 0
174 198 0
172 197 0
174 198 0
176 198 0
174 198 0
173 197 0
174 198 0
174 198 0
175 198 0
176 198 0
174 198 0
174 197 0
174 197 0
174 198 0
174 198 0
175 198 0
175 198 0
174 198 0
173 197 0
178 200 0
173 197 0
175 198 0
172 197 0
173 197 0
174 198 0
175 198 0
172 197 0
175 198 0
175 198 0
173 197 0
174 198 0
172 197 0
174 198 0
176 199 0
175 198 0
173 197 0
175 198 0
175 198 0
174 198 0
175 198 0
175 198 0
175 198 0
175 198 0
178 200 0
177 199 0
177 199 0
175 198 0
174 198 0
175 198 0
172 197 0
174 197 0
174 198 0
174 198 0
173 197 0
174 198 0
176 199 0
177 199 0
175 198 0
174 197 0
175 198 0
173 197 0
175 198 0
172 197 0
176 199 0
176 199 0
176 199 0
171 196 0
174 197 0
175 198 0
174 197 0
175 198 0
177 199 0
176 199 0
174 198 0
174 198 0
174 198 0
176 198 0
176 199 0
175 198 0
175 198 0
174 197 0
174 198 0
177 199 0
176 198 0
175 198 0
174 198 0
175 198 0
176 199 0
175 198 0
176 199 0
175 198 0
182 203 80
200 217 165
217 230 220
225 237 242
230 240 255
230 240 255
230 240 255
230 240 255
230 240 255
230 240 255
230 240 255
230 240 255
230 240 255
229 240 255
229 240 255
229 240 255
229 240 255
229 240 255
229 240 255
229 240 255
229 240 255
229 240 255
229 240 255
229 240 255
229 240 255
229 240 255
229 240 255
229 240 255
229 240 255
229 240 255
229 240 255
229 240 255
229 240 255
229 240 255
229 240 255
229 240 255
229 240 255
229 240 255
230 240 255
230 240 255
230 240 255
230 240 255
230 240 255
230 240 255
230 240 255
230 240 255
230 240 255
224 236 240
215 229 220
201 218 173
184 204 88
178 200 36
174 198 0
176 199 0
175 198 0
173 197 0
178 200 0
175 198 0
173 197 0
174 198 0
174 197 0
175 198 0
174 198 0
174 198 0
175 198 0
174 198 0
174 197 0
175 198 0
177 199 0
172 196 0
173 197 0
175 198 0
177 199 0
175 198 0
176 199 0
175 198 0
174 198 0
173 197 0
178 200 0
177 199 0
178 200 0
175 198 0
175 198 0
175 198 0
175 198 0
174 198 0
175 198 0
173 197 0
176 199 0
177 199 0
174 198 0
175 198 0
175 198 0
175 198 0
173 197 0
175 198 0
174 198 0
174 198 0
174 198 0
174 197 0
176 199 0
175 198 0
173 197 0
173 197 0
175 198 0
178 199 0
175 198 0
175 198 0
174 198 0
175 198 0
174 198 0
174 198 0
174 197 0
178 200 0
173 197 0
172 197 0
174 198 0
175 198 0
174 198 0
173 197 0
174 197 0
176 199 0
176 199 0
173 197 0
175 198 0
173 197 0
174 198 0
174 198 0
174 198 0
173 197 0
174 198 0
174 198 0
174 198 0
172 197 0
174 198 0
174 198 0
175 198 0
174 197 0
175 198 0
175 198 0
175 198 0
177 199 0
174 197 0
175 198 0
175 198 0
175 198 0
174 197 0
176 198 0
176 199 0
174 197 0
174 198 0
174 198 0
174 198 0
174 198 0
175 198 0
174 198 0
174 198 0
172 197 0
176 199 0
175 198 0
176 199 0
175 198 0
178 200 0
173 197 0
173 197 0
174 198 0
174 198 0
174 197 0
175 198 0
175 198 0
174 198 0
173 196 0
174 198 0
175 198 0
174 198 0
175 198 0
175 198 0
176 199 0
176 199 0
174 198 0
175 198 0
172 196 0
176 199 0
173 197 0
174 197 0
175 198 0
175 198 0
174 198 0
172 196 0
175 198 0
175 198 0
174 197 0
173 197 0
174 198 0
176 198 0
176 199 0
175 198 0
172 197 0
173 196 0
176 198 0
173 197 0
176 198 0
173 197 0
175 198 0
175 198 0
192 211 140
177 200 62
174 196 54
174 197 51
174 197 72
172 195 95
168 189 51
172 195 72
174 197 95
175 199 80
176 199 36
175 199 72
176 200 80
174 197 62
181 203 102
185 206 120
173 197 0
171 179 71
168 145 118
164 121 138
164 121 140
164 121 140
163 121 140
163 121 140
164 121 140
165 122 138
166 136 126
172 183 62
174 194 0
174 198 0
175 197 0
175 198 0
176 199 0
172 197 0
173 196 0
176 198 0
173 195 0
173 197 0
173 196 0
174 198 0
174 198 0
175 197 0
173 196 0
174 197 0
175 197 0
173 196 0
174 196 0
172 196 0
174 197 0
175 198 0
175 198 0
175 198 0
172 197 0
176 197 0
174 198 0
173 197 0
174 197 0
173 197 0
173 197 0
174 198 0
175 198 0
175 198 0
174 197 0
175 198 0
173 197 0
174 198 0
174 198 0
176 199 0
175 198 0
173 197 0
174 198 0
174 198 0
172 196 0
173 197 0
175 198 0
173 197 0
173 197 0
173 196 0
174 197 0
174 196 0
177 199 0
176 199 0
173 197 0
175 198 0
174 198 0
175 198 0
174 198 0
176 198 0
172 197 0
175 198 0
176 199 0
173 197 0
175 198 0
174 198 0
175 198 0
175 198 0
174 197 0
175 198 0
173 197 0
175 198 0
173 197 0
174 197 0
175 198 0
175 198 0
174 197 0
174 198 0
175 198 0
175 198 0
175 198 0
175 198 0
172 197 0
176 199 0
173 197 0
176 199 0
173 197 0
176 199 0
175 198 0
174 198 0
175 198 0
175 198 0
176 199 0
175 198 0
175 198 0
174 198 0
174 198 0
176 199 0
173 197 0
178 200 0
173 197 0
174 198 0
175 198 0
175 198 0
176 199 0
174 198 0
176 199 0
174 197 0
173 197 0
172 197 0
173 197 0
174 197 0
177 199 0
171 196 0
173 197 0
175 198 0
176 198 0
175 198 0
175 198 0
174 198 0
174 197 0
173 197 0
173 197 0
174 198 0
174 198 0
176 199 0
174 198 0
175 198 0
174 198 0
175 198 0
178 200 0
176 199 0
175 198 0
176 199 0
172 197 0
174 198 0
175 198 0
174 198 0
174 198 0
175 198 0
174 197 0
173 197 0
174 198 0
174 198 0
174 197 0
174 198 0
175 198 0
176 199 0
173 197 0
174 198 0
176 199 0
174 198 0
174 198 0
177 199 0
173 197 0
173 197 0
174 198 0
175 198 0
173 197 0
175 198 0
172 197 0
175 198 0
174 198 0
176 198 0
176 199 0
175 198 0
174 197 0
173 197 0
173 197 0
176 198 0
174 198 0
188 208 120
204 220 177
208 223 194
227 238 248
230 240 255
230 240 255
230 240 255
230 240 255
230 240 255
230 240 255
230 240 255
230 240 255
230 240 255
229 240 255
229 240 255
229 240 255
229 240 255
229 240 255
229 240 255
229 240 255
229 240 255
229 240 255
229 240 255
229 240 255
229 240 255
229 240 255
229 240 255
229 240 255
229 240 255
230 240 255
230 240 255
230 240 255
230 240 255
230 240 255
230 240 255
230 240 255
230 240 255
230 240 255
230 240 255
230 240 255
217 231 223
202 218 169
190 209 125
179 201 51
175 198 0
175 198 0
175 198 0
176 199 0
174 197 0
174 197 0
174 198 0
175 198 0
177 199 0
176 199 0
175 198 0
176 199 0
175 198 0
174 197 0
175 198 0
175 198 0
175 198 0
175 198 0
174 198 0
174 198 0
174 197 0
176 199 0
174 198 0
176 199 0
176 199 0
174 198 0
172 197 0
175 198 0
176 199 0
174 198 0
175 198 0
176 199 0
173 197 0
175 198 0
173 197 0
174 198 0
178 200 0
174 197 0
172 196 0
175 198 0
173 197 0
173 197 0
175 198 0
173 197 0
173 197 0
173 197 0
174 197 0
171 196 0
175 198 0
173 197 0
174 198 0
175 198 0
173 197 0
173 197 0
174 198 0
172 197 0
175 198 0
177 199 0
175 198 0
176 199 0
175 198 0
174 198 0
174 197 0
175 198 0
173 197 0
175 198 0
174 198 0
173 197 0
173 197 0
172 197 0
173 197 0
176 199 0
177 199 0
175 198 0
174 198 0
173 197 0
172 197 0
174 198 0
174 198 0
174 198 0
173 197 0
174 196 0
175 198 0
175 198 0
173 197 0
177 199 0
173 197 0
173 197 0
174 198 0
175 198 0
174 198 0
174 198 0
175 198 0
175 198 0
176 199 0
173 197 0
174 198 0
175 198 0
177 199 0
174 198 0
176 199 0
175 198 0
175 198 0
173 197 0
174 197 0
175 198 0
176 199 0
172 196 0
175 198 0
178 200 0
174 198 0
175 198 0
174 198 0
175 198 0
173 197 0
176 199 0
173 197 0
176 199 0
174 196 0
173 197 0
174 197 0
174 197 0
175 198 0
174 197 0
173 197 0
176 198 0
175 198 0
175 198 0
174 198 0
175 198 0
174 198 0
174 197 0
176 197 0
174 198 0
177 199 0
175 198 0
174 198 0
174 198 0
173 197 0
173 197 0
174 198 0
175 198 0
177 199 0
175 198 0
175 198 0
173 196 0
174 197 0
171 194 0
175 198 0
173 197 0
175 198 0
175 198 0
173 197 0
172 195 0
172 195 0
175 196 0
175 198 0
182 203 95
176 199 72
176 200 72
174 197 62
173 195 80
175 197 62
168 187 54
167 187 65
182 204 108
179 201 102
173 198 51
176 200 62
178 201 80
178 202 95
174 198 72
177 200 62
169 159 101
164 121 138
165 122 140
166 122 140
163 121 140
163 121 140
164 121 140
163 121 139
165 121 138
165 122 140
165 121 139
166 122 138
170 160 96
175 197 0
172 195 0
170 194 0
171 195 0
171 195 0
172 194 0
173 195 0
172 195 0
175 198 0
174 198 0
172 196 0
172 195 0
175 196 0
172 194 0
177 199 0
173 197 0
175 198 0
171 195 0
173 196 0
174 197 0
175 198 0
172 194 0
174 196 0
173 197 0
175 198 0
176 198 0
174 197 0
175 198 0
172 196 0
171 196 0
175 198 0
175 198 0
174 197 0
173 197 0
174 197 0
173 197 0
175 198 0
175 198 0
176 199 0
175 198 0
174 196 0
173 197 0
177 199 0
175 198 0
176 198 0
176 198 0
174 197 0
174 198 0
173 197 0
175 198 0
175 198 0
173 197 0
175 198 0
176 199 0
174 197 0
172 197 0
176 198 0
174 198 0
174 198 0
173 197 0
174 198 0
177 199 0
177 199 0
174 197 0
173 197 0
175 198 0
175 198 0
176 198 0
174 198 0
175 198 0
172 196 0
174 197 0
175 198 0
174 198 0
174 197 0
173 197 0
176 199 0
176 199 0
174 198 0
177 199 0
175 198 0
172 196 0
174 197 0
172 196 0
175 198 0
175 198 0
175 198 0
173 197 0
174 198 0
174 198 0
175 198 0
174 198 0
174 198 0
176 199 0
174 197 0
172 196 0
175 198 0
174 198 0
176 199 0
177 199 0
175 198 0
175 198 0
176 198 0
176 199 0
173 197 0
176 199 0
175 198 0
175 198 0
175 198 0
177 199 0
176 199 0
174 198 0
176 198 0
174 198 0
174 198 0
177 199 0
173 197 0
175 198 0
174 198 0
174 198 0
176 199 0
175 198 0
175 198 0
174 198 0
176 199 0
174 198 0
173 197 0
175 198 0
172 197 0
175 198 0
175 198 0
174 198 0
176 199 0
172 197 0
177 199 0
175 198 0
175 198 0
176 198 0
176 199 0
174 198 0
175 198 0
175 198 0
173 197 0
174 198 0
174 198 0
174 197 0
173 197 0
175 198 0
174 198 0
176 199 0
175 198 0
172 197 0
176 199 0
177 199 0
177 199 0
174 198 0
176 199 0
175 198 0
177 199 0
174 197 0
175 198 0
174 197 0
177 199 0
178 200 0
176 199 0
173 197 0
173 197 0
175 198 0
176 199 0
173 197 0
174 197 0
174 198 0
176 199 0
177 199 36
196 214 149
213 227 207
216 229 217
229 240 253
230 240 255
230 240 255
230 240 255
230 240 255
230 240 255
230 240 255
230 240 255
230 240 255
230 240 255
229 240 255
229 240 255
229 240 255
229 240 255
229 240 255
229 240 255
229 240 255
229 240 255
230 240 255
230 240 255
230 240 255
230 240 255
230 240 255
230 240 255
230 240 255
230 240 255
230 240 255
230 240 255
230 240 255
218 231 223
210 224 198
189 209 125
181 202 72
175 198 0
177 199 0
177 199 0
175 198 0
175 198 0
173 197 0
176 199 0
175 198 0
172 196 0
174 198 0
178 200 0
175 198 0
173 197 0
173 197 0
173 197 0
173 197 0
178 200 0
176 199 0
175 198 0
176 199 0
177 199 0
176 198 0
175 198 0
175 198 0
176 199 0
174 198 0
175 198 0
173 197 0
175 198 0
173 197 0
176 199 0
173 197 0
174 198 0
175 198 0
174 198 0
175 198 0
174 198 0
174 198 0
175 198 0
175 198 0
176 199 0
175 198 0
174 198 0
175 198 0
174 198 0
173 197 0
174 198 0
176 199 0
178 200 0
174 198 0
174 198 0
175 198 0
175 198 0
175 198 0
175 198 0
175 198 0
174 198 0
173 197 0
175 198 0
173 197 0
175 198 0
175 198 0
174 198 0
177 199 0
174 198 0
175 198 0
174 198 0
176 199 0
176 199 0
172 197 0
174 198 0
175 198 0
176 199 0
174 198 0
173 197 0
172 197 0
177 199 0
173 197 0
175 198 0
174 198 0
173 197 0
173 197 0
177 199 0
173 197 0
175 198 0
176 199 0
175 198 0
174 198 0
173 197 0
174 197 0
173 197 0
175 198 0
174 197 0
174 197 0
175 198 0
173 197 0
173 197 0
174 198 0
174 197 0
174 197 0
172 197 0
176 199 0
174 198 0
175 198 0
174 197 0
176 198 0
176 199 0
174 198 0
176 199 0
176 198 0
172 197 0
174 198 0
175 198 0
175 198 0
175 198 0
175 198 0
175 198 0
177 199 0
173 197 0
174 198 0
173 197 0
175 198 0
175 198 0
174 198 0
174 198 0
173 197 0
175 198 0
175 198 0
174 198 0
176 199 0
176 199 0
174 198 0
177 199 0
174 197 0
173 197 0
175 198 0
175 198 0
176 198 0
173 197 0
173 197 0
175 198 0
173 197 0
173 197 0
174 198 0
171 195 0
174 197 0
172 195 0
176 198 0
174 198 0
173 197 0
175 198 0
174 197 0
175 197 0
172 197 0
176 199 0
172 197 0
174 198 0
173 197 0
174 198 0
171 196 0
175 198 0
173 195 51
172 195 51
173 197 62
176 199 51
174 194 65
168 188 72
168 190 75
175 198 62
177 201 120
175 199 72
181 204 120
176 197 65
171 190 64
175 194 64
171 193 45
169 155 113
167 122 137
164 121 134
163 121 137
163 121 138
163 121 138
164 121 138
165 122 140
163 121 139
164 121 138
166 122 139
161 120 138
165 122 138
164 121 138
166 141 119
172 195 0
174 196 0
174 197 0
175 198 0
173 196 0
174 198 0
175 195 0
174 197 0
173 194 0
173 197 0
172 194 0
174 195 0
172 195 0
172 195 0
174 198 0
176 199 0
172 195 0
174 198 0
173 197 0
175 198 0
174 198 0
174 196 0
175 198 0
173 197 0
173 196 0
173 197 0
174 198 0
172 197 0
172 197 0
175 198 0
172 196 0
175 196 0
174 197 0
173 197 0
172 197 0
175 198 0
173 197 0
174 197 0
175 198 0
172 197 0
175 198 0
174 198 0
176 199 0
174 198 0
175 198 0
176 198 0
174 196 0
176 198 0
171 194 0
172 197 0
176 199 0
175 198 0
174 198 0
175 198 0
174 198 0
173 197 0
176 199 0
174 198 0
173 197 0
174 196 0
176 199 0
175 198 0
174 198 0
176 199 0
172 197 0
174 196 0
175 197 0
174 198 0
176 199 0
174 198 0
173 197 0
176 198 0
176 199 0
175 198 0
175 198 0
175 198 0
173 197 0
174 198 0
174 197 0
175 198 0
175 198 0
173 197 0
176 199 0
173 197 0
172 197 0
175 198 0
176 199 0
177 199 0
175 198 0
173 197 0
174 197 0
172 197 0
172 197 0
173 197 0
176 199 0
177 199 0
174 197 0
173 197 0
174 198 0
178 200 0
174 198 0
177 199 0
175 198 0
173 197 0
174 198 0
175 198 0
174 198 0
174 198 0
173 197 0
174 198 0
177 199 0
172 197 0
175 198 0
175 198 0
174 198 0
174 198 0
174 197 0
173 197 0
175 198 0
174 198 0
177 199 0
174 198 0
174 198 0
175 198 0
177 199 0
174 197 0
175 198 0
174 198 0
173 197 0
176 199 0
175 198 0
175 198 0
175 198 0
175 198 0
176 198 0
173 197 0
174 198 0
174 198 0
174 198 0
175 198 0
174 197 0
175 198 0
175 198 0
176 199 0
172 196 0
174 198 0
176 199 0
176 199 0
172 196 0
175 198 0
175 198 0
176 199 0
174 198 0
177 199 0
175 198 0
174 198 0
175 198 0
177 199 0
177 199 0
175 198 0
175 198 0
175 198 0
178 200 0
173 197 0
175 198 0
176 199 0
172 197 0
175 198 0
173 197 0
176 199 0
174 198 0
175 198 0
174 198 0
174 198 0
174 198 0
175 198 0
176 199 36
197 215 153
213 227 207
219 232 226
230 240 255
230 240 255
230 240 255
230 240 255
230 240 255
230 240 255
230 240 255
230 240 255
230 240 255
230 240 255
230 240 255
229 240 255
229 240 255
230 240 255
230 240 255
230 240 255
230 240 255
230 240 255
230 240 255
230 240 255
230 240 255
225 237 242
214 227 207
198 215 157
187 206 102
175 198 0
173 197 0
170 196 0
173 197 0
176 199 0
175 198 0
174 198 0
175 198 0
174 197 0
176 198 0
175 198 0
175 198 0
174 198 0
176 199 0
174 197 0
175 198 0
175 198 0
174 198 0
175 198 0
175 198 0
175 198 0
175 198 0
175 198 0
176 199 0
176 199 0
174 197 0
176 198 0
173 197 0
175 198 0
176 199 0
174 197 0
177 199 0
173 197 0
174 197 0
175 198 0
177 199 0
176 199 0
175 198 0
176 199 0
176 199 0
172 197 0
177 199 0
173 197 0
176 198 0
175 198 0
174 197 0
176 199 0
177 199 0
174 198 0
172 196 0
175 198 0
172 197 0
174 197 0
175 198 0
176 199 0
173 197 0
174 198 0
176 199 0
172 197 0
176 199 0
172 197 0
174 198 0
176 199 0
173 197 0
177 199 0
173 197 0
176 198 0
174 198 0
175 198 0
174 198 0
174 197 0
172 196 0
174 197 0
175 198 0
176 199 0
174 198 0
174 198 0
172 197 0
174 198 0
176 199 0
174 198 0
176 199 0
175 198 0
174 198 0
175 198 0
173 197 0
173 197 0
176 198 0
175 198 0
177 199 0
176 199 0
175 198 0
174 198 0
175 198 0
175 198 0
178 200 0
175 198 0
174 198 0
174 198 0
176 198 0
174 198 0
173 197 0
174 198 0
176 199 0
171 196 0
175 198 0
174 198 0
176 199 0
177 199 0
175 198 0
176 199 0
173 197 0
172 197 0
175 198 0
175 198 0
173 197 0
174 198 0
174 198 0
175 198 0
176 199 0
174 197 0
175 198 0
176 199 0
175 198 0
174 198 0
177 199 0
174 196 0
173 197 0
174 197 0
174 198 0
174 198 0
177 199 0
173 197 0
173 197 0
175 198 0
173 197 0
175 198 0
176 199 0
175 198 0
175 198 0
175 198 0
173 197 0
175 198 0
174 198 0
175 198 0
175 198 0
173 197 0
174 198 0
173 197 0
175 198 0
173 197 0
176 199 0
175 196 0
175 198 0
172 195 0
173 196 0
175 197 0
173 197 0
174 197 0
176 199 0
173 197 0
171 195 0
173 197 0
174 197 0
175 198 0
172 196 0
181 203 88
178 200 95
182 204 114
174 195 80
172 195 65
171 194 80
184 206 130
177 199 88
173 196 88
174 198 80
179 200 104
173 194 58
176 194 110
171 158 105
165 121 133
169 122 135
165 121 137
165 121 137
165 122 138
163 120 134
163 121 137
164 121 138
167 122 138
164 121 138
163 121 138
166 122 139
164 121 138
162 120 138
164 121 136
166 163 89
174 196 0
171 194 0
174 197 0
173 197 0
174 196 0
173 196 0
176 199 0
174 198 0
175 197 0
174 197 0
175 198 0
174 197 0
171 193 0
172 194 0
173 196 0
173 197 0
173 197 0
173 196 0
172 196 0
176 199 0
171 193 0
174 197 0
174 197 0
175 198 0
173 197 0
174 197 0
174 196 0
175 198 0
173 197 0
176 197 0
174 198 0
174 198 0
172 195 0
176 197 0
175 197 0
173 197 0
173 197 0
174 197 0
175 198 0
175 198 0
175 198 0
174 198 0
174 197 0
177 199 0
174 198 0
174 198 0
176 199 0
174 197 0
174 198 0
175 198 0
174 198 0
175 198 0
175 198 0
175 198 0
173 197 0
173 197 0
176 199 0
173 197 0
171 196 0
174 198 0
173 197 0
175 198 0
175 198 0
174 197 0
173 197 0
174 197 0
173 197 0
176 199 0
175 198 0
172 197 0
175 198 0
174 197 0
173 197 0
174 197 0
174 196 0
175 198 0
174 198 0
175 198 0
174 198 0
174 197 0
175 198 0
173 197 0
174 197 0
172 197 0
176 199 0
175 198 0
174 198 0
173 197 0
175 198 0
173 197 0
174 198 0
174 198 0
173 197 0
173 197 0
174 198 0
174 198 0
176 199 0
174 197 0
176 199 0
174 198 0
174 197 0
176 199 0
175 198 0
173 197 0
172 197 0
173 197 0
173 197 0
175 198 0
172 197 0
172 197 0
175 198 0
174 197 0
174 198 0
177 199 0
176 198 0
176 199 0
175 198 0
176 199 0
174 198 0
174 198 0
174 197 0
174 198 0
175 198 0
175 198 0
174 198 0
176 199 0
177 199 0
176 198 0
177 199 0
177 199 0
173 197 0
173 197 0
174 198 0
174 198 0
175 198 0
172 197 0
173 197 0
176 199 0
174 197 0
175 198 0
175 198 0
172 197 0
175 198 0
173 197 0
173 197 0
175 198 0
175 198 0
172 196 0
174 198 0
175 198 0
174 198 0
176 199 0
177 199 0
174 198 0
175 198 0
175 198 0
175 198 0
175 198 0
173 197 0
175 198 0
174 198 0
174 198 0
175 198 0
176 198 0
175 198 0
173 197 0
175 198 0
173 197 0
176 199 0
174 198 0
175 198 0
177 199 0
175 198 0
174 197 0
175 198 0
175 198 0
173 197 0
175 198 0
176 199 0
183 204 95
201 217 165
210 224 198
224 236 240
230 240 255
230 240 255
230 240 255
230 240 255
230 240 255
230 240 255
230 240 255
230 240 255
230 240 255
230 240 255
230 240 255
230 240 255
230 240 255
227 238 248
218 231 223
200 217 165
187 207 108
173 197 36
174 198 0
176 199 0
176 199 0
175 198 0
177 199 0
172 197 0
176 199 0
174 198 0
177 199 0
176 198 0
173 197 0
175 198 0
174 197 0
173 197 0
174 198 0
172 197 0
176 199 0
176 198 0
174 198 0
172 196 0
174 198 0
176 199 0
173 197 0
173 197 0
175 198 0
175 198 0
175 198 0
174 198 0
175 198 0
177 199 0
176 199 0
174 198 0
176 199 0
172 197 0
174 198 0
176 199 0
176 199 0
176 199 0
174 197 0
174 198 0
174 198 0
175 198 0
175 198 0
176 198 0
174 198 0
175 198 0
173 197 0
174 198 0
177 199 0
175 198 0
176 199 0
177 199 0
173 197 0
177 199 0
175 198 0
173 197 0
174 197 0
176 199 0
174 198 0
174 198 0
174 198 0
173 197 0
176 198 0
174 198 0
174 198 0
176 199 0
174 198 0
174 198 0
176 199 0
174 198 0
175 198 0
175 198 0
174 198 0
176 199 0
174 198 0
174 198 0
174 198 0
174 198 0
176 199 0
175 198 0
177 199 0
173 197 0
172 197 0
174 197 0
175 198 0
174 197 0
175 198 0
175 198 0
173 197 0
174 198 0
175 198 0
175 198 0
173 197 0
176 199 0
174 197 0
175 198 0
176 199 0
174 197 0
173 197 0
177 199 0
175 198 0
173 197 0
175 198 0
176 199 0
174 197 0
174 197 0
172 197 0
175 198 0
175 198 0
174 198 0
174 198 0
176 199 0
174 198 0
174 198 0
176 198 0
174 197 0
173 197 0
172 196 0
174 196 0
176 198 0
176 198 0
175 198 0
175 198 0
175 198 0
174 197 0
174 197 0
174 197 0
176 199 0
174 197 0
174 197 0
176 198 0
173 197 0
174 198 0
174 198 0
177 199 0
175 198 0
172 196 0
175 198 0
173 197 0
176 199 0
175 198 0
174 198 0
175 198 0
174 198 0
172 196 0
174 197 0
173 197 0
172 196 0
175 198 0
171 196 0
172 197 0
174 197 0
174 198 0
174 198 0
176 199 0
175 198 0
176 199 0
177 199 0
172 195 0
174 197 0
173 196 0
175 198 0
172 195 0
171 195 0
172 196 0
176 199 0
176 199 0
175 198 0
172 194 0
178 200 62
177 200 88
179 200 102
177 200 95
180 200 93
177 199 108
174 197 95
176 199 95
175 197 95
173 196 95
175 197 54
172 194 80
177 190 96
165 126 130
164 120 130
164 121 131
166 121 135
163 120 133
162 120 135
167 122 137
164 121 135
167 122 137
165 121 139
164 121 137
163 121 138
160 119 137
161 119 137
162 120 138
160 119 135
163 127 124
172 190 38
171 194 0
173 193 0
172 193 0
172 196 0
173 195 0
175 197 0
173 196 0
172 194 0
173 197 0
175 198 0
174 195 0
174 197 0
174 197 0
173 197 0
175 198 0
173 197 0
171 196 0
175 198 0
175 196 0
175 198 0
175 197 0
176 198 0
175 198 0
175 198 0
173 197 0
172 195 0
171 194 0
171 192 0
172 195 0
173 197 0
174 198 0
173 197 0
174 198 0
174 197 0
174 197 0
175 198 0
173 197 0
175 197 0
174 198 0
173 197 0
171 195 0
176 199 0
174 198 0
178 200 0
175 198 0
174 198 0
172 197 0
175 198 0
174 198 0
174 198 0
174 198 0
176 198 0
173 197 0
178 200 0
176 199 0
176 199 0
174 198 0
175 198 0
173 197 0
173 197 0
173 197 0
174 198 0
173 197 0
176 199 0
175 198 0
175 198 0
173 197 0
175 198 0
175 198 0
173 197 0
174 198 0
174 198 0
175 198 0
173 197 0
175 198 0
175 198 0
174 198 0
176 199 0
176 199 0
175 198 0
175 198 0
177 199 0
178 200 0
176 198 0
177 199 0
176 198 0
176 199 0
178 199 0
175 198 0
176 199 0
175 198 0
175 198 0
174 197 0
174 197 0
177 199 0
174 197 0
173 197 0
174 198 0
173 197 0
178 200 0
174 198 0
173 197 0
173 197 0
174 198 0
173 197 0
174 198 0
175 198 0
176 198 0
174 198 0
176 198 0
176 199 0
175 198 0
174 198 0
175 198 0
177 199 0
175 198 0
175 198 0
173 197 0
174 198 0
175 198 0
175 198 0
173 197 0
175 198 0
175 198 0
172 196 0
175 198 0
175 198 0
175 198 0
176 199 0
175 198 0
176 198 0
173 197 0
174 198 0
175 198 0
173 197 0
175 198 0
176 198 0
174 198 0
175 198 0
174 198 0
175 198 0
175 198 0
176 199 0
175 198 0
175 198 0
171 196 0
177 199 0
177 199 0
173 197 0
174 197 0
174 197 0
173 197 0
177 199 0
176 199 0
175 198 0
174 198 0
176 198 0
174 198 0
175 198 0
175 198 0
174 197 0
175 198 0
175 198 0
174 198 0
174 198 0
174 198 0
175 198 0
175 198 0
175 198 0
175 198 0
176 199 0
173 197 0
177 199 0
175 198 0
174 197 0
174 198 0
176 199 0
176 199 0
178 200 0
177 199 0
176 199 0
176 198 0
184 205 95
201 218 169
216 229 217
228 239 250
230 240 255
230 240 255
230 240 255
230 240 255
230 240 255
230 240 255
221 233 231
206 222 188
192 211 140
172 197 0
173 197 0
176 199 0
178 200 0
173 197 0
175 198 0
176 198 0
173 197 0
175 198 0
177 199 0
173 197 0
174 198 0
173 197 0
176 199 0
175 198 0
175 198 0
176 199 0
175 198 0
175 198 0
174 197 0
176 199 0
178 200 0
176 198 0
175 198 0
177 199 0
174 198 0
173 197 0
175 198 0
175 198 0
176 199 0
174 198 0
176 199 0
175 198 0
174 197 0
176 199 0
174 197 0
175 198 0
177 199 0
174 198 0
176 199 0
174 197 0
173 197 0
173 197 0
174 197 0
172 197 0
173 197 0
176 199 0
176 199 0
174 198 0
174 198 0
174 198 0
175 198 0
174 197 0
173 197 0
173 197 0
174 198 0
175 198 0
174 198 0
175 198 0
174 198 0
175 198 0
176 198 0
175 198 0
176 199 0
174 198 0
174 197 0
173 197 0
174 197 0
175 198 0
176 199 0
173 197 0
175 198 0
173 197 0
175 198 0
175 198 0
173 197 0
176 198 0
177 199 0
175 198 0
172 197 0
174 198 0
172 196 0
174 198 0
175 198 0
174 198 0
172 197 0
172 197 0
173 197 0
175 198 0
172 197 0
173 197 0
172 197 0
177 199 0
173 197 0
174 197 0
173 197 0
174 197 0
176 198 0
175 198 0
175 198 0
176 199 0
173 197 0
175 198 0
172 196 0
175 198 0
175 198 0
176 199 0
173 197 0
176 199 0
176 199 0
173 197 0
175 198 0
176 198 0
177 199 0
177 199 0
175 198 0
176 199 0
174 198 0
171 196 0
174 197 0
176 199 0
175 198 0
172 196 0
175 198 0
174 197 0
173 197 0
174 198 0
175 198 0
174 198 0
176 198 0
175 198 0
173 197 0
177 199 0
175 198 0
176 198 0
175 198 0
174 198 0
175 197 0
172 197 0
176 199 0
175 198 0
176 198 0
173 197 0
174 198 0
174 198 0
173 197 0
174 197 0
176 199 0
175 198 0
175 198 0
174 198 0
174 197 0
174 198 0
175 198 0
175 198 0
172 197 0
173 196 0
175 198 0
175 198 0
174 198 0
172 196 0
174 198 0
175 198 0
173 197 0
175 198 0
175 198 0
172 195 0
174 197 0
172 196 0
173 196 0
175 198 0
173 196 0
172 195 0
167 191 0
177 199 36
180 202 80
175 198 72
185 207 130
174 197 80
176 199 108
170 194 36
177 200 88
177 200 88
172 192 85
172 191 49
170 191 54
168 159 90
163 119 122
166 121 130
166 121 131
166 121 130
166 121 134
166 122 137
166 121 134
165 121 135
165 121 133
165 121 131
163 120 132
164 121 137
166 121 136
162 119 138
160 117 133
164 120 136
160 117 132
169 161 92
171 193 0
171 191 0
173 193 0
170 192 56
180 199 151
185 201 188
187 203 209
189 204 214
188 203 204
184 201 177
181 199 137
171 193 56
174 198 0
173 195 0
174 197 0
173 197 0
174 197 0
173 194 0
173 196 0
175 198 0
171 193 0
177 199 0
176 198 0
172 197 0
175 197 0
173 197 0
174 197 0
171 194 0
173 197 0
174 198 0
174 197 0
171 196 0
176 198 0
177 199 0
173 197 0
171 196 0
176 198 0
173 196 0
172 196 0
174 197 0
173 197 0
176 199 0
173 197 0
174 197 0
173 197 0
174 197 0
173 197 0
176 199 0
174 198 0
175 197 0
177 199 0
175 198 0
175 198 0
172 196 0
174 198 0
175 198 0
175 198 0
173 197 0
175 198 0
172 197 0
172 197 0
174 198 0
173 197 0
172 197 0
175 198 0
175 198 0
175 198 0
172 196 0
172 197 0
174 197 0
174 198 0
175 198 0
173 197 0
175 198 0
175 198 0
173 197 0
175 198 0
172 197 0
175 198 0
173 197 0
176 199 0
175 198 0
175 198 0
173 197 0
176 199 0
172 197 0
175 198 0
173 197 0
173 197 0
175 198 0
176 199 0
174 198 0
176 198 0
174 198 0
173 197 0
178 200 0
173 197 0
172 197 0
175 198 0
175 198 0
174 198 0
173 197 0
174 198 0
173 197 0
173 197 0
175 198 0
174 198 0
172 197 0
176 199 0
177 199 0
175 198 0
175 198 0
177 199 0
175 198 0
174 198 0
174 198 0
174 198 0
177 199 0
173 197 0
174 198 0
174 198 0
175 198 0
176 199 0
175 198 0
176 199 0
175 198 0
176 198 0
176 199 0
176 198 0
174 198 0
175 198 0
173 197 0
174 197 0
174 198 0
174 197 0
174 198 0
174 198 0
173 197 0
174 198 0
175 198 0
175 198 0
173 197 0
177 199 0
176 199 0
174 198 0
176 199 0
173 197 0
174 198 0
173 197 0
173 197 0
175 198 0
174 197 0
175 198 0
175 198 0
174 198 0
176 199 0
173 197 0
174 198 0
176 198 0
173 197 0
173 197 0
176 198 0
173 197 0
177 199 0
177 199 0
175 198 0
174 197 0
175 198 0
174 198 0
175 198 0
175 198 0
175 198 0
175 198 0
174 197 0
173 197 0
173 197 0
176 199 0
177 199 0
177 199 0
176 199 0
175 198 0
173 197 0
175 198 0
173 197 0
175 198 0
177 199 36
184 205 95
212 226 204
220 233 228
229 240 253
230 240 255
181 203 80
173 197 0
177 199 0
175 198 0
175 198 0
174 198 0
176 199 0
175 198 0
175 198 0
173 197 0
174 197 0
174 198 0
175 198 0
175 198 0
174 197 0
175 198 0
176 199 0
174 198 0
174 198 0
175 198 0
175 198 0
174 198 0
173 197 0
175 198 0
174 198 0
173 197 0
175 198 0
174 198 0
172 196 0
176 198 0
175 198 0
174 197 0
175 198 0
174 198 0
175 198 0
176 199 0
175 198 0
173 197 0
175 198 0
174 198 0
173 197 0
175 198 0
174 198 0
175 198 0
174 197 0
175 198 0
175 198 0
175 198 0
172 197 0
177 199 0
173 197 0
177 199 0
175 198 0
176 199 0
174 198 0
174 197 0
175 198 0
175 198 0
175 198 0
176 199 0
174 198 0
176 198 0
175 198 0
175 197 0
175 198 0
175 198 0
175 198 0
175 198 0
175 198 0
174 198 0
175 198 0
175 198 0
174 197 0
174 197 0
173 197 0
174 197 0
173 197 0
176 199 0
176 198 0
174 198 0
174 198 0
172 196 0
172 197 0
175 198 0
176 199 0
175 198 0
176 199 0
175 198 0
174 198 0
174 198 0
174 197 0
172 197 0
176 199 0
175 198 0
174 198 0
174 198 0
173 197 0
172 196 0
174 198 0
176 199 0
175 198 0
174 198 0
172 196 0
174 197 0
174 198 0
174 196 0
176 198 0
175 198 0
174 198 0
173 197 0
175 198 0
176 199 0
176 199 0
176 198 0
175 198 0
174 198 0
174 198 0
173 197 0
174 198 0
176 199 0
175 198 0
174 198 0
176 199 0
174 198 0
173 197 0
175 198 0
176 199 0
175 198 0
172 197 0
175 198 0
173 197 0
176 198 0
175 198 0
175 198 0
173 197 0
174 198 0
174 198 0
174 198 0
174 197 0
174 198 0
174 198 0
174 198 0
174 196 0
174 198 0
176 197 0
174 198 0
176 198 0
173 196 0
175 198 0
176 199 0
176 199 0
174 197 0
174 198 0
176 199 0
176 199 0
174 198 0
175 198 0
174 198 0
174 198 0
175 197 0
173 197 0
173 197 0
176 199 0
175 198 0
172 196 0
175 198 0
177 199 0
171 196 0
175 197 0
177 199 0
171 195 0
176 199 0
174 196 0
172 195 0
173 197 0
172 196 0
174 198 0
168 192 0
179 201 72
177 201 80
174 196 72
171 194 36
175 198 62
175 198 62
175 199 72
171 195 95
171 195 72
166 184 49
167 184 101
165 178 60
167 139 110
167 121 131
162 119 123
164 121 131
165 121 133
163 120 130
164 121 134
164 121 134
164 121 133
164 120 131
164 121 137
163 120 132
164 120 134
161 119 133
160 118 132
160 118 135
157 115 132
159 116 129
157 136 107
171 193 0
169 191 32
181 197 171
190 206 224
186 204 228
183 202 228
180 201 228
180 201 228
180 201 228
182 202 228
187 205 228
191 207 226
184 201 165
172 195 56
173 196 0
172 195 0
173 197 0
172 197 0
173 197 0
173 195 0
173 196 0
172 196 0
174 197 0
173 195 0
174 198 0
173 197 0
171 195 0
173 197 0
172 196 0
175 198 0
174 198 0
171 195 0
174 198 0
174 197 0
175 198 0
176 199 0
172 195 0
172 197 0
174 198 0
174 198 0
171 196 0
175 198 0
174 198 0
172 196 0
173 197 0
174 198 0
176 199 0
176 199 0
172 197 0
176 198 0
174 197 0
173 196 0
173 197 0
174 198 0
175 198 0
172 196 0
173 197 0
175 198 0
176 198 0
174 198 0
175 198 0
176 199 0
175 198 0
176 198 0
175 198 0
176 198 0
175 198 0
174 198 0
176 199 0
172 196 0
173 197 0
173 197 0
174 197 0
176 199 0
177 199 0
173 197 0
175 198 0
173 197 0
177 199 0
175 198 0
174 198 0
175 198 0
176 199 0
173 197 0
173 197 0
173 197 0
176 199 0
172 196 0
175 198 0
176 198 0
173 197 0
173 197 0
176 199 0
173 197 0
175 198 0
174 197 0
175 198 0
175 198 0
175 198 0
176 198 0
174 198 0
175 198 0
175 198 0
174 198 0
174 198 0
175 198 0
173 197 0
174 197 0
175 198 0
177 199 0
175 198 0
177 199 0
176 199 0
175 198 0
175 198 0
175 198 0
174 197 0
172 196 0
174 198 0
174 198 0
174 198 0
175 198 0
176 199 0
173 197 0
175 198 0
174 198 0
175 198 0
176 198 0
174 198 0
175 198 0
176 199 0
178 200 0
174 197 0
173 197 0
175 198 0
176 199 0
175 198 0
173 197 0
171 196 0
174 198 0
174 198 0
175 198 0
176 199 0
176 199 0
175 198 0
175 198 0
172 196 0
174 198 0
174 198 0
174 198 0
173 197 0
175 198 0
176 199 0
172 196 0
174 198 0
173 197 0
177 199 0
175 198 0
176 198 0
175 198 0
174 198 0
176 199 0
176 198 0
176 199 0
174 198 0
175 198 0
175 198 0
175 198 0
174 198 0
174 198 0
175 198 0
176 199 0
174 198 0
174 198 0
173 197 0
176 198 0
177 199 0
172 197 0
174 197 0
177 199 0
173 197 0
175 198 0
175 198 0
175 198 0
179 200 0
175 198 0
174 197 0
177 199 0
175 198 0
180 202 72
188 208 125
175 198 0
173 197 0
176 198 0
175 198 0
179 200 0
175 198 0
172 197 0
174 198 0
175 198 0
175 198 0
174 197 0
174 198 0
174 198 0
175 198 0
175 198 0
177 199 0
174 197 0
174 198 0
176 199 0
175 198 0
175 198 0
174 197 0
175 198 0
176 199 0
175 198 0
174 198 0
173 197 0
177 199 0
177 199 0
177 199 0
174 198 0
174 198 0
173 197 0
173 197 0
173 197 0
176 199 0
174 198 0
176 198 0
177 199 0
173 197 0
176 199 0
174 198 0
174 198 0
175 198 0
176 199 0
174 198 0
173 197 0
174 198 0
174 198 0
174 197 0
173 197 0
175 198 0
175 198 0
176 199 0
175 198 0
176 199 0
173 197 0
176 199 0
172 197 0
176 198 0
176 199 0
174 197 0
176 199 0
175 198 0
176 199 0
172 197 0
174 198 0
175 198 0
175 198 0
174 197 0
174 197 0
174 197 0
174 198 0
174 198 0
176 198 0
175 198 0
172 197 0
175 198 0
174 198 0
174 197 0
175 198 0
177 199 0
175 198 0
174 197 0
174 198 0
177 199 0
173 197 0
173 197 0
175 198 0
174 198 0
174 197 0
173 197 0
176 199 0
174 198 0
174 198 0
175 198 0
174 198 0
175 198 0
175 198 0
173 197 0
177 199 0
175 198 0
173 197 0
173 197 0
174 198 0
174 196 0
174 198 0
175 198 0
174 198 0
173 197 0
176 198 0
175 198 0
173 197 0
177 199 0
177 199 0
175 198 0
174 198 0
173 197 0
175 198 0
174 197 0
176 199 0
174 198 0
173 197 0
177 199 0
175 198 0
173 197 0
173 197 0
175 198 0
173 197 0
175 198 0
173 197 0
175 198 0
176 199 0
176 199 0
177 199 0
172 197 0
172 195 0
173 197 0
173 197 0
175 198 0
175 198 0
176 199 0
173 197 0
174 197 0
174 197 0
173 197 0
175 198 0
173 197 0
175 198 0
174 198 0
174 197 0
175 198 0
175 197 0
173 197 0
176 198 0
172 194 0
173 197 0
174 196 0
175 198 0
176 199 0
172 195 0
173 197 0
173 197 0
174 198 0
174 198 0
175 198 0
173 197 0
174 196 0
175 198 0
174 198 0
173 197 0
171 195 0
173 195 0
173 196 0
175 197 0
173 196 0
171 194 0
168 191 0
171 193 36
171 194 51
173 195 36
168 189 72
175 199 51
169 190 88
168 190 51
175 196 80
163 186 62
171 192 51
161 178 45
165 182 87
159 116 113
165 120 118
168 122 131
168 122 133
166 121 133
167 122 135
169 123 134
166 121 134
164 120 129
163 119 127
164 120 131
163 119 129
165 121 135
162 119 136
159 116 128
161 117 133
155 113 130
153 110 126
151 111 123
157 154 76
183 191 200
189 206 228
182 202 228
177 199 228
173 197 228
172 196 228
170 196 228
171 196 228
172 197 228
176 199 228
181 201 228
187 205 228
190 205 214
176 195 107
171 191 0
172 194 0
177 199 0
173 197 0
174 197 0
173 197 0
173 196 0
172 197 0
172 196 0
174 195 0
174 197 0
175 197 0
174 196 0
176 198 0
173 197 0
174 198 0
175 198 0
176 197 0
171 196 0
173 196 0
172 197 0
174 198 0
174 198 0
172 197 0
174 198 0
176 198 0
175 198 0
174 197 0
175 198 0
173 197 0
175 198 0
172 196 0
174 198 0
176 199 0
173 197 0
175 198 0
174 197 0
176 199 0
174 198 0
174 198 0
170 194 0
175 198 0
174 198 0
176 199 0
173 197 0
174 197 0
174 197 0
174 198 0
172 197 0
175 198 0
176 198 0
176 199 0
173 197 0
174 198 0
173 197 0
175 198 0
171 196 0
176 199 0
174 198 0
175 198 0
176 199 0
175 198 0
172 196 0
174 197 0
175 198 0
175 198 0
175 198 0
173 197 0
173 197 0
175 198 0
177 199 0
175 198 0
173 197 0
171 196 0
174 198 0
173 197 0
175 198 0
176 198 0
172 197 0
174 197 0
172 197 0
174 198 0
175 198 0
172 197 0
173 197 0
175 198 0
174 197 0
175 198 0
173 197 0
174 198 0
173 197 0
174 198 0
175 198 0
174 198 0
178 200 0
171 196 0
173 197 0
175 198 0
174 197 0
173 197 0
175 198 0
173 197 0
175 198 0
176 199 0
174 198 0
174 198 0
173 197 0
177 199 0
174 198 0
174 198 0
174 198 0
173 197 0
174 198 0
175 198 0
176 199 0
175 198 0
174 198 0
175 198 0
174 198 0
177 199 0
175 198 0
173 197 0
174 198 0
174 197 0
176 199 0
177 199 0
177 199 0
174 198 0
174 198 0
177 199 0
175 198 0
177 199 0
176 198 0
175 198 0
175 198 0
175 198 0
174 198 0
172 196 0
177 199 0
176 199 0
175 198 0
175 198 0
174 198 0
174 198 0
175 198 0
177 199 0
175 198 0
176 198 0
173 197 0
172 197 0
176 198 0
173 197 0
172 197 0
175 198 0
175 198 0
175 198 0
173 197 0
173 197 0
174 198 0
174 198 0
176 199 0
177 199 0
175 198 0
177 199 0
176 198 0
174 198 0
175 198 0
174 198 0
173 197 0
174 198 0
176 198 0
175 198 0
176 199 0
175 198 0
174 197 0
175 198 0
175 198 0
175 198 0
177 199 0
175 198 0
177 199 0
176 198 0
173 197 0
175 198 0
175 198 0
174 198 0
176 199 0
176 199 0
175 198 0
176 199 0
175 198 0
176 199 0
175 198 0
176 198 0
177 199 0
177 199 0
174 198 0
175 198 0
173 197 0
175 198 0
173 197 0
176 199 0
173 197 0
176 199 0
176 198 0
174 198 0
176 199 0
175 198 0
175 198 0
175 198 0
178 200 0
173 197 0
173 197 0
174 198 0
176 199 0
175 198 0
174 198 0
172 197 0
175 198 0
175 198 0
175 198 0
174 198 0
175 198 0
173 197 0
174 197 0
174 198 0
177 199 0
175 198 0
173 197 0
175 198 0
175 198 0
175 198 0
175 198 0
176 198 0
174 198 0
173 197 0
174 198 0
173 197 0
175 198 0
174 198 0
174 198 0
173 197 0
174 198 0
176 198 0
173 197 0
175 198 0
174 198 0
175 198 0
173 197 0
176 199 0
175 198 0
174 198 0
175 198 0
175 198 0
174 198 0
173 197 0
176 199 0
174 198 0
175 198 0
175 198 0
173 197 0
176 199 0
177 199 0
173 197 0
174 197 0
174 197 0
175 198 0
173 197 0
174 198 0
174 198 0
175 198 0
175 198 0
174 198 0
175 198 0
174 198 0
174 197 0
173 197 0
175 198 0
175 198 0
175 198 0
172 197 0
174 197 0
173 197 0
174 198 0
174 197 0
178 200 0
175 198 0
175 198 0
174 198 0
176 199 0
173 197 0
177 199 0
175 198 0
175 198 0
173 197 0
175 198 0
174 198 0
175 198 0
174 198 0
168 194 0
174 198 0
174 198 0
174 198 0
174 198 0
172 197 0
174 198 0
177 199 0
175 198 0
176 198 0
174 197 0
176 199 0
175 198 0
175 198 0
174 197 0
173 197 0
174 197 0
173 197 0
175 198 0
175 198 0
172 196 0
173 197 0
175 198 0
175 198 0
173 197 0
174 198 0
176 198 0
174 197 0
174 198 0
177 199 0
174 198 0
176 198 0
173 197 0
171 195 0
173 196 0
174 198 0
172 194 0
173 197 0
173 197 0
174 198 0
171 195 0
174 197 0
174 198 0
176 199 0
174 198 0
175 198 0
174 196 0
171 194 0
175 198 0
175 198 0
173 197 0
176 199 0
174 198 0
172 195 0
176 199 0
172 195 0
174 197 51
181 203 72
169 191 80
162 183 62
163 182 51
164 186 62
170 192 80
152 168 72
167 185 51
163 182 51
172 183 74
163 118 115
167 120 120
166 120 125
164 120 120
167 122 133
167 121 131
167 122 134
161 119 125
165 120 128
161 118 121
165 120 130
165 121 132
161 118 126
162 118 132
156 114 129
156 115 130
144 103 116
142 104 118
144 105 115
151 123 137
187 204 227
181 201 228
176 199 228
171 196 228
168 194 228
166 193 228
165 193 228
165 193 228
166 194 228
169 195 228
174 197 228
178 200 228
186 204 228
192 206 217
171 192 79
172 196 0
172 191 0
173 197 0
172 195 0
173 197 0
171 194 0
172 197 0
172 195 0
174 197 0
174 198 0
177 199 0
173 196 0
174 197 0
174 198 0
174 198 0
174 198 0
172 195 0
173 197 0
174 197 0
174 197 0
174 197 0
172 197 0
173 197 0
175 198 0
175 197 0
175 198 0
176 198 0
173 195 0
173 197 0
174 197 0
173 197 0
175 198 0
173 197 0
173 197 0
174 197 0
177 199 0
174 197 0
173 197 0
173 197 0
175 198 0
173 197 0
176 199 0
175 198 0
175 198 0
175 198 0
175 197 0
175 198 0
175 198 0
173 197 0
174 198 0
175 198 0
176 198 0
172 197 0
174 198 0
171 196 0
173 197 0
174 198 0
174 197 0
175 197 0
175 198 0
175 198 0
173 197 0
177 199 0
176 199 0
174 197 0
175 198 0
174 198 0
177 199 0
173 197 0
174 197 0
174 197 0
175 198 0
173 197 0
174 198 0
173 197 0
175 198 0
174 198 0
174 197 0
176 199 0
175 198 0
175 198 0
176 199 0
174 198 0
173 197 0
175 198 0
177 199 0
175 198 0
176 199 0
174 198 0
172 197 0
175 198 0
173 197 0
175 198 0
174 198 0
173 197 0
175 198 0
175 198 0
174 197 0
175 198 0
175 198 0
175 198 0
175 198 0
174 198 0
175 198 0
175 198 0
176 198 0
174 198 0
178 200 0
174 198 0
174 198 0
175 198 0
174 198 0
176 199 0
174 198 0
177 199 0
176 198 0
176 198 0
175 198 0
174 198 0
175 198 0
176 199 0
174 198 0
171 196 0
173 197 0
175 198 0
173 197 0
175 198 0
176 198 0
174 198 0
173 197 0
175 198 0
177 199 0
174 198 0
178 200 0
173 197 0
173 197 0
173 197 0
172 197 0
175 198 0
175 198 0
176 199 0
178 200 0
177 199 0
176 199 0
176 198 0
175 198 0
173 197 0
174 198 0
177 199 0
174 197 0
175 198 0
176 199 0
175 198 0
175 198 0
173 197 0
173 197 0
173 197 0
175 198 0
175 198 0
175 198 0
176 198 0
176 198 0
175 198 0
176 199 0
174 198 0
172 196 0
175 198 0
176 199 0
174 197 0
176 198 0
173 197 0
174 198 0
176 199 0
177 199 0
176 198 0
176 198 0
174 198 0
175 198 0
174 197 0
175 198 0
173 197 0
175 198 0
173 197 0
174 198 0
175 198 0
174 198 0
175 198 0
177 199 0
177 199 0
176 199 0
174 198 0
174 197 0
173 197 0
173 197 0
176 199 0
173 197 0
174 198 0
173 197 0
174 198 0
175 198 0
174 198 0
174 197 0
176 198 0
176 198 0
174 198 0
175 198 0
175 198 0
173 197 0
173 197 0
174 198 0
176 199 0
177 199 0
173 197 0
174 198 0
173 197 0
174 197 0
172 197 0
175 198 0
174 198 0
174 197 0
174 197 0
172 197 0
176 199 0
174 198 0
175 198 0
173 197 0
177 199 0
174 197 0
174 198 0
172 197 0
174 198 0
172 197 0
177 199 0
175 198 0
173 197 0
174 198 0
174 198 0
175 198 0
173 197 0
175 198 0
175 198 0
173 197 0
178 200 0
175 198 0
174 197 0
176 199 0
174 197 0
173 197 0
174 198 0
174 197 0
174 197 0
173 197 0
174 198 0
173 197 0
175 198 0
175 198 0
173 197 0
176 199 0
173 197 0
174 198 0
173 197 0
174 198 0
175 198 0
174 198 0
176 199 0
175 198 0
175 198 0
175 198 0
176 199 0
171 196 0
171 196 0
175 198 0
173 196 0
173 197 0
176 199 0
176 198 0
174 198 0
174 198 0
177 199 0
175 198 0
175 198 0
174 197 0
174 198 0
174 198 0
175 198 0
174 197 0
176 198 0
176 199 0
174 197 0
175 198 0
172 196 0
174 198 0
173 197 0
174 198 0
177 199 0
175 198 0
175 198 0
174 198 0
176 199 0
174 198 0
174 198 0
174 197 0
174 198 0
174 198 0
174 198 0
175 198 0
176 199 0
175 198 0
175 198 0
175 198 0
175 198 0
175 198 0
176 199 0
174 197 0
175 198 0
175 198 0
171 195 0
175 198 0
173 197 0
172 196 0
175 198 0
172 196 0
172 196 0
172 195 0
175 197 0
174 197 0
175 198 0
174 197 0
175 198 0
174 198 0
173 197 0
174 197 0
172 195 0
173 197 0
174 198 0
173 197 0
174 197 0
174 197 0
173 196 0
173 197 0
172 196 0
174 197 0
173 196 0
176 197 0
172 195 0
174 198 0
172 197 0
173 196 0
172 193 0
176 198 0
173 196 0
176 199 0
172 195 0
175 197 0
167 188 0
165 186 36
170 191 62
173 196 62
179 201 51
166 186 108
155 174 0
160 179 62
160 178 62
164 183 62
166 175 87
162 117 110
163 118 113
167 121 118
168 121 126
163 119 123
166 121 123
164 120 123
164 120 126
163 119 121
163 119 125
164 120 132
164 119 124
158 116 119
157 115 118
157 115 125
154 111 120
142 101 113
134 93 106
145 106 120
171 168 188
184 203 228
177 199 228
172 197 228
168 194 228
165 193 228
163 192 228
162 191 228
163 192 228
164 192 228
166 193 228
170 195 228
175 198 228
181 201 228
189 206 228
191 205 209
169 192 0
172 194 0
173 196 0
172 197 0
172 196 0
175 198 0
174 197 0
172 195 0
174 198 0
172 196 0
174 197 0
174 196 0
173 197 0
174 196 0
174 198 0
174 196 0
175 198 0
173 197 0
174 197 0
173 196 0
176 198 0
174 197 0
173 197 0
173 197 0
175 198 0
175 198 0
173 197 0
175 198 0
174 197 0
174 198 0
174 198 0
177 199 0
176 198 0
177 198 0
174 198 0
175 198 0
176 198 0
175 198 0
173 197 0
175 198 0
173 197 0
173 197 0
176 198 0
174 197 0
174 198 0
173 197 0
176 199 0
176 199 0
175 198 0
175 198 0
175 198 0
175 198 0
174 198 0
174 197 0
175 198 0
174 198 0
178 200 0
175 198 0
174 198 0
174 198 0
174 198 0
174 198 0
175 198 0
172 197 0
174 198 0
178 200 0
177 199 0
174 198 0
174 198 0
176 198 0
175 198 0
174 197 0
172 196 0
174 197 0
175 198 0
174 198 0
175 198 0
173 197 0
174 198 0
175 198 0
172 197 0
174 198 0
176 198 0
175 198 0
173 197 0
176 199 0
174 198 0
175 198 0
175 198 0
174 198 0
172 197 0
173 197 0
173 197 0
174 198 0
174 197 0
173 197 0
173 197 0
175 198 0
174 198 0
174 198 0
173 197 0
176 198 0
175 198 0
174 198 0
174 198 0
175 198 0
175 198 0
177 199 0
176 198 0
173 197 0
175 198 0
174 198 0
174 198 0
172 197 0
175 198 0
174 198 0
175 198 0
175 198 0
172 197 0
176 199 0
174 197 0
176 199 0
176 198 0
173 197 0
173 197 0
175 198 0
173 197 0
176 198 0
174 198 0
172 196 0
173 197 0
175 198 0
175 198 0
173 197 0
174 198 0
173 197 0
177 199 0
176 199 0
176 198 0
174 198 0
174 198 0
174 198 0
175 198 0
174 198 0
173 197 0
175 198 0
173 197 0
174 198 0
174 198 0
175 198 0
177 199 0
175 198 0
174 198 0
175 198 0
175 198 0
177 199 0
174 198 0
177 199 0
175 198 0
175 198 0
172 197 0
176 199 0
177 199 0
175 198 0
174 198 0
174 198 0
175 198 0
178 200 0
174 198 0
177 199 0
173 197 0
175 198 0
176 199 0
176 199 0
177 199 0
173 197 0
174 197 0
174 198 0
174 198 0
174 198 0
174 198 0
175 198 0
175 198 0
174 198 0
175 198 0
178 199 0
172 197 0
173 197 0
178 199 0
174 198 0
178 200 0
176 199 0
176 199 0
171 196 0
175 198 0
174 198 0
173 197 0
177 199 0
173 197 0
173 197 0
175 198 0
174 198 0
173 197 0
173 197 0
178 200 0
176 199 0
176 198 0
175 198 0
175 198 0
175 198 0
174 198 0
172 197 0
175 198 0
175 198 0
173 197 0
173 197 0
174 197 0
177 199 0
174 198 0
175 198 0
172 197 0
174 197 0
174 198 0
174 198 0
174 198 0
176 198 0
175 198 0
177 199 0
174 198 0
177 199 0
175 198 0
176 199 0
174 197 0
174 198 0
175 198 0
177 199 0
173 197 0
175 198 0
174 198 0
173 197 0
173 197 0
175 198 0
174 197 0
175 198 0
175 198 0
173 197 0
173 197 0
176 199 0
173 197 0
173 197 0
174 198 0
175 198 0
175 198 0
175 198 0
175 198 0
175 198 0
175 198 0
173 197 0
176 199 0
176 198 0
175 198 0
175 198 0
176 199 0
178 200 0
175 197 0
176 199 0
175 198 0
174 198 0
175 198 0
174 197 0
175 198 0
175 198 0
175 198 0
174 198 0
175 198 0
174 198 0
177 199 0
173 197 0
177 199 0
177 199 0
175 198 0
172 197 0
175 198 0
175 198 0
173 197 0
176 199 0
173 197 0
175 198 0
177 199 0
174 198 0
176 199 0
173 197 0
172 197 0
172 196 0
174 198 0
175 198 0
174 197 0
173 197 0
174 198 0
175 198 0
173 196 0
172 197 0
174 198 0
175 198 0
174 198 0
174 198 0
175 198 0
173 197 0
173 196 0
175 198 0
173 197 0
175 198 0
174 198 0
173 197 0
175 198 0
174 198 0
174 198 0
177 199 0
175 198 0
174 197 0
173 197 0
173 197 0
177 199 0
176 199 0
175 198 0
174 198 0
173 196 0
175 198 0
175 198 0
173 197 0
176 198 0
175 198 0
175 198 0
174 197 0
170 195 0
175 198 0
175 198 0
175 198 0
172 194 0
174 196 0
175 197 0
174 198 0
176 199 0
175 198 0
174 198 0
172 193 0
174 196 0
172 195 0
174 197 0
171 195 0
173 196 0
173 196 0
169 192 0
174 197 0
171 193 0
167 188 36
158 179 0
167 186 95
166 187 72
156 175 62
161 182 62
152 168 88
152 170 80
135 145 51
148 160 19
157 113 99
160 115 108
162 118 113
163 119 118
162 118 117
165 120 123
166 120 122
164 120 123
164 120 125
164 119 124
165 120 133
161 118 120
158 116 119
159 116 121
154 110 118
144 102 114
133 91 102
136 98 110
148 115 130
188 205 228
181 202 228
176 199 228
171 196 228
167 194 228
164 193 228
162 192 228
162 191 228
162 191 228
163 192 228
165 193 228
168 195 228
173 197 228
178 200 228
185 203 228
193 208 228
174 192 129
170 192 0
173 196 0
170 195 0
173 197 0
171 194 0
174 196 0
171 195 0
175 198 0
172 196 0
174 198 0
172 196 0
172 196 0
175 198 0
174 195 0
173 196 0
174 198 0
175 198 0
173 197 0
174 198 0
174 197 0
173 196 0
176 198 0
173 196 0
173 197 0
171 194 0
173 197 0
175 198 0
175 198 0
173 197 0
172 196 0
176 199 0
174 198 0
174 197 0
174 197 0
174 198 0
174 198 0
174 198 0
175 198 0
172 197 0
175 198 0
174 198 0
174 197 0
175 198 0
175 198 0
175 197 0
174 198 0
174 197 0
173 197 0
174 197 0
173 197 0
174 198 0
172 197 0
173 197 0
176 199 0
173 197 0
176 199 0
176 199 0
172 197 0
176 198 0
174 198 0
175 198 0
173 197 0
176 199 0
172 196 0
175 198 0
175 198 0
173 197 0
174 197 0
174 198 0
172 197 0
177 199 0
175 198 0
177 199 0
174 198 0
174 198 0
174 197 0
173 197 0
174 198 0
175 198 0
172 197 0
173 197 0
176 198 0
176 198 0
174 198 0
177 199 0
175 197 0
175 198 0
174 198 0
176 199 0
177 199 0
174 197 0
173 197 0
173 197 0
174 198 0
174 197 0
177 199 0
173 197 0
173 197 0
174 198 0
174 198 0
173 197 0
177 199 0
175 198 0
175 198 0
174 197 0
176 198 0
175 198 0
175 198 0
174 198 0
174 197 0
173 197 0
175 198 0
175 198 0
175 198 0
173 197 0
176 199 0
175 198 0
176 199 0
175 198 0
176 199 0
177 199 0
174 197 0
174 198 0
175 198 0
176 198 0
172 197 0
175 198 0
175 198 0
176 198 0
175 198 0
174 198 0
175 198 0
174 198 0
174 198 0
175 198 0
174 198 0
174 198 0
173 197 0
176 198 0
174 198 0
174 197 0
175 198 0
174 198 0
173 197 0
175 198 0
177 199 0
175 198 0
175 198 0
175 198 0
176 198 0
173 197 0
176 199 0
176 199 0
175 198 0
175 198 0
176 199 0
173 197 0
175 198 0
174 198 0
172 197 0
174 197 0
174 198 0
176 198 0
174 198 0
174 198 0
175 198 0
174 198 0
178 200 0
173 197 0
174 198 0
176 199 0
177 199 0
173 197 0
174 198 0
173 197 0
175 198 0
173 197 0
175 198 0
176 199 0
174 198 0
175 198 0
175 198 0
174 198 0
175 198 0
176 199 0
175 198 0
174 198 0
174 198 0
174 198 0
175 198 0
175 198 0
174 198 0
174 198 0
174 198 0
173 197 0
174 198 0
175 198 0
174 198 0
175 198 0
173 197 0
175 198 0
174 198 0
174 198 0
175 198 0
174 198 0
174 198 0
174 197 0
175 198 0
174 198 0
180 201 0
177 199 0
174 198 0
175 198 0
176 198 0
176 199 0
174 198 0
174 198 0
175 198 0
175 198 0
174 198 0
177 199 0
175 198 0
173 197 0
174 198 0
176 199 0
173 197 0
178 200 0
175 198 0
172 196 0
176 198 0
175 198 0
174 198 0
175 198 0
175 198 0
174 198 0
173 197 0
175 198 0
173 197 0
175 198 0
174 198 0
175 198 0
175 198 0
174 197 0
176 199 0
175 198 0
175 198 0
175 198 0
174 197 0
173 197 0
173 197 0
174 198 0
174 197 0
174 198 0
175 198 0
174 198 0
173 197 0
175 198 0
174 198 0
173 197 0
174 198 0
177 199 0
178 199 0
174 197 0
174 198 0
175 198 0
173 197 0
174 198 0
173 197 0
172 197 0
173 197 0
175 198 0
175 198 0
177 199 0
174 198 0
173 197 0
175 198 0
174 198 0
172 196 0
176 199 0
174 198 0
173 197 0
173 197 0
174 198 0
175 198 0
176 199 0
174 197 0
174 198 0
176 199 0
175 198 0
176 199 0
173 197 0
173 197 0
175 198 0
173 197 0
173 197 0
175 198 0
174 198 0
175 198 0
174 198 0
174 198 0
174 197 0
172 195 0
177 199 0
174 197 0
175 198 0
173 197 0
173 197 0
174 198 0
177 199 0
173 197 0
174 197 0
176 199 0
175 197 0
175 198 0
174 198 0
174 198 0
177 199 0
174 197 0
176 198 0
174 198 0
173 197 0
174 198 0
174 198 0
172 197 0
173 197 0
175 198 0
174 197 0
175 197 0
174 198 0
174 196 0
175 198 0
173 197 0
174 198 0
173 197 0
175 198 0
175 198 0
174 198 0
176 199 0
172 195 0
175 198 0
173 196 0
170 193 0
174 198 0
171 193 0
174 197 0
171 195 0
170 193 0
173 196 0
174 198 0
173 197 0
174 196 0
174 197 0
172 193 0
174 195 0
173 195 0
173 193 0
166 187 0
163 181 51
156 175 0
149 164 0
152 166 0
149 160 0
160 175 0
167 186 0
162 133 95
160 115 99
158 115 103
160 117 110
165 120 117
165 119 123
164 119 116
164 118 116
162 118 123
163 119 124
165 120 127
164 119 127
155 112 111
158 114 119
155 111 109
140 96 101
122 83 89
138 101 109
164 149 165
187 205 228
181 201 228
176 199 228
171 196 228
168 194 228
165 193 228
164 192 228
163 192 228
163 192 228
164 192 228
166 193 228
168 195 228
173 197 228
177 199 228
183 203 228
191 207 228
190 204 202
162 182 0
175 198 0
172 195 0
175 198 0
171 195 0
174 198 0
172 195 0
174 196 0
173 197 0
175 198 0
176 195 0
175 198 0
176 199 0
172 197 0
174 198 0
174 198 0
176 198 0
172 197 0
174 197 0
173 196 0
174 197 0
173 196 0
175 198 0
174 197 0
174 197 0
175 196 0
175 198 0
174 197 0
173 197 0
173 196 0
175 198 0
175 198 0
175 198 0
176 197 0
174 197 0
175 198 0
174 197 0
175 198 0
172 196 0
174 198 0
175 198 0
173 197 0
173 197 0
173 197 0
175 198 0
173 197 0
174 197 0
174 198 0
172 196 0
175 198 0
175 198 0
174 198 0
174 198 0
176 198 0
173 197 0
177 199 0
175 198 0
175 198 0
174 198 0
173 197 0
176 198 0
174 197 0
172 196 0
173 197 0
174 198 0
175 198 0
173 197 0
175 198 0
173 197 0
174 198 0
173 197 0
173 197 0
178 199 0
175 198 0
176 199 0
175 198 0
175 198 0
175 198 0
174 198 0
174 198 0
175 198 0
174 198 0
174 198 0
175 198 0
175 198 0
175 198 0
176 199 0
174 198 0
175 198 0
177 199 0
174 198 0
175 198 0
175 198 0
173 197 0
173 197 0
174 198 0
176 199 0
173 197 0
174 198 0
174 198 0
174 198 0
175 198 0
175 198 0
174 198 0
173 197 0
174 197 0
174 198 0
173 197 0
175 198 0
175 198 0
172 196 0
172 196 0
175 198 0
175 198 0
175 198 0
175 198 0
175 198 0
174 198 0
175 198 0
174 198 0
174 198 0
174 198 0
175 198 0
177 199 0
175 198 0
175 198 0
175 198 0
176 198 0
175 198 0
176 199 0
174 198 0
174 198 0
174 197 0
173 197 0
174 197 0
173 197 0
173 197 0
175 198 0
175 198 0
177 199 0
174 197 0
177 199 0
176 199 0
176 199 0
176 198 0
173 197 0
174 198 0
174 198 0
175 198 0
173 197 0
177 199 0
176 198 0
173 197 0
175 198 0
175 198 0
175 198 0
176 199 0
175 198 0
175 198 0
175 198 0
175 198 0
175 198 0
176 199 0
176 199 0
175 198 0
175 198 0
175 198 0
175 198 0
177 199 0
176 199 0
178 200 0
175 198 0
177 199 0
174 198 0
179 200 0
176 199 0
176 199 0
175 198 0
175 198 0
175 198 0
176 199 0
175 198 0
174 198 0
174 198 0
174 198 0
177 199 0
174 198 0
177 199 0
177 199 0
175 198 0
176 199 0
175 198 0
177 199 0
174 198 0
174 197 0
174 198 0
176 198 0
176 199 0
174 198 0
173 197 0
175 198 0
173 197 0
172 197 0
174 198 0
173 197 0
175 198 0
175 198 0
173 197 0
176 199 0
173 197 0
175 198 0
174 198 0
174 197 0
174 197 0
172 197 0
173 197 0
174 198 0
175 198 0
175 198 0
175 198 0
175 198 0
175 198 0
176 199 0
175 198 0
174 198 0
174 197 0
174 198 0
173 197 0
174 198 0
174 197 0
175 198 0
174 198 0
173 197 0
177 199 0
174 197 0
176 198 0
175 198 0
174 197 0
174 198 0
175 198 0
175 198 0
174 198 0
175 198 0
175 198 0
174 198 0
175 198 0
174 198 0
175 198 0
174 198 0
176 199 0
176 199 0
175 198 0
176 199 0
175 198 0
173 197 0
173 197 0
177 199 0
175 198 0
172 196 0
172 196 0
174 198 0
176 199 0
175 198 0
175 198 0
176 198 0
173 196 0
175 198 0
174 198 0
175 198 0
174 198 0
176 199 0
175 198 0
176 199 0
175 198 0
175 198 0
173 197 0
175 198 0
174 197 0
176 199 0
173 197 0
175 198 0
176 199 0
174 198 0
173 197 0
174 197 0
173 197 0
175 198 0
175 198 0
175 198 0
174 198 0
172 197 0
176 199 0
173 197 0
175 198 0
174 198 0
175 198 0
173 197 0
177 199 0
176 198 0
175 197 0
176 199 0
174 198 0
175 198 0
175 198 0
173 197 0
173 196 0
173 196 0
174 198 0
176 199 0
174 198 0
175 198 0
174 197 0
176 199 0
173 196 0
175 198 0
175 198 0
176 199 0
174 198 0
175 198 0
175 198 0
175 198 0
172 197 0
174 197 0
174 196 0
173 197 0
175 198 0
176 199 0
175 198 0
175 197 0
172 196 0
171 196 0
175 198 0
174 198 0
175 197 0
174 198 0
175 197 0
175 198 0
175 197 0
172 195 0
174 197 0
173 197 0
172 195 0
173 197 0
173 195 0
173 196 0
173 197 0
173 196 0
173 197 0
170 192 0
173 197 0
171 194 0
172 194 0
173 196 0
177 198 0
171 190 0
172 191 0
172 194 0
171 192 0
167 185 0
168 189 0
166 184 0
163 180 0
165 177 0
166 184 0
167 162 68
158 115 95
160 116 106
161 117 108
163 118 106
162 118 113
164 118 115
161 117 112
164 120 125
160 117 112
158 115 108
157 114 106
158 116 116
159 115 122
144 102 101
135 91 92
134 94 94
146 106 110
184 191 208
188 205 228
183 202 228
177 199 228
173 197 228
170 196 228
168 194 228
166 194 228
165 193 228
165 193 228
166 194 228
168 194 228
170 196 228
174 197 228
178 200 228
184 203 228
190 206 228
195 209 221
157 179 0
173 194 0
171 195 0
174 196 0
171 195 0
173 197 0
171 192 0
172 196 0
172 194 0
175 198 0
173 195 0
173 194 0
172 196 0
173 196 0
172 197 0
173 197 0
173 195 0
175 197 0
174 197 0
174 197 0
176 199 0
175 197 0
174 198 0
173 197 0
173 197 0
174 197 0
176 199 0
174 197 0
175 198 0
173 197 0
175 198 0
172 196 0
173 197 0
176 199 0
175 198 0
170 195 0
174 198 0
173 197 0
175 198 0
173 197 0
173 197 0
174 197 0
174 197 0
173 197 0
174 198 0
174 198 0
173 197 0
173 197 0
173 197 0
174 197 0
174 196 0
175 198 0
174 198 0
175 198 0
176 198 0
177 199 0
175 198 0
175 198 0
173 197 0
175 198 0
175 198 0
175 198 0
173 197 0
174 198 0
176 199 0
175 198 0
173 196 0
174 198 0
175 197 0
174 198 0
172 197 0
175 198 0
175 198 0
175 198 0
175 198 0
173 197 0
173 197 0
177 199 0
173 197 0
173 197 0
175 198 0
176 199 0
173 197 0
174 198 0
175 198 0
174 197 0
174 198 0
176 198 0
176 199 0
175 198 0
174 198 0
174 198 0
173 197 0
173 197 0
175 198 0
175 198 0
174 198 0
174 198 0
174 198 0
173 197 0
177 199 0
173 197 0
176 199 0
173 197 0
174 198 0
175 198 0
172 196 0
175 198 0
176 199 0
174 197 0
173 197 0
175 198 0
175 198 0
174 197 0
172 197 0
174 197 0
175 198 0
174 198 0
174 198 0
175 198 0
174 198 0
175 198 0
176 198 0
173 197 0
174 198 0
174 198 0
175 198 0
178 200 0
175 198 0
172 197 0
175 198 0
175 198 0
174 197 0
174 198 0
173 197 0
173 197 0
173 197 0
173 197 0
174 197 0
174 197 0
174 198 0
176 199 0
173 197 0
176 199 0
176 198 0
173 197 0
174 198 0
176 198 0
173 197 0
176 199 0
176 198 0
175 198 0
174 197 0
175 198 0
175 198 0
173 197 0
176 199 0
177 199 0
174 198 0
173 197 0
175 198 0
177 199 0
175 198 0
174 198 0
174 198 0
174 198 0
176 198 0
176 199 0
175 198 0
174 198 0
174 198 0
173 197 0
175 198 0
173 197 0
173 197 0
175 198 0
175 198 0
176 199 0
174 197 0
175 198 0
175 198 0
175 198 0
173 197 0
174 197 0
175 198 0
175 198 0
174 197 0
175 198 0
174 197 0
176 199 0
175 198 0
176 198 0
174 197 0
174 198 0
173 197 0
174 198 0
175 198 0
176 199 0
175 198 0
174 198 0
176 198 0
176 199 0
176 199 0
173 197 0
176 199 0
175 198 0
174 197 0
176 199 0
173 197 0
176 199 0
172 197 0
174 198 0
175 198 0
175 198 0
177 199 0
175 198 0
174 198 0
175 198 0
176 198 0
177 199 0
174 198 0
177 199 0
174 198 0
174 198 0
174 198 0
174 198 0
176 198 0
174 198 0
174 198 0
174 198 0
175 198 0
174 198 0
175 198 0
174 198 0
175 198 0
174 198 0
176 198 0
174 197 0
176 199 0
175 198 0
174 198 0
175 198 0
174 198 0
175 198 0
175 198 0
173 197 0
173 197 0
174 198 0
175 198 0
172 197 0
175 198 0
174 198 0
172 197 0
174 197 0
177 199 0
174 197 0
171 196 0
175 198 0
174 198 0
174 198 0
172 197 0
173 197 0
176 199 0
174 198 0
173 197 0
176 198 0
172 196 0
175 198 0
176 198 0
175 198 0
174 198 0
175 198 0
174 197 0
173 197 0
174 197 0
174 198 0
176 199 0
173 196 0
173 197 0
177 199 0
173 197 0
176 198 0
175 198 0
174 198 0
178 200 0
176 198 0
174 198 0
175 198 0
175 198 0
175 198 0
174 198 0
173 197 0
173 197 0
174 198 0
176 198 0
172 196 0
174 197 0
174 198 0
174 197 0
175 198 0
176 199 0
176 198 0
175 198 0
172 197 0
174 197 0
174 197 0
175 198 0
173 197 0
174 198 0
174 198 0
174 198 0
174 197 0
174 198 0
173 197 0
174 198 0
175 197 0
173 197 0
172 197 0
174 198 0
175 198 0
173 197 0
174 197 0
174 197 0
175 198 0
176 199 0
174 198 0
175 198 0
176 199 0
175 198 0
173 196 0
175 197 0
176 198 0
174 197 0
172 196 0
173 195 0
175 198 0
173 197 0
175 197 0
172 197 0
173 197 0
173 196 0
173 195 0
175 197 0
171 193 0
174 197 0
175 198 0
171 195 0
174 196 0
173 197 0
174 196 0
171 193 0
170 191 0
170 190 0
174 197 0
168 190 0
170 191 0
167 185 0
166 184 0
164 183 0
167 179 0
171 189 0
164 175 0
162 173 0
165 177 0
166 176 28
159 117 101
159 115 106
161 116 110
162 118 110
165 119 120
156 114 97
158 115 110
162 118 118
159 116 112
158 115 102
155 113 104
149 106 90
153 110 109
145 103 97
129 87 75
132 94 97
158 133 136
196 210 228
190 206 228
185 204 228
181 201 228
177 199 228
174 197 228
171 196 228
169 195 228
169 195 228
168 195 228
170 195 228
171 196 228
173 197 228
176 199 228
181 201 228
185 204 228
191 207 228
198 211 228
156 177 0
173 193 0
172 192 0
173 196 0
172 195 0
171 193 0
174 197 0
175 198 0
170 194 0
174 197 0
171 195 0
175 198 0
175 196 0
174 197 0
173 197 0
174 197 0
174 197 0
173 197 0
174 197 0
174 197 0
174 196 0
173 197 0
176 198 0
173 196 0
175 198 0
172 195 0
172 197 0
173 197 0
175 198 0
174 197 0
176 199 0
177 199 0
174 197 0
175 198 0
174 198 0
172 195 0
175 198 0
175 198 0
175 198 0
174 197 0
172 194 0
172 197 0
172 196 0
177 199 0
174 198 0
174 197 0
173 197 0
173 197 0
172 196 0
175 198 0
172 196 0
175 198 0
176 198 0
173 197 0
174 197 0
174 197 0
176 198 0
173 197 0
173 197 0
173 197 0
174 198 0
175 198 0
176 199 0
174 198 0
174 197 0
174 197 0
175 198 0
177 199 0
175 198 0
174 198 0
173 197 0
174 198 0
173 197 0
175 198 0
175 198 0
174 197 0
176 199 0
174 198 0
175 198 0
174 198 0
172 197 0
173 197 0
176 199 0
177 199 0
173 197 0
175 198 0
174 198 0
173 197 0
172 197 0
174 197 0
174 198 0
175 198 0
173 197 0
177 199 0
175 198 0
174 198 0
174 198 0
175 198 0
172 197 0
174 197 0
175 198 0
176 199 0
176 199 0
175 198 0
174 197 0
173 197 0
174 198 0
174 197 0
175 198 0
175 198 0
175 198 0
174 198 0
174 198 0
173 197 0
176 198 0
174 198 0
174 198 0
176 199 0
175 198 0
176 199 0
174 197 0
174 198 0
177 199 0
177 199 0
176 199 0
174 198 0
175 198 0
175 198 0
175 198 0
175 198 0
176 198 0
175 198 0
175 198 0
173 197 0
174 198 0
175 198 0
175 198 0
173 197 0
177 199 0
176 199 0
177 199 0
174 197 0
175 198 0
175 198 0
174 198 0
178 200 0
177 199 0
173 197 0
177 199 0
175 198 0
178 200 0
176 199 0
177 199 0
179 200 0
172 196 0
175 198 0
174 198 0
174 197 0
176 199 0
174 198 0
176 199 0
174 197 0
175 198 0
175 198 0
173 197 0
175 198 0
174 198 0
177 199 0
177 199 0
171 196 0
175 198 0
175 198 0
173 197 0
175 198 0
173 197 0
174 198 0
176 198 0
177 199 0
174 198 0
172 196 0
174 198 0
173 197 0
176 199 0
176 199 0
174 198 0
176 199 0
174 197 0
173 197 0
176 198 0
174 198 0
176 199 0
174 198 0
174 198 0
176 198 0
175 198 0
172 197 0
174 198 0
173 197 0
175 198 0
177 199 0
174 198 0
173 197 0
175 198 0
174 198 0
176 199 0
176 199 0
172 197 0
174 198 0
175 198 0
171 196 0
173 197 0
176 198 0
176 199 0
175 198 0
173 197 0
174 198 0
176 199 0
175 198 0
174 198 0
174 197 0
173 197 0
174 197 0
176 199 0
172 197 0
175 198 0
173 197 0
175 198 0
174 198 0
175 198 0
172 197 0
174 197 0
175 198 0
175 198 0
175 198 0
173 197 0
175 198 0
177 199 0
174 198 0
175 198 0
173 197 0
174 198 0
174 198 0
175 198 0
175 198 0
174 197 0
175 198 0
177 199 0
172 197 0
174 198 0
172 197 0
175 198 0
174 198 0
174 198 0
174 198 0
174 198 0
175 198 0
174 198 0
172 197 0
175 198 0
176 199 0
175 198 0
174 198 0
176 198 0
174 198 0
175 198 0
176 198 0
175 198 0
171 196 0
176 199 0
175 198 0
174 198 0
172 197 0
177 199 0
175 198 0
175 198 0
174 197 0
174 198 0
174 198 0
175 198 0
174 197 0
175 198 0
174 198 0
174 198 0
174 198 0
176 199 0
176 198 0
173 197 0
172 197 0
173 197 0
174 198 0
175 198 0
178 200 0
175 198 0
174 198 0
173 197 0
176 199 0
171 196 0
176 199 0
174 197 0
172 197 0
174 197 0
175 198 0
174 197 0
175 198 0
174 198 0
175 198 0
175 198 0
174 198 0
176 199 0
176 199 0
174 197 0
173 197 0
176 199 0
174 198 0
173 197 0
175 198 0
176 197 0
174 197 0
176 197 0
174 198 0
173 197 0
175 198 0
172 197 0
175 197 0
174 198 0
171 196 0
173 197 0
173 197 0
174 197 0
173 197 0
170 196 0
174 197 0
170 194 0
174 195 0
176 198 0
176 199 0
176 199 0
173 197 0
174 197 0
173 196 0
175 198 0
173 196 0
173 197 0
173 197 0
173 195 0
169 190 0
173 196 0
174 198 0
172 194 0
172 195 0
170 192 0
171 192 0
173 194 0
171 190 0
175 194 0
172 191 0
176 197 0
172 192 0
165 183 0
160 175 0
164 177 0
169 185 0
166 183 0
156 166 0
159 170 0
158 151 56
156 112 88
157 114 95
162 116 100
158 113 99
160 116 97
162 116 101
158 115 108
157 113 95
155 113 95
151 110 93
153 110 98
144 105 86
140 99 87
128 86 66
138 99 90
153 149 97
195 208 219
193 208 228
189 205 228
185 203 228
181 201 228
178 200 228
176 199 228
174 198 228
173 197 228
173 197 228
174 197 228
175 198 228
177 199 228
180 201 228
183 203 228
188 205 228
193 208 228
195 208 217
158 178 0
168 190 0
172 196 0
177 199 0
173 194 0
173 197 0
173 197 0
172 193 0
173 197 0
174 196 0
172 194 0
172 194 0
173 195 0
174 198 0
172 195 0
174 197 0
173 197 0
171 194 0
173 197 0
171 196 0
172 195 0
174 198 0
175 198 0
174 197 0
175 198 0
174 198 0
174 196 0
172 196 0
173 197 0
174 198 0
172 197 0
172 197 0
175 198 0
173 197 0
175 198 0
173 197 0
174 198 0
174 198 0
172 195 0
173 197 0
174 198 0
173 197 0
173 197 0
174 198 0
173 197 0
172 197 0
176 198 0
174 198 0
174 198 0
174 197 0
173 196 0
174 198 0
175 198 0
173 197 0
173 197 0
176 199 0
174 197 0
173 197 0
176 199 0
177 199 0
176 198 0
173 197 0
173 197 0
174 198 0
176 199 0
175 198 0
174 198 0
177 199 0
175 198 0
173 197 0
176 199 0
175 198 0
176 198 0
173 197 0
174 197 0
176 199 0
174 198 0
175 198 0
173 197 0
175 198 0
172 196 0
173 197 0
175 198 0
175 198 0
176 199 0
174 198 0
175 198 0
172 197 0
175 198 0
175 198 0
176 199 0
173 197 0
172 196 0
174 198 0
173 197 0
176 199 0
175 198 0
174 198 0
174 198 0
173 197 0
173 197 0
173 197 0
177 199 0
176 199 0
173 197 0
175 198 0
173 197 0
174 198 0
174 198 0
176 198 0
175 198 0
173 197 0
175 198 0
175 198 0
174 198 0
173 197 0
176 199 0
173 197 0
176 199 0
175 198 0
174 197 0
176 199 0
174 198 0
173 197 0
174 198 0
175 198 0
173 197 0
172 197 0
174 198 0
175 198 0
172 197 0
175 198 0
171 196 0
174 197 0
177 199 0
174 198 0
173 197 0
175 198 0
175 198 0
174 198 0
175 198 0
175 198 0
173 197 0
174 198 0
174 197 0
173 197 0
176 199 0
176 199 0
175 198 0
177 199 0
174 198 0
175 198 0
173 197 0
175 198 0
173 197 0
175 198 0
175 198 0
174 198 0
176 199 0
174 198 0
176 199 0
176 199 0
174 198 0
174 197 0
173 197 0
175 198 0
176 199 0
174 198 0
175 198 0
176 199 0
174 197 0
174 198 0
175 198 0
177 199 0
173 197 0
176 199 0
174 198 0
175 198 0
175 198 0
175 198 0
175 198 0
174 198 0
174 198 0
176 199 0
174 197 0
174 198 0
174 197 0
175 198 0
176 199 0
173 197 0
174 198 0
175 198 0
176 199 0
174 198 0
174 198 0
174 198 0
176 199 0
176 198 0
175 198 0
174 198 0
174 197 0
177 199 0
176 198 0
176 199 0
174 197 0
174 198 0
173 197 0
174 197 0
174 197 0
175 198 0
174 198 0
177 199 0
175 198 0
173 197 0
173 197 0
174 198 0
174 197 0
174 198 0
174 198 0
174 197 0
174 198 0
175 198 0
176 199 0
175 198 0
174 197 0
173 197 0
174 198 0
173 197 0
175 198 0
175 198 0
175 198 0
176 198 0
175 198 0
176 199 0
176 199 0
174 197 0
172 197 0
176 199 0
176 198 0
172 197 0
173 197 0
175 198 0
171 196 0
173 197 0
174 198 0
173 197 0
176 199 0
175 198 0
175 198 0
175 198 0
175 198 0
175 198 0
174 198 0
176 199 0
174 198 0
175 198 0
173 197 0
174 197 0
174 198 0
175 198 0
174 198 0
174 198 0
175 198 0
176 199 0
175 198 0
176 198 0
175 198 0
173 197 0
175 198 0
176 198 0
172 197 0
172 197 0
174 197 0
173 197 0
174 198 0
175 198 0
174 197 0
174 198 0
176 198 0
176 199 0
174 198 0
174 198 0
176 199 0
177 199 0
173 197 0
175 197 0
175 198 0
174 197 0
173 196 0
175 198 0
175 197 0
174 198 0
174 198 0
174 198 0
175 198 0
173 197 0
175 198 0
171 196 0
175 198 0
175 198 0
175 197 0
175 198 0
175 198 0
173 197 0
178 200 0
173 197 0
174 198 0
176 199 0
174 198 0
173 196 0
173 197 0
174 196 0
173 197 0
174 197 0
175 198 0
173 197 0
172 196 0
173 197 0
175 198 0
174 198 0
174 197 0
176 198 0
173 197 0
175 198 0
175 198 0
176 199 0
173 197 0
174 198 0
174 197 0
175 198 0
175 197 0
173 197 0
176 199 0
171 195 0
173 197 0
176 199 0
172 195 0
173 196 0
176 198 0
174 197 0
171 195 0
174 197 0
168 188 0
172 194 0
176 197 0
172 194 0
173 195 0
170 192 0
168 190 0
171 193 0
170 192 0
171 192 0
172 193 0
173 193 0
168 187 0
170 193 0
169 189 0
170 189 0
167 184 0
168 182 0
170 187 0
164 175 0
158 169 0
168 179 0
159 168 0
167 179 0
152 131 65
156 113 86
155 110 86
161 116 103
159 115 90
152 111 84
158 115 98
155 112 95
150 109 86
153 110 88
147 105 87
149 105 89
137 97 63
122 83 52
130 94 74
152 166 30
182 198 174
197 210 228
192 208 228
189 206 228
186 204 228
183 202 228
181 201 228
179 200 228
179 200 228
179 200 228
179 200 228
180 201 228
182 202 228
185 203 228
187 205 228
192 207 228
196 210 228
181 197 171
156 177 0
168 190 0
169 191 0
173 196 0
168 190 0
172 196 0
172 196 0
172 196 0
174 196 0
173 196 0
174 198 0
174 195 0
173 197 0
173 196 0
173 197 0
177 199 0
176 198 0
173 196 0
175 198 0
171 196 0
175 198 0
177 199 0
175 198 0
174 197 0
172 197 0
172 196 0
175 197 0
173 197 0
173 197 0
175 198 0
174 198 0
174 198 0
175 198 0
173 197 0
174 197 0
171 196 0
173 197 0
173 197 0
174 198 0
174 197 0
175 198 0
172 196 0
172 196 0
171 196 0
175 198 0
174 197 0
174 197 0
176 199 0
174 197 0
175 198 0
175 198 0
174 198 0
174 198 0
172 197 0
174 198 0
174 198 0
175 198 0
173 197 0
175 198 0
175 198 0
176 198 0
174 198 0
174 198 0
172 197 0
174 197 0
176 199 0
173 197 0
175 198 0
175 198 0
177 199 0
173 197 0
172 197 0
177 199 0
176 199 0
175 198 0
175 198 0
175 198 0
175 198 0
174 198 0
173 197 0
172 197 0
176 198 0
175 198 0
175 198 0
176 199 0
174 198 0
175 198 0
174 198 0
174 197 0
174 198 0
176 199 0
174 198 0
174 198 0
173 197 0
174 197 0
172 197 0
176 199 0
175 198 0
173 197 0
175 198 0
178 200 0
173 197 0
176 199 0
173 197 0
174 198 0
174 198 0
175 198 0
175 198 0
175 198 0
175 198 0
173 197 0
174 198 0
171 196 0
177 199 0
172 196 0
177 199 0
174 198 0
175 198 0
175 198 0
174 198 0
177 199 0
172 196 0
177 199 0
176 199 0
174 198 0
175 198 0
176 199 0
174 198 0
171 196 0
174 197 0
175 198 0
175 198 0
177 199 0
174 198 0
175 198 0
173 197 0
175 198 0
174 198 0
173 197 0
173 197 0
175 198 0
175 198 0
174 198 0
173 197 0
173 197 0
175 198 0
173 197 0
173 197 0
175 198 0
175 198 0
176 198 0
174 197 0
176 199 0
174 198 0
177 199 0
176 199 0
173 197 0
175 198 0
177 199 0
174 198 0
175 198 0
176 198 0
176 199 0
174 197 0
174 198 0
176 199 0
175 198 0
175 198 0
176 198 0
175 198 0
177 199 0
172 197 0
174 197 0
175 198 0
175 198 0
172 196 0
177 199 0
175 198 0
175 198 0
176 199 0
172 197 0
175 198 0
173 197 0
175 198 0
174 198 0
177 199 0
172 196 0
175 198 0
173 197 0
172 197 0
174 197 0
176 199 0
174 198 0
175 198 0
175 198 0
175 198 0
173 197 0
175 198 0
175 198 0
175 198 0
174 198 0
174 198 0
175 198 0
174 198 0
175 198 0
174 198 0
174 197 0
174 198 0
176 199 0
172 197 0
174 198 0
175 198 0
173 197 0
175 198 0
175 198 0
175 198 0
177 199 0
173 197 0
173 197 0
175 198 0
173 197 0
175 198 0
173 197 0
173 197 0
175 198 0
175 198 0
172 196 0
174 198 0
173 197 0
174 198 0
175 198 0
174 197 0
175 198 0
173 197 0
174 198 0
175 198 0
175 198 0
177 199 0
176 199 0
171 196 0
174 198 0
174 198 0
174 197 0
175 198 0
175 198 0
176 199 0
175 198 0
173 197 0
173 197 0
176 199 0
175 198 0
176 199 0
174 198 0
174 198 0
173 197 0
176 199 0
174 198 0
176 198 0
174 198 0
174 197 0
175 198 0
174 197 0
174 198 0
175 198 0
175 198 0
174 197 0
175 198 0
175 198 0
173 197 0
174 197 0
174 198 0
176 199 0
172 197 0
174 198 0
173 197 0
174 197 0
174 198 0
174 197 0
174 198 0
173 197 0
174 198 0
176 198 0
173 197 0
172 197 0
175 198 0
171 196 0
173 197 0
172 197 0
175 198 0
175 198 0
176 199 0
175 198 0
175 198 0
174 197 0
177 199 0
174 198 0
174 198 0
177 199 0
173 197 0
174 197 0
175 198 0
174 198 0
175 198 0
174 198 0
175 198 0
171 196 0
173 197 0
176 199 0
176 199 0
173 197 0
173 197 0
173 197 0
176 199 0
174 196 0
174 198 0
175 197 0
175 198 0
173 197 0
176 199 0
174 198 0
175 198 0
175 198 0
173 197 0
171 194 0
175 198 0
173 196 0
174 195 0
175 198 0
176 199 0
173 197 0
171 196 0
175 198 0
172 196 0
171 195 0
173 197 0
175 197 0
172 194 0
175 198 0
172 196 0
173 197 0
173 195 0
175 197 0
174 198 0
174 197 0
170 193 0
171 195 0
172 195 0
171 195 0
174 197 0
172 193 0
174 194 0
172 195 0
173 196 0
168 187 0
171 191 0
170 192 0
170 187 0
167 185 0
170 186 0
168 186 0
166 183 0
165 175 0
159 169 0
156 160 0
157 162 0
161 172 0
147 147 0
149 122 65
151 108 74
155 111 90
158 113 90
163 117 103
156 113 93
154 110 97
157 111 93
150 108 81
147 104 85
138 98 70
128 89 57
120 102 38
131 100 67
151 167 0
155 177 32
185 200 183
197 210 228
193 208 228
191 207 228
188 205 228
186 204 228
185 204 228
184 203 228
184 203 228
184 203 228
185 204 228
187 204 228
189 206 228
192 208 228
195 209 228
195 208 214
163 182 72
156 177 0
166 188 0
172 194 0
174 196 0
172 196 0
173 197 0
171 194 0
172 194 0
172 197 0
172 194 0
173 195 0
174 196 0
173 197 0
176 198 0
173 196 0
173 197 0
174 197 0
173 197 0
173 197 0
176 198 0
173 197 0
177 199 0
173 196 0
176 198 0
176 199 0
174 197 0
174 198 0
176 198 0
174 197 0
175 198 0
174 196 0
174 196 0
177 199 0
172 197 0
176 198 0
176 198 0
175 198 0
172 197 0
175 198 0
174 197 0
177 199 0
175 198 0
172 196 0
174 197 0
174 198 0
175 198 0
174 197 0
173 197 0
174 198 0
173 196 0
175 198 0
174 198 0
175 198 0
175 198 0
175 198 0
175 198 0
176 199 0
174 196 0
175 198 0
173 196 0
174 198 0
175 198 0
175 198 0
174 198 0
174 197 0
173 197 0
177 199 0
177 199 0
173 197 0
174 197 0
174 197 0
172 197 0
177 199 0
174 197 0
174 198 0
173 197 0
172 197 0
176 198 0
176 198 0
175 198 0
174 197 0
175 198 0
175 198 0
175 198 0
175 198 0
173 197 0
174 198 0
176 199 0
176 199 0
175 198 0
177 199 0
175 198 0
175 198 0
173 197 0
174 198 0
174 198 0
174 198 0
176 199 0
173 197 0
175 198 0
173 197 0
174 198 0
175 198 0
174 198 0
173 197 0
174 198 0
174 198 0
175 198 0
175 198 0
173 197 0
176 199 0
177 199 0
174 198 0
175 198 0
174 198 0
174 198 0
177 199 0
176 199 0
173 197 0
175 198 0
174 198 0
177 199 0
175 198 0
174 198 0
175 198 0
176 199 0
173 197 0
174 197 0
172 197 0
173 197 0
175 198 0
173 197 0
173 197 0
175 198 0
172 197 0
175 198 0
173 197 0
174 197 0
173 197 0
176 199 0
176 199 0
174 198 0
175 198 0
175 198 0
175 198 0
173 197 0
173 197 0
177 199 0
174 198 0
175 198 0
174 197 0
174 198 0
173 197 0
176 198 0
173 197 0
175 198 0
173 197 0
175 198 0
174 197 0
175 198 0
175 198 0
175 198 0
175 198 0
174 198 0
175 198 0
174 197 0
174 197 0
174 198 0
174 197 0
174 197 0
174 198 0
174 198 0
172 197 0
173 197 0
176 199 0
173 197 0
174 198 0
173 197 0
175 198 0
174 198 0
174 198 0
174 197 0
175 198 0
173 197 0
175 198 0
174 198 0
174 198 0
174 197 0
177 199 0
175 198 0
173 197 0
178 200 0
174 198 0
176 198 0
175 198 0
173 197 0
176 199 0
176 199 0
174 198 0
176 199 0
175 198 0
174 198 0
174 198 0
177 199 0
173 197 0
176 199 0
173 197 0
175 198 0
174 198 0
177 199 0
173 197 0
177 199 0
173 197 0
177 199 0
175 198 0
175 198 0
175 198 0
172 196 0
172 197 0
175 198 0
174 198 0
174 198 0
175 198 0
174 197 0
175 198 0
173 197 0
173 197 0
176 199 0
177 199 0
173 197 0
175 198 0
172 197 0
176 199 0
176 199 0
177 199 0
173 197 0
174 198 0
175 198 0
175 198 0
176 199 0
175 198 0
174 197 0
174 198 0
176 198 0
173 197 0
175 198 0
173 197 0
175 198 0
175 198 0
171 196 0
176 199 0
176 199 0
174 198 0
175 198 0
174 197 0
172 197 0
173 197 0
174 198 0
175 198 0
174 198 0
175 198 0
173 197 0
175 198 0
176 197 0
174 198 0
175 198 0
174 198 0
176 199 0
174 197 0
173 197 0
175 198 0
172 196 0
176 199 0
175 198 0
174 198 0
175 198 0
174 198 0
177 199 0
174 198 0
175 198 0
175 198 0
173 197 0
172 197 0
175 198 0
175 198 0
173 197 0
176 199 0
178 200 0
174 198 0
174 198 0
175 198 0
177 199 0
173 197 0
174 198 0
173 197 0
175 198 0
174 198 0
174 198 0
171 195 0
176 199 0
174 197 0
174 198 0
174 198 0
173 197 0
175 198 0
172 195 0
174 198 0
176 199 0
171 196 0
173 197 0
175 198 0
174 198 0
175 198 0
173 197 0
174 198 0
175 198 0
174 198 0
174 196 0
174 198 0
171 195 0
175 198 0
173 196 0
175 198 0
173 197 0
173 196 0
175 198 0
175 198 0
176 199 0
173 196 0
174 196 0
176 199 0
172 197 0
174 196 0
175 198 0
174 198 0
173 195 0
172 195 0
173 195 0
176 197 0
173 196 0
172 195 0
175 198 0
173 196 0
171 194 0
172 194 0
175 197 0
173 196 0
173 196 0
167 190 0
172 192 0
175 197 0
172 190 0
170 191 0
171 191 0
172 191 0
166 184 0
167 182 0
161 173 0
169 190 0
168 183 0
161 175 0
161 176 0
162 176 0
161 173 0
156 155 0
153 156 0
146 138 0
143 137 0
143 126 34
143 106 65
148 105 74
144 102 71
148 105 74
140 99 62
145 104 72
149 106 76
131 93 61
133 101 46
123 106 28
135 129 0
124 114 29
148 162 0
156 174 0
156 177 0
178 194 158
195 208 219
196 210 228
193 208 228
192 207 228
190 206 228
190 206 228
190 206 228
191 207 228
191 207 228
193 208 228
195 209 228
197 210 228
186 200 186
159 179 56
157 178 0
153 174 0
170 191 0
169 191 0
171 194 0
171 194 0
173 195 0
170 193 0
172 196 0
175 198 0
171 193 0
171 195 0
172 196 0
172 194 0
172 195 0
172 193 0
175 197 0
174 197 0
173 197 0
173 197 0
175 197 0
172 196 0
174 197 0
173 197 0
175 198 0
172 195 0
174 197 0
175 198 0
175 198 0
173 197 0
172 196 0
174 198 0
172 196 0
176 197 0
173 196 0
173 197 0
174 197 0
175 197 0
176 198 0
175 198 0
175 198 0
175 198 0
175 197 0
174 197 0
175 198 0
175 198 0
174 197 0
173 197 0
174 198 0
176 199 0
174 198 0
176 199 0
175 198 0
174 198 0
174 198 0
175 198 0
172 197 0
173 197 0
172 196 0
175 198 0
174 198 0
175 198 0
175 198 0
171 196 0
174 197 0
173 197 0
171 196 0
174 197 0
173 197 0
177 199 0
174 198 0
175 198 0
174 197 0
173 197 0
176 198 0
173 197 0
175 198 0
175 198 0
174 198 0
174 198 0
174 197 0
175 198 0
174 198 0
174 197 0
174 197 0
174 198 0
172 197 0
174 197 0
175 198 0
175 198 0
177 199 0
174 198 0
174 198 0
174 198 0
172 197 0
175 198 0
175 198 0
175 198 0
174 197 0
174 197 0
174 198 0
175 198 0
174 198 0
174 198 0
174 197 0
176 199 0
175 198 0
175 198 0
174 197 0
175 198 0
175 198 0
175 198 0
174 198 0
175 198 0
174 198 0
176 199 0
175 198 0
174 198 0
178 200 0
175 198 0
175 198 0
175 198 0
175 198 0
174 198 0
174 198 0
173 197 0
173 197 0
175 198 0
175 198 0
173 197 0
173 197 0
173 197 0
177 199 0
176 199 0
175 198 0
172 196 0
177 199 0
173 197 0
174 198 0
174 197 0
173 197 0
177 199 0
175 198 0
174 198 0
175 198 0
174 198 0
175 198 0
175 198 0
174 197 0
174 198 0
174 197 0
178 200 0
175 198 0
173 197 0
175 198 0
175 198 0
172 196 0
176 198 0
175 198 0
173 197 0
174 198 0
173 197 0
173 197 0
173 197 0
173 197 0
175 198 0
173 197 0
175 198 0
174 197 0
175 198 0
173 197 0
176 198 0
177 199 0
175 198 0
175 198 0
173 197 0
175 198 0
176 198 0
174 198 0
173 197 0
177 199 0
177 199 0
176 198 0
172 196 0
175 198 0
175 198 0
176 199 0
173 197 0
175 198 0
174 198 0
175 198 0
174 198 0
174 197 0
176 199 0
174 198 0
178 200 0
174 198 0
175 198 0
175 198 0
174 197 0
176 198 0
177 199 0
176 198 0
176 199 0
175 198 0
175 198 0
174 198 0
174 198 0
175 198 0
177 199 0
176 199 0
174 198 0
174 198 0
175 198 0
173 197 0
174 198 0
174 198 0
178 199 0
174 198 0
173 197 0
174 198 0
173 197 0
175 198 0
172 197 0
176 199 0
174 198 0
173 197 0
174 198 0
173 197 0
175 198 0
174 197 0
175 198 0
174 198 0
173 197 0
175 198 0
174 198 0
175 198 0
175 198 0
175 198 0
175 198 0
174 198 0
175 198 0
177 199 0
176 199 0
175 198 0
175 198 0
177 199 0
171 196 0
174 198 0
175 198 0
175 198 0
173 197 0
175 197 0
173 197 0
174 198 0
174 198 0
173 197 0
175 198 0
173 197 0
175 198 0
173 197 0
174 197 0
174 197 0
174 198 0
175 198 0
175 198 0
173 196 0
176 198 0
176 198 0
174 197 0
176 199 0
172 197 0
175 198 0
173 197 0
174 198 0
174 198 0
174 197 0
174 197 0
172 195 0
175 198 0
175 198 0
175 198 0
174 198 0
176 198 0
173 197 0
174 198 0
175 198 0
174 197 0
177 199 0
174 197 0
173 196 0
173 197 0
174 198 0
174 198 0
174 198 0
177 199 0
172 197 0
173 197 0
175 198 0
174 198 0
174 197 0
175 198 0
176 199 0
175 198 0
175 198 0
174 196 0
175 198 0
174 198 0
171 196 0
173 197 0
177 199 0
173 197 0
174 197 0
175 198 0
174 197 0
173 197 0
175 197 0
174 198 0
175 197 0
172 197 0
174 198 0
174 198 0
173 196 0
174 198 0
174 198 0
176 199 0
174 197 0
173 196 0
174 195 0
174 196 0
173 197 0
175 196 0
174 196 0
172 195 0
175 197 0
172 197 0
173 195 0
173 196 0
175 197 0
169 193 0
175 198 0
169 189 0
171 195 0
169 192 0
170 191 0
174 197 0
175 197 0
169 192 0
170 193 0
172 193 0
172 195 0
170 191 0
174 195 0
170 190 0
172 192 0
171 188 0
171 192 0
168 188 0
170 186 0
169 188 0
169 187 0
170 184 0
161 175 0
164 176 0
164 175 0
166 179 0
155 158 0
162 174 0
149 147 0
134 125 0
136 125 0
124 102 19
130 102 56
142 118 52
129 93 33
117 83 52
117 86 44
113 98 0
112 96 0
124 116 0
134 132 0
139 140 0
145 158 0
151 170 0
155 175 0
156 177 0
159 179 32
182 197 171
192 205 207
198 211 228
197 210 228
196 210 228
197 210 228
197 210 228
197 210 228
198 211 228
193 206 209
180 196 165
155 176 0
157 178 0
156 177 0
157 179 0
174 195 0
170 193 0
170 191 0
170 191 0
172 196 0
171 196 0
172 196 0
173 196 0
173 196 0
171 193 0
172 195 0
170 194 0
173 197 0
175 197 0
174 196 0
175 197 0
175 198 0
171 195 0
177 199 0
174 196 0
172 197 0
176 198 0
172 196 0
174 197 0
174 197 0
175 198 0
174 198 0
174 197 0
175 198 0
172 196 0
173 197 0
173 197 0
174 197 0
174 198 0
174 197 0
175 198 0
176 199 0
174 198 0
175 198 0
173 197 0
175 198 0
173 197 0
174 198 0
173 197 0
171 196 0
176 199 0
174 198 0
173 197 0
176 199 0
175 198 0
174 198 0
175 198 0
174 197 0
174 198 0
174 198 0
176 199 0
174 197 0
175 198 0
173 197 0
176 199 0
175 198 0
173 197 0
177 199 0
177 199 0
173 197 0
174 198 0
175 198 0
176 199 0
173 197 0
173 197 0
174 198 0
174 197 0
173 197 0
175 198 0
173 197 0
174 197 0
175 198 0
175 198 0
174 197 0
174 198 0
176 198 0
173 197 0
176 199 0
172 196 0
174 198 0
176 199 0
176 199 0
176 199 0
175 198 0
174 197 0
173 197 0
175 198 0
173 197 0
173 197 0
176 199 0
174 198 0
174 198 0
173 197 0
173 197 0
174 198 0
172 197 0
174 198 0
174 197 0
173 196 0
174 198 0
176 199 0
175 198 0
176 198 0
174 197 0
174 198 0
173 197 0
174 198 0
174 198 0
174 198 0
174 198 0
175 198 0
175 198 0
174 198 0
175 198 0
176 199 0
175 198 0
175 198 0
174 198 0
177 199 0
176 199 0
174 198 0
175 198 0
176 199 0
175 198 0
176 199 0
176 198 0
174 198 0
175 198 0
175 198 0
176 198 0
173 197 0
174 198 0
174 198 0
174 197 0
175 198 0
173 197 0
174 198 0
177 199 0
176 199 0
174 197 0
176 199 0
177 199 0
175 198 0
175 198 0
175 198 0
176 199 0
175 198 0
174 198 0
172 197 0
175 198 0
175 198 0
174 198 0
174 198 0
176 199 0
174 197 0
174 198 0
175 198 0
173 197 0
175 198 0
172 197 0
174 198 0
174 198 0
175 198 0
174 197 0
175 198 0
176 198 0
172 197 0
174 198 0
174 198 0
173 197 0
175 198 0
173 197 0
174 198 0
174 198 0
174 198 0
176 198 0
174 198 0
175 198 0
173 197 0
173 197 0
175 198 0
173 197 0
177 199 0
174 197 0
177 199 0
175 198 0
174 198 0
175 198 0
175 198 0
174 197 0
173 197 0
172 197 0
174 198 0
176 199 0
176 199 0
174 197 0
172 197 0
174 198 0
175 198 0
175 198 0
175 198 0
176 198 0
174 198 0
175 198 0
174 198 0
174 198 0
176 199 0
174 198 0
176 199 0
175 198 0
175 198 0
174 198 0
175 198 0
173 197 0
175 198 0
173 197 0
174 197 0
174 198 0
173 197 0
175 198 0
175 198 0
173 197 0
174 197 0
173 197 0
175 198 0
173 197 0
175 198 0
175 198 0
174 198 0
173 197 0
175 198 0
176 199 0
173 197 0
175 198 0
175 198 0
172 196 0
173 197 0
177 199 0
174 197 0
172 196 0
171 196 0
177 199 0
175 198 0
175 198 0
175 198 0
173 197 0
173 197 0
173 197 0
172 196 0
172 197 0
174 198 0
175 198 0
174 197 0
174 198 0
175 198 0
175 198 0
175 198 0
174 198 0
174 198 0
176 199 0
174 198 0
176 199 0
175 198 0
174 197 0
173 197 0
175 198 0
175 198 0
172 195 0
177 199 0
175 198 0
175 198 0
173 197 0
173 197 0
174 196 0
177 199 0
174 197 0
174 198 0
174 197 0
174 198 0
174 198 0
174 198 0
173 197 0
172 197 0
175 197 0
175 198 0
174 197 0
173 197 0
172 197 0
174 198 0
175 198 0
172 196 0
174 198 0
176 199 0
174 198 0
176 199 0
175 198 0
175 198 0
172 195 0
173 197 0
175 198 0
174 197 0
174 197 0
174 198 0
172 197 0
177 199 0
175 198 0
175 198 0
172 196 0
171 195 0
172 197 0
174 197 0
170 194 0
175 198 0
174 198 0
176 198 0
173 197 0
175 197 0
174 196 0
175 198 0
176 199 0
173 194 0
175 198 0
173 196 0
172 197 0
173 196 0
173 196 0
172 196 0
176 198 0
175 198 0
173 195 0
174 196 0
174 196 0
172 196 0
175 198 0
172 196 0
171 195 0
174 196 0
173 197 0
174 197 0
168 191 0
173 193 0
175 195 0
176 197 0
174 197 0
170 193 0
166 187 0
171 189 0
170 187 0
170 191 0
172 193 0
169 189 0
169 187 0
167 184 0
171 191 0
169 186 0
163 180 0
163 176 0
159 166 0
155 158 0
148 150 0
150 152 0
150 151 0
146 146 0
141 135 0
133 127 0
135 132 0
134 124 0
121 112 0
120 106 0
128 116 0
124 118 0
119 106 0
124 115 0
140 138 0
133 131 0
138 143 0
145 158 0
152 172 0
152 172 0
158 178 0
155 177 0
157 177 0
164 183 85
168 187 121
170 188 129
176 192 148
176 193 148
168 186 125
158 178 45
157 177 0
156 177 0
155 176 0
154 175 0
154 175 0
161 182 0
167 190 0
171 194 0
174 196 0
171 192 0
167 190 0
172 195 0
173 196 0
173 196 0
174 197 0
174 197 0
171 195 0
172 196 0
170 195 0
174 197 0
172 196 0
171 195 0
175 197 0
176 199 0
174 198 0
172 195 0
175 198 0
171 196 0
172 194 0
174 197 0
174 197 0
172 196 0
174 198 0
172 195 0
176 198 0
174 197 0
174 198 0
172 195 0
174 197 0
174 197 0
175 197 0
176 199 0
174 197 0
174 198 0
175 198 0
175 198 0
171 196 0
174 198 0
175 198 0
173 197 0
173 197 0
174 198 0
174 198 0
173 197 0
175 198 0
175 198 0
175 198 0
173 196 0
174 197 0
174 198 0
174 198 0
175 197 0
174 198 0
174 197 0
173 197 0
175 198 0
171 196 0
175 198 0
176 198 0
176 199 0
174 198 0
177 199 0
174 197 0
176 199 0
174 198 0
173 197 0
174 197 0
174 198 0
176 199 0
177 199 0
175 198 0
172 197 0
173 197 0
172 197 0
174 198 0
174 198 0
175 198 0
175 198 0
172 197 0
176 199 0
178 200 0
174 198 0
175 198 0
174 198 0
175 198 0
174 197 0
175 198 0
176 198 0
174 198 0
174 198 0
175 198 0
177 199 0
174 198 0
173 197 0
175 198 0
175 198 0
173 197 0
173 197 0
173 197 0
174 198 0
176 198 0
173 197 0
173 197 0
175 198 0
175 198 0
174 198 0
175 198 0
174 197 0
175 198 0
175 198 0
174 198 0
174 198 0
173 197 0
176 199 0
174 197 0
175 198 0
174 198 0
174 198 0
174 198 0
175 198 0
176 199 0
173 197 0
174 198 0
176 198 0
172 197 0
176 198 0
175 198 0
172 197 0
174 197 0
176 198 0
174 197 0
174 198 0
175 198 0
176 198 0
174 198 0
177 199 0
174 197 0
173 197 0
174 198 0
174 198 0
173 197 0
174 198 0
172 197 0
173 197 0
174 198 0
178 200 0
174 198 0
175 198 0
176 198 0
175 198 0
173 197 0
175 198 0
174 198 0
176 199 0
174 198 0
175 198 0
176 199 0
175 198 0
177 199 0
172 197 0
174 198 0
174 197 0
177 199 0
174 198 0
179 200 0
174 198 0
174 198 0
175 198 0
174 198 0
176 199 0
176 199 0
174 198 0
172 197 0
175 198 0
175 198 0
177 199 0
173 197 0
174 198 0
172 196 0
176 198 0
175 198 0
176 199 0
176 199 0
173 197 0
177 199 0
175 198 0
176 199 0
176 199 0
173 197 0
173 197 0
175 198 0
173 197 0
175 198 0
174 197 0
173 197 0
175 198 0
174 198 0
175 198 0
177 199 0
174 197 0
173 197 0
175 198 0
176 199 0
178 200 0
173 197 0
176 199 0
174 198 0
175 198 0
174 198 0
177 199 0
175 198 0
173 197 0
174 197 0
174 197 0
175 198 0
174 198 0
175 198 0
173 197 0
175 198 0
174 197 0
175 198 0
175 198 0
175 198 0
174 198 0
173 197 0
174 198 0
175 198 0
176 199 0
171 196 0
176 198 0
174 198 0
173 197 0
175 198 0
174 198 0
175 198 0
174 197 0
173 197 0
174 197 0
175 198 0
176 199 0
173 197 0
174 198 0
174 198 0
174 198 0
175 198 0
176 199 0
177 199 0
173 197 0
174 198 0
173 196 0
173 197 0
172 197 0
175 198 0
175 198 0
175 198 0
176 198 0
177 199 0
175 198 0
175 198 0
174 198 0
176 198 0
173 197 0
174 197 0
176 198 0
175 198 0
174 198 0
173 197 0
174 198 0
174 198 0
174 198 0
173 197 0
174 198 0
175 198 0
174 198 0
175 198 0
176 199 0
174 198 0
175 198 0
176 199 0
175 198 0
175 198 0
176 199 0
175 198 0
173 197 0
175 198 0
174 197 0
175 198 0
175 198 0
175 198 0
174 197 0
174 197 0
174 197 0
176 199 0
174 198 0
173 197 0
175 198 0
174 198 0
175 198 0
173 197 0
175 198 0
174 197 0
176 198 0
173 197 0
177 199 0
175 198 0
174 198 0
176 199 0
176 198 0
175 198 0
174 198 0
174 198 0
174 198 0
172 196 0
172 197 0
173 197 0
174 198 0
175 198 0
175 198 0
176 198 0
172 197 0
173 197 0
174 198 0
172 197 0
174 198 0
173 195 0
174 196 0
175 198 0
173 197 0
174 196 0
175 198 0
175 198 0
176 198 0
172 195 0
171 191 0
174 196 0
174 197 0
171 195 0
175 198 0
170 188 0
173 193 0
171 195 0
173 196 0
172 196 0
173 195 0
173 197 0
171 192 0
173 196 0
171 192 0
169 189 0
170 191 0
168 185 0
167 184 0
169 187 0
169 184 0
171 189 0
168 186 0
160 175 0
165 178 0
167 183 0
160 173 0
159 166 0
158 165 0
155 162 0
145 140 0
150 150 0
146 143 0
149 144 0
144 141 0
136 127 0
149 142 0
133 128 0
138 136 0
134 137 0
134 130 0
132 134 0
140 146 0
128 127 0
148 158 0
145 160 0
152 170 0
154 172 0
153 172 0
156 175 0
154 176 0
154 175 0
156 177 0
154 176 0
156 177 0
155 176 0
154 176 0
155 176 0
155 176 0
154 176 0
154 176 0
153 174 0
168 192 0
165 187 0
168 192 0
170 191 0
173 195 0
172 196 0
173 195 0
170 193 0
172 196 0
173 196 0
173 197 0
176 197 0
171 195 0
174 196 0
174 197 0
173 196 0
169 191 0
176 198 0
175 198 0
174 197 0
173 197 0
175 197 0
174 197 0
174 197 0
174 196 0
171 195 0
175 198 0
173 196 0
174 197 0
173 197 0
174 197 0
174 198 0
173 197 0
175 198 0
174 198 0
173 197 0
175 198 0
176 198 0
174 198 0
172 197 0
174 197 0
174 198 0
176 197 0
173 197 0
173 197 0
175 198 0
175 198 0
174 198 0
174 197 0
175 198 0
173 197 0
175 198 0
175 198 0
175 198 0
176 199 0
175 198 0
177 199 0
174 198 0
173 197 0
174 197 0
172 197 0
174 198 0
173 197 0
173 197 0
173 197 0
174 197 0
173 197 0
175 198 0
172 197 0
175 198 0
172 197 0
174 198 0
175 198 0
175 198 0
173 197 0
171 196 0
173 197 0
175 198 0
175 198 0
173 197 0
174 198 0
174 198 0
176 199 0
175 198 0
174 197 0
174 198 0
173 197 0
175 198 0
175 198 0
175 198 0
175 198 0
174 197 0
176 199 0
173 197 0
175 198 0
173 197 0
176 199 0
174 198 0
174 198 0
175 198 0
177 199 0
173 197 0
176 199 0
174 198 0
175 198 0
175 198 0
173 197 0
174 198 0
177 199 0
175 198 0
175 198 0
173 197 0
173 197 0
174 198 0
175 198 0
173 197 0
173 197 0
175 198 0
173 197 0
175 198 0
173 197 0
175 198 0
176 198 0
174 198 0
175 198 0
173 197 0
174 198 0
174 198 0
174 198 0
176 199 0
176 199 0
173 197 0
173 197 0
176 199 0
176 199 0
173 197 0
176 199 0
175 198 0
173 197 0
173 197 0
174 197 0
175 198 0
175 198 0
172 196 0
174 197 0
173 197 0
173 197 0
172 197 0
177 199 0
175 198 0
176 198 0
175 198 0
175 198 0
175 198 0
174 197 0
177 199 0
174 198 0
172 197 0
174 198 0
173 197 0
173 197 0
175 198 0
175 198 0
175 198 0
175 198 0
176 199 0
175 198 0
173 197 0
174 198 0
176 199 0
175 198 0
173 197 0
174 198 0
175 198 0
172 197 0
175 198 0
174 197 0
175 198 0
175 198 0
176 199 0
175 198 0
174 197 0
174 198 0
175 198 0
172 196 0
173 197 0
175 198 0
173 197 0
175 198 0
177 199 0
176 199 0
174 198 0
175 198 0
176 198 0
175 198 0
177 199 0
175 198 0
173 197 0
174 198 0
176 199 0
174 198 0
177 199 0
174 198 0
175 198 0
176 199 0
173 197 0
176 199 0
177 199 0
173 197 0
175 197 0
174 198 0
174 198 0
175 198 0
176 198 0
174 197 0
173 197 0
174 198 0
177 199 0
177 199 0
175 198 0
176 198 0
175 198 0
174 197 0
177 199 0
175 198 0
178 200 0
173 197 0
175 198 0
176 199 0
173 197 0
175 198 0
175 198 0
174 198 0
175 198 0
176 199 0
176 199 0
175 198 0
174 197 0
174 198 0
174 198 0
176 199 0
174 198 0
176 199 0
174 198 0
174 197 0
176 199 0
171 196 0
175 198 0
175 198 0
173 197 0
176 198 0
177 199 0
175 198 0
175 198 0
174 198 0
174 198 0
175 198 0
175 198 0
174 197 0
174 198 0
173 197 0
174 198 0
175 198 0
175 198 0
176 198 0
174 197 0
177 199 0
176 199 0
175 198 0
177 199 0
173 197 0
173 197 0
173 197 0
174 198 0
174 198 0
174 198 0
174 197 0
171 195 0
177 199 0
173 197 0
174 198 0
174 197 0
175 198 0
173 197 0
175 198 0
175 198 0
177 199 0
173 197 0
175 198 0
175 198 0
172 197 0
174 197 0
175 197 0
174 197 0
174 196 0
175 198 0
174 198 0
172 197 0
172 196 0
176 198 0
175 198 0
175 198 0
175 198 0
176 198 0
176 199 0
173 197 0
173 197 0
174 198 0
174 197 0
173 197 0
174 198 0
175 198 0
173 197 0
172 196 0
174 198 0
175 198 0
175 198 0
173 197 0
175 198 0
175 198 0
176 199 0
175 198 0
174 198 0
173 196 0
175 198 0
174 197 0
175 197 0
175 197 0
174 197 0
175 198 0
175 198 0
173 196 0
173 197 0
173 196 0
174 197 0
174 198 0
172 196 0
174 196 0
176 199 0
174 197 0
170 194 0
176 199 0
169 192 0
173 195 0
171 194 0
173 197 0
171 191 0
171 193 0
171 194 0
170 193 0
171 194 0
171 193 0
170 189 0
169 192 0
174 195 0
170 192 0
172 192 0
170 189 0
167 180 0
167 184 0
169 188 0
166 182 0
166 177 0
161 174 0
160 171 0
167 179 0
165 178 0
155 159 0
161 167 0
156 161 0
161 171 0
141 138 0
144 140 0
143 138 0
149 150 0
146 150 0
136 136 0
138 140 0
135 139 0
142 140 0
140 143 0
132 138 0
142 153 0
148 165 0
149 166 0
151 169 0
152 172 0
151 171 0
155 175 0
154 172 0
156 177 0
157 177 0
155 176 0
156 176 0
154 175 0
154 176 0
154 175 0
154 175 0
151 169 0
162 182 0
168 190 0
173 193 0
172 195 0
172 193 0
173 195 0
167 189 0
173 194 0
172 194 0
170 192 0
173 196 0
171 194 0
174 196 0
175 197 0
174 197 0
171 195 0
175 198 0
173 196 0
173 195 0
175 198 0
173 197 0
174 197 0
175 198 0
176 197 0
173 197 0
173 196 0
173 196 0
174 197 0
173 197 0
175 198 0
176 198 0
170 194 0
173 197 0
174 197 0
174 197 0
175 198 0
174 196 0
176 199 0
174 198 0
174 197 0
175 198 0
174 198 0
175 198 0
171 195 0
173 197 0
174 198 0
174 197 0
174 198 0
174 196 0
173 197 0
174 197 0
173 197 0
173 197 0
176 199 0
172 197 0
176 198 0
174 197 0
175 198 0
177 199 0
175 198 0
173 197 0
173 197 0
176 199 0
174 198 0
174 198 0
174 198 0
174 198 0
173 197 0
173 197 0
174 197 0
175 198 0
174 197 0
175 198 0
175 198 0
177 199 0
175 198 0
175 198 0
174 198 0
174 198 0
176 199 0
174 197 0
174 198 0
177 199 0
175 198 0
172 197 0
174 197 0
175 198 0
173 197 0
174 198 0
175 198 0
175 198 0
177 199 0
175 198 0
176 199 0
174 198 0
174 198 0
176 199 0
177 199 0
174 198 0
174 198 0
173 197 0
175 198 0
174 198 0
172 197 0
174 197 0
175 198 0
173 197 0
174 198 0
175 198 0
174 198 0
174 198 0
175 198 0
174 197 0
172 197 0
174 197 0
176 199 0
174 198 0
174 198 0
173 197 0
175 198 0
174 198 0
172 197 0
173 197 0
175 198 0
176 199 0
175 198 0
175 198 0
174 198 0
178 200 0
173 197 0
174 198 0
174 198 0
173 197 0
174 197 0
176 199 0
173 197 0
174 198 0
174 198 0
175 198 0
176 199 0
175 198 0
175 198 0
174 198 0
176 199 0
175 198 0
175 198 0
176 199 0
174 198 0
175 198 0
176 199 0
174 198 0
175 198 0
176 199 0
175 198 0
173 197 0
176 199 0
176 199 0
174 198 0
173 197 0
173 197 0
174 198 0
173 197 0
175 198 0
173 197 0
175 198 0
174 198 0
174 198 0
175 198 0
173 197 0
175 198 0
173 197 0
175 198 0
175 198 0
175 198 0
176 199 0
174 197 0
172 197 0
175 198 0
176 198 0
174 197 0
175 198 0
175 198 0
173 197 0
175 198 0
177 199 0
175 198 0
175 198 0
175 198 0
175 198 0
175 198 0
174 198 0
175 198 0
174 198 0
174 198 0
172 197 0
175 198 0
176 199 0
175 198 0
175 198 0
176 199 0
174 198 0
175 198 0
175 198 0
173 197 0
172 197 0
176 199 0
173 197 0
174 198 0
176 198 0
175 198 0
175 198 0
175 198 0
174 198 0
173 197 0
177 199 0
175 198 0
175 198 0
174 198 0
174 198 0
174 198 0
175 198 0
173 197 0
176 199 0
173 197 0
177 199 0
176 198 0
174 198 0
174 198 0
175 198 0
173 197 0
174 197 0
174 197 0
174 198 0
175 198 0
175 198 0
174 198 0
173 197 0
177 199 0
176 199 0
176 199 0
174 198 0
175 198 0
177 199 0
177 199 0
174 198 0
174 197 0
173 197 0
173 197 0
174 197 0
174 197 0
175 198 0
175 198 0
178 199 0
174 198 0
175 198 0
173 197 0
176 198 0
173 197 0
174 198 0
174 197 0
174 198 0
175 198 0
173 197 0
174 198 0
175 198 0
175 198 0
175 198 0
173 197 0
174 198 0
173 197 0
173 197 0
174 198 0
175 198 0
175 198 0
173 197 0
175 198 0
174 197 0
174 198 0
172 196 0
173 197 0
176 199 0
177 199 0
175 198 0
176 199 0
176 198 0
175 198 0
175 198 0
173 197 0
173 197 0
176 199 0
175 198 0
177 199 0
174 196 0
174 197 0
176 198 0
174 198 0
175 197 0
173 196 0
175 197 0
176 199 0
170 194 0
175 198 0
173 196 0
173 197 0
172 197 0
179 200 0
175 198 0
175 198 0
174 198 0
174 198 0
175 197 0
175 198 0
174 198 0
175 198 0
176 199 0
175 197 0
173 196 0
174 198 0
174 198 0
174 195 0
174 197 0
175 198 0
173 197 0
172 197 0
173 196 0
173 196 0
173 197 0
175 198 0
174 198 0
174 195 0
175 197 0
174 198 0
172 196 0
174 198 0
173 197 0
174 193 0
172 195 0
174 198 0
171 193 0
173 196 0
173 197 0
175 198 0
174 196 0
174 197 0
174 196 0
174 197 0
174 196 0
172 194 0
171 193 0
172 195 0
172 195 0
173 197 0
172 191 0
171 192 0
170 190 0
175 197 0
165 186 0
171 192 0
168 187 0
164 179 0
169 188 0
167 186 0
164 180 0
171 189 0
170 184 0
162 176 0
164 170 0
159 162 0
160 169 0
166 180 0
164 178 0
163 175 0
159 166 0
159 169 0
153 159 0
155 165 0
149 149 0
144 148 0
149 155 0
155 162 0
143 149 0
146 152 0
149 156 0
133 137 0
136 149 0
145 157 0
149 168 0
150 169 0
151 172 0
153 174 0
153 173 0
154 173 0
152 172 0
154 174 0
153 174 0
154 174 0
155 176 0
152 172 0
153 172 0
155 174 0
167 187 0
171 192 0
167 188 0
168 190 0
172 193 0
167 189 0
170 194 0
172 196 0
172 196 0
168 190 0
169 193 0
171 195 0
172 195 0
174 197 0
173 196 0
174 197 0
174 197 0
174 196 0
172 196 0
174 196 0
171 193 0
174 196 0
174 198 0
175 198 0
174 198 0
175 198 0
170 195 0
174 198 0
174 198 0
172 196 0
173 197 0
175 198 0
174 198 0
172 197 0
173 197 0
172 195 0
175 198 0
174 198 0
175 198 0
175 198 0
174 198 0
173 197 0
176 199 0
172 197 0
173 197 0
174 197 0
172 197 0
173 197 0
173 197 0
172 197 0
175 198 0
174 197 0
173 197 0
176 198 0
173 197 0
176 198 0
174 198 0
174 197 0
175 198 0
176 198 0
173 197 0
175 198 0
173 197 0
173 197 0
174 197 0
176 199 0
174 196 0
176 199 0
174 197 0
174 198 0
176 199 0
174 198 0
175 198 0
172 197 0
176 199 0
174 198 0
173 197 0
173 197 0
174 197 0
176 199 0
173 197 0
174 198 0
175 198 0
173 197 0
173 197 0
174 198 0
176 199 0
174 198 0
174 198 0
175 198 0
176 199 0
176 199 0
175 198 0
174 198 0
171 196 0
173 197 0
177 199 0
177 199 0
175 198 0
174 197 0
174 198 0
175 198 0
175 198 0
174 198 0
173 197 0
175 198 0
176 199 0
175 198 0
174 198 0
173 197 0
173 197 0
173 197 0
172 197 0
174 197 0
174 198 0
175 198 0
174 198 0
174 198 0
173 197 0
175 198 0
175 198 0
175 198 0
173 197 0
174 198 0
177 199 0
175 198 0
176 198 0
173 197 0
176 198 0
175 198 0
173 197 0
173 197 0
175 198 0
175 198 0
175 198 0
174 198 0
175 198 0
175 198 0
175 198 0
174 197 0
175 198 0
171 196 0
174 197 0
177 199 0
174 198 0
175 198 0
176 199 0
177 199 0
174 198 0
176 198 0
176 199 0
173 197 0
174 198 0
176 199 0
175 198 0
174 198 0
176 199 0
174 198 0
175 198 0
172 197 0
176 199 0
176 199 0
176 198 0
176 199 0
172 197 0
175 198 0
176 198 0
175 198 0
176 199 0
177 199 0
175 198 0
176 199 0
173 197 0
173 197 0
176 199 0
175 198 0
173 197 0
175 198 0
174 197 0
174 198 0
174 198 0
173 197 0
175 198 0
175 198 0
175 198 0
177 199 0
175 198 0
173 197 0
175 198 0
175 198 0
175 198 0
174 198 0
175 198 0
176 199 0
176 199 0
175 198 0
176 199 0
176 199 0
175 198 0
176 199 0
174 198 0
172 196 0
176 198 0
176 199 0
174 197 0
173 197 0
175 198 0
174 198 0
175 198 0
174 198 0
173 197 0
176 199 0
174 198 0
173 197 0
174 197 0
174 197 0
174 197 0
173 197 0
176 198 0
176 198 0
173 197 0
176 199 0
174 197 0
174 198 0
175 198 0
175 198 0
175 198 0
174 198 0
173 197 0
174 198 0
173 197 0
174 198 0
173 197 0
174 198 0
176 199 0
176 199 0
173 197 0
174 198 0
173 197 0
175 198 0
174 198 0
174 198 0
175 198 0
176 199 0
174 197 0
173 197 0
174 198 0
176 199 0
175 198 0
174 198 0
175 198 0
174 197 0
175 198 0
174 197 0
175 198 0
173 197 0
176 199 0
173 197 0
171 195 0
176 199 0
176 198 0
176 199 0
175 198 0
174 197 0
176 198 0
177 199 0
173 197 0
174 198 0
175 198 0
177 198 0
172 197 0
176 198 0
175 198 0
174 198 0
171 195 0
172 197 0
175 198 0
175 198 0
176 198 0
175 198 0
174 198 0
172 196 0
174 197 0
173 197 0
173 197 0
173 196 0
175 197 0
175 198 0
175 198 0
174 197 0
174 198 0
173 197 0
173 197 0
176 199 0
174 197 0
174 197 0
176 198 0
176 198 0
173 197 0
173 197 0
173 197 0
175 198 0
174 197 0
172 197 0
173 197 0
175 198 0
173 197 0
174 198 0
176 199 0
176 199 0
174 198 0
173 197 0
172 197 0
174 197 0
171 195 0
172 197 0
175 198 0
175 198 0
174 198 0
174 197 0
174 197 0
174 198 0
172 196 0
173 197 0
172 194 0
175 198 0
170 194 0
176 199 0
174 197 0
172 196 0
173 195 0
175 198 0
177 199 0
174 198 0
174 198 0
174 196 0
171 194 0
172 194 0
174 197 0
172 197 0
175 198 0
173 195 0
173 196 0
176 198 0
169 192 0
171 195 0
170 192 0
172 194 0
173 195 0
173 197 0
172 196 0
172 194 0
172 194 0
172 192 0
174 195 0
170 191 0
167 187 0
167 183 0
168 190 0
170 190 0
168 184 0
171 190 0
167 183 0
166 184 0
174 195 0
163 176 0
164 180 0
164 181 0
169 186 0
153 158 0
163 180 0
158 166 0
157 166 0
163 173 0
160 169 0
149 156 0
151 162 0
156 165 0
152 157 0
154 163 0
157 167 0
149 156 0
143 149 0
149 158 0
136 143 0
137 150 0
146 162 0
151 168 0
151 169 0
151 171 0
146 165 0
151 171 0
151 170 0
152 173 0
149 170 0
154 173 0
153 173 0
150 170 0
151 170 0
169 189 0
166 187 0
170 191 0
165 186 0
170 193 0
169 191 0
171 194 0
172 194 0
169 193 0
171 193 0
172 193 0
170 193 0
167 191 0
172 196 0
172 195 0
172 195 0
173 197 0
174 197 0
174 197 0
172 196 0
174 197 0
173 197 0
173 197 0
174 197 0
174 197 0
174 197 0
174 197 0
173 197 0
174 197 0
177 199 0
174 197 0
172 196 0
175 198 0
173 197 0
172 196 0
173 196 0
176 198 0
174 197 0
174 197 0
174 198 0
173 197 0
174 196 0
175 198 0
174 197 0
174 198 0
173 197 0
173 197 0
174 197 0
175 198 0
174 197 0
173 197 0
174 198 0
175 198 0
173 197 0
174 197 0
175 198 0
174 197 0
175 198 0
175 198 0
171 196 0
173 197 0
174 198 0
173 197 0
172 197 0
175 198 0
175 198 0
173 197 0
176 199 0
175 198 0
176 199 0
174 197 0
175 198 0
173 197 0
175 198 0
176 199 0
174 198 0
172 197 0
175 198 0
175 198 0
175 198 0
173 197 0
176 199 0
174 198 0
174 198 0
174 197 0
173 197 0
174 197 0
176 199 0
175 198 0
175 198 0
174 197 0
174 198 0
175 198 0
175 198 0
177 199 0
174 198 0
173 197 0
177 199 0
174 198 0
175 198 0
174 198 0
173 197 0
174 197 0
176 198 0
175 198 0
175 198 0
175 198 0
175 198 0
178 200 0
174 197 0
175 198 0
176 199 0
175 198 0
174 197 0
175 198 0
177 199 0
174 197 0
176 198 0
175 198 0
173 197 0
174 198 0
175 198 0
173 197 0
176 199 0
174 197 0
174 198 0
176 199 0
175 198 0
174 198 0
173 197 0
176 199 0
174 197 0
172 197 0
173 197 0
173 197 0
173 197 0
173 197 0
175 198 0
176 199 0
174 197 0
172 197 0
173 197 0
171 196 0
176 199 0
176 199 0
175 198 0
174 198 0
175 198 0
177 199 0
172 197 0
174 198 0
173 197 0
173 197 0
176 199 0
174 198 0
173 197 0
175 198 0
173 197 0
174 198 0
176 198 0
174 198 0
175 198 0
176 199 0
175 198 0
173 197 0
174 197 0
175 198 0
176 198 0
174 197 0
173 197 0
173 197 0
173 197 0
174 198 0
175 198 0
175 198 0
173 197 0
174 197 0
177 199 0
177 199 0
174 198 0
173 197 0
175 198 0
175 198 0
174 198 0
172 197 0
172 196 0
175 198 0
174 198 0
173 197 0
174 198 0
176 199 0
174 197 0
173 197 0
175 198 0
173 197 0
176 199 0
174 197 0
176 199 0
174 198 0
175 198 0
174 198 0
177 199 0
173 197 0
174 198 0
176 199 0
173 197 0
172 196 0
175 198 0
176 199 0
176 199 0
174 197 0
173 197 0
177 199 0
176 199 0
176 199 0
173 197 0
175 198 0
176 198 0
175 198 0
174 198 0
175 198 0
176 199 0
177 199 0
175 198 0
174 198 0
176 199 0
174 198 0
174 197 0
174 198 0
174 197 0
173 197 0
177 199 0
174 198 0
175 198 0
173 197 0
174 197 0
175 198 0
175 198 0
173 197 0
173 197 0
175 198 0
175 198 0
173 197 0
173 197 0
175 198 0
174 197 0
175 198 0
174 198 0
175 198 0
174 197 0
175 198 0
174 198 0
176 198 0
176 198 0
172 196 0
175 198 0
173 197 0
173 197 0
176 199 0
173 197 0
174 198 0
177 199 0
177 199 0
173 197 0
175 198 0
175 198 0
174 198 0
173 197 0
175 198 0
174 197 0
175 197 0
172 197 0
175 198 0
174 198 0
173 197 0
176 198 0
172 197 0
173 197 0
173 197 0
174 198 0
173 197 0
173 197 0
173 197 0
173 197 0
175 198 0
173 197 0
174 198 0
175 198 0
176 199 0
174 197 0
174 198 0
175 198 0
173 197 0
174 198 0
173 196 0
175 198 0
174 198 0
175 198 0
175 198 0
173 197 0
174 197 0
174 197 0
177 199 0
173 197 0
174 198 0
174 197 0
175 198 0
176 199 0
173 197 0
177 199 0
173 197 0
174 198 0
175 198 0
175 198 0
175 198 0
172 197 0
174 198 0
172 195 0
174 198 0
174 198 0
173 197 0
175 198 0
175 198 0
176 199 0
177 198 0
175 198 0
175 198 0
174 196 0
175 198 0
174 198 0
172 197 0
176 199 0
172 195 0
174 196 0
174 197 0
173 197 0
173 197 0
171 195 0
172 194 0
173 194 0
172 196 0
174 195 0
175 196 0
173 196 0
171 193 0
173 196 0
172 195 0
171 191 0
171 192 0
172 193 0
170 191 0
172 195 0
173 195 0
172 193 0
170 192 0
173 196 0
173 191 0
174 197 0
172 192 0
169 188 0
168 185 0
171 191 0
168 181 0
167 186 0
168 183 0
168 188 0
164 178 0
166 185 0
164 181 0
161 170 0
162 177 0
163 178 0
160 172 0
164 174 0
155 169 0
155 161 0
164 179 0
156 170 0
155 165 0
154 164 0
149 161 0
152 158 0
149 160 0
149 158 0
136 144 0
143 153 0
136 145 0
138 149 0
140 155 0
146 163 0
150 168 0
151 168 0
153 172 0
150 170 0
150 169 0
152 170 0
149 167 0
148 166 0
156 173 0
158 177 0
165 186 0
170 191 0
170 190 0
171 192 0
166 188 0
167 191 0
170 193 0
169 192 0
170 195 0
171 193 0
171 193 0
173 197 0
173 196 0
172 196 0
172 194 0
176 198 0
174 197 0
172 196 0
174 198 0
172 196 0
175 198 0
173 197 0
173 197 0
174 197 0
175 198 0
171 196 0
173 196 0
172 196 0
171 195 0
176 198 0
172 196 0
170 195 0
173 197 0
172 197 0
174 198 0
174 197 0
175 198 0
171 196 0
173 196 0
176 198 0
172 197 0
174 198 0
175 198 0
173 197 0
173 196 0
175 198 0
175 198 0
175 197 0
174 198 0
175 198 0
177 199 0
172 196 0
174 197 0
174 197 0
173 197 0
175 198 0
177 199 0
173 197 0
173 197 0
176 199 0
176 198 0
176 199 0
176 198 0
176 198 0
172 197 0
176 199 0
173 197 0
176 199 0
174 198 0
173 197 0
174 198 0
174 198 0
175 198 0
173 197 0
174 198 0
176 198 0
173 197 0
172 196 0
176 199 0
176 199 0
176 199 0
174 198 0
174 198 0
172 196 0
175 198 0
174 198 0
173 197 0
175 198 0
176 199 0
174 198 0
174 197 0
174 198 0
175 198 0
177 199 0
173 197 0
176 199 0
177 199 0
173 197 0
175 198 0
175 198 0
175 198 0
173 197 0
173 197 0
173 197 0
174 198 0
174 197 0
176 198 0
176 198 0
174 198 0
175 198 0
177 199 0
173 197 0
177 199 0
172 196 0
174 198 0
175 198 0
173 197 0
174 198 0
173 197 0
176 198 0
173 197 0
173 197 0
173 197 0
174 198 0
176 199 0
172 197 0
175 198 0
176 198 0
176 199 0
174 197 0
177 199 0
174 197 0
173 197 0
174 198 0
175 198 0
175 198 0
174 198 0
174 197 0
173 197 0
176 198 0
174 197 0
175 198 0
172 196 0
175 198 0
175 198 0
175 198 0
173 197 0
173 197 0
174 197 0
175 198 0
174 198 0
176 198 0
176 199 0
173 197 0
173 197 0
175 198 0
175 198 0
173 197 0
175 198 0
171 196 0
175 198 0
174 198 0
173 197 0
173 197 0
175 198 0
178 200 0
174 198 0
175 198 0
174 198 0
174 197 0
175 198 0
174 198 0
175 198 0
175 198 0
176 199 0
174 197 0
175 198 0
175 198 0
177 199 0
177 199 0
176 198 0
173 197 0
175 198 0
175 198 0
176 199 0
173 197 0
172 197 0
174 198 0
173 197 0
175 198 0
173 197 0
173 197 0
174 198 0
175 198 0
173 197 0
175 198 0
176 199 0
175 198 0
173 197 0
174 198 0
174 198 0
177 199 0
177 199 0
176 199 0
174 198 0
174 198 0
173 197 0
174 197 0
174 197 0
174 197 0
175 198 0
175 198 0
173 197 0
175 198 0
176 198 0
176 199 0
175 198 0
176 199 0
175 198 0
175 198 0
176 198 0
173 197 0
174 198 0
176 199 0
176 199 0
175 198 0
174 198 0
173 197 0
173 197 0
175 198 0
175 198 0
175 198 0
175 198 0
172 197 0
177 199 0
175 198 0
174 198 0
176 199 0
173 197 0
174 198 0
175 198 0
176 199 0
176 198 0
175 198 0
174 198 0
175 198 0
173 197 0
176 199 0
174 197 0
174 197 0
174 198 0
175 198 0
175 198 0
176 199 0
174 198 0
174 198 0
176 199 0
175 198 0
175 198 0
175 198 0
174 197 0
175 198 0
173 197 0
174 198 0
173 197 0
174 197 0
173 197 0
173 197 0
176 198 0
176 198 0
177 199 0
176 199 0
174 197 0
175 198 0
173 197 0
176 199 0
174 197 0
174 198 0
175 198 0
174 197 0
175 198 0
176 199 0
174 197 0
175 198 0
175 198 0
175 198 0
173 197 0
173 197 0
174 198 0
173 197 0
175 198 0
171 196 0
173 197 0
176 199 0
176 199 0
175 198 0
174 197 0
175 198 0
175 198 0
174 197 0
174 197 0
175 198 0
173 197 0
174 197 0
174 198 0
175 197 0
176 198 0
173 197 0
176 199 0
174 197 0
175 198 0
176 199 0
174 198 0
173 197 0
176 198 0
176 199 0
175 197 0
174 197 0
173 196 0
173 197 0
173 197 0
171 195 0
175 197 0
174 198 0
172 196 0
173 195 0
175 198 0
174 197 0
173 197 0
173 196 0
174 198 0
173 197 0
173 196 0
173 196 0
170 193 0
175 197 0
172 195 0
176 198 0
173 196 0
171 194 0
173 195 0
171 195 0
172 193 0
174 196 0
173 194 0
173 195 0
174 197 0
174 196 0
172 193 0
171 195 0
172 195 0
172 194 0
174 194 0
174 196 0
173 195 0
169 189 0
172 192 0
168 189 0
170 188 0
164 180 0
169 191 0
170 193 0
168 188 0
172 195 0
168 187 0
164 180 0
163 179 0
173 191 0
169 188 0
172 190 0
163 181 0
161 171 0
161 172 0
163 177 0
164 177 0
162 177 0
161 174 0
161 174 0
157 169 0
158 170 0
161 174 0
160 173 0
157 172 0
160 171 0
150 161 0
152 166 0
138 150 0
148 159 0
128 140 0
145 160 0
137 152 0
143 160 0
140 157 0
138 154 0
142 159 0
145 160 0
145 161 0
160 177 0
156 173 0
164 182 0
165 185 0
166 186 0
162 183 0
168 191 0
170 193 0
170 192 0
171 193 0
170 193 0
172 195 0
169 191 0
171 193 0
174 196 0
175 198 0
174 195 0
171 195 0
171 194 0
170 194 0
172 194 0
177 199 0
174 196 0
171 195 0
172 196 0
175 197 0
176 197 0
172 195 0
173 197 0
171 196 0
174 197 0
174 198 0
173 197 0
173 196 0
175 198 0
175 198 0
173 197 0
174 197 0
175 198 0
174 198 0
175 198 0
175 198 0
174 198 0
174 197 0
174 197 0
175 197 0
176 199 0
177 199 0
177 199 0
173 197 0
175 198 0
173 197 0
175 198 0
173 197 0
176 199 0
174 198 0
175 198 0
173 197 0
175 198 0
174 197 0
174 198 0
173 197 0
176 199 0
174 197 0
174 197 0
173 197 0
173 197 0
175 198 0
173 197 0
173 197 0
176 198 0
174 198 0
174 198 0
174 197 0
174 198 0
176 199 0
173 197 0
174 197 0
176 199 0
176 198 0
176 199 0
174 198 0
175 198 0
174 198 0
174 198 0
174 198 0
173 197 0
173 197 0
173 197 0
174 197 0
174 198 0
176 199 0
174 197 0
175 198 0
174 197 0
177 199 0
175 198 0
175 198 0
176 199 0
176 199 0
179 201 0
173 197 0
174 198 0
174 198 0
174 198 0
174 198 0
173 197 0
176 199 0
176 199 0
175 198 0
174 198 0
174 198 0
176 198 0
175 198 0
176 199 0
174 198 0
174 198 0
173 197 0
175 198 0
175 198 0
175 198 0
176 198 0
173 197 0
173 197 0
175 198 0
173 197 0
174 197 0
175 198 0
176 199 0
178 200 0
175 198 0
175 198 0
174 197 0
175 198 0
174 198 0
176 199 0
176 199 0
175 198 0
173 197 0
177 199 0
173 197 0
174 198 0
175 198 0
174 198 0
173 197 0
173 197 0
175 198 0
175 198 0
173 197 0
174 198 0
173 197 0
176 199 0
175 198 0
173 197 0
175 198 0
175 198 0
174 198 0
174 198 0
174 198 0
174 198 0
175 198 0
175 198 0
174 197 0
177 199 0
177 199 0
174 198 0
173 197 0
175 198 0
174 197 0
175 198 0
176 199 0
175 198 0
176 198 0
174 198 0
174 197 0
175 198 0
173 197 0
175 198 0
173 197 0
176 199 0
175 198 0
176 199 0
173 197 0
173 197 0
177 199 0
175 198 0
172 197 0
174 198 0
174 197 0
176 199 0
174 198 0
173 197 0
172 197 0
175 198 0
174 198 0
176 199 0
175 198 0
175 198 0
174 198 0
175 198 0
175 198 0
177 199 0
174 197 0
175 198 0
176 199 0
175 198 0
175 198 0
176 198 0
175 198 0
176 199 0
172 197 0
173 197 0
173 197 0
175 198 0
173 197 0
174 197 0
175 198 0
173 197 0
176 199 0
174 197 0
175 198 0
176 199 0
174 198 0
174 197 0
173 197 0
176 199 0
177 199 0
176 199 0
174 197 0
175 198 0
176 199 0
175 198 0
174 198 0
175 198 0
174 197 0
175 198 0
175 198 0
176 199 0
172 196 0
175 198 0
173 197 0
175 198 0
174 198 0
174 197 0
174 197 0
172 197 0
175 198 0
175 198 0
174 197 0
174 198 0
175 198 0
175 198 0
175 198 0
173 197 0
175 198 0
174 197 0
173 197 0
174 197 0
173 197 0
176 198 0
174 198 0
175 198 0
174 198 0
177 199 0
173 197 0
175 198 0
173 197 0
177 199 0
174 198 0
175 198 0
173 197 0
172 197 0
175 198 0
176 199 0
173 197 0
177 199 0
173 197 0
175 198 0
176 198 0
174 198 0
173 196 0
175 198 0
173 197 0
174 198 0
176 199 0
175 198 0
174 196 0
175 198 0
174 198 0
176 199 0
174 197 0
176 199 0
173 197 0
175 198 0
175 198 0
175 198 0
174 198 0
175 198 0
172 197 0
172 196 0
174 197 0
172 195 0
175 198 0
173 197 0
176 198 0
176 198 0
174 198 0
177 199 0
175 198 0
174 198 0
174 197 0
171 194 0
173 197 0
174 198 0
174 198 0
174 198 0
172 195 0
175 198 0
173 196 0
174 198 0
173 197 0
175 198 0
173 197 0
175 197 0
176 197 0
173 197 0
176 198 0
172 197 0
175 198 0
174 197 0
175 198 0
173 197 0
173 197 0
175 197 0
173 197 0
174 198 0
173 196 0
176 199 0
173 196 0
172 194 0
175 197 0
174 196 0
174 195 0
174 197 0
172 196 0
173 197 0
173 195 0
173 196 0
173 194 0
172 194 0
174 196 0
174 198 0
172 195 0
171 192 0
175 197 0
172 195 0
175 197 0
170 190 0
169 191 0
170 191 0
173 196 0
171 190 0
172 190 0
170 190 0
169 192 0
169 186 0
173 192 0
167 184 0
171 191 0
169 189 0
170 191 0
162 177 0
160 172 0
167 186 0
164 184 0
164 181 0
164 182 0
165 183 0
171 192 0
165 179 0
157 174 0
159 174 0
161 178 0
158 173 0
162 177 0
163 182 0
157 174 0
151 167 0
158 171 0
159 174 0
145 158 0
146 160 0
146 161 0
136 149 0
132 145 0
131 145 0
143 158 0
148 163 0
159 176 0
154 172 0
158 177 0
158 176 0
162 182 0
165 185 0
166 187 0
168 190 0
168 189 0
171 193 0
172 195 0
171 193 0
170 193 0
170 194 0
175 196 0
169 193 0
173 196 0
170 194 0
171 195 0
174 196 0
174 197 0
173 197 0
172 196 0
174 197 0
173 197 0
174 197 0
174 197 0
173 197 0
173 196 0
171 195 0
171 195 0
174 197 0
174 198 0
175 197 0
176 199 0
176 199 0
175 198 0
173 196 0
173 197 0
173 197 0
174 196 0
175 198 0
172 196 0
174 198 0
175 198 0
173 197 0
175 198 0
173 197 0
173 197 0
173 197 0
173 197 0
174 196 0
174 198 0
174 198 0
174 198 0
174 198 0
175 198 0
176 199 0
173 197 0
172 196 0
175 198 0
174 198 0
175 198 0
174 197 0
176 199 0
173 197 0
176 198 0
173 197 0
175 198 0
175 198 0
174 198 0
173 197 0
174 198 0
175 198 0
175 198 0
174 198 0
175 198 0
176 198 0
176 198 0
174 197 0
174 198 0
174 197 0
173 197 0
176 198 0
176 199 0
176 199 0
173 197 0
174 198 0
175 198 0
174 198 0
174 198 0
174 197 0
175 198 0
176 199 0
175 198 0
173 197 0
174 197 0
172 197 0
176 199 0
174 198 0
177 199 0
176 199 0
174 198 0
173 197 0
175 198 0
175 198 0
173 197 0
174 198 0
174 198 0
174 197 0
175 198 0
177 199 0
174 197 0
175 198 0
173 197 0
175 198 0
174 197 0
173 197 0
175 198 0
174 198 0
175 198 0
173 197 0
176 199 0
173 197 0
176 199 0
175 198 0
175 198 0
175 198 0
174 198 0
175 198 0
173 197 0
174 198 0
174 197 0
176 199 0
174 197 0
176 199 0
174 198 0
174 198 0
176 199 0
176 199 0
173 197 0
174 198 0
174 197 0
175 198 0
174 197 0
175 198 0
171 196 0
175 198 0
175 198 0
174 198 0
173 197 0
174 197 0
175 198 0
176 199 0
175 198 0
177 199 0
177 199 0
175 198 0
177 199 0
176 199 0
174 198 0
174 198 0
173 197 0
174 198 0
172 197 0
176 199 0
174 198 0
174 197 0
174 197 0
175 198 0
175 198 0
173 197 0
177 199 0
175 198 0
175 198 0
175 198 0
172 197 0
174 198 0
176 199 0
174 197 0
175 198 0
174 198 0
175 198 0
177 199 0
171 196 0
176 199 0
173 197 0
174 198 0
173 197 0
174 197 0
175 198 0
175 198 0
175 198 0
178 200 0
175 198 0
177 199 0
176 199 0
174 198 0
175 198 0
175 198 0
174 198 0
172 197 0
175 198 0
173 197 0
175 198 0
175 198 0
172 196 0
174 197 0
174 197 0
175 198 0
176 199 0
174 198 0
175 198 0
175 198 0
174 198 0
174 198 0
174 198 0
175 198 0
174 197 0
176 199 0
174 198 0
175 198 0
177 199 0
178 200 0
176 198 0
174 197 0
173 197 0
176 199 0
175 198 0
174 197 0
174 197 0
176 199 0
174 198 0
176 198 0
175 198 0
176 199 0
175 198 0
176 199 0
175 198 0
174 197 0
175 198 0
175 198 0
175 198 0
175 198 0
174 198 0
174 198 0
176 199 0
176 199 0
174 197 0
174 197 0
174 197 0
175 198 0
174 198 0
172 197 0
173 197 0
173 197 0
175 198 0
175 198 0
175 198 0
176 199 0
176 198 0
175 198 0
175 198 0
175 198 0
175 198 0
174 198 0
173 197 0
174 197 0
175 198 0
174 198 0
173 197 0
175 198 0
176 199 0
172 197 0
173 197 0
175 198 0
174 198 0
177 199 0
176 199 0
174 198 0
173 197 0
175 198 0
174 198 0
175 198 0
177 199 0
172 196 0
175 198 0
174 198 0
173 197 0
173 197 0
173 197 0
174 197 0
174 197 0
175 198 0
174 198 0
176 198 0
175 198 0
174 198 0
173 197 0
176 199 0
175 198 0
175 198 0
173 197 0
174 198 0
175 198 0
174 197 0
174 198 0
173 197 0
175 198 0
175 198 0
174 198 0
175 198 0
172 197 0
174 197 0
173 197 0
175 198 0
173 197 0
174 198 0
176 198 0
175 197 0
172 197 0
174 196 0
173 197 0
174 196 0
173 196 0
175 198 0
174 198 0
173 196 0
174 197 0
174 197 0
173 197 0
175 198 0
176 198 0
173 197 0
175 198 0
175 198 0
176 199 0
175 198 0
174 196 0
172 194 0
173 197 0
173 196 0
176 199 0
172 196 0
173 196 0
173 194 0
174 198 0
171 193 0
172 197 0
175 196 0
175 198 0
174 196 0
174 194 0
170 191 0
170 189 0
171 195 0
171 193 0
173 195 0
171 194 0
172 191 0
174 197 0
171 193 0
171 189 0
170 192 0
172 191 0
169 189 0
169 192 0
171 192 0
166 189 0
169 186 0
174 196 0
165 184 0
170 191 0
172 192 0
169 190 0
163 180 0
164 181 0
167 184 0
165 182 0
167 184 0
165 185 0
167 188 0
166 182 0
156 170 0
156 172 0
163 179 0
165 179 0
158 176 0
163 183 0
162 177 0
164 180 0
154 169 0
155 172 0
156 173 0
156 173 0
148 163 0
153 168 0
151 167 0
147 164 0
160 177 0
160 177 0
162 181 0
161 179 0
170 189 0
163 184 0
166 186 0
165 185 0
170 192 0
172 194 0
168 190 0
173 194 0
166 188 0
169 191 0
174 195 0
172 195 0
168 191 0
171 194 0
172 195 0
174 196 0
171 194 0
172 194 0
172 196 0
170 194 0
171 194 0
175 198 0
177 199 0
176 198 0
173 197 0
173 196 0
173 197 0
173 196 0
174 197 0
172 196 0
172 195 0
173 197 0
173 197 0
173 196 0
174 197 0
173 197 0
173 197 0
171 196 0
175 198 0
175 198 0
174 197 0
172 196 0
176 198 0
174 197 0
173 197 0
176 199 0
174 198 0
175 198 0
175 198 0
173 197 0
175 198 0
175 196 0
176 199 0
175 198 0
175 198 0
175 198 0
174 198 0
174 198 0
174 197 0
174 198 0
173 197 0
173 197 0
173 197 0
175 198 0
174 198 0
175 198 0
173 197 0
175 198 0
173 197 0
172 196 0
174 197 0
174 198 0
175 198 0
175 198 0
174 198 0
175 198 0
174 198 0
175 198 0
175 198 0
175 198 0
172 197 0
174 197 0
175 198 0
173 197 0
176 199 0
175 198 0
176 199 0
176 199 0
174 198 0
175 198 0
174 198 0
174 197 0
173 197 0
174 198 0
174 198 0
174 198 0
174 197 0
174 198 0
173 197 0
175 198 0
173 197 0
174 198 0
174 198 0
173 197 0
175 198 0
174 198 0
175 198 0
175 198 0
176 199 0
172 197 0
174 197 0
175 198 0
176 198 0
176 199 0
172 197 0
174 198 0
174 197 0
173 197 0
176 199 0
173 197 0
174 198 0
174 198 0
174 198 0
174 197 0
177 199 0
174 198 0
173 197 0
173 197 0
173 197 0
174 198 0
175 198 0
176 198 0
175 198 0
175 198 0
173 197 0
174 197 0
175 198 0
174 198 0
176 199 0
177 199 0
174 198 0
174 198 0
174 197 0
172 197 0
175 198 0
176 198 0
176 199 0
174 198 0
174 198 0
174 198 0
176 198 0
175 198 0
174 197 0
173 197 0
176 198 0
175 198 0
175 198 0
174 198 0
174 198 0
173 197 0
175 198 0
174 198 0
172 197 0
173 197 0
175 198 0
174 198 0
173 197 0
175 198 0
176 199 0
175 198 0
175 198 0
176 199 0
176 198 0
175 198 0
173 197 0
175 198 0
175 198 0
176 198 0
175 198 0
174 198 0
176 199 0
175 198 0
175 198 0
175 198 0
174 197 0
173 197 0
175 198 0
176 199 0
174 198 0
174 198 0
177 199 0
175 198 0
173 197 0
174 198 0
175 198 0
175 198 0
173 197 0
174 198 0
176 199 0
174 198 0
173 197 0
176 199 0
174 198 0
174 198 0
174 198 0
173 197 0
176 199 0
175 198 0
179 200 0
176 199 0
174 197 0
174 198 0
172 197 0
176 199 0
174 198 0
174 197 0
175 198 0
173 197 0
176 198 0
174 198 0
178 200 0
175 198 0
174 198 0
174 197 0
175 198 0
174 198 0
177 199 0
174 197 0
172 196 0
175 198 0
175 198 0
175 198 0
174 197 0
174 198 0
174 197 0
174 198 0
173 197 0
173 197 0
173 197 0
173 197 0
175 198 0
177 199 0
173 197 0
174 198 0
174 198 0
175 198 0
175 198 0
173 197 0
174 198 0
173 196 0
174 198 0
175 198 0
173 197 0
173 197 0
172 197 0
174 198 0
174 198 0
174 198 0
174 197 0
175 198 0
174 197 0
175 198 0
175 198 0
173 197 0
174 198 0
175 198 0
173 196 0
175 198 0
175 198 0
173 197 0
175 198 0
174 198 0
171 196 0
176 198 0
173 197 0
173 197 0
176 198 0
174 198 0
172 197 0
173 197 0
174 197 0
174 198 0
176 199 0
175 198 0
172 196 0
174 197 0
174 198 0
175 198 0
176 198 0
174 198 0
174 198 0
172 197 0
172 196 0
174 198 0
176 199 0
175 198 0
177 199 0
175 198 0
171 196 0
174 197 0
175 198 0
174 198 0
175 198 0
171 195 0
172 197 0
173 197 0
175 198 0
174 198 0
173 197 0
175 198 0
174 198 0
173 196 0
173 197 0
173 197 0
176 198 0
178 200 0
173 196 0
174 198 0
175 197 0
172 196 0
176 198 0
172 194 0
175 198 0
174 198 0
177 198 0
175 198 0
172 197 0
176 198 0
173 196 0
175 198 0
174 196 0
175 198 0
175 198 0
173 196 0
172 197 0
174 196 0
175 195 0
173 197 0
173 196 0
170 194 0
176 198 0
175 198 0
172 196 0
173 197 0
175 198 0
173 197 0
174 196 0
172 194 0
171 194 0
171 194 0
171 191 0
170 192 0
174 197 0
172 194 0
171 194 0
172 194 0
170 193 0
173 195 0
168 189 0
172 193 0
171 192 0
171 193 0
169 191 0
168 191 0
164 183 0
168 187 0
173 192 0
168 190 0
168 184 0
170 186 0
165 181 0
166 181 0
169 190 0
166 185 0
171 191 0
169 190 0
167 186 0
167 185 0
164 185 0
162 179 0
164 180 0
163 183 0
165 183 0
162 179 0
163 180 0
163 180 0
163 179 0
164 180 0
167 187 0
165 184 0
162 179 0
163 182 0
157 174 0
161 177 0
152 169 0
159 178 0
156 175 0
162 181 0
163 182 0
166 187 0
166 186 0
168 188 0
169 190 0
166 187 0
166 189 0
167 190 0
167 190 0
175 197 0
170 193 0
174 197 0
174 195 0
169 193 0
171 195 0
171 195 0
171 194 0
173 197 0
172 195 0
171 195 0
173 197 0
171 195 0
174 197 0
173 196 0
173 197 0
172 195 0
172 196 0
171 196 0
172 196 0
174 197 0
174 198 0
174 197 0
175 198 0
173 197 0
173 197 0
175 198 0
172 197 0
172 197 0
172 197 0
175 198 0
173 197 0
174 197 0
173 197 0
175 198 0
175 198 0
175 198 0
175 198 0
172 196 0
173 197 0
176 198 0
174 198 0
175 198 0
172 196 0
174 198 0
176 198 0
174 198 0
174 198 0
174 196 0
173 197 0
173 197 0
175 198 0
176 199 0
173 197 0
174 197 0
174 198 0
176 199 0
174 198 0
174 198 0
173 197 0
177 199 0
175 198 0
172 197 0
172 196 0
173 197 0
175 198 0
176 198 0
173 197 0
176 198 0
176 198 0
172 195 0
174 198 0
175 198 0
175 198 0
174 197 0
173 197 0
176 199 0
174 198 0
174 197 0
173 197 0
174 197 0
174 198 0
174 197 0
175 198 0
174 198 0
174 198 0
176 199 0
175 198 0
173 197 0
177 199 0
173 197 0
175 198 0
173 197 0
175 198 0
174 198 0
173 197 0
173 197 0
172 197 0
175 198 0
175 198 0
176 199 0
173 197 0
175 198 0
174 197 0
176 199 0
174 198 0
175 198 0
177 199 0
174 197 0
176 199 0
175 198 0
176 199 0
177 199 0
173 197 0
174 198 0
177 199 0
177 199 0
175 198 0
174 198 0
174 198 0
177 199 0
175 198 0
176 198 0
174 198 0
174 196 0
174 196 0
174 198 0
173 197 0
175 198 0
173 197 0
172 197 0
174 198 0
174 198 0
176 198 0
176 199 0
174 198 0
174 197 0
176 199 0
175 198 0
173 197 0
175 198 0
174 198 0
176 198 0
175 198 0
175 198 0
173 197 0
175 198 0
176 199 0
174 198 0
176 198 0
174 197 0
177 199 0
175 198 0
175 198 0
175 198 0
173 197 0
174 198 0
173 197 0
175 198 0
174 197 0
175 198 0
174 198 0
175 198 0
175 198 0
174 198 0
173 197 0
175 198 0
176 199 0
176 199 0
173 197 0
172 197 0
175 198 0
177 199 0
175 198 0
175 198 0
171 196 0
175 198 0
173 197 0
174 198 0
174 197 0
175 198 0
174 198 0
176 199 0
176 199 0
175 198 0
176 199 0
175 198 0
175 198 0
173 197 0
174 198 0
173 197 0
175 198 0
174 198 0
177 199 0
177 199 0
174 197 0
175 198 0
175 198 0
174 198 0
175 198 0
174 197 0
173 197 0
175 198 0
172 197 0
173 197 0
176 198 0
174 198 0
173 197 0
176 199 0
177 199 0
174 198 0
172 197 0
173 197 0
174 198 0
174 198 0
176 199 0
176 199 0
175 198 0
175 198 0
174 198 0
176 199 0
174 198 0
175 198 0
174 198 0
175 198 0
173 197 0
173 197 0
176 199 0
174 198 0
175 198 0
176 199 0
174 197 0
175 197 0
173 197 0
177 199 0
173 197 0
174 198 0
174 198 0
172 197 0
174 197 0
173 197 0
175 198 0
174 198 0
173 197 0
176 199 0
175 198 0
175 198 0
176 199 0
175 198 0
172 196 0
172 197 0
175 198 0
174 198 0
176 199 0
174 197 0
174 198 0
173 197 0
175 198 0
173 196 0
172 197 0
177 199 0
173 197 0
174 198 0
173 197 0
175 198 0
175 198 0
174 198 0
174 198 0
175 198 0
173 197 0
175 198 0
175 198 0
172 197 0
177 199 0
174 197 0
175 198 0
176 199 0
174 197 0
174 198 0
173 197 0
174 198 0
174 197 0
174 197 0
175 198 0
175 198 0
175 198 0
175 198 0
173 196 0
172 196 0
174 198 0
176 199 0
174 198 0
175 198 0
175 198 0
174 198 0
175 198 0
174 198 0
172 197 0
174 198 0
174 195 0
173 197 0
177 199 0
175 198 0
172 196 0
177 199 0
173 197 0
174 198 0
174 197 0
173 197 0
175 197 0
174 196 0
173 197 0
175 198 0
174 197 0
174 197 0
173 197 0
173 197 0
175 198 0
173 196 0
174 197 0
175 198 0
174 197 0
172 196 0
174 197 0
172 196 0
176 197 0
173 197 0
173 197 0
172 195 0
174 196 0
173 197 0
173 194 0
172 193 0
172 195 0
172 197 0
173 196 0
173 196 0
171 194 0
174 197 0
172 195 0
174 196 0
173 197 0
172 193 0
173 197 0
171 195 0
172 194 0
169 194 0
172 195 0
172 192 0
172 194 0
172 193 0
173 194 0
172 197 0
174 196 0
174 196 0
169 190 0
172 190 0
171 193 0
171 191 0
170 191 0
173 194 0
170 187 0
167 186 0
169 190 0
169 191 0
168 186 0
167 187 0
170 190 0
167 185 0
170 187 0
160 177 0
166 186 0
163 181 0
160 178 0
170 192 0
163 181 0
168 187 0
164 183 0
161 179 0
168 187 0
161 180 0
163 180 0
167 185 0
162 180 0
165 183 0
164 182 0
156 176 0
163 182 0
163 183 0
164 182 0
167 187 0
168 188 0
165 187 0
161 181 0
168 189 0
165 186 0
170 192 0
169 191 0
170 191 0
167 188 0
171 194 0
170 193 0
170 192 0
169 191 0
172 194 0
172 194 0
171 194 0
173 197 0
173 197 0
176 199 0
170 195 0
176 198 0
171 194 0
174 198 0
173 196 0
175 198 0
174 198 0
175 198 0
174 198 0
172 196 0
174 197 0
175 198 0
175 198 0
173 197 0
174 198 0
174 198 0
174 198 0
173 196 0
174 197 0
173 197 0
174 197 0
174 197 0
174 198 0
174 198 0
175 198 0
176 198 0
174 198 0
172 197 0
175 198 0
173 197 0
174 198 0
175 198 0
173 197 0
176 199 0
177 199 0
174 197 0
175 198 0
173 197 0
173 197 0
173 197 0
176 198 0
172 197 0
174 198 0
175 198 0
175 198 0
175 198 0
175 198 0
174 198 0
174 197 0
170 195 0
174 198 0
175 198 0
173 197 0
177 199 0
175 198 0
173 197 0
174 198 0
175 198 0
175 198 0
173 197 0
173 197 0
173 197 0
175 198 0
174 198 0
173 197 0
176 199 0
177 199 0
175 198 0
173 197 0
174 197 0
176 199 0
173 196 0
177 199 0
174 197 0
172 197 0
175 198 0
177 199 0
174 198 0
174 198 0
175 198 0
171 196 0
172 197 0
175 198 0
174 198 0
174 198 0
174 198 0
175 198 0
175 198 0
175 198 0
174 197 0
176 199 0
172 197 0
177 199 0
174 197 0
174 198 0
175 198 0
174 198 0
174 198 0
176 199 0
176 199 0
174 198 0
174 198 0
175 198 0
175 198 0
175 198 0
175 198 0
174 197 0
175 198 0
173 197 0
173 197 0
174 198 0
172 197 0
174 198 0
174 198 0
176 198 0
174 198 0
172 196 0
174 197 0
176 199 0
174 197 0
175 198 0
174 198 0
175 198 0
176 199 0
174 198 0
173 197 0
175 198 0
174 198 0
176 199 0
174 197 0
176 199 0
174 198 0
175 198 0
173 197 0
174 197 0
175 198 0
175 198 0
173 197 0
174 198 0
174 197 0
174 198 0
175 198 0
176 199 0
175 198 0
175 198 0
175 198 0
173 197 0
176 199 0
172 197 0
173 197 0
175 198 0
175 198 0
175 198 0
173 197 0
173 197 0
173 197 0
175 198 0
175 198 0
175 198 0
174 197 0
176 199 0
174 198 0
175 198 0
173 197 0
175 198 0
173 197 0
173 197 0
174 198 0
177 199 0
173 197 0
171 196 0
174 198 0
173 197 0
175 198 0
175 198 0
175 198 0
174 198 0
174 197 0
174 198 0
177 199 0
174 198 0
175 198 0
175 198 0
177 199 0
175 198 0
174 198 0
175 198 0
174 198 0
174 198 0
173 197 0
175 198 0
174 198 0
174 198 0
175 198 0
174 198 0
173 197 0
177 199 0
178 199 0
175 198 0
173 197 0
175 198 0
173 197 0
177 199 0
173 197 0
173 197 0
175 198 0
174 197 0
175 198 0
175 198 0
174 198 0
175 198 0
173 197 0
173 197 0
175 198 0
174 198 0
172 197 0
173 197 0
173 197 0
175 198 0
175 198 0
175 198 0
175 198 0
174 198 0
174 197 0
172 196 0
177 199 0
176 199 0
175 198 0
174 197 0
175 198 0
174 198 0
173 197 0
173 197 0
176 198 0
174 197 0
173 197 0
175 198 0
172 196 0
175 198 0
173 197 0
175 198 0
177 199 0
172 196 0
178 199 0
174 198 0
174 197 0
175 198 0
174 197 0
174 197 0
172 197 0
171 195 0
176 199 0
174 197 0
176 199 0
175 198 0
174 198 0
175 198 0
176 199 0
175 198 0
174 196 0
173 197 0
174 197 0
176 198 0
177 199 0
173 197 0
174 197 0
173 197 0
174 197 0
172 196 0
174 198 0
174 198 0
174 197 0
175 198 0
174 197 0
173 197 0
176 198 0
174 196 0
174 196 0
175 198 0
171 195 0
175 197 0
175 198 0
173 197 0
176 199 0
174 198 0
175 198 0
174 198 0
174 197 0
173 197 0
173 196 0
173 196 0
176 198 0
174 198 0
173 197 0
173 197 0
174 198 0
174 198 0
174 197 0
175 198 0
172 197 0
174 198 0
176 199 0
175 198 0
173 197 0
172 196 0
173 196 0
175 198 0
174 198 0
174 198 0
175 197 0
173 197 0
174 196 0
175 197 0
174 198 0
175 198 0
173 194 0
174 198 0
171 195 0
173 197 0
173 196 0
175 198 0
171 193 0
172 195 0
174 196 0
175 198 0
175 198 0
175 198 0
174 197 0
171 194 0
170 192 0
172 195 0
173 195 0
173 196 0
175 196 0
169 193 0
174 197 0
173 196 0
172 194 0
175 197 0
172 193 0
173 196 0
171 193 0
173 197 0
172 194 0
173 195 0
169 190 0
172 191 0
173 196 0
174 193 0
173 193 0
170 191 0
167 187 0
171 192 0
167 186 0
168 186 0
169 193 0
171 191 0
162 178 0
169 188 0
171 190 0
168 189 0
169 191 0
166 186 0
169 192 0
167 186 0
167 185 0
169 188 0
167 188 0
168 189 0
163 182 0
163 182 0
165 186 0
166 183 0
168 186 0
166 186 0
163 182 0
169 189 0
166 186 0
168 189 0
166 186 0
167 188 0
169 191 0
164 185 0
169 190 0
168 191 0
169 190 0
172 193 0
169 190 0
169 190 0
170 193 0
173 196 0
170 192 0
170 193 0
170 193 0
172 196 0
172 195 0
169 193 0
169 193 0
170 193 0
173 196 0
173 196 0
173 196 0
172 196 0
173 197 0
172 196 0
174 197 0
173 197 0
175 198 0
175 197 0
175 198 0
175 198 0
173 197 0
174 197 0
173 196 0
172 197 0
174 197 0
172 196 0
176 198 0
172 196 0
175 198 0
174 197 0
173 197 0
173 197 0
172 196 0
173 197 0
175 198 0
173 197 0
173 197 0
176 199 0
175 198 0
174 198 0
175 198 0
175 198 0
175 198 0
177 199 0
173 197 0
174 197 0
174 197 0
172 197 0
176 199 0
175 198 0
173 197 0
175 198 0
174 198 0
174 198 0
173 197 0
173 197 0
175 198 0
174 198 0
173 197 0
173 197 0
177 199 0
174 198 0
175 198 0
178 200 0
174 198 0
173 197 0
176 199 0
175 198 0
173 197 0
174 198 0
176 198 0
175 198 0
174 198 0
176 198 0
174 197 0
173 197 0
175 198 0
175 198 0
175 198 0
174 198 0
173 197 0
173 197 0
173 197 0
175 198 0
175 198 0
173 197 0
175 198 0
172 197 0
173 197 0
172 197 0
175 198 0
176 198 0
175 198 0
176 198 0
176 199 0
174 198 0
172 196 0
173 197 0
174 198 0
177 199 0
173 197 0
175 198 0
173 197 0
174 198 0
174 198 0
175 198 0
172 197 0
175 198 0
176 199 0
174 198 0
176 199 0
177 199 0
172 197 0
174 198 0
172 197 0
174 198 0
174 197 0
175 198 0
172 196 0
173 197 0
177 199 0
175 198 0
174 198 0
175 198 0
174 197 0
174 198 0
176 199 0
176 199 0
173 197 0
175 198 0
174 197 0
176 198 0
174 197 0
175 198 0
175 198 0
175 198 0
174 198 0
176 198 0
174 198 0
174 198 0
176 199 0
173 197 0
173 197 0
175 198 0
175 198 0
174 197 0
175 198 0
173 197 0
174 198 0
174 198 0
175 198 0
176 199 0
174 198 0
175 198 0
174 198 0
173 197 0
176 198 0
173 197 0
176 199 0
172 196 0
176 199 0
175 198 0
172 197 0
175 198 0
175 198 0
174 198 0
173 197 0
175 198 0
173 197 0
176 199 0
172 196 0
174 198 0
173 197 0
177 199 0
175 198 0
175 198 0
174 198 0
174 198 0
173 197 0
174 198 0
174 198 0
175 198 0
175 198 0
172 197 0
175 198 0
174 198 0
174 198 0
175 198 0
173 197 0
176 199 0
172 197 0
175 198 0
173 197 0
175 198 0
173 197 0
176 199 0
173 197 0
175 198 0
174 197 0
173 197 0
175 198 0
175 198 0
174 198 0
172 196 0
174 198 0
173 197 0
172 197 0
173 197 0
177 199 0
175 198 0
173 197 0
173 197 0
174 198 0
173 197 0
171 196 0
177 199 0
174 198 0
173 197 0
176 198 0
176 199 0
173 197 0
174 197 0
175 198 0
174 197 0
177 199 0
175 198 0
174 198 0
174 197 0
177 199 0
176 199 0
172 197 0
175 198 0
176 198 0
174 197 0
174 198 0
174 198 0
175 198 0
175 198 0
175 198 0
174 197 0
172 197 0
175 198 0
175 198 0
175 198 0
176 199 0
173 197 0
174 197 0
174 198 0
175 198 0
176 198 0
175 198 0
174 198 0
173 197 0
174 198 0
175 198 0
175 198 0
174 197 0
174 198 0
176 199 0
177 199 0
176 199 0
174 198 0
174 198 0
176 198 0
175 198 0
175 198 0
174 198 0
175 197 0
175 198 0
173 197 0
174 198 0
172 197 0
175 198 0
175 198 0
175 198 0
176 199 0
175 198 0
174 198 0
176 198 0
174 198 0
175 198 0
174 198 0
173 197 0
174 197 0
175 198 0
173 197 0
175 198 0
173 197 0
174 198 0
173 197 0
174 198 0
175 198 0
173 197 0
174 198 0
175 197 0
174 198 0
171 196 0
172 197 0
175 198 0
178 199 0
175 198 0
174 198 0
173 197 0
174 197 0
174 198 0
173 197 0
175 198 0
175 198 0
176 199 0
174 198 0
174 197 0
173 196 0
172 196 0
176 199 0
174 198 0
177 199 0
174 197 0
174 198 0
173 196 0
174 197 0
174 195 0
174 196 0
176 198 0
174 198 0
175 198 0
173 196 0
176 198 0
174 196 0
173 196 0
172 195 0
174 197 0
173 197 0
175 198 0
174 195 0
172 197 0
172 196 0
175 198 0
176 199 0
173 196 0
174 197 0
172 196 0
174 196 0
172 195 0
173 195 0
173 193 0
174 198 0
170 192 0
174 198 0
173 194 0
174 198 0
170 195 0
172 194 0
171 196 0
170 192 0
171 192 0
172 191 0
171 190 0
170 192 0
166 187 0
172 193 0
168 189 0
170 189 0
167 185 0
171 193 0
169 187 0
171 190 0
169 190 0
173 192 0
171 189 0
170 193 0
172 191 0
169 190 0
166 185 0
172 193 0
168 188 0
170 191 0
164 183 0
165 187 0
167 187 0
165 182 0
167 186 0
169 192 0
162 180 0
165 185 0
169 190 0
172 193 0
169 190 0
170 190 0
166 187 0
167 189 0
167 189 0
171 192 0
169 190 0
170 192 0
167 189 0
170 192 0
172 194 0
169 191 0
168 192 0
170 192 0
169 194 0
172 194 0
172 195 0
171 195 0
173 196 0
171 196 0
174 197 0
172 195 0
174 197 0
169 194 0
170 195 0
174 197 0
174 197 0
171 195 0
173 197 0
175 198 0
175 198 0
175 198 0
174 198 0
173 197 0
175 198 0
174 198 0
176 199 0
176 198 0
174 197 0
174 197 0
175 198 0
173 197 0
175 198 0
173 197 0
175 198 0
178 200 0
176 198 0
175 198 0
174 197 0
174 197 0
175 198 0
175 198 0
173 197 0
174 197 0
176 199 0
173 197 0
175 198 0
174 197 0
174 198 0
173 197 0
173 197 0
175 198 0
176 199 0
174 198 0
174 197 0
176 199 0
174 197 0
175 198 0
173 197 0
173 197 0
176 199 0
173 197 0
175 198 0
172 197 0
175 198 0
173 197 0
172 197 0
174 197 0
174 197 0
173 197 0
172 197 0
173 197 0
175 198 0
172 197 0
174 197 0
172 197 0
174 197 0
175 198 0
176 199 0
174 197 0
172 197 0
174 198 0
175 198 0
177 199 0
172 197 0
175 198 0
174 197 0
175 198 0
176 198 0
173 197 0
178 199 0
173 197 0
176 199 0
175 198 0
175 198 0
174 198 0
174 198 0
172 197 0
174 198 0
175 198 0
176 199 0
175 198 0
173 197 0
174 197 0
173 197 0
176 199 0
174 198 0
175 198 0
175 198 0
175 198 0
174 197 0
176 198 0
175 198 0
175 198 0
174 198 0
173 197 0
175 198 0
172 195 0
175 198 0
175 198 0
175 198 0
173 197 0
176 199 0
173 197 0
173 197 0
173 197 0
175 198 0
174 198 0
173 197 0
176 198 0
175 198 0
174 197 0
173 197 0
174 198 0
173 197 0
174 198 0
177 199 0
173 197 0
173 197 0
172 196 0
175 198 0
174 198 0
175 198 0
175 198 0
176 199 0
174 198 0
175 198 0
175 198 0
173 197 0
177 199 0
175 198 0
172 197 0
175 198 0
176 198 0
174 198 0
174 198 0
173 197 0
174 198 0
175 198 0
175 198 0
175 198 0
175 198 0
173 197 0
176 198 0
176 199 0
175 198 0
174 198 0
175 198 0
173 197 0
175 198 0
175 198 0
177 199 0
173 197 0
173 197 0
175 198 0
176 199 0
174 197 0
174 198 0
174 198 0
174 197 0
174 197 0
174 197 0
174 198 0
174 197 0
175 198 0
175 198 0
176 199 0
176 199 0
173 197 0
174 198 0
175 198 0
177 199 0
174 198 0
174 198 0
173 197 0
175 198 0
176 199 0
173 197 0
175 198 0
174 197 0
175 198 0
175 198 0
175 198 0
176 198 0
174 197 0
173 197 0
175 198 0
174 198 0
177 199 0
173 197 0
175 198 0
175 198 0
174 198 0
174 198 0
177 199 0
173 197 0
176 199 0
174 197 0
174 198 0
172 197 0
174 198 0
175 198 0
174 198 0
174 197 0
174 197 0
174 198 0
176 199 0
176 199 0
175 198 0
172 197 0
175 198 0
176 199 0
173 197 0
175 198 0
173 197 0
173 197 0
175 198 0
173 197 0
175 198 0
174 197 0
175 198 0
173 197 0
176 199 0
174 198 0
175 198 0
175 198 0
175 198 0
174 198 0
175 198 0
173 197 0
173 197 0
174 198 0
177 199 0
173 197 0
173 197 0
174 198 0
174 197 0
177 199 0
173 197 0
174 198 0
173 197 0
173 197 0
173 196 0
174 198 0
175 198 0
174 198 0
173 197 0
177 199 0
175 198 0
173 197 0
173 197 0
174 198 0
175 198 0
176 199 0
174 198 0
176 199 0
175 198 0
174 198 0
174 198 0
176 199 0
174 198 0
174 198 0
173 197 0
176 199 0
175 198 0
175 198 0
175 198 0
176 199 0
174 198 0
176 199 0
174 198 0
171 196 0
177 199 0
174 197 0
175 198 0
175 198 0
175 198 0
175 198 0
172 197 0
174 197 0
174 198 0
176 199 0
175 198 0
174 198 0
174 197 0
174 198 0
176 199 0
174 197 0
174 198 0
175 198 0
175 198 0
174 198 0
174 198 0
175 198 0
174 198 0
174 198 0
175 198 0
174 197 0
176 198 0
175 198 0
176 198 0
172 195 0
174 197 0
174 198 0
174 197 0
173 197 0
174 195 0
174 198 0
175 198 0
175 197 0
176 199 0
174 197 0
174 198 0
174 196 0
175 197 0
173 197 0
176 196 0
176 199 0
175 197 0
172 196 0
174 197 0
172 194 0
176 198 0
172 194 0
171 195 0
175 198 0
172 193 0
174 195 0
171 194 0
174 194 0
171 192 0
174 197 0
174 196 0
173 193 0
172 193 0
173 195 0
170 191 0
173 196 0
173 194 0
167 189 0
172 195 0
170 192 0
169 193 0
171 192 0
171 195 0
169 190 0
169 189 0
172 194 0
173 196 0
170 190 0
168 188 0
172 192 0
168 189 0
167 189 0
171 192 0
171 193 0
167 189 0
172 190 0
169 190 0
171 193 0
168 188 0
169 189 0
169 190 0
170 190 0
163 185 0
171 192 0
167 186 0
166 186 0
171 190 0
168 189 0
167 190 0
166 187 0
169 191 0
170 191 0
168 190 0
172 193 0
167 190 0
172 194 0
170 192 0
166 189 0
168 190 0
171 195 0
173 197 0
171 194 0
171 194 0
173 196 0
171 195 0
170 194 0
172 195 0
173 197 0
172 196 0
175 198 0
172 196 0
172 196 0
172 195 0
173 197 0
172 196 0
172 196 0
173 196 0
172 197 0
172 196 0
171 196 0
174 197 0
173 197 0
175 198 0
174 198 0
173 197 0
175 198 0
173 197 0
173 197 0
174 198 0
176 199 0
173 197 0
175 198 0
174 198 0
174 197 0
172 196 0
174 197 0
175 198 0
175 198 0
175 198 0
174 197 0
173 197 0
174 197 0
174 197 0
175 198 0
173 197 0
175 197 0
177 199 0
173 197 0
173 196 0
173 197 0
174 197 0
174 197 0
174 197 0
176 199 0
175 198 0
177 199 0
173 196 0
174 197 0
177 199 0
175 198 0
176 198 0
174 198 0
173 197 0
175 198 0
173 197 0
174 198 0
171 196 0
173 197 0
175 198 0
175 198 0
174 197 0
174 197 0
174 198 0
173 197 0
172 197 0
176 198 0
178 199 0
175 198 0
174 198 0
175 197 0
173 197 0
174 198 0
175 198 0
174 197 0
176 199 0
174 198 0
175 198 0
174 198 0
174 197 0
173 197 0
174 197 0
174 198 0
172 197 0
175 198 0
171 196 0
175 198 0
173 197 0
174 197 0
175 198 0
173 197 0
175 198 0
173 197 0
173 197 0
174 197 0
175 198 0
174 197 0
172 196 0
174 198 0
176 198 0
176 198 0
175 198 0
176 198 0
175 198 0
174 198 0
175 198 0
173 197 0
174 198 0
173 197 0
175 198 0
174 197 0
176 199 0
175 198 0
175 198 0
173 197 0
176 198 0
173 197 0
174 198 0
173 197 0
177 199 0
175 198 0
174 198 0
174 198 0
174 197 0
174 198 0
175 198 0
175 198 0
175 198 0
174 197 0
174 198 0
174 198 0
175 198 0
174 198 0
176 199 0
171 196 0
173 197 0
174 197 0
174 197 0
175 198 0
174 198 0
173 197 0
176 199 0
174 198 0
175 198 0
174 198 0
176 198 0
175 198 0
172 197 0
174 198 0
173 197 0
174 198 0
175 198 0
176 198 0
175 198 0
174 198 0
174 198 0
173 197 0
174 198 0
173 197 0
175 198 0
174 197 0
177 199 0
173 197 0
175 198 0
174 198 0
172 196 0
174 198 0
176 198 0
173 197 0
177 199 0
177 199 0
176 198 0
174 197 0
176 199 0
175 198 0
175 198 0
176 199 0
175 198 0
174 197 0
176 199 0
174 197 0
173 197 0
173 197 0
176 199 0
176 199 0
176 198 0
172 196 0
172 197 0
176 198 0
173 197 0
175 198 0
176 199 0
175 198 0
174 197 0
173 197 0
176 198 0
176 198 0
173 197 0
173 197 0
175 198 0
175 198 0
174 198 0
174 198 0
174 197 0
175 198 0
174 198 0
175 198 0
177 199 0
175 198 0
175 198 0
175 198 0
175 198 0
177 199 0
174 197 0
175 198 0
171 196 0
173 197 0
172 196 0
173 197 0
173 197 0
174 197 0
175 198 0
175 198 0
173 197 0
173 197 0
175 198 0
177 199 0
173 196 0
174 198 0
175 198 0
176 199 0
174 198 0
175 198 0
174 198 0
175 198 0
176 199 0
174 198 0
176 198 0
174 198 0
173 197 0
174 197 0
175 198 0
173 197 0
175 198 0
176 199 0
175 198 0
174 198 0
174 198 0
172 196 0
173 197 0
174 197 0
175 198 0
174 198 0
175 198 0
172 196 0
173 197 0
174 197 0
174 197 0
174 198 0
175 198 0
176 199 0
174 198 0
174 198 0
177 199 0
177 199 0
172 195 0
172 197 0
172 197 0
174 198 0
174 197 0
177 199 0
173 197 0
175 198 0
176 198 0
174 197 0
174 196 0
174 198 0
177 199 0
173 197 0
172 196 0
174 198 0
173 197 0
173 197 0
174 198 0
173 197 0
175 198 0
175 198 0
174 198 0
174 197 0
175 198 0
175 198 0
176 198 0
176 199 0
173 197 0
172 195 0
175 198 0
174 198 0
172 196 0
174 198 0
173 197 0
175 198 0
174 197 0
173 196 0
174 197 0
173 197 0
172 196 0
174 197 0
174 198 0
174 197 0
174 197 0
174 198 0
173 197 0
173 197 0
175 197 0
174 196 0
174 196 0
174 198 0
172 196 0
172 195 0
176 198 0
172 196 0
175 198 0
173 195 0
173 196 0
173 197 0
172 196 0
174 198 0
173 197 0
175 198 0
174 196 0
172 195 0
175 198 0
171 194 0
175 198 0
174 197 0
173 196 0
170 191 0
173 195 0
172 193 0
172 194 0
175 198 0
173 195 0
173 195 0
171 194 0
173 196 0
170 192 0
174 198 0
171 195 0
169 189 0
172 195 0
172 195 0
168 190 0
171 194 0
172 192 0
169 191 0
173 194 0
170 191 0
170 193 0
169 191 0
171 194 0
171 196 0
168 190 0
170 194 0
170 186 0
167 186 0
167 189 0
169 191 0
165 187 0
168 191 0
167 190 0
167 188 0
172 194 0
167 187 0
170 190 0
168 189 0
172 194 0
167 189 0
168 191 0
170 193 0
171 193 0
170 194 0
168 187 0
167 188 0
169 192 0
169 191 0
171 195 0
168 191 0
170 194 0
169 192 0
168 191 0
172 195 0
173 195 0
170 194 0
170 193 0
169 193 0
174 197 0
171 193 0
171 193 0
173 196 0
174 197 0
174 197 0
173 197 0
174 197 0
172 196 0
172 195 0
174 197 0
173 196 0
173 197 0
173 197 0
173 197 0
173 197 0
176 198 0
175 198 0
173 197 0
175 198 0
173 197 0
173 197 0
174 197 0
175 198 0
173 197 0
174 197 0
174 198 0
177 199 0
172 196 0
174 198 0
174 197 0
172 197 0
175 198 0
176 198 0
173 197 0
172 196 0
173 197 0
173 197 0
173 197 0
176 199 0
174 198 0
176 199 0
175 198 0
176 199 0
174 198 0
175 198 0
176 199 0
174 198 0
172 197 0
174 198 0
174 198 0
176 199 0
174 197 0
175 198 0
175 198 0
174 198 0
174 197 0
176 198 0
175 198 0
174 197 0
173 197 0
173 197 0
176 199 0
175 198 0
174 198 0
174 197 0
176 198 0
172 197 0
173 197 0
173 197 0
176 199 0
176 198 0
172 197 0
173 197 0
173 197 0
174 197 0
175 198 0
174 197 0
175 198 0
175 198 0
174 197 0
174 197 0
175 198 0
174 198 0
174 198 0
173 197 0
174 198 0
177 199 0
173 197 0
175 198 0
174 198 0
174 198 0
173 197 0
173 197 0
173 197 0
173 197 0
175 198 0
173 197 0
174 198 0
175 198 0
175 198 0
174 198 0
173 197 0
176 199 0
172 197 0
174 198 0
174 198 0
175 198 0
176 198 0
173 197 0
175 198 0
172 197 0
174 198 0
176 198 0
175 198 0
177 199 0
174 197 0
172 197 0
174 198 0
175 198 0
175 198 0
177 199 0
175 198 0
175 198 0
174 198 0
179 200 0
175 198 0
173 197 0
174 198 0
174 198 0
173 197 0
174 198 0
171 196 0
175 198 0
173 197 0
174 198 0
173 197 0
175 198 0
175 198 0
173 197 0
172 197 0
175 198 0
175 198 0
176 198 0
176 199 0
174 197 0
175 198 0
174 198 0
176 198 0
177 199 0
174 198 0
175 198 0
173 197 0
177 199 0
173 197 0
173 197 0
176 199 0
174 197 0
174 198 0
174 198 0
173 197 0
175 198 0
175 198 0
175 198 0
174 198 0
174 198 0
175 198 0
175 198 0
174 198 0
174 197 0
175 198 0
176 198 0
174 197 0
173 197 0
173 197 0
176 199 0
173 197 0
174 198 0
176 199 0
174 198 0
175 198 0
175 198 0
173 197 0
178 200 0
173 197 0
175 198 0
175 198 0
176 199 0
174 197 0
176 199 0
178 200 0
173 197 0
176 199 0
175 198 0
176 199 0
176 199 0
174 198 0
175 198 0
173 197 0
174 198 0
174 197 0
175 198 0
176 199 0
173 197 0
174 198 0
174 198 0
176 199 0
176 199 0
174 198 0
174 197 0
175 198 0
177 199 0
174 198 0
174 198 0
174 197 0
172 197 0
173 197 0
173 197 0
173 197 0
176 199 0
176 199 0
176 199 0
174 198 0
174 198 0
173 197 0
173 197 0
174 197 0
174 198 0
176 199 0
173 197 0
176 199 0
175 198 0
174 198 0
173 197 0
175 198 0
172 196 0
174 197 0
172 197 0
174 197 0
174 198 0
174 198 0
173 197 0
175 198 0
174 198 0
175 198 0
176 199 0
174 198 0
174 197 0
177 199 0
173 197 0
176 199 0
174 198 0
175 198 0
175 198 0
174 197 0
174 198 0
173 197 0
175 198 0
175 198 0
173 197 0
174 198 0
175 197 0
173 197 0
175 198 0
176 198 0
174 198 0
174 198 0
175 198 0
174 198 0
174 198 0
178 200 0
175 198 0
175 198 0
174 198 0
175 198 0
176 199 0
173 197 0
176 199 0
175 198 0
175 198 0
173 196 0
173 197 0
174 197 0
175 198 0
175 198 0
176 199 0
176 199 0
174 197 0
173 196 0
173 196 0
175 198 0
175 198 0
173 197 0
173 197 0
176 199 0
176 199 0
173 196 0
174 198 0
173 197 0
173 197 0
172 197 0
175 198 0
175 198 0
175 197 0
173 197 0
174 197 0
174 197 0
177 199 0
176 199 0
173 196 0
174 198 0
171 196 0
172 195 0
174 198 0
173 196 0
174 198 0
174 198 0
175 198 0
175 198 0
174 198 0
176 197 0
175 198 0
173 197 0
172 196 0
174 198 0
175 198 0
174 198 0
171 195 0
173 196 0
174 197 0
172 197 0
174 197 0
174 197 0
176 198 0
172 196 0
174 197 0
173 197 0
175 197 0
170 190 0
172 196 0
175 198 0
173 196 0
171 194 0
172 194 0
173 196 0
169 193 0
171 195 0
173 195 0
174 196 0
172 193 0
174 198 0
173 194 0
175 195 0
173 195 0
173 195 0
171 195 0
170 192 0
172 191 0
168 191 0
169 192 0
173 194 0
170 193 0
172 194 0
171 194 0
167 188 0
166 188 0
172 193 0
166 188 0
169 191 0
173 195 0
170 190 0
171 195 0
169 191 0
170 192 0
163 184 0
170 191 0
168 190 0
165 184 0
170 190 0
169 191 0
172 195 0
169 190 0
172 194 0
170 192 0
168 191 0
172 194 0
168 191 0
166 188 0
172 196 0
170 192 0
173 195 0
168 192 0
171 194 0
171 195 0
173 195 0
171 193 0
172 194 0
172 195 0
173 196 0
172 195 0
168 191 0
173 196 0
174 197 0
175 197 0
171 194 0
173 196 0
171 195 0
170 195 0
174 198 0
173 197 0
172 194 0
172 196 0
173 196 0
173 197 0
174 197 0
172 196 0
177 199 0
174 197 0
174 198 0
173 196 0
172 197 0
176 199 0
175 198 0
173 197 0
173 196 0
175 198 0
172 197 0
173 197 0
173 197 0
175 198 0
175 198 0
174 197 0
173 197 0
174 197 0
176 198 0
173 197 0
172 197 0
175 198 0
174 198 0
174 197 0
175 198 0
178 199 0
176 198 0
175 198 0
176 199 0
173 197 0
172 196 0
173 197 0
173 197 0
176 198 0
176 199 0
174 197 0
175 198 0
174 198 0
174 198 0
175 197 0
174 198 0
174 198 0
173 196 0
173 197 0
175 198 0
173 197 0
179 200 0
173 197 0
174 198 0
173 197 0
176 199 0
174 197 0
174 198 0
175 198 0
173 197 0
173 197 0
172 195 0
175 198 0
174 197 0
175 198 0
175 198 0
174 197 0
174 198 0
174 198 0
175 198 0
174 198 0
177 199 0
173 197 0
176 199 0
174 198 0
173 197 0
176 199 0
176 198 0
176 199 0
175 198 0
172 196 0
176 199 0
174 198 0
174 197 0
174 198 0
174 197 0
175 198 0
175 198 0
173 197 0
175 198 0
176 199 0
173 197 0
173 197 0
175 198 0
174 198 0
175 198 0
175 198 0
173 197 0
175 198 0
173 197 0
173 197 0
175 198 0
174 198 0
175 198 0
177 199 0
173 197 0
176 198 0
176 199 0
176 198 0
174 197 0
175 198 0
172 197 0
172 197 0
173 197 0
174 198 0
174 197 0
175 198 0
176 199 0
175 198 0
175 198 0
173 197 0
176 198 0
175 198 0
174 198 0
174 198 0
174 197 0
174 198 0
177 199 0
176 199 0
175 198 0
175 198 0
173 197 0
175 198 0
172 196 0
175 197 0
177 199 0
176 198 0
175 198 0
174 198 0
175 198 0
174 197 0
175 198 0
173 197 0
177 199 0
173 197 0
174 197 0
175 198 0
176 199 0
176 199 0
177 199 0
175 198 0
174 197 0
175 198 0
176 198 0
176 199 0
174 198 0
174 198 0
174 197 0
175 198 0
176 199 0
173 197 0
174 198 0
177 199 0
173 197 0
173 197 0
174 197 0
175 198 0
176 199 0
175 198 0
176 198 0
177 199 0
176 199 0
177 199 0
174 198 0
176 198 0
177 199 0
175 198 0
174 198 0
175 198 0
175 198 0
176 199 0
172 197 0
173 197 0
177 199 0
175 198 0
174 198 0
174 198 0
176 199 0
173 197 0
175 198 0
173 197 0
174 198 0
177 199 0
175 198 0
173 197 0
174 197 0
174 197 0
175 198 0
171 196 0
174 198 0
174 198 0
175 198 0
173 197 0
174 198 0
176 199 0
176 199 0
176 199 0
176 199 0
174 198 0
175 198 0
176 199 0
174 197 0
175 198 0
176 199 0
175 198 0
173 197 0
173 197 0
172 196 0
175 198 0
174 198 0
173 197 0
174 198 0
174 198 0
176 199 0
174 198 0
176 199 0
174 198 0
175 198 0
174 198 0
175 198 0
174 198 0
174 196 0
176 199 0
174 198 0
176 199 0
174 198 0
178 200 0
174 198 0
174 197 0
173 196 0
173 197 0
175 198 0
174 198 0
174 198 0
173 197 0
174 198 0
174 198 0
174 197 0
176 198 0
175 197 0
172 197 0
174 198 0
175 198 0
174 198 0
175 198 0
174 198 0
174 197 0
174 198 0
174 198 0
175 198 0
177 199 0
176 199 0
175 198 0
172 197 0
176 199 0
174 198 0
175 198 0
175 198 0
172 196 0
175 198 0
172 196 0
175 198 0
172 197 0
173 197 0
175 198 0
172 197 0
174 198 0
175 198 0
175 198 0
172 196 0
174 196 0
175 198 0
175 198 0
175 198 0
172 197 0
174 198 0
172 194 0
174 198 0
175 198 0
177 199 0
174 198 0
174 198 0
177 199 0
173 197 0
176 199 0
176 199 0
173 197 0
175 198 0
173 196 0
174 198 0
172 196 0
174 198 0
172 197 0
176 199 0
174 197 0
174 197 0
176 198 0
173 197 0
172 197 0
173 197 0
175 198 0
172 196 0
176 198 0
174 198 0
174 197 0
173 196 0
174 197 0
174 197 0
174 198 0
176 198 0
174 197 0
173 197 0
174 197 0
173 197 0
174 197 0
175 198 0
176 197 0
172 194 0
173 196 0
175 198 0
171 192 0
174 195 0
172 194 0
172 196 0
174 196 0
172 194 0
174 196 0
175 197 0
172 191 0
174 195 0
172 195 0
172 194 0
174 196 0
172 195 0
170 189 0
168 189 0
174 195 0
168 191 0
171 194 0
171 194 0
172 194 0
171 191 0
165 186 0
170 194 0
170 194 0
170 191 0
170 194 0
170 192 0
169 189 0
171 194 0
168 191 0
167 187 0
172 194 0
171 193 0
172 194 0
168 186 0
172 195 0
170 193 0
173 196 0
166 187 0
170 193 0
169 192 0
170 193 0
172 195 0
170 191 0
171 194 0
171 193 0
171 195 0
171 194 0
173 196 0
171 194 0
174 195 0
171 193 0
170 193 0
169 192 0
168 192 0
174 196 0
173 195 0
172 196 0
171 193 0
169 192 0
176 197 0
172 195 0
173 197 0
170 195 0
171 194 0
173 196 0
173 196 0
174 197 0
174 197 0
173 196 0
175 198 0
174 197 0
174 197 0
174 197 0
175 198 0
174 198 0
176 199 0
172 196 0
172 196 0
173 196 0
173 197 0
175 198 0
172 195 0
173 197 0
173 197 0
176 198 0
175 198 0
173 197 0
172 196 0
174 197 0
174 197 0
174 197 0
176 198 0
176 198 0
176 198 0
174 198 0
177 199 0
175 198 0
176 199 0
174 198 0
174 198 0
173 197 0
172 197 0
173 196 0
173 197 0
173 197 0
173 197 0
173 197 0
172 197 0
173 197 0
177 199 0
175 198 0
173 197 0
175 198 0
175 198 0
174 198 0
175 198 0
174 198 0
174 198 0
175 198 0
172 197 0
177 199 0
176 198 0
174 198 0
175 198 0
174 198 0
175 198 0
174 197 0
176 199 0
177 199 0
174 198 0
175 198 0
174 197 0
173 197 0
174 198 0
174 198 0
174 197 0
174 198 0
176 199 0
174 197 0
177 199 0
174 197 0
174 198 0
175 198 0
175 198 0
174 198 0
175 198 0
175 198 0
174 198 0
174 197 0
174 198 0
174 198 0
174 197 0
175 198 0
174 197 0
174 198 0
176 198 0
173 197 0
174 198 0
175 198 0
174 198 0
173 197 0
175 198 0
175 198 0
175 198 0
175 198 0
175 198 0
174 198 0
174 197 0
175 198 0
174 198 0
176 199 0
174 198 0
174 198 0
175 198 0
175 198 0
174 198 0
176 199 0
178 199 0
176 198 0
173 197 0
174 198 0
175 198 0
176 199 0
174 198 0
175 198 0
173 197 0
173 197 0
175 198 0
176 199 0
174 198 0
173 197 0
176 198 0
172 196 0
175 198 0
174 197 0
176 199 0
174 198 0
176 199 0
174 198 0
175 198 0
174 197 0
174 198 0
175 198 0
174 198 0
174 198 0
174 198 0
175 198 0
170 195 0
176 198 0
174 198 0
175 198 0
175 198 0
173 197 0
175 198 0
173 197 0
172 197 0
174 198 0
175 198 0
176 198 0
175 198 0
174 198 0
176 199 0
173 197 0
174 197 0
176 199 0
177 199 0
174 197 0
175 198 0
175 198 0
173 197 0
175 198 0
175 198 0
173 196 0
172 197 0
176 198 0
176 199 0
175 198 0
176 199 0
172 197 0
175 198 0
175 198 0
174 198 0
175 198 0
173 197 0
176 199 0
174 197 0
175 198 0
174 198 0
174 198 0
174 198 0
175 198 0
176 199 0
174 197 0
174 197 0
177 199 0
174 198 0
173 197 0
174 198 0
173 197 0
173 197 0
174 197 0
172 197 0
172 197 0
174 198 0
174 198 0
175 198 0
174 198 0
174 198 0
177 199 0
174 198 0
175 198 0
176 198 0
174 198 0
176 198 0
175 198 0
176 199 0
176 199 0
174 198 0
174 197 0
175 198 0
174 197 0
174 198 0
175 198 0
175 198 0
174 198 0
174 197 0
174 197 0
175 198 0
173 197 0
176 199 0
175 198 0
175 198 0
176 198 0
175 198 0
174 198 0
173 197 0
175 198 0
172 197 0
174 197 0
173 197 0
175 198 0
174 198 0
173 197 0
173 197 0
173 197 0
176 198 0
176 199 0
175 198 0
174 198 0
173 197 0
174 198 0
174 198 0
177 199 0
174 198 0
173 197 0
176 198 0
173 197 0
175 198 0
175 198 0
173 197 0
173 197 0
174 198 0
173 197 0
175 198 0
174 198 0
175 198 0
175 198 0
176 199 0
176 199 0
174 198 0
175 198 0
176 198 0
176 198 0
173 197 0
175 198 0
173 197 0
175 198 0
174 197 0
173 197 0
176 199 0
173 197 0
175 198 0
174 197 0
174 197 0
175 198 0
175 198 0
172 196 0
175 198 0
177 199 0
174 198 0
174 198 0
174 197 0
175 198 0
175 198 0
171 194 0
173 197 0
174 197 0
176 198 0
175 198 0
174 198 0
175 198 0
176 199 0
174 198 0
174 198 0
176 198 0
174 198 0
171 196 0
174 198 0
174 195 0
175 198 0
174 198 0
176 199 0
175 197 0
175 198 0
176 199 0
175 197 0
175 198 0
172 197 0
172 193 0
175 198 0
175 198 0
174 197 0
173 196 0
172 194 0
173 196 0
172 195 0
171 194 0
176 199 0
173 196 0
172 196 0
173 196 0
176 199 0
175 198 0
174 197 0
174 198 0
173 196 0
176 198 0
175 198 0
171 193 0
173 197 0
172 196 0
174 198 0
172 195 0
173 195 0
172 195 0
172 195 0
170 190 0
171 196 0
174 196 0
173 196 0
173 197 0
168 189 0
170 191 0
170 193 0
172 196 0
167 190 0
170 194 0
173 195 0
171 193 0
170 192 0
167 191 0
173 196 0
168 192 0
174 196 0
169 193 0
171 196 0
170 190 0
166 187 0
170 189 0
169 192 0
167 186 0
171 193 0
170 190 0
171 193 0
167 191 0
171 195 0
169 193 0
169 192 0
169 192 0
170 193 0
172 194 0
167 190 0
172 196 0
174 196 0
172 194 0
172 194 0
169 192 0
174 197 0
169 193 0
170 194 0
170 193 0
169 193 0
168 192 0
171 195 0
172 196 0
172 195 0
170 194 0
173 194 0
170 195 0
170 194 0
172 196 0
172 196 0
174 197 0
173 197 0
170 195 0
174 197 0
174 198 0
172 195 0
173 197 0
173 197 0
174 197 0
175 198 0
171 196 0
175 197 0
176 199 0
175 197 0
174 197 0
176 199 0
172 195 0
173 197 0
175 198 0
174 198 0
177 199 0
174 197 0
174 197 0
175 198 0
175 197 0
175 198 0
172 196 0
176 198 0
173 196 0
173 197 0
175 198 0
176 199 0
176 199 0
174 198 0
173 197 0
174 198 0
173 197 0
175 198 0
175 198 0
176 198 0
174 197 0
178 199 0
174 198 0
177 199 0
173 197 0
174 197 0
174 198 0
175 198 0
174 197 0
176 199 0
176 199 0
175 198 0
177 199 0
174 198 0
175 198 0
171 196 0
173 197 0
175 198 0
175 198 0
175 198 0
174 198 0
175 198 0
175 198 0
174 198 0
173 197 0
174 198 0
175 198 0
175 198 0
174 197 0
176 198 0
174 198 0
175 198 0
175 198 0
175 198 0
174 198 0
174 198 0
174 198 0
174 198 0
174 197 0
176 198 0
173 197 0
171 196 0
177 199 0
174 197 0
177 199 0
175 198 0
174 198 0
176 199 0
174 197 0
176 198 0
174 198 0
174 198 0
173 197 0
174 198 0
175 198 0
176 199 0
173 197 0
175 198 0
173 197 0
173 197 0
174 197 0
174 197 0
173 197 0
176 198 0
174 198 0
174 198 0
174 198 0
172 196 0
173 197 0
175 198 0
174 198 0
175 198 0
174 198 0
175 198 0
172 197 0
174 198 0
177 199 0
176 198 0
176 198 0
175 198 0
174 198 0
175 198 0
173 197 0
176 199 0
177 199 0
174 197 0
174 198 0
173 197 0
174 198 0
174 197 0
174 197 0
174 197 0
173 197 0
175 198 0
173 197 0
172 197 0
172 197 0
174 197 0
172 197 0
176 199 0
172 197 0
173 197 0
175 198 0
173 197 0
177 199 0
173 197 0
174 198 0
174 198 0
175 198 0
177 199 0
176 199 0
175 198 0
173 197 0
173 197 0
176 198 0
173 197 0
175 198 0
175 198 0
173 197 0
173 197 0
173 197 0
175 198 0
175 198 0
175 198 0
172 197 0
174 197 0
175 198 0
176 199 0
172 197 0
174 197 0
175 198 0
173 197 0
175 198 0
174 197 0
177 199 0
173 197 0
174 197 0
174 198 0
174 198 0
176 199 0
174 198 0
176 198 0
175 198 0
175 198 0
174 198 0
175 198 0
174 197 0
175 198 0
176 199 0
175 198 0
176 199 0
174 198 0
175 198 0
175 198 0
175 198 0
175 198 0
176 199 0
174 198 0
173 197 0
175 198 0
174 197 0
175 198 0
176 199 0
175 198 0
173 197 0
176 198 0
175 198 0
175 198 0
173 197 0
174 198 0
172 197 0
175 198 0
174 198 0
175 198 0
174 198 0
176 199 0
174 198 0
174 198 0
174 197 0
175 198 0
174 197 0
173 197 0
172 196 0
175 198 0
173 197 0
173 197 0
176 199 0
174 198 0
174 198 0
175 198 0
176 199 0
174 198 0
175 198 0
174 197 0
175 198 0
172 197 0
174 198 0
173 197 0
173 197 0
173 197 0
176 199 0
176 199 0
173 197 0
175 198 0
174 197 0
173 196 0
177 199 0
173 197 0
173 197 0
174 198 0
174 198 0
174 196 0
176 199 0
173 197 0
177 199 0
176 198 0
176 199 0
174 198 0
173 197 0
175 198 0
175 198 0
175 198 0
173 197 0
174 198 0
173 197 0
176 199 0
174 198 0
173 197 0
174 198 0
173 197 0
177 199 0
176 199 0
178 199 0
174 197 0
174 197 0
175 198 0
175 198 0
175 198 0
174 197 0
173 197 0
174 196 0
178 200 0
174 197 0
176 198 0
174 197 0
174 198 0
172 197 0
175 198 0
175 198 0
172 197 0
174 198 0
173 197 0
176 198 0
174 198 0
177 199 0
171 196 0
174 198 0
177 199 0
172 195 0
173 197 0
176 199 0
177 199 0
175 198 0
173 197 0
176 199 0
175 198 0
171 195 0
173 197 0
177 199 0
174 196 0
173 197 0
174 198 0
177 199 0
173 197 0
173 197 0
174 198 0
175 197 0
173 196 0
172 196 0
174 197 0
176 198 0
174 198 0
174 198 0
173 196 0
172 196 0
174 198 0
174 197 0
175 198 0
175 198 0
173 195 0
174 197 0
175 198 0
174 196 0
174 195 0
171 194 0
174 196 0
173 192 0
175 195 0
173 196 0
171 195 0
171 193 0
172 197 0
173 197 0
173 195 0
173 196 0
175 197 0
175 198 0
173 197 0
172 194 0
171 194 0
171 192 0
171 194 0
170 193 0
174 197 0
171 194 0
174 197 0
172 195 0
172 193 0
172 195 0
172 196 0
174 195 0
173 195 0
170 193 0
172 195 0
171 194 0
174 193 0
173 196 0
171 195 0
171 194 0
171 194 0
172 196 0
172 196 0
169 190 0
173 196 0
169 193 0
171 194 0
170 192 0
171 195 0
174 197 0
168 191 0
168 190 0
171 194 0
172 194 0
169 192 0
171 193 0
174 196 0
174 196 0
175 197 0
169 192 0
172 196 0
172 196 0
173 195 0
173 197 0
171 194 0
174 197 0
170 193 0
171 195 0
172 196 0
173 196 0
172 196 0
173 197 0
176 198 0
174 198 0
174 197 0
173 196 0
172 195 0
171 194 0
175 198 0
173 197 0
174 197 0
173 197 0
175 197 0
174 197 0
174 197 0
175 198 0
174 198 0
173 197 0
173 197 0
175 198 0
173 197 0
171 196 0
174 197 0
173 197 0
171 196 0
175 198 0
175 198 0
174 198 0
173 197 0
175 198 0
175 198 0
174 198 0
175 198 0
174 198 0
175 198 0
173 197 0
171 196 0
175 198 0
173 197 0
174 197 0
173 197 0
174 198 0
175 198 0
175 198 0
175 198 0
177 199 0
174 197 0
174 197 0
174 197 0
175 198 0
173 197 0
175 198 0
173 197 0
172 197 0
174 198 0
175 198 0
173 197 0
174 198 0
173 197 0
174 198 0
176 199 0
173 197 0
175 198 0
173 197 0
175 197 0
174 198 0
174 197 0
177 199 0
176 198 0
173 197 0
173 197 0
175 198 0
176 199 0
175 198 0
174 197 0
174 198 0
174 197 0
173 197 0
173 197 0
173 197 0
175 198 0
176 199 0
176 199 0
172 197 0
174 197 0
172 197 0
177 199 0
175 198 0
174 198 0
175 198 0
174 198 0
176 198 0
175 198 0
175 198 0
174 197 0
174 198 0
177 199 0
176 198 0
173 197 0
173 197 0
175 198 0
174 198 0
175 198 0
174 198 0
172 197 0
177 199 0
176 199 0
175 198 0
174 197 0
174 198 0
176 199 0
173 197 0
173 197 0
172 197 0
175 198 0
175 198 0
176 199 0
173 197 0
176 198 0
173 197 0
175 198 0
176 199 0
171 196 0
173 197 0
176 198 0
174 198 0
176 199 0
175 198 0
173 197 0
174 198 0
175 198 0
176 199 0
174 197 0
175 198 0
175 198 0
173 197 0
174 198 0
175 198 0
175 198 0
175 198 0
173 197 0
174 198 0
171 196 0
176 199 0
175 198 0
175 198 0
176 199 0
174 198 0
173 197 0
175 198 0
177 199 0
172 197 0
173 197 0
176 199 0
174 198 0
176 199 0
173 197 0
174 197 0
174 198 0
176 198 0
175 198 0
175 198 0
175 198 0
174 198 0
173 197 0
176 199 0
175 198 0
172 197 0
173 197 0
174 197 0
176 199 0
173 197 0
176 198 0
172 197 0
174 198 0
176 199 0
176 198 0
173 197 0
174 198 0
174 198 0
176 199 0
175 198 0
176 199 0
172 197 0
174 197 0
174 197 0
174 198 0
174 198 0
175 198 0
174 198 0
173 197 0
174 197 0
174 198 0
173 197 0
175 198 0
172 197 0
175 198 0
174 198 0
174 197 0
174 198 0
174 198 0
173 197 0
175 198 0
174 198 0
175 198 0
174 198 0
175 198 0
171 196 0
174 198 0
175 198 0
174 197 0
176 199 0
175 198 0
175 198 0
175 198 0
175 198 0
174 197 0
173 197 0
173 197 0
174 198 0
174 198 0
175 198 0
174 198 0
177 199 0
174 198 0
174 197 0
173 197 0
174 198 0
172 196 0
174 198 0
176 199 0
174 198 0
174 197 0
174 197 0
174 197 0
176 199 0
174 198 0
174 197 0
174 197 0
175 198 0
174 197 0
175 198 0
174 198 0
174 197 0
176 198 0
176 198 0
174 197 0
174 198 0
176 199 0
175 198 0
173 196 0
177 198 0
174 197 0
174 198 0
176 199 0
173 197 0
174 197 0
175 198 0
173 197 0
173 197 0
177 199 0
173 197 0
176 199 0
175 198 0
174 197 0
174 198 0
175 198 0
174 198 0
173 197 0
173 197 0
174 198 0
175 198 0
175 198 0
174 197 0
175 198 0
175 198 0
175 198 0
174 198 0
174 197 0
174 198 0
175 198 0
173 197 0
175 198 0
174 198 0
175 198 0
172 196 0
172 196 0
176 199 0
175 198 0
173 197 0
174 198 0
174 198 0
174 197 0
175 198 0
175 198 0
173 196 0
172 197 0
172 197 0
175 198 0
174 198 0
174 197 0
174 198 0
175 198 0
173 197 0
175 198 0
174 198 0
175 198 0
174 198 0
172 197 0
176 198 0
175 198 0
171 196 0
175 198 0
174 198 0
174 197 0
175 198 0
174 198 0
176 199 0
176 198 0
174 198 0
173 197 0
175 198 0
173 196 0
175 198 0
173 197 0
175 197 0
175 198 0
175 198 0
173 196 0
176 199 0
172 193 0
174 196 0
173 195 0
172 194 0
174 198 0
175 197 0
174 198 0
174 198 0
175 197 0
175 198 0
174 197 0
175 197 0
173 196 0
173 197 0
170 192 0
172 194 0
173 197 0
170 190 0
171 193 0
172 194 0
174 195 0
171 195 0
174 196 0
171 192 0
172 195 0
170 191 0
173 195 0
172 194 0
175 198 0
175 198 0
170 193 0
174 197 0
171 193 0
172 194 0
173 196 0
168 188 0
170 192 0
175 198 0
168 191 0
169 189 0
172 195 0
169 188 0
170 191 0
174 196 0
172 195 0
171 194 0
171 193 0
170 194 0
173 196 0
169 192 0
169 191 0
169 193 0
173 195 0
172 196 0
172 195 0
171 194 0
172 195 0
174 198 0
172 196 0
171 194 0
172 196 0
168 192 0
172 195 0
174 196 0
174 197 0
172 195 0
175 198 0
173 196 0
172 196 0
169 194 0
172 196 0
174 196 0
172 195 0
171 196 0
173 197 0
175 197 0
175 197 0
174 197 0
174 197 0
176 199 0
173 196 0
173 197 0
173 197 0
171 194 0
174 197 0
173 197 0
174 198 0
177 199 0
172 196 0
172 196 0
173 197 0
173 197 0
176 199 0
175 198 0
173 197 0
173 197 0
175 198 0
173 197 0
175 198 0
174 198 0
173 197 0
174 198 0
176 199 0
174 198 0
174 198 0
175 198 0
175 198 0
174 197 0
172 196 0
173 197 0
173 197 0
174 198 0
174 198 0
172 196 0
175 198 0
172 197 0
174 198 0
176 199 0
174 198 0
173 197 0
173 197 0
173 197 0
174 198 0
171 196 0
174 198 0
174 198 0
175 198 0
173 197 0
173 197 0
176 199 0
174 198 0
175 198 0
173 197 0
174 198 0
174 198 0
175 198 0
175 198 0
174 198 0
173 197 0
176 199 0
176 199 0
174 198 0
175 198 0
176 199 0
175 198 0
175 198 0
175 198 0
176 199 0
174 197 0
172 197 0
172 197 0
175 198 0
174 198 0
173 197 0
174 198 0
174 197 0
175 198 0
172 197 0
176 199 0
173 197 0
174 198 0
175 198 0
173 197 0
173 197 0
174 198 0
176 199 0
171 196 0
175 198 0
175 198 0
175 198 0
172 197 0
175 198 0
171 196 0
176 199 0
175 198 0
173 197 0
172 197 0
173 197 0
176 198 0
175 198 0
173 197 0
173 196 0
175 198 0
172 197 0
176 199 0
172 197 0
173 197 0
174 197 0
175 198 0
175 198 0
174 198 0
176 199 0
175 198 0
176 198 0
172 197 0
175 198 0
172 197 0
174 197 0
173 197 0
176 199 0
176 198 0
175 198 0
175 198 0
174 198 0
175 198 0
175 198 0
174 197 0
176 199 0
173 197 0
173 197 0
175 198 0
175 198 0
174 198 0
175 198 0
170 196 0
174 197 0
174 198 0
174 197 0
173 197 0
177 199 0
173 197 0
175 198 0
175 198 0
175 198 0
175 198 0
173 197 0
175 198 0
173 197 0
173 197 0
175 198 0
175 198 0
176 199 0
175 198 0
173 197 0
173 197 0
175 198 0
174 198 0
172 196 0
176 199 0
175 198 0
175 198 0
177 199 0
176 198 0
174 198 0
176 199 0
176 199 0
174 198 0
174 197 0
175 198 0
175 198 0
176 198 0
173 197 0
175 198 0
174 198 0
174 198 0
176 199 0
174 197 0
175 198 0
175 198 0
175 198 0
172 196 0
174 197 0
172 197 0
173 197 0
175 198 0
174 197 0
175 198 0
174 198 0
175 198 0
175 198 0
176 199 0
176 199 0
174 197 0
174 197 0
174 198 0
174 198 0
176 199 0
176 199 0
175 198 0
177 199 0
174 198 0
174 197 0
175 198 0
172 197 0
175 198 0
175 198 0
177 199 0
175 198 0
175 198 0
175 198 0
175 198 0
173 197 0
176 199 0
175 198 0
175 198 0
176 198 0
175 198 0
173 197 0
174 198 0
174 198 0
172 197 0
175 198 0
175 198 0
174 198 0
175 197 0
173 197 0
176 199 0
174 197 0
175 198 0
171 196 0
174 198 0
174 197 0
173 197 0
174 197 0
175 198 0
175 198 0
176 199 0
174 198 0
172 197 0
175 198 0
174 198 0
173 197 0
174 198 0
173 197 0
174 198 0
174 198 0
173 197 0
174 197 0
172 197 0
177 199 0
174 196 0
176 199 0
175 198 0
172 197 0
175 198 0
174 198 0
175 198 0
173 196 0
175 198 0
176 199 0
177 199 0
174 198 0
175 198 0
176 198 0
172 196 0
176 199 0
175 198 0
175 198 0
174 198 0
176 199 0
174 198 0
175 198 0
175 198 0
176 199 0
174 198 0
173 197 0
174 198 0
175 198 0
175 198 0
177 198 0
172 197 0
175 198 0
175 198 0
175 198 0
175 198 0
175 198 0
173 197 0
176 199 0
171 195 0
172 197 0
174 197 0
175 198 0
173 197 0
176 198 0
175 198 0
175 198 0
175 198 0
176 198 0
173 197 0
172 195 0
173 197 0
173 197 0
175 198 0
174 198 0
175 198 0
175 198 0
173 196 0
174 198 0
175 198 0
174 195 0
172 195 0
174 198 0
173 195 0
173 196 0
173 195 0
175 198 0
174 197 0
173 197 0
174 196 0
171 195 0
175 198 0
175 197 0
175 198 0
174 196 0
172 196 0
172 194 0
175 197 0
175 197 0
172 196 0
173 196 0
175 198 0
173 196 0
173 196 0
173 197 0
174 198 0
174 197 0
172 196 0
174 198 0
172 193 0
173 197 0
175 198 0
170 191 0
171 193 0
173 196 0
173 194 0
173 194 0
173 194 0
171 194 0
171 196 0
171 195 0
174 196 0
170 190 0
172 194 0
173 197 0
173 195 0
172 195 0
171 193 0
173 196 0
172 195 0
173 195 0
170 195 0
172 195 0
170 193 0
172 194 0
173 194 0
171 192 0
172 196 0
170 193 0
172 194 0
173 195 0
170 194 0
169 192 0
173 195 0
172 195 0
175 196 0
171 192 0
174 197 0
173 197 0
171 195 0
171 194 0
171 194 0
170 193 0
170 194 0
173 196 0
174 197 0
175 197 0
173 197 0
170 195 0
173 196 0
174 197 0
176 199 0
172 195 0
173 196 0
174 196 0
174 197 0
174 197 0
172 197 0
175 198 0
172 197 0
174 197 0
173 196 0
174 197 0
174 198 0
174 198 0
174 197 0
172 196 0
173 196 0
176 198 0
176 199 0
175 198 0
173 197 0
175 198 0
173 197 0
173 197 0
174 197 0
173 197 0
174 197 0
175 198 0
174 198 0
175 198 0
174 198 0
175 198 0
174 197 0
175 198 0
173 197 0
174 197 0
174 198 0
175 198 0
174 197 0
172 196 0
176 199 0
173 197 0
173 197 0
176 199 0
175 198 0
174 198 0
175 198 0
172 196 0
176 199 0
175 198 0
171 196 0
173 197 0
172 197 0
173 197 0
175 198 0
175 198 0
175 198 0
173 197 0
176 199 0
173 197 0
175 198 0
174 197 0
174 198 0
175 198 0
172 196 0
174 198 0
175 198 0
174 198 0
176 199 0
175 198 0
174 198 0
173 197 0
174 197 0
174 198 0
173 197 0
176 199 0
174 197 0
174 198 0
172 197 0
177 199 0
173 197 0
175 198 0
174 198 0
175 198 0
175 198 0
174 198 0
175 198 0
175 198 0
174 198 0
175 198 0
175 198 0
174 198 0
173 197 0
174 198 0
175 198 0
175 198 0
175 198 0
172 196 0
175 198 0
172 196 0
174 198 0
175 198 0
177 199 0
177 199 0
175 198 0
171 196 0
175 198 0
174 197 0
175 198 0
174 198 0
177 199 0
175 198 0
178 200 0
175 198 0
174 197 0
173 197 0
175 198 0
175 198 0
176 199 0
174 198 0
174 197 0
177 199 0
174 197 0
174 198 0
173 197 0
173 197 0
172 197 0
175 198 0
173 197 0
172 197 0
173 197 0
175 198 0
174 197 0
174 197 0
174 197 0
174 197 0
175 198 0
174 197 0
174 197 0
173 197 0
176 199 0
176 199 0
173 197 0
173 197 0
177 199 0
173 197 0
174 198 0
174 197 0
175 198 0
176 199 0
174 198 0
175 198 0
173 197 0
176 198 0
172 197 0
172 197 0
172 197 0
174 197 0
174 198 0
174 198 0
174 197 0
173 197 0
174 198 0
178 200 0
173 197 0
175 198 0
176 199 0
172 197 0
175 198 0
174 197 0
175 198 0
174 198 0
175 198 0
174 197 0
174 197 0
175 198 0
175 198 0
175 198 0
175 198 0
173 197 0
176 199 0
174 198 0
175 198 0
176 199 0
173 197 0
176 198 0
173 197 0
174 198 0
176 199 0
174 198 0
173 197 0
174 198 0
171 196 0
173 197 0
172 197 0
174 197 0
174 198 0
175 198 0
172 197 0
174 198 0
175 198 0
173 197 0
174 198 0
176 199 0
173 197 0
175 198 0
174 198 0
176 199 0
177 199 0
173 197 0
174 198 0
176 198 0
173 197 0
175 198 0
174 198 0
175 198 0
177 199 0
174 198 0
172 197 0
174 198 0
175 198 0
174 198 0
171 195 0
173 197 0
175 198 0
176 198 0
174 198 0
176 199 0
173 197 0
174 198 0
175 198 0
176 199 0
175 198 0
172 197 0
174 198 0
172 197 0
174 198 0
171 196 0
174 197 0
175 197 0
175 198 0
177 199 0
176 199 0
173 197 0
176 198 0
177 199 0
176 199 0
174 198 0
173 197 0
173 197 0
174 197 0
176 198 0
175 198 0
173 197 0
173 197 0
172 197 0
176 199 0
176 199 0
174 198 0
175 198 0
174 198 0
174 198 0
175 198 0
176 199 0
176 199 0
174 198 0
173 197 0
173 197 0
173 197 0
173 197 0
173 197 0
174 197 0
174 198 0
175 198 0
175 198 0
174 198 0
175 198 0
175 198 0
175 198 0
177 199 0
174 198 0
174 198 0
173 197 0
175 197 0
176 199 0
174 198 0
176 199 0
175 198 0
171 196 0
175 198 0
176 199 0
175 198 0
175 198 0
175 198 0
176 199 0
173 196 0
174 198 0
175 198 0
172 194 0
177 199 0
173 197 0
176 199 0
174 197 0
175 198 0
175 198 0
177 199 0
175 198 0
175 198 0
174 197 0
173 196 0
175 198 0
173 196 0
176 199 0
173 196 0
171 195 0
174 198 0
175 198 0
175 198 0
174 198 0
176 198 0
175 198 0
172 194 0
174 197 0
173 196 0
175 198 0
172 197 0
174 195 0
174 197 0
174 197 0
174 198 0
172 197 0
175 198 0
174 198 0
171 195 0
173 196 0
172 196 0
173 197 0
174 197 0
173 196 0
170 192 0
172 195 0
174 196 0
173 197 0
172 197 0
173 196 0
172 195 0
172 194 0
173 195 0
173 196 0
173 196 0
173 197 0
175 197 0
171 195 0
172 195 0
175 197 0
175 196 0
172 197 0
175 198 0
172 195 0
172 192 0
172 195 0
175 197 0
171 195 0
172 193 0
173 196 0
172 195 0
169 191 0
171 193 0
172 194 0
171 193 0
171 194 0
169 191 0
174 197 0
176 198 0
171 191 0
172 194 0
174 196 0
174 197 0
171 193 0
170 194 0
175 198 0
174 196 0
174 196 0
170 194 0
172 194 0
175 198 0
171 195 0
171 195 0
172 195 0
173 196 0
172 195 0
175 198 0
172 195 0
172 196 0
173 196 0
170 193 0
173 196 0
172 195 0
174 197 0
174 197 0
173 197 0
174 197 0
173 196 0
174 197 0
174 197 0
174 197 0
175 198 0
175 198 0
173 197 0
174 197 0
175 198 0
171 196 0
173 197 0
174 197 0
176 199 0
176 198 0
173 197 0
174 198 0
175 198 0
172 196 0
174 197 0
173 196 0
173 197 0
174 198 0
175 197 0
173 197 0
175 198 0
174 197 0
173 197 0
172 197 0
175 198 0
173 197 0
175 198 0
173 197 0
175 198 0
174 197 0
174 198 0
171 196 0
175 198 0
176 199 0
174 196 0
174 198 0
174 198 0
174 197 0
171 196 0
174 198 0
174 198 0
172 196 0
173 197 0
172 197 0
176 198 0
175 198 0
174 198 0
174 198 0
175 198 0
177 199 0
176 199 0
174 198 0
175 198 0
172 197 0
174 198 0
174 198 0
175 198 0
175 198 0
175 198 0
174 198 0
174 198 0
175 198 0
173 197 0
172 197 0
174 197 0
173 197 0
175 198 0
174 197 0
176 199 0
174 198 0
173 197 0
175 198 0
174 198 0
174 197 0
176 199 0
176 198 0
174 198 0
175 198 0
174 198 0
173 197 0
174 198 0
173 197 0
176 199 0
176 199 0
176 199 0
173 197 0
173 197 0
173 197 0
175 198 0
173 197 0
173 197 0
173 197 0
172 196 0
176 199 0
173 197 0
173 197 0
175 198 0
173 197 0
173 197 0
174 198 0
176 199 0
174 198 0
173 197 0
174 198 0
174 198 0
171 196 0
174 197 0
175 198 0
175 198 0
176 199 0
175 198 0
174 198 0
174 197 0
173 197 0
175 198 0
176 199 0
176 199 0
173 197 0
175 198 0
175 198 0
176 197 0
173 197 0
174 197 0
173 197 0
173 197 0
174 197 0
173 197 0
171 196 0
175 198 0
174 197 0
175 198 0
174 198 0
176 198 0
176 198 0
174 197 0
175 198 0
172 196 0
176 199 0
175 198 0
174 198 0
174 198 0
173 197 0
173 197 0
177 199 0
172 197 0
171 196 0
172 196 0
173 197 0
174 198 0
174 197 0
172 197 0
177 199 0
173 197 0
175 198 0
173 197 0
175 198 0
174 197 0
173 197 0
176 198 0
176 199 0
173 197 0
175 198 0
173 197 0
174 198 0
175 198 0
177 199 0
175 198 0
179 200 0
174 197 0
175 198 0
174 198 0
173 197 0
176 199 0
175 198 0
174 198 0
177 199 0
175 198 0
174 198 0
173 197 0
174 198 0
176 199 0
175 198 0
177 199 0
173 197 0
172 197 0
173 197 0
175 198 0
173 197 0
175 198 0
173 197 0
173 197 0
174 198 0
177 199 0
175 198 0
175 198 0
174 197 0
175 198 0
175 198 0
173 197 0
173 197 0
175 198 0
175 198 0
177 199 0
172 197 0
175 198 0
173 197 0
174 198 0
174 198 0
174 198 0
173 197 0
174 198 0
175 198 0
175 198 0
173 197 0
175 198 0
175 198 0
173 197 0
174 198 0
174 198 0
173 197 0
173 197 0
175 198 0
175 198 0
174 198 0
174 198 0
174 198 0
174 198 0
174 198 0
176 199 0
175 198 0
176 199 0
173 197 0
174 198 0
174 198 0
174 198 0
174 197 0
175 198 0
174 198 0
172 196 0
173 197 0
176 198 0
174 196 0
176 199 0
173 197 0
173 197 0
175 197 0
174 198 0
175 198 0
176 198 0
175 198 0
174 197 0
176 199 0
173 197 0
175 198 0
176 199 0
176 198 0
176 199 0
174 198 0
175 198 0
177 199 0
177 199 0
176 199 0
173 197 0
175 198 0
176 199 0
173 197 0
175 198 0
174 195 0
174 197 0
176 199 0
173 197 0
174 198 0
174 198 0
174 198 0
175 198 0
173 196 0
174 197 0
175 198 0
174 197 0
173 197 0
173 197 0
175 198 0
175 198 0
176 199 0
173 197 0
174 198 0
175 198 0
175 198 0
176 199 0
176 198 0
174 196 0
175 198 0
174 197 0
175 198 0
174 197 0
175 198 0
175 196 0
174 198 0
174 197 0
174 197 0
175 198 0
174 198 0
174 197 0
174 198 0
173 196 0
174 197 0
172 196 0
175 198 0
176 199 0
175 197 0
172 196 0
172 195 0
175 198 0
176 199 0
175 198 0
173 197 0
174 197 0
173 195 0
175 198 0
174 198 0
174 198 0
173 196 0
173 197 0
172 196 0
175 198 0
173 194 0
174 198 0
173 197 0
176 198 0
175 196 0
174 197 0
174 198 0
174 197 0
175 198 0
174 197 0
173 196 0
171 195 0
172 195 0
172 195 0
172 196 0
173 197 0
172 197 0
173 197 0
174 197 0
173 196 0
172 195 0
171 193 0
170 194 0
172 194 0
171 193 0
174 196 0
173 195 0
173 194 0
173 196 0
173 194 0
171 195 0
175 198 0
173 196 0
172 195 0
171 192 0
172 194 0
171 193 0
170 193 0
172 196 0
171 196 0
170 194 0
171 194 0
172 194 0
174 197 0
173 196 0
174 196 0
170 194 0
172 194 0
171 195 0
171 195 0
173 194 0
174 196 0
171 193 0
170 193 0
173 196 0
172 197 0
173 196 0
172 196 0
171 194 0
172 196 0
172 196 0
173 196 0
173 196 0
174 196 0
177 199 0
169 194 0
176 198 0
172 196 0
175 198 0
174 197 0
174 197 0
174 197 0
173 196 0
175 198 0
174 197 0
173 195 0
174 197 0
176 199 0
175 198 0
174 197 0
178 200 0
174 197 0
175 198 0
173 197 0
173 196 0
173 197 0
173 197 0
173 197 0
173 196 0
174 198 0
173 197 0
172 196 0
173 197 0
173 197 0
173 197 0
177 199 0
174 198 0
175 198 0
172 195 0
174 198 0
175 198 0
175 198 0
172 196 0
176 199 0
173 197 0
173 197 0
176 199 0
174 198 0
174 198 0
176 198 0
174 198 0
174 198 0
174 198 0
172 196 0
175 198 0
176 199 0
174 198 0
175 198 0
173 197 0
172 196 0
175 198 0
173 197 0
174 197 0
173 197 0
174 196 0
176 199 0
174 197 0
175 198 0
174 198 0
174 198 0
175 198 0
175 198 0
174 198 0
174 198 0
174 197 0
174 198 0
175 198 0
175 198 0
175 198 0
176 198 0
174 198 0
173 197 0
174 197 0
174 198 0
172 196 0
176 198 0
174 198 0
175 198 0
174 198 0
175 198 0
175 198 0
175 198 0
172 197 0
175 198 0
174 198 0
176 199 0
172 197 0
172 197 0
175 198 0
175 198 0
174 197 0
176 199 0
173 197 0
177 199 0
174 197 0
175 198 0
174 198 0
176 199 0
172 196 0
174 198 0
175 198 0
173 197 0
171 196 0
173 197 0
174 197 0
173 197 0
173 196 0
173 197 0
174 198 0
177 199 0
175 198 0
177 199 0
173 197 0
173 197 0
174 198 0
174 198 0
175 198 0
175 198 0
175 198 0
174 198 0
173 197 0
175 198 0
174 198 0
175 198 0
175 198 0
174 198 0
175 198 0
177 199 0
172 197 0
175 198 0
175 198 0
175 198 0
175 198 0
173 197 0
175 198 0
173 197 0
174 198 0
174 197 0
177 199 0
175 198 0
177 199 0
173 197 0
174 198 0
172 197 0
176 199 0
174 198 0
173 197 0
175 198 0
174 198 0
174 197 0
173 197 0
175 198 0
176 199 0
174 198 0
174 197 0
175 198 0
175 198 0
174 198 0
174 198 0
175 198 0
172 197 0
174 198 0
174 197 0
177 199 0
176 199 0
174 197 0
175 198 0
173 197 0
175 198 0
175 198 0
174 198 0
173 197 0
176 198 0
174 198 0
174 198 0
174 197 0
174 198 0
175 198 0
175 198 0
174 198 0
175 198 0
175 198 0
174 198 0
173 197 0
174 197 0
174 198 0
176 198 0
174 198 0
174 198 0
176 198 0
174 198 0
175 198 0
174 198 0
175 198 0
176 199 0
176 199 0
177 199 0
175 198 0
174 198 0
175 198 0
176 199 0
173 197 0
175 198 0
174 197 0
173 197 0
174 197 0
173 197 0
175 198 0
175 198 0
175 198 0
174 198 0
175 198 0
173 197 0
176 199 0
175 198 0
174 198 0
173 197 0
174 197 0
174 198 0
173 197 0
174 198 0
175 198 0
174 197 0
176 199 0
176 199 0
174 198 0
174 197 0
172 197 0
176 198 0
173 197 0
173 197 0
175 198 0
171 196 0
175 198 0
175 198 0
175 198 0
173 197 0
173 197 0
173 197 0
173 197 0
174 197 0
172 196 0
175 198 0
175 198 0
174 198 0
173 197 0
174 197 0
174 196 0
173 197 0
175 198 0
176 199 0
175 198 0
174 197 0
173 197 0
175 198 0
177 199 0
173 197 0
176 198 0
173 197 0
176 199 0
175 198 0
174 198 0
173 196 0
172 197 0
173 197 0
173 197 0
175 198 0
175 198 0
173 197 0
175 198 0
175 198 0
175 198 0
173 197 0
174 197 0
173 197 0
175 198 0
173 197 0
176 198 0
174 198 0
174 197 0
175 197 0
173 195 0
176 199 0
174 197 0
174 196 0
173 197 0
174 197 0
177 199 0
174 198 0
177 199 0
176 199 0
175 198 0
172 196 0
174 198 0
174 197 0
173 197 0
174 197 0
173 197 0
174 198 0
173 196 0
174 197 0
176 198 0
175 198 0
174 198 0
174 198 0
173 197 0
175 197 0
174 198 0
172 197 0
173 197 0
172 197 0
174 198 0
174 197 0
172 197 0
175 198 0
175 198 0
174 196 0
174 197 0
175 197 0
174 198 0
173 197 0
177 199 0
174 195 0
174 197 0
177 198 0
174 196 0
174 198 0
176 198 0
173 197 0
174 197 0
175 198 0
175 198 0
173 197 0
173 197 0
173 197 0
175 198 0
176 199 0
172 194 0
175 198 0
173 197 0
174 197 0
170 193 0
173 196 0
173 197 0
175 197 0
170 194 0
172 196 0
175 197 0
174 198 0
173 197 0
171 195 0
174 198 0
174 196 0
173 196 0
169 194 0
174 196 0
174 196 0
175 198 0
175 197 0
171 191 0
173 197 0
174 195 0
174 197 0
172 194 0
175 197 0
175 198 0
172 195 0
173 197 0
174 197 0
172 196 0
172 197 0
169 193 0
170 191 0
172 195 0
171 194 0
171 195 0
173 196 0
171 194 0
172 196 0
172 193 0
173 196 0
172 195 0
173 195 0
173 194 0
174 196 0
174 196 0
173 196 0
172 196 0
173 197 0
176 198 0
171 194 0
172 195 0
172 195 0
174 197 0
173 197 0
173 196 0
172 196 0
174 197 0
173 195 0
171 195 0
174 197 0
174 197 0
175 198 0
172 196 0
173 195 0
174 197 0
176 198 0
175 198 0
172 196 0
173 196 0
173 196 0
175 198 0
175 198 0
174 196 0
174 197 0
173 197 0
174 198 0
175 198 0
173 197 0
175 198 0
175 198 0
175 198 0
173 197 0
172 197 0
176 198 0
173 197 0
173 197 0
174 198 0
174 197 0
173 197 0
174 198 0
174 198 0
171 196 0
176 199 0
174 198 0
175 198 0
175 198 0
174 198 0
172 196 0
174 198 0
177 199 0
173 197 0
175 198 0
174 197 0
172 197 0
173 197 0
172 196 0
176 198 0
174 197 0
176 199 0
175 198 0
175 198 0
177 199 0
174 198 0
176 199 0
175 198 0
177 199 0
173 197 0
173 197 0
173 197 0
173 197 0
174 198 0
175 198 0
177 199 0
176 199 0
174 198 0
176 198 0
174 198 0
172 197 0
174 197 0
176 199 0
177 199 0
176 199 0
173 197 0
176 199 0
176 198 0
175 198 0
174 198 0
174 198 0
173 197 0
177 199 0
175 198 0
177 199 0
175 198 0
174 198 0
174 198 0
176 198 0
174 198 0
178 200 0
174 198 0
175 198 0
174 197 0
173 197 0
176 197 0
173 196 0
173 197 0
175 198 0
173 197 0
176 199 0
173 197 0
174 198 0
173 197 0
174 197 0
174 198 0
173 197 0
173 197 0
173 197 0
173 197 0
175 198 0
175 198 0
175 198 0
173 197 0
175 198 0
174 198 0
175 198 0
175 198 0
175 198 0
174 198 0
175 198 0
173 197 0
175 198 0
174 198 0
173 197 0
173 197 0
173 197 0
175 198 0
172 196 0
173 197 0
175 198 0
175 198 0
177 199 0
174 197 0
176 199 0
176 199 0
174 197 0
173 197 0
173 197 0
172 197 0
174 198 0
176 199 0
174 198 0
176 199 0
173 197 0
175 198 0
175 198 0
175 198 0
173 197 0
173 197 0
173 197 0
174 198 0
174 198 0
175 198 0
176 198 0
175 198 0
176 199 0
175 198 0
175 198 0
173 197 0
175 198 0
175 198 0
175 198 0
177 199 0
174 197 0
175 198 0
175 198 0
177 199 0
173 197 0
176 199 0
174 197 0
174 198 0
175 198 0
175 198 0
176 199 0
175 198 0
173 197 0
173 197 0
175 198 0
176 199 0
176 198 0
175 198 0
175 198 0
175 198 0
174 198 0
175 198 0
176 198 0
175 198 0
177 199 0
177 199 0
175 198 0
172 196 0
175 198 0
176 199 0
175 198 0
174 198 0
174 198 0
175 198 0
174 198 0
175 198 0
174 198 0
175 198 0
175 198 0
173 197 0
174 198 0
176 198 0
175 198 0
176 199 0
178 200 0
174 197 0
174 198 0
173 197 0
177 199 0
173 197 0
175 198 0
176 198 0
174 197 0
174 198 0
173 197 0
176 199 0
175 198 0
174 198 0
171 196 0
175 198 0
173 197 0
174 198 0
174 197 0
174 198 0
175 198 0
174 197 0
175 198 0
176 199 0
173 197 0
174 197 0
173 197 0
173 197 0
174 197 0
175 198 0
174 197 0
175 198 0
176 199 0
175 198 0
175 198 0
173 196 0
174 198 0
176 198 0
175 198 0
174 198 0
177 199 0
173 197 0
174 198 0
174 198 0
175 198 0
174 198 0
174 197 0
174 198 0
172 197 0
174 198 0
174 197 0
174 198 0
173 197 0
173 197 0
175 198 0
175 198 0
176 199 0
174 198 0
175 198 0
175 198 0
174 198 0
175 198 0
174 197 0
174 198 0
173 197 0
175 198 0
176 199 0
177 199 0
171 196 0
175 198 0
174 197 0
174 197 0
174 197 0
174 198 0
174 197 0
175 198 0
172 197 0
175 198 0
173 197 0
174 198 0
175 198 0
177 199 0
175 198 0
174 196 0
172 196 0
173 197 0
174 198 0
174 198 0
173 197 0
174 195 0
174 196 0
174 197 0
174 198 0
175 198 0
175 197 0
175 197 0
172 195 0
173 197 0
173 196 0
173 197 0
176 199 0
172 197 0
175 198 0
174 197 0
175 198 0
175 198 0
174 197 0
174 198 0
174 197 0
174 198 0
176 198 0
174 198 0
175 198 0
172 195 0
174 198 0
173 196 0
174 198 0
175 197 0
174 198 0
174 198 0
172 195 0
173 197 0
173 196 0
174 198 0
175 197 0
174 197 0
174 198 0
172 195 0
174 198 0
176 199 0
175 197 0
173 197 0
172 195 0
173 196 0
173 196 0
175 197 0
174 198 0
175 198 0
174 198 0
174 198 0
173 196 0
172 194 0
173 197 0
173 197 0
174 198 0
172 196 0
171 192 0
173 193 0
173 197 0
173 196 0
171 194 0
173 196 0
176 198 0
172 194 0
173 196 0
171 192 0
169 193 0
174 197 0
170 193 0
170 194 0
173 196 0
174 196 0
169 192 0
173 196 0
174 196 0
173 195 0
172 196 0
175 198 0
171 195 0
172 195 0
171 195 0
170 194 0
174 197 0
175 196 0
176 197 0
175 197 0
170 193 0
173 195 0
172 195 0
170 194 0
172 194 0
168 192 0
174 197 0
173 196 0
171 194 0
175 198 0
174 197 0
174 197 0
172 195 0
171 195 0
172 195 0
173 197 0
173 196 0
173 196 0
175 198 0
174 197 0
174 197 0
175 198 0
173 197 0
173 196 0
175 198 0
172 196 0
174 197 0
173 196 0
173 197 0
175 197 0
174 197 0
174 197 0
174 198 0
174 197 0
173 197 0
174 197 0
177 199 0
175 198 0
171 196 0
171 196 0
175 198 0
176 199 0
172 196 0
175 198 0
175 198 0
173 197 0
173 197 0
171 196 0
175 198 0
176 199 0
175 198 0
173 197 0
173 197 0
173 197 0
175 198 0
174 198 0
174 198 0
174 198 0
172 196 0
173 197 0
177 199 0
173 197 0
176 198 0
178 200 0
173 197 0
174 198 0
175 198 0
175 198 0
175 198 0
174 198 0
174 198 0
174 198 0
174 197 0
174 198 0
174 198 0
174 198 0
173 197 0
173 197 0
177 199 0
174 198 0
174 198 0
174 197 0
175 198 0
174 198 0
174 197 0
176 199 0
176 198 0
174 198 0
174 198 0
174 197 0
175 198 0
177 199 0
175 198 0
174 198 0
174 197 0
175 198 0
175 198 0
172 197 0
172 196 0
172 196 0
177 199 0
173 197 0
174 198 0
173 197 0
176 199 0
175 198 0
174 197 0
174 197 0
173 197 0
176 199 0
175 198 0
175 198 0
175 198 0
175 198 0
175 198 0
175 198 0
176 198 0
175 198 0
176 199 0
175 198 0
175 198 0
175 198 0
175 198 0
175 198 0
173 197 0
174 198 0
176 199 0
177 199 0
174 198 0
174 198 0
174 198 0
174 197 0
175 198 0
173 197 0
175 198 0
173 197 0
175 198 0
175 198 0
174 197 0
175 198 0
175 198 0
176 198 0
175 198 0
174 198 0
173 197 0
173 197 0
175 198 0
172 197 0
174 198 0
174 198 0
172 197 0
175 198 0
176 199 0
175 198 0
174 198 0
173 197 0
174 198 0
176 198 0
175 198 0
173 197 0
178 200 0
177 199 0
174 197 0
175 198 0
177 199 0
176 199 0
176 199 0
173 197 0
173 197 0
176 199 0
174 197 0
174 198 0
175 198 0
173 197 0
175 198 0
176 198 0
175 198 0
174 197 0
177 199 0
174 197 0
176 199 0
174 197 0
176 199 0
175 198 0
173 197 0
176 199 0
173 197 0
176 199 0
175 198 0
175 198 0
173 197 0
174 198 0
173 197 0
175 198 0
176 199 0
175 198 0
174 198 0
175 198 0
174 197 0
175 198 0
173 197 0
174 197 0
174 198 0
174 198 0
174 198 0
173 197 0
173 197 0
174 198 0
173 197 0
173 197 0
173 197 0
175 198 0
173 197 0
173 197 0
175 198 0
174 197 0
174 198 0
176 198 0
173 197 0
176 199 0
173 197 0
176 199 0
175 198 0
175 198 0
175 198 0
176 199 0
173 197 0
174 198 0
173 197 0
174 198 0
176 199 0
175 198 0
174 198 0
174 198 0
172 195 0
172 197 0
175 198 0
172 197 0
175 198 0
171 196 0
172 197 0
176 199 0
176 199 0
174 197 0
174 198 0
174 197 0
175 198 0
174 197 0
174 197 0
175 198 0
173 197 0
175 198 0
174 198 0
174 198 0
172 197 0
174 198 0
174 197 0
174 198 0
172 197 0
173 197 0
176 198 0
172 197 0
176 199 0
175 198 0
177 199 0
175 198 0
173 197 0
173 197 0
177 199 0
175 198 0
175 198 0
177 199 0
175 198 0
176 199 0
175 198 0
173 197 0
173 197 0
173 197 0
172 197 0
174 197 0
175 198 0
175 198 0
174 198 0
175 198 0
174 198 0
174 198 0
174 198 0
174 198 0
172 197 0
174 198 0
173 197 0
175 198 0
173 197 0
175 198 0
175 198 0
174 197 0
176 199 0
176 198 0
176 199 0
174 198 0
176 199 0
175 198 0
174 196 0
175 198 0
172 196 0
173 197 0
174 198 0
173 197 0
173 197 0
174 197 0
175 198 0
173 196 0
173 197 0
174 196 0
174 197 0
176 198 0
175 198 0
174 196 0
174 197 0
174 198 0
173 196 0
175 198 0
173 197 0
176 198 0
176 198 0
174 197 0
173 197 0
174 197 0
174 198 0
173 196 0
176 199 0
175 198 0
172 196 0
173 197 0
174 198 0
174 196 0
173 196 0
173 195 0
176 199 0
174 198 0
172 195 0
174 198 0
175 198 0
175 198 0
173 197 0
177 199 0
171 196 0
173 197 0
173 197 0
173 197 0
173 197 0
175 198 0
174 198 0
174 197 0
173 197 0
176 198 0
175 198 0
176 199 0
174 197 0
173 197 0
175 197 0
175 198 0
172 197 0
174 198 0
170 193 0
172 194 0
171 195 0
174 196 0
172 196 0
171 195 0
172 195 0
174 196 0
172 194 0
172 195 0
170 193 0
173 194 0
173 197 0
173 195 0
173 196 0
169 192 0
174 197 0
175 198 0
173 196 0
170 193 0
172 195 0
173 195 0
175 197 0
173 195 0
172 196 0
171 193 0
173 194 0
173 195 0
168 190 0
174 194 0
172 196 0
172 194 0
174 196 0
174 196 0
172 196 0
171 193 0
172 194 0
173 195 0
174 197 0
174 196 0
173 197 0
174 197 0
169 194 0
175 198 0
171 196 0
174 197 0
173 196 0
173 196 0
174 198 0
174 197 0
173 196 0
175 198 0
176 198 0
175 198 0
173 197 0
174 197 0
174 197 0
171 196 0
174 197 0
172 197 0
175 198 0
172 196 0
172 196 0
174 197 0
173 196 0
172 196 0
172 196 0
173 196 0
174 197 0
173 197 0
173 197 0
176 199 0
175 198 0
177 199 0
173 197 0
174 197 0
173 197 0
171 196 0
175 198 0
174 198 0
175 198 0
174 198 0
174 197 0
174 198 0
174 197 0
173 197 0
174 197 0
175 198 0
174 198 0
174 197 0
172 197 0
175 198 0
172 197 0
175 198 0
174 198 0
174 198 0
175 198 0
175 198 0
174 198 0
173 197 0
174 198 0
176 199 0
175 198 0
169 194 0
173 197 0
170 196 0
175 198 0
173 197 0
175 198 0
175 198 0
174 198 0
175 198 0
175 198 0
173 197 0
174 198 0
173 197 0
175 198 0
174 198 0
176 198 0
173 197 0
175 198 0
176 199 0
175 198 0
176 198 0
173 197 0
175 198 0
176 199 0
174 198 0
177 199 0
174 198 0
176 198 0
173 197 0
174 198 0
176 199 0
178 199 0
173 197 0
174 197 0
178 200 0
176 198 0
175 198 0
173 197 0
176 198 0
176 199 0
172 197 0
175 198 0
173 197 0
174 197 0
175 198 0
173 197 0
171 196 0
174 198 0
173 197 0
173 197 0
173 197 0
175 198 0
176 198 0
174 198 0
175 198 0
174 197 0
174 198 0
176 199 0
175 198 0
174 198 0
173 197 0
174 198 0
175 198 0
177 199 0
175 198 0
175 198 0
175 198 0
172 196 0
177 199 0
176 199 0
174 198 0
174 198 0
173 197 0
174 197 0
175 198 0
175 198 0
176 198 0
175 198 0
173 197 0
174 197 0
174 197 0
172 197 0
174 198 0
175 198 0
175 198 0
175 198 0
175 198 0
174 198 0
173 197 0
176 199 0
173 197 0
175 198 0
174 198 0
174 198 0
173 197 0
173 197 0
176 199 0
175 198 0
172 196 0
174 198 0
175 198 0
174 198 0
175 198 0
175 198 0
173 197 0
176 198 0
175 198 0
173 197 0
175 198 0
174 198 0
174 197 0
176 199 0
175 198 0
175 198 0
174 198 0
174 198 0
175 198 0
174 198 0
173 197 0
174 198 0
176 198 0
175 198 0
173 197 0
172 197 0
176 198 0
172 197 0
174 197 0
175 198 0
173 197 0
174 198 0
176 199 0
173 197 0
172 197 0
174 198 0
175 198 0
175 198 0
174 198 0
174 198 0
175 198 0
176 198 0
177 199 0
174 197 0
173 197 0
174 198 0
174 198 0
174 197 0
175 198 0
174 198 0
176 198 0
176 199 0
174 198 0
172 197 0
174 197 0
175 198 0
175 198 0
174 198 0
176 198 0
174 198 0
174 198 0
175 198 0
174 198 0
176 199 0
176 198 0
177 199 0
176 199 0
175 198 0
177 199 0
175 198 0
174 197 0
173 197 0
173 197 0
176 199 0
176 199 0
175 198 0
174 198 0
174 198 0
174 197 0
174 197 0
175 198 0
174 197 0
177 199 0
172 197 0
175 198 0
175 198 0
175 198 0
174 197 0
174 197 0
174 198 0
174 198 0
171 196 0
175 198 0
174 198 0
174 197 0
173 197 0
175 198 0
175 198 0
175 198 0
174 198 0
175 198 0
176 199 0
174 198 0
173 197 0
173 197 0
176 198 0
173 197 0
174 198 0
175 197 0
172 197 0
175 198 0
175 198 0
175 198 0
176 199 0
175 198 0
175 198 0
175 198 0
174 198 0
174 198 0
174 196 0
174 198 0
175 198 0
176 199 0
172 197 0
174 197 0
175 198 0
175 198 0
173 196 0
172 197 0
176 199 0
176 198 0
173 197 0
175 197 0
174 197 0
175 198 0
174 198 0
175 198 0
175 198 0
172 195 0
172 194 0
172 196 0
175 198 0
174 198 0
174 198 0
174 196 0
176 199 0
175 198 0
175 197 0
175 198 0
175 198 0
174 196 0
175 198 0
173 197 0
174 196 0
174 198 0
172 197 0
171 194 0
174 198 0
175 198 0
177 199 0
174 198 0
174 198 0
174 197 0
175 197 0
174 198 0
175 198 0
176 198 0
173 196 0
176 199 0
176 197 0
177 198 0
173 196 0
173 197 0
173 197 0
174 195 0
175 198 0
174 198 0
174 197 0
175 198 0
173 197 0
174 196 0
174 197 0
173 197 0
174 198 0
174 198 0
176 199 0
176 198 0
171 196 0
173 194 0
176 199 0
174 197 0
171 195 0
171 195 0
171 195 0
176 199 0
173 195 0
172 195 0
175 196 0
173 196 0
170 193 0
172 196 0
171 192 0
173 196 0
173 197 0
174 197 0
174 197 0
173 197 0
173 196 0
172 196 0
174 197 0
173 196 0
173 195 0
174 196 0
172 196 0
170 194 0
172 196 0
171 195 0
172 195 0
174 197 0
174 196 0
173 197 0
172 196 0
171 195 0
172 195 0
173 197 0
174 198 0
171 195 0
173 197 0
172 195 0
172 194 0
175 198 0
171 194 0
172 196 0
175 197 0
172 196 0
172 194 0
175 197 0
172 196 0
174 197 0
172 196 0
173 196 0
172 195 0
171 194 0
174 197 0
175 198 0
172 195 0
171 194 0
172 196 0
174 197 0
175 198 0
177 199 0
171 195 0
176 198 0
175 198 0
174 197 0
172 197 0
174 197 0
174 197 0
174 197 0
172 196 0
171 196 0
175 198 0
174 197 0
175 198 0
173 197 0
173 197 0
174 197 0
174 197 0
173 197 0
173 197 0
173 197 0
173 197 0
174 197 0
174 197 0
174 197 0
175 198 0
173 197 0
174 197 0
175 198 0
174 198 0
173 196 0
175 198 0
177 199 0
174 197 0
176 198 0
175 198 0
173 197 0
173 197 0
176 198 0
172 197 0
176 199 0
173 197 0
174 198 0
176 199 0
173 197 0
175 198 0
174 197 0
174 198 0
176 199 0
175 198 0
175 198 0
173 197 0
175 198 0
174 198 0
174 198 0
174 198 0
173 197 0
174 197 0
173 197 0
174 197 0
173 197 0
171 196 0
174 198 0
174 198 0
174 198 0
175 198 0
174 197 0
175 198 0
173 197 0
175 198 0
174 198 0
174 198 0
175 198 0
173 197 0
177 199 0
176 199 0
174 198 0
174 198 0
175 198 0
175 198 0
175 198 0
176 199 0
175 198 0
174 197 0
176 198 0
175 198 0
175 198 0
174 197 0
172 197 0
175 198 0
175 198 0
176 198 0
171 196 0
174 198 0
172 196 0
176 198 0
175 198 0
174 197 0
174 198 0
174 198 0
175 198 0
173 197 0
174 198 0
173 197 0
173 197 0
174 198 0
176 198 0
174 197 0
174 198 0
176 199 0
175 198 0
175 198 0
172 197 0
173 197 0
176 199 0
175 198 0
175 198 0
176 199 0
176 199 0
175 198 0
174 198 0
175 198 0
174 198 0
174 198 0
173 197 0
176 198 0
175 198 0
175 198 0
173 197 0
175 198 0
173 197 0
177 199 0
177 199 0
173 197 0
176 199 0
173 197 0
173 197 0
173 197 0
175 198 0
174 198 0
175 198 0
173 197 0
174 198 0
175 198 0
176 198 0
174 198 0
174 197 0
176 198 0
175 198 0
174 198 0
174 198 0
176 199 0
176 199 0
176 199 0
176 198 0
174 197 0
176 198 0
175 198 0
175 198 0
176 198 0
176 198 0
173 197 0
174 198 0
174 198 0
173 197 0
174 198 0
175 198 0
174 198 0
174 198 0
175 198 0
174 198 0
174 198 0
174 198 0
177 199 0
176 199 0
176 199 0
173 197 0
174 197 0
176 199 0
175 198 0
172 197 0
173 197 0
175 198 0
177 199 0
176 199 0
174 198 0
175 198 0
176 199 0
174 198 0
176 198 0
175 198 0
175 198 0
174 198 0
174 197 0
174 198 0
174 198 0
173 197 0
176 198 0
175 198 0
175 198 0
177 199 0
172 196 0
175 198 0
177 199 0
174 197 0
174 197 0
174 198 0
174 198 0
175 198 0
173 197 0
174 197 0
173 197 0
171 196 0
176 198 0
175 198 0
176 199 0
174 198 0
175 198 0
175 198 0
173 197 0
176 199 0
174 197 0
175 198 0
173 197 0
175 198 0
175 198 0
175 198 0
175 198 0
174 198 0
174 198 0
174 198 0
175 198 0
177 199 0
176 199 0
174 197 0
174 197 0
173 197 0
175 198 0
173 197 0
176 198 0
175 198 0
172 197 0
175 198 0
172 197 0
175 198 0
174 197 0
174 197 0
175 198 0
174 198 0
174 197 0
174 198 0
176 199 0
174 198 0
178 200 0
172 196 0
175 198 0
176 199 0
176 199 0
174 198 0
174 198 0
172 197 0
172 197 0
173 197 0
176 199 0
175 198 0
174 197 0
172 197 0
173 197 0
173 197 0
174 198 0
174 196 0
175 198 0
175 198 0
172 196 0
175 198 0
174 197 0
175 198 0
173 197 0
176 198 0
178 200 0
175 198 0
177 199 0
174 198 0
174 197 0
175 198 0
174 198 0
174 198 0
172 196 0
173 197 0
173 197 0
174 198 0
174 197 0
175 198 0
175 198 0
172 196 0
174 196 0
179 200 0
173 197 0
173 197 0
173 197 0
175 198 0
175 198 0
175 198 0
176 198 0
175 198 0
174 198 0
176 198 0
175 198 0
173 196 0
175 197 0
173 197 0
174 197 0
175 198 0
174 198 0
177 199 0
176 198 0
173 197 0
173 197 0
171 196 0
175 198 0
173 197 0
174 197 0
172 197 0
172 195 0
175 197 0
175 198 0
175 197 0
173 197 0
175 197 0
176 198 0
173 196 0
172 197 0
173 195 0
174 196 0
174 197 0
173 197 0
174 198 0
172 197 0
172 197 0
175 198 0
173 196 0
171 195 0
174 195 0
174 198 0
172 197 0
175 198 0
172 196 0
172 195 0
172 197 0
174 198 0
173 196 0
173 194 0
176 198 0
172 197 0
173 195 0
173 195 0
172 195 0
173 196 0
171 194 0
172 197 0
171 194 0
172 194 0
172 195 0
174 197 0
172 196 0
173 197 0
176 199 0
174 196 0
170 194 0
172 195 0
173 196 0
171 195 0
174 197 0
173 197 0
173 195 0
173 196 0
172 195 0
170 192 0
174 196 0
172 196 0
171 194 0
174 196 0
172 194 0
174 198 0
172 197 0
173 195 0
174 196 0
173 196 0
172 195 0
171 193 0
170 195 0
172 195 0
172 196 0
176 198 0
175 198 0
174 197 0
172 195 0
174 197 0
175 198 0
174 198 0
173 196 0
175 198 0
174 197 0
173 196 0
172 195 0
172 196 0
174 198 0
174 197 0
173 197 0
172 196 0
176 198 0
176 198 0
175 198 0
172 195 0
172 197 0
173 196 0
172 197 0
173 197 0
174 198 0
173 197 0
171 196 0
172 196 0
174 198 0
174 197 0
175 198 0
175 198 0
176 199 0
172 197 0
174 197 0
173 197 0
173 197 0
174 198 0
173 197 0
174 198 0
175 198 0
175 198 0
173 197 0
173 197 0
174 197 0
174 197 0
176 198 0
174 198 0
174 197 0
174 197 0
176 199 0
171 196 0
173 197 0
173 197 0
174 198 0
175 198 0
175 198 0
175 198 0
171 196 0
174 198 0
173 197 0
175 198 0
173 197 0
174 198 0
174 197 0
173 197 0
175 198 0
172 196 0
176 199 0
175 198 0
171 196 0
173 197 0
174 197 0
176 199 0
174 198 0
177 199 0
174 198 0
176 199 0
175 198 0
176 198 0
174 198 0
174 197 0
175 198 0
175 198 0
173 197 0
176 199 0
173 197 0
176 199 0
172 196 0
173 197 0
172 196 0
174 198 0
173 197 0
174 198 0
173 197 0
174 198 0
175 198 0
174 197 0
173 197 0
176 199 0
176 199 0
172 197 0
173 197 0
172 196 0
176 198 0
176 198 0
172 197 0
175 198 0
175 198 0
174 197 0
173 197 0
175 198 0
176 199 0
175 198 0
175 198 0
174 197 0
175 198 0
174 198 0
175 198 0
175 198 0
175 198 0
173 197 0
172 197 0
174 197 0
176 199 0
174 198 0
175 198 0
177 199 0
174 197 0
176 199 0
173 197 0
176 199 0
172 197 0
177 199 0
174 198 0
173 197 0
175 198 0
172 197 0
173 197 0
176 198 0
176 199 0
174 198 0
175 198 0
173 197 0
175 198 0
176 199 0
176 199 0
175 198 0
173 197 0
176 199 0
176 199 0
173 197 0
174 198 0
175 198 0
173 197 0
174 197 0
176 199 0
173 197 0
172 197 0
174 198 0
173 197 0
175 198 0
175 198 0
176 199 0
174 198 0
174 197 0
173 197 0
172 197 0
174 198 0
172 197 0
175 198 0
173 197 0
176 199 0
174 198 0
174 198 0
176 199 0
175 198 0
174 198 0
173 197 0
175 198 0
175 198 0
174 198 0
175 198 0
173 197 0
174 198 0
176 199 0
175 198 0
176 199 0
176 198 0
173 197 0
175 198 0
173 197 0
175 198 0
174 198 0
173 197 0
174 198 0
173 197 0
174 198 0
175 198 0
176 199 0
174 198 0
173 197 0
173 197 0
174 197 0
172 197 0
173 197 0
175 198 0
175 198 0
171 196 0
175 198 0
175 198 0
175 198 0
175 198 0
176 199 0
176 198 0
177 199 0
175 198 0
173 197 0
174 198 0
173 197 0
175 198 0
175 198 0
174 198 0
177 199 0
172 197 0
176 198 0
176 198 0
174 198 0
172 197 0
174 198 0
174 198 0
174 198 0
173 197 0
174 198 0
173 197 0
175 198 0
174 198 0
175 198 0
172 197 0
175 198 0
177 199 0
176 199 0
175 198 0
173 197 0
174 198 0
175 198 0
172 197 0
175 198 0
176 198 0
175 198 0
175 198 0
175 198 0
174 197 0
175 198 0
174 197 0
174 198 0
175 197 0
175 198 0
173 197 0
172 197 0
175 198 0
175 198 0
176 199 0
175 198 0
172 197 0
176 198 0
174 198 0
173 197 0
171 195 0
176 199 0
172 197 0
175 198 0
173 197 0
175 198 0
175 198 0
175 198 0
173 197 0
174 198 0
173 196 0
174 198 0
174 197 0
176 199 0
174 197 0
174 198 0
174 198 0
175 198 0
174 198 0
174 198 0
174 197 0
174 198 0
175 198 0
175 198 0
175 198 0
176 199 0
174 198 0
174 197 0
174 197 0
173 197 0
172 197 0
173 197 0
172 197 0
172 196 0
173 197 0
173 196 0
175 198 0
173 197 0
174 198 0
176 198 0
173 197 0
175 197 0
172 197 0
174 197 0
175 198 0
173 197 0
174 198 0
173 196 0
174 198 0
173 197 0
172 196 0
175 198 0
176 198 0
173 197 0
174 197 0
176 198 0
172 196 0
172 194 0
172 196 0
175 198 0
177 199 0
175 198 0
172 196 0
177 199 0
173 197 0
173 197 0
174 196 0
173 197 0
175 198 0
176 198 0
175 198 0
171 196 0
177 199 0
175 198 0
175 198 0
173 196 0
176 199 0
176 199 0
173 197 0
173 197 0
173 196 0
172 195 0
175 198 0
173 195 0
175 198 0
172 196 0
174 198 0
172 195 0
170 193 0
176 199 0
176 199 0
174 197 0
174 198 0
174 195 0
174 198 0
171 193 0
174 197 0
174 197 0
175 198 0
173 196 0
175 198 0
176 198 0
173 197 0
175 198 0
175 198 0
175 197 0
172 196 0
173 196 0
174 198 0
171 195 0
173 197 0
173 197 0
172 195 0
172 196 0
173 197 0
174 196 0
172 195 0
172 195 0
173 196 0
170 193 0
172 196 0
171 196 0
174 196 0
170 192 0
172 195 0
174 197 0
172 196 0
172 196 0
172 197 0
174 198 0
174 198 0
172 195 0
171 196 0
171 194 0
175 198 0
175 198 0
174 197 0
173 196 0
172 196 0
174 198 0
174 197 0
176 198 0
174 197 0
172 195 0
173 197 0
173 196 0
173 197 0
172 196 0
171 196 0
174 197 0
172 196 0
175 198 0
175 198 0
173 197 0
174 197 0
175 198 0
174 197 0
172 196 0
173 197 0
173 197 0
172 197 0
174 198 0
173 197 0
174 197 0
174 198 0
176 199 0
173 197 0
174 197 0
173 197 0
174 197 0
173 197 0
175 198 0
174 197 0
177 199 0
173 197 0
173 197 0
174 197 0
176 198 0
174 198 0
176 198 0
174 198 0
175 198 0
176 198 0
175 198 0
173 197 0
175 198 0
174 198 0
174 198 0
173 197 0
177 199 0
176 198 0
174 198 0
173 197 0
174 197 0
176 199 0
176 198 0
174 197 0
173 197 0
173 196 0
174 198 0
177 199 0
175 198 0
176 199 0
174 197 0
175 198 0
174 198 0
176 199 0
173 196 0
177 199 0
175 198 0
176 199 0
175 198 0
174 197 0
176 198 0
173 197 0
172 197 0
175 198 0
175 198 0
176 198 0
174 197 0
175 198 0
178 200 0
175 198 0
175 198 0
175 198 0
174 197 0
174 197 0
174 198 0
174 198 0
175 198 0
173 196 0
176 198 0
175 198 0
175 198 0
175 198 0
174 198 0
172 197 0
174 198 0
174 198 0
175 198 0
174 198 0
175 198 0
173 197 0
174 198 0
174 197 0
175 198 0
177 199 0
172 196 0
175 198 0
174 198 0
175 198 0
177 199 0
175 198 0
174 198 0
172 197 0
175 198 0
174 197 0
175 198 0
174 198 0
174 198 0
177 199 0
173 197 0
175 198 0
174 198 0
175 198 0
175 198 0
174 197 0
173 197 0
176 199 0
174 198 0
173 197 0
172 197 0
176 199 0
173 197 0
174 198 0
173 197 0
174 198 0
176 198 0
172 196 0
177 199 0
175 198 0
175 198 0
176 198 0
176 199 0
173 197 0
175 198 0
175 198 0
175 198 0
175 198 0
174 198 0
175 198 0
174 197 0
175 198 0
175 198 0
177 199 0
175 198 0
174 197 0
175 198 0
175 198 0
175 198 0
175 198 0
174 198 0
176 198 0
175 198 0
175 198 0
174 198 0
174 197 0
175 198 0
175 198 0
175 198 0
172 197 0
175 198 0
175 198 0
174 198 0
175 198 0
173 197 0
173 197 0
174 197 0
175 198 0
173 197 0
175 198 0
175 198 0
174 197 0
175 198 0
175 198 0
173 197 0
174 197 0
173 197 0
175 198 0
175 198 0
176 198 0
177 199 0
175 198 0
173 197 0
174 197 0
175 198 0
173 197 0
175 198 0
175 198 0
173 197 0
173 197 0
175 198 0
177 199 0
175 198 0
176 199 0
173 197 0
174 198 0
175 198 0
175 198 0
173 197 0
172 197 0
175 198 0
176 199 0
176 198 0
175 198 0
175 198 0
176 199 0
174 197 0
175 198 0
174 198 0
175 198 0
175 198 0
175 198 0
174 198 0
173 197 0
174 198 0
174 198 0
173 197 0
175 198 0
176 198 0
176 199 0
173 197 0
175 198 0
174 197 0
173 197 0
176 198 0
175 198 0
173 197 0
171 196 0
175 198 0
174 198 0
175 198 0
177 199 0
174 198 0
175 198 0
175 198 0
172 197 0
175 198 0
173 197 0
172 197 0
176 199 0
176 199 0
176 198 0
174 198 0
176 199 0
176 199 0
173 197 0
175 198 0
174 198 0
175 198 0
175 198 0
174 198 0
173 197 0
175 198 0
174 198 0
173 196 0
174 197 0
176 199 0
173 197 0
173 197 0
174 198 0
175 198 0
175 198 0
176 199 0
172 197 0
172 196 0
173 196 0
176 199 0
176 199 0
173 197 0
171 195 0
173 197 0
174 198 0
177 199 0
176 198 0
173 197 0
174 197 0
175 198 0
171 196 0
176 197 0
174 198 0
174 197 0
173 197 0
173 197 0
172 195 0
172 197 0
175 198 0
173 197 0
175 198 0
173 197 0
175 197 0
174 198 0
176 199 0
176 197 0
173 197 0
174 198 0
175 198 0
173 197 0
177 199 0
173 197 0
176 199 0
172 196 0
175 198 0
176 199 0
175 198 0
172 196 0
174 196 0
175 198 0
174 197 0
173 197 0
175 198 0
172 195 0
173 197 0
172 194 0
173 197 0
176 199 0
174 198 0
175 198 0
172 194 0
174 196 0
175 197 0
172 196 0
174 198 0
175 198 0
171 194 0
172 196 0
174 197 0
174 198 0
174 197 0
174 196 0
173 196 0
173 196 0
175 198 0
173 194 0
172 196 0
173 197 0
173 195 0
173 197 0
171 194 0
175 198 0
173 196 0
172 195 0
175 197 0
172 195 0
171 193 0
173 197 0
174 197 0
174 197 0
173 194 0
169 191 0
175 198 0
173 195 0
172 196 0
173 196 0
174 198 0
171 195 0
174 197 0
174 196 0
172 194 0
174 196 0
172 195 0
172 196 0
174 197 0
175 197 0
174 198 0
174 197 0
174 197 0
173 196 0
170 194 0
174 197 0
175 197 0
175 198 0
173 197 0
171 195 0
171 196 0
174 197 0
174 196 0
174 197 0
174 197 0
173 196 0
173 197 0
174 197 0
171 196 0
174 198 0
176 198 0
174 196 0
176 199 0
174 198 0
171 194 0
173 197 0
173 197 0
174 197 0
176 198 0
173 196 0
173 197 0
171 195 0
174 198 0
173 194 0
175 198 0
174 198 0
172 197 0
173 197 0
176 198 0
176 198 0
173 197 0
175 198 0
172 196 0
175 198 0
173 197 0
173 197 0
174 198 0
174 198 0
175 198 0
170 195 0
176 199 0
174 198 0
174 197 0
174 198 0
174 198 0
174 197 0
173 197 0
175 197 0
173 197 0
176 199 0
174 198 0
173 197 0
174 197 0
174 198 0
175 198 0
171 196 0
174 197 0
175 198 0
175 197 0
172 197 0
174 198 0
176 198 0
174 198 0
174 197 0
175 198 0
173 197 0
176 199 0
175 198 0
174 198 0
173 197 0
175 198 0
177 199 0
176 199 0
173 197 0
174 197 0
175 198 0
174 197 0
173 197 0
173 197 0
174 198 0
174 198 0
174 197 0
174 198 0
173 197 0
175 198 0
175 198 0
173 197 0
174 197 0
173 197 0
175 198 0
177 199 0
174 198 0
173 197 0
174 198 0
175 198 0
174 198 0
177 199 0
174 198 0
173 197 0
172 196 0
176 198 0
173 197 0
175 198 0
176 199 0
175 198 0
174 198 0
174 198 0
173 197 0
175 198 0
174 197 0
175 198 0
177 199 0
173 197 0
173 197 0
176 199 0
174 197 0
173 197 0
174 197 0
174 198 0
176 199 0
175 198 0
173 197 0
174 197 0
173 197 0
174 198 0
174 198 0
172 197 0
174 198 0
174 197 0
174 198 0
174 198 0
175 198 0
175 198 0
174 198 0
175 198 0
174 198 0
175 198 0
176 198 0
174 198 0
175 198 0
174 197 0
175 198 0
176 199 0
176 199 0
175 198 0
176 199 0
174 198 0
175 198 0
174 198 0
173 197 0
174 198 0
174 198 0
175 198 0
173 197 0
174 198 0
176 198 0
173 197 0
174 198 0
175 198 0
176 198 0
175 198 0
174 197 0
172 196 0
175 198 0
174 197 0
177 199 0
173 197 0
175 198 0
176 199 0
176 199 0
175 198 0
177 199 0
176 199 0
174 197 0
176 198 0
177 199 0
174 197 0
175 198 0
172 197 0
172 197 0
174 197 0
175 198 0
175 198 0
172 197 0
174 198 0
174 198 0
174 198 0
175 198 0
176 199 0
175 198 0
174 198 0
174 198 0
177 199 0
177 199 0
175 198 0
175 198 0
174 197 0
172 197 0
178 200 0
175 198 0
175 198 0
175 198 0
175 198 0
174 197 0
176 199 0
173 197 0
175 198 0
174 197 0
176 198 0
173 197 0
175 198 0
174 197 0
174 198 0
176 198 0
174 197 0
175 198 0
174 198 0
174 198 0
176 198 0
175 198 0
172 196 0
174 197 0
173 197 0
175 198 0
174 198 0
175 198 0
177 199 0
174 197 0
175 198 0
175 198 0
173 197 0
172 197 0
175 198 0
177 199 0
175 198 0
175 198 0
175 198 0
175 198 0
173 197 0
173 197 0
177 199 0
176 198 0
177 199 0
177 199 0
178 199 0
174 198 0
176 199 0
175 198 0
176 199 0
172 197 0
176 199 0
172 196 0
174 197 0
176 199 0
174 198 0
175 198 0
173 196 0
175 198 0
176 199 0
174 198 0
176 198 0
172 195 0
175 198 0
174 198 0
172 197 0
173 197 0
175 198 0
177 199 0
174 198 0
173 197 0
175 198 0
176 199 0
174 197 0
175 198 0
173 197 0
175 198 0
172 197 0
175 198 0
177 199 0
173 197 0
172 195 0
174 197 0
174 198 0
174 197 0
176 198 0
174 197 0
175 198 0
175 198 0
175 198 0
175 198 0
173 197 0
173 197 0
173 196 0
177 199 0
176 199 0
175 198 0
175 197 0
176 199 0
176 199 0
173 197 0
173 197 0
176 199 0
174 197 0
175 198 0
176 199 0
170 193 0
174 198 0
175 198 0
175 198 0
172 196 0
175 198 0
173 197 0
172 197 0
174 198 0
174 198 0
173 197 0
176 199 0
175 198 0
172 195 0
174 198 0
174 196 0
173 197 0
175 198 0
175 198 0
174 198 0
172 196 0
176 198 0
175 198 0
174 198 0
173 197 0
175 198 0
173 197 0
175 197 0
172 195 0
173 197 0
173 194 0
175 198 0
174 198 0
173 197 0
173 196 0
176 199 0
174 197 0
175 198 0
174 197 0
173 197 0
173 197 0
171 195 0
174 197 0
173 196 0
172 197 0
173 196 0
175 197 0
173 197 0
173 197 0
173 196 0
174 198 0
173 197 0
171 195 0
173 197 0
174 197 0
174 197 0
174 198 0
173 196 0
174 197 0
171 194 0
174 197 0
173 196 0
175 198 0
174 197 0
173 196 0
172 195 0
174 197 0
171 196 0
172 193 0
173 197 0
173 195 0
170 193 0
173 197 0
175 198 0
170 194 0
174 195 0
175 197 0
172 194 0
176 199 0
174 197 0
171 195 0
173 197 0
172 195 0
173 197 0
170 193 0
174 197 0
175 198 0
171 195 0
174 197 0
173 197 0
173 196 0
173 195 0
171 194 0
172 195 0
173 197 0
176 198 0
173 197 0
175 198 0
177 199 0
174 197 0
173 197 0
175 198 0
171 194 0
174 196 0
172 196 0
174 197 0
172 196 0
174 198 0
174 197 0
176 198 0
173 196 0
173 197 0
172 195 0
173 197 0
172 194 0
173 197 0
173 196 0
174 197 0
176 198 0
175 198 0
175 198 0
174 197 0
176 198 0
173 196 0
177 199 0
174 198 0
173 197 0
174 198 0
173 197 0
172 196 0
174 198 0
174 197 0
175 198 0
175 198 0
174 198 0
175 198 0
173 197 0
175 198 0
173 196 0
174 197 0
174 197 0
176 199 0
173 197 0
174 198 0
175 197 0
171 196 0
173 197 0
174 197 0
175 198 0
175 198 0
175 198 0
173 197 0
174 197 0
174 198 0
174 198 0
172 197 0
174 198 0
174 198 0
175 198 0
174 197 0
173 197 0
175 198 0
173 197 0
175 198 0
174 197 0
176 198 0
174 198 0
177 199 0
173 197 0
175 198 0
171 196 0
173 197 0
173 197 0
174 197 0
174 198 0
175 198 0
175 198 0
176 199 0
171 196 0
175 198 0
174 198 0
175 198 0
174 198 0
174 198 0
175 198 0
175 198 0
173 197 0
173 197 0
173 197 0
174 198 0
173 197 0
175 198 0
176 198 0
174 198 0
174 197 0
174 197 0
176 198 0
175 198 0
175 198 0
176 198 0
175 198 0
175 198 0
175 198 0
172 197 0
173 197 0
176 199 0
175 198 0
174 197 0
176 199 0
175 198 0
175 198 0
174 198 0
174 198 0
174 198 0
174 198 0
172 197 0
174 198 0
176 199 0
174 198 0
174 197 0
175 198 0
176 199 0
174 198 0
172 197 0
174 198 0
175 198 0
173 197 0
173 197 0
176 199 0
176 198 0
173 197 0
176 199 0
171 196 0
175 198 0
173 197 0
173 197 0
176 199 0
176 199 0
174 198 0
170 196 0
175 198 0
173 197 0
174 197 0
175 198 0
173 197 0
176 199 0
176 199 0
174 198 0
174 198 0
172 197 0
176 199 0
176 199 0
172 196 0
175 198 0
174 198 0
173 197 0
174 198 0
172 197 0
177 199 0
176 198 0
176 199 0
178 199 0
173 197 0
176 199 0
171 196 0
172 197 0
175 198 0
173 197 0
176 199 0
174 198 0
173 197 0
174 197 0
174 198 0
176 199 0
175 198 0
173 197 0
174 197 0
173 197 0
176 198 0
175 198 0
175 198 0
173 197 0
173 197 0
176 199 0
173 197 0
176 199 0
173 197 0
175 198 0
173 197 0
176 199 0
174 198 0
175 198 0
176 199 0
176 198 0
174 198 0
176 198 0
175 198 0
173 197 0
175 198 0
174 197 0
175 198 0
174 198 0
175 198 0
173 197 0
174 197 0
176 199 0
172 197 0
175 198 0
174 198 0
173 197 0
174 198 0
174 198 0
176 198 0
173 197 0
173 197 0
174 198 0
173 197 0
174 197 0
179 200 0
174 198 0
174 198 0
174 198 0
174 197 0
174 197 0
176 198 0
175 198 0
172 197 0
174 198 0
175 198 0
173 196 0
173 197 0
174 197 0
175 198 0
175 198 0
174 197 0
173 197 0
177 199 0
175 198 0
173 197 0
174 198 0
172 197 0
173 196 0
174 198 0
174 197 0
174 197 0
175 198 0
176 199 0
175 198 0
175 198 0
174 197 0
176 199 0
174 197 0
173 197 0
174 198 0
173 197 0
173 197 0
174 197 0
174 198 0
173 197 0
173 197 0
172 197 0
174 197 0
173 197 0
175 198 0
175 198 0
176 198 0
176 199 0
175 198 0
175 198 0
175 198 0
178 200 0
175 198 0
173 197 0
174 197 0
173 196 0
173 197 0
174 197 0
174 198 0
176 198 0
173 197 0
176 199 0
175 198 0
176 198 0
175 198 0
175 198 0
175 198 0
176 198 0
174 198 0
174 198 0
174 198 0
175 198 0
173 197 0
174 196 0
173 197 0
172 197 0
177 199 0
174 198 0
173 197 0
174 197 0
173 197 0
175 198 0
175 198 0
174 198 0
176 198 0
172 196 0
172 197 0
173 197 0
175 198 0
174 197 0
172 196 0
174 196 0
174 198 0
175 198 0
174 197 0
174 197 0
174 198 0
172 197 0
172 197 0
175 198 0
174 196 0
173 197 0
175 198 0
173 197 0
178 199 0
174 198 0
173 197 0
175 198 0
171 195 0
175 198 0
174 198 0
172 196 0
175 198 0
173 196 0
174 198 0
174 198 0
174 198 0
174 198 0
177 199 0
173 197 0
173 197 0
175 198 0
174 196 0
173 197 0
174 198 0
173 197 0
173 197 0
174 196 0
173 196 0
171 196 0
174 196 0
170 194 0
175 198 0
175 197 0
175 198 0
173 197 0
174 197 0
176 199 0
173 197 0
172 196 0
175 198 0
175 197 0
173 197 0
171 194 0
172 197 0
174 196 0
170 192 0
175 198 0
174 198 0
172 195 0
172 194 0
174 196 0
172 195 0
173 196 0
173 197 0
173 196 0
174 197 0
172 196 0
176 199 0
173 196 0
173 196 0
174 197 0
175 196 0
172 197 0
174 196 0
173 195 0
174 197 0
172 196 0
172 196 0
173 196 0
173 196 0
174 196 0
173 196 0
171 196 0
172 196 0
170 195 0
172 195 0
170 194 0
177 199 0
174 197 0
174 197 0
173 196 0
170 194 0
173 197 0
175 198 0
174 196 0
173 197 0
173 196 0
171 194 0
176 199 0
174 197 0
174 197 0
173 197 0
174 197 0
174 197 0
172 196 0
174 197 0
175 198 0
176 199 0
173 197 0
175 197 0
174 198 0
174 197 0
175 198 0
174 198 0
172 196 0
176 199 0
172 197 0
173 196 0
175 198 0
173 197 0
173 196 0
174 197 0
174 198 0
173 197 0
176 198 0
178 200 0
176 198 0
172 197 0
174 197 0
176 199 0
174 198 0
174 197 0
175 198 0
176 199 0
174 197 0
173 197 0
175 197 0
172 197 0
175 198 0
172 197 0
175 198 0
174 198 0
177 199 0
175 198 0
174 198 0
174 197 0
175 198 0
174 197 0
174 197 0
171 196 0
174 197 0
174 198 0
174 198 0
175 198 0
173 197 0
174 198 0
174 198 0
174 197 0
173 197 0
172 196 0
174 198 0
174 198 0
176 198 0
176 199 0
175 198 0
174 198 0
174 197 0
172 196 0
175 198 0
175 198 0
174 198 0
175 198 0
173 197 0
173 197 0
175 198 0
176 199 0
176 199 0
174 197 0
174 197 0
173 197 0
173 197 0
174 198 0
174 198 0
174 198 0
177 199 0
175 198 0
175 198 0
174 198 0
177 199 0
177 199 0
175 198 0
174 198 0
173 197 0
176 198 0
176 199 0
174 198 0
175 198 0
175 198 0
173 197 0
175 198 0
176 199 0
174 198 0
176 199 0
176 198 0
172 197 0
175 198 0
173 197 0
174 198 0
174 197 0
174 198 0
174 198 0
175 198 0
173 197 0
174 197 0
176 198 0
175 198 0
176 199 0
174 198 0
175 198 0
175 198 0
178 199 0
175 198 0
175 198 0
175 198 0
176 199 0
173 197 0
172 197 0
174 197 0
176 198 0
176 199 0
176 199 0
173 197 0
174 197 0
177 199 0
172 197 0
176 199 0
171 196 0
174 197 0
174 198 0
173 197 0
174 197 0
176 199 0
174 198 0
176 199 0
172 196 0
175 198 0
176 198 0
174 198 0
174 198 0
175 198 0
175 198 0
174 198 0
174 197 0
174 198 0
172 197 0
176 199 0
175 198 0
173 197 0
174 198 0
174 197 0
174 198 0
175 198 0
171 196 0
172 197 0
173 197 0
175 198 0
172 197 0
174 198 0
173 197 0
173 197 0
175 198 0
176 199 0
174 198 0
174 198 0
174 198 0
176 199 0
175 197 0
176 199 0
176 199 0
174 197 0
174 196 0
175 198 0
172 197 0
173 197 0
174 197 0
176 199 0
175 198 0
176 199 0
172 197 0
173 197 0
177 199 0
176 198 0
174 197 0
171 196 0
173 197 0
175 198 0
173 197 0
177 199 0
175 198 0
174 198 0
175 198 0
173 197 0
174 198 0
174 198 0
174 197 0
176 199 0
175 198 0
174 198 0
176 199 0
175 198 0
173 197 0
175 198 0
174 198 0
175 198 0
173 197 0
173 197 0
173 197 0
174 198 0
173 197 0
172 197 0
175 198 0
174 198 0
176 199 0
172 197 0
174 198 0
174 198 0
174 198 0
175 198 0
173 197 0
176 198 0
175 198 0
173 197 0
173 197 0
173 197 0
175 198 0
174 198 0
172 197 0
174 196 0
172 196 0
177 199 0
174 198 0
175 197 0
175 198 0
176 198 0
175 198 0
175 198 0
174 198 0
175 198 0
176 198 0
176 199 0
174 198 0
171 196 0
174 198 0
174 198 0
177 199 0
174 197 0
176 199 0
176 198 0
173 197 0
176 199 0
176 198 0
173 197 0
176 198 0
173 196 0
175 198 0
175 198 0
175 198 0
173 197 0
175 197 0
174 197 0
176 199 0
174 196 0
174 198 0
175 198 0
174 198 0
173 197 0
175 198 0
175 198 0
172 196 0
174 198 0
175 198 0
173 196 0
175 198 0
175 198 0
174 197 0
174 197 0
174 198 0
176 199 0
175 198 0
175 198 0
174 198 0
174 197 0
172 197 0
173 197 0
173 197 0
176 199 0
176 199 0
173 197 0
172 196 0
176 198 0
172 197 0
175 198 0
174 198 0
174 198 0
177 199 0
173 196 0
173 197 0
174 197 0
175 198 0
174 197 0
177 199 0
170 195 0
173 197 0
173 197 0
174 198 0
173 197 0
174 197 0
174 198 0
176 198 0
176 198 0
175 198 0
176 199 0
176 199 0
174 198 0
174 198 0
175 198 0
175 198 0
175 198 0
173 197 0
172 196 0
173 195 0
174 198 0
174 198 0
174 197 0
174 197 0
172 195 0
173 195 0
175 198 0
175 196 0
175 198 0
173 194 0
173 197 0
171 195 0
172 197 0
175 198 0
172 197 0
171 195 0
172 196 0
176 198 0
173 197 0
174 197 0
174 198 0
174 198 0
173 196 0
175 196 0
175 198 0
173 196 0
173 197 0
170 195 0
174 198 0
173 197 0
173 195 0
171 196 0
171 195 0
174 196 0
174 198 0
173 197 0
172 195 0
169 192 0
175 198 0
175 198 0
175 197 0
174 197 0
173 197 0
172 196 0
172 196 0
174 197 0
171 194 0
175 197 0
175 198 0
176 198 0
172 195 0
175 198 0
174 198 0
172 195 0
171 194 0
172 195 0
172 196 0
173 197 0
172 196 0
172 196 0
174 198 0
174 197 0
173 195 0
171 194 0
174 197 0
173 197 0
173 197 0
171 196 0
175 198 0
174 197 0
173 197 0
172 195 0
175 198 0
175 198 0
175 198 0
173 197 0
174 198 0
174 197 0
176 198 0
175 198 0
177 199 0
175 198 0
175 198 0
176 198 0
172 196 0
175 198 0
176 198 0
173 197 0
173 196 0
176 198 0
175 198 0
174 197 0
173 197 0
174 198 0
172 196 0
172 197 0
174 197 0
173 197 0
172 197 0
172 196 0
174 198 0
174 198 0
173 197 0
175 198 0
175 198 0
175 198 0
175 198 0
175 198 0
172 196 0
173 196 0
173 197 0
174 197 0
176 198 0
172 196 0
174 198 0
175 198 0
173 197 0
174 198 0
174 198 0
175 198 0
174 197 0
174 198 0
172 197 0
174 197 0
174 197 0
175 198 0
172 197 0
174 198 0
178 200 0
172 196 0
174 197 0
175 198 0
176 199 0
174 198 0
175 198 0
174 197 0
174 198 0
175 198 0
174 197 0
173 197 0
176 199 0
176 199 0
171 196 0
176 199 0
175 198 0
175 198 0
174 198 0
174 198 0
174 197 0
174 198 0
176 199 0
175 198 0
174 198 0
172 196 0
176 198 0
176 199 0
175 198 0
178 200 0
176 198 0
174 198 0
174 197 0
176 198 0
176 199 0
175 198 0
173 197 0
177 199 0
174 197 0
175 198 0
172 197 0
174 198 0
175 198 0
175 198 0
174 198 0
175 198 0
175 198 0
174 197 0
173 197 0
175 198 0
174 198 0
174 198 0
174 198 0
175 198 0
176 199 0
174 197 0
173 197 0
174 197 0
174 198 0
175 198 0
175 198 0
176 198 0
175 198 0
175 198 0
172 196 0
177 199 0
172 196 0
176 199 0
175 198 0
175 198 0
174 198 0
174 197 0
175 198 0
175 198 0
176 199 0
174 198 0
174 198 0
177 199 0
174 198 0
176 198 0
175 198 0
174 198 0
174 198 0
174 197 0
173 197 0
175 198 0
174 197 0
174 198 0
175 198 0
175 198 0
173 197 0
177 199 0
174 198 0
175 198 0
175 198 0
175 198 0
175 198 0
174 198 0
174 197 0
173 197 0
174 198 0
175 198 0
176 199 0
176 199 0
174 198 0
176 199 0
176 198 0
173 197 0
178 200 0
173 197 0
177 199 0
175 198 0
172 197 0
175 198 0
175 198 0
174 198 0
176 198 0
175 198 0
173 197 0
173 197 0
175 198 0
172 197 0
176 199 0
175 198 0
174 197 0
176 199 0
173 197 0
175 198 0
174 197 0
174 197 0
175 198 0
173 197 0
173 197 0
176 199 0
178 200 0
176 199 0
176 199 0
173 197 0
174 198 0
177 199 0
174 197 0
174 198 0
174 198 0
174 198 0
174 197 0
175 198 0
176 198 0
174 198 0
176 198 0
174 198 0
176 199 0
177 199 0
176 198 0
177 199 0
174 198 0
171 196 0
176 198 0
174 197 0
173 197 0
174 197 0
175 198 0
174 198 0
177 199 0
174 198 0
174 198 0
173 196 0
176 199 0
173 197 0
175 198 0
172 197 0
174 198 0
174 198 0
175 198 0
175 198 0
175 198 0
175 198 0
172 196 0
174 197 0
173 197 0
174 198 0
175 198 0
173 197 0
177 199 0
176 199 0
176 198 0
173 197 0
174 198 0
172 196 0
176 198 0
175 198 0
175 198 0
173 197 0
172 196 0
174 196 0
172 197 0
175 198 0
174 198 0
175 198 0
174 197 0
175 198 0
177 199 0
176 199 0
174 197 0
175 198 0
175 198 0
174 198 0
175 198 0
172 196 0
175 198 0
173 197 0
174 198 0
176 199 0
178 198 0
173 197 0
173 196 0
172 197 0
175 197 0
173 197 0
175 198 0
171 194 0
174 198 0
174 198 0
175 198 0
177 199 0
175 198 0
174 198 0
174 198 0
175 198 0
174 197 0
174 197 0
176 198 0
174 198 0
173 196 0
175 198 0
175 198 0
174 197 0
172 196 0
175 198 0
171 196 0
172 196 0
176 199 0
173 196 0
172 197 0
174 198 0
174 198 0
174 197 0
174 198 0
173 197 0
173 197 0
173 197 0
174 197 0
175 198 0
173 197 0
175 197 0
175 198 0
176 199 0
172 197 0
174 198 0
177 199 0
175 198 0
175 198 0
171 195 0
172 196 0
173 197 0
172 194 0
174 197 0
173 197 0
175 198 0
173 197 0
174 198 0
175 198 0
177 199 0
175 198 0
172 196 0
175 198 0
172 197 0
175 198 0
174 198 0
174 197 0
173 196 0
173 195 0
173 197 0
174 197 0
173 197 0
172 197 0
173 195 0
173 197 0
174 198 0
173 197 0
176 198 0
172 194 0
172 196 0
175 197 0
176 199 0
175 198 0
175 198 0
171 196 0
174 196 0
171 196 0
174 197 0
171 195 0
172 195 0
174 197 0
171 192 0
175 198 0
174 197 0
172 196 0
173 197 0
175 198 0
173 197 0
175 198 0
174 196 0
174 196 0
174 197 0
172 196 0
174 197 0
173 196 0
175 197 0
173 197 0
174 197 0
173 197 0
174 197 0
173 197 0
174 197 0
171 195 0
175 198 0
174 198 0
174 197 0
174 197 0
173 197 0
173 196 0
172 195 0
172 196 0
173 197 0
173 197 0
173 197 0
174 197 0
174 198 0
174 198 0
174 197 0
175 198 0
175 198 0
173 197 0
174 197 0
172 196 0
175 198 0
170 194 0
174 198 0
175 197 0
174 198 0
173 197 0
174 198 0
175 198 0
174 197 0
174 198 0
174 197 0
172 196 0
173 197 0
176 199 0
174 197 0
174 198 0
175 198 0
175 198 0
174 197 0
174 198 0
174 198 0
174 198 0
175 198 0
173 197 0
173 196 0
173 197 0
173 197 0
172 196 0
172 196 0
175 198 0
173 197 0
175 198 0
175 198 0
175 198 0
172 197 0
172 197 0
175 198 0
176 199 0
174 197 0
175 198 0
174 198 0
173 197 0
174 197 0
172 197 0
173 197 0
174 198 0
175 198 0
174 197 0
176 199 0
174 197 0
175 198 0
173 197 0
172 197 0
175 198 0
174 197 0
173 196 0
175 198 0
173 197 0
175 198 0
175 198 0
174 198 0
173 197 0
173 197 0
175 198 0
174 198 0
173 197 0
174 197 0
176 199 0
173 197 0
174 197 0
174 198 0
175 198 0
177 199 0
174 197 0
176 199 0
174 198 0
176 199 0
176 199 0
173 197 0
176 199 0
175 198 0
173 197 0
176 199 0
174 198 0
176 199 0
176 199 0
175 198 0
176 199 0
174 197 0
173 197 0
174 198 0
174 197 0
176 198 0
175 198 0
174 198 0
175 198 0
175 198 0
175 198 0
176 199 0
176 198 0
174 198 0
174 197 0
176 199 0
172 196 0
174 198 0
175 198 0
174 198 0
174 197 0
173 197 0
173 197 0
174 197 0
175 198 0
174 197 0
175 198 0
173 197 0
174 198 0
175 198 0
175 198 0
175 198 0
174 197 0
175 198 0
174 198 0
176 199 0
173 197 0
174 198 0
176 199 0
174 198 0
175 198 0
173 197 0
176 198 0
173 197 0
174 198 0
173 197 0
174 198 0
175 198 0
176 199 0
176 199 0
173 197 0
172 196 0
174 198 0
176 198 0
174 198 0
175 198 0
172 197 0
173 197 0
176 199 0
173 197 0
177 199 0
176 198 0
173 197 0
176 199 0
176 199 0
176 199 0
173 197 0
173 197 0
171 196 0
173 197 0
175 198 0
176 199 0
175 198 0
173 197 0
173 197 0
173 197 0
172 197 0
174 198 0
174 198 0
175 198 0
175 198 0
174 198 0
175 198 0
175 198 0
174 198 0
173 197 0
174 198 0
174 198 0
175 198 0
174 198 0
175 198 0
172 197 0
174 197 0
174 197 0
176 199 0
175 198 0
174 197 0
174 198 0
173 197 0
172 196 0
172 197 0
173 197 0
174 198 0
172 196 0
175 198 0
173 197 0
173 197 0
175 197 0
175 198 0
175 198 0
171 195 0
175 198 0
175 198 0
174 198 0
173 197 0
173 197 0
174 198 0
174 198 0
172 196 0
174 198 0
175 198 0
175 198 0
175 198 0
175 198 0
176 199 0
175 198 0
176 198 0
174 198 0
174 198 0
175 198 0
176 198 0
173 197 0
173 197 0
173 197 0
176 199 0
175 198 0
176 199 0
177 199 0
174 197 0
175 198 0
176 199 0
174 197 0
174 198 0
175 198 0
176 198 0
175 198 0
173 197 0
174 198 0
175 198 0
175 198 0
177 199 0
174 197 0
174 198 0
172 197 0
175 198 0
177 199 0
176 198 0
173 197 0
174 198 0
173 197 0
173 197 0
174 197 0
175 198 0
175 198 0
174 197 0
174 198 0
171 196 0
174 198 0
175 198 0
175 198 0
174 198 0
171 196 0
174 197 0
175 198 0
175 198 0
174 198 0
173 197 0
177 199 0
175 198 0
173 197 0
173 197 0
173 197 0
174 198 0
172 195 0
173 197 0
174 198 0
175 198 0
176 199 0
175 198 0
175 198 0
174 198 0
174 198 0
172 196 0
176 199 0
174 198 0
177 199 0
175 198 0
174 198 0
174 198 0
174 198 0
173 195 0
172 196 0
174 198 0
174 197 0
174 197 0
171 195 0
175 198 0
173 197 0
175 198 0
175 198 0
175 198 0
170 196 0
175 198 0
174 198 0
173 197 0
174 198 0
173 197 0
176 199 0
172 197 0
175 198 0
173 196 0
173 197 0
172 196 0
176 199 0
175 198 0
172 196 0
175 198 0
175 198 0
175 197 0
174 198 0
173 197 0
173 196 0
172 194 0
171 196 0
176 198 0
175 198 0
172 197 0
174 198 0
175 198 0
171 195 0
174 197 0
175 198 0
173 197 0
176 199 0
174 198 0
173 197 0
173 196 0
174 198 0
173 197 0
173 195 0
176 199 0
173 197 0
175 198 0
173 195 0
176 199 0
176 198 0
173 197 0
174 196 0
173 197 0
175 198 0
177 199 0
174 196 0
171 195 0
172 195 0
173 196 0
176 198 0
173 196 0
172 195 0
175 196 0
176 199 0
171 195 0
173 196 0
174 197 0
174 197 0
174 197 0
174 197 0
173 195 0
174 198 0
175 198 0
174 197 0
173 197 0
176 197 0
175 197 0
173 197 0
174 197 0
171 194 0
174 197 0
173 195 0
174 197 0
170 193 0
174 197 0
173 196 0
173 197 0
172 194 0
173 197 0
174 197 0
171 196 0
175 198 0
171 194 0
175 198 0
175 198 0
172 195 0
174 198 0
174 198 0
173 197 0
174 198 0
173 197 0
174 197 0
174 198 0
175 198 0
175 198 0
176 198 0
174 197 0
174 197 0
176 198 0
172 197 0
174 197 0
174 198 0
176 199 0
174 197 0
174 197 0
173 197 0
174 198 0
173 197 0
175 198 0
174 197 0
176 198 0
174 198 0
173 197 0
173 197 0
173 196 0
176 199 0
175 198 0
173 197 0
172 197 0
172 197 0
174 197 0
174 197 0
172 197 0
173 197 0
175 198 0
174 198 0
174 197 0
174 197 0
174 197 0
172 196 0
174 197 0
173 197 0
172 196 0
174 197 0
176 199 0
174 197 0
175 198 0
175 198 0
174 198 0
175 198 0
172 197 0
175 198 0
173 197 0
174 197 0
176 198 0
176 199 0
174 197 0
173 197 0
173 197 0
174 198 0
173 197 0
176 198 0
177 199 0
174 198 0
175 198 0
175 198 0
174 198 0
175 198 0
176 198 0
175 198 0
174 198 0
174 198 0
174 198 0
175 198 0
176 199 0
174 197 0
176 199 0
175 198 0
175 198 0
175 198 0
174 197 0
175 198 0
173 197 0
176 199 0
172 195 0
173 197 0
175 198 0
178 200 0
173 197 0
174 198 0
173 197 0
175 198 0
175 198 0
175 198 0
174 196 0
173 197 0
176 199 0
174 198 0
173 197 0
175 198 0
174 197 0
175 198 0
173 197 0
174 197 0
174 198 0
174 198 0
174 198 0
175 198 0
173 197 0
174 197 0
175 198 0
174 198 0
174 198 0
175 198 0
176 199 0
173 197 0
174 198 0
175 198 0
174 198 0
175 198 0
174 197 0
174 197 0
177 199 0
173 197 0
173 197 0
175 198 0
174 197 0
174 197 0
173 197 0
175 198 0
173 197 0
174 198 0
174 198 0
173 197 0
175 198 0
175 198 0
176 199 0
175 198 0
173 197 0
174 198 0
175 198 0
174 197 0
173 197 0
174 198 0
173 197 0
174 198 0
175 198 0
175 198 0
172 197 0
173 197 0
174 198 0
174 197 0
175 198 0
175 198 0
176 198 0
173 197 0
176 198 0
177 199 0
173 197 0
177 199 0
176 198 0
173 197 0
175 198 0
172 197 0
176 198 0
174 197 0
177 199 0
177 199 0
174 198 0
175 198 0
173 197 0
175 198 0
174 198 0
175 198 0
175 198 0
171 196 0
173 197 0
174 198 0
173 197 0
174 197 0
173 197 0
174 198 0
175 198 0
175 198 0
178 199 0
173 197 0
174 198 0
176 198 0
176 199 0
174 197 0
175 198 0
172 197 0
173 197 0
174 198 0
173 197 0
176 199 0
176 199 0
175 198 0
175 198 0
174 198 0
175 198 0
171 196 0
176 198 0
176 199 0
175 198 0
175 198 0
175 198 0
175 198 0
174 197 0
174 197 0
173 197 0
174 198 0
174 196 0
174 198 0
176 199 0
175 198 0
174 198 0
174 198 0
176 198 0
174 197 0
173 197 0
175 198 0
174 198 0
172 197 0
175 198 0
174 198 0
174 198 0
175 198 0
175 197 0
176 199 0
176 198 0
173 197 0
173 197 0
176 198 0
176 199 0
176 199 0
176 198 0
176 199 0
173 197 0
176 199 0
174 198 0
174 198 0
175 198 0
175 198 0
172 196 0
173 197 0
173 197 0
174 198 0
173 197 0
173 197 0
173 196 0
175 198 0
177 199 0
174 197 0
174 198 0
174 198 0
174 198 0
176 197 0
175 198 0
173 197 0
173 196 0
176 198 0
173 197 0
172 197 0
174 198 0
173 197 0
176 199 0
175 198 0
176 199 0
172 196 0
175 198 0
174 198 0
174 198 0
177 199 0
173 197 0
175 198 0
174 198 0
172 197 0
175 198 0
175 198 0
171 196 0
175 198 0
175 198 0
175 196 0
176 199 0
173 197 0
175 198 0
174 198 0
174 198 0
173 197 0
175 198 0
174 198 0
174 197 0
175 198 0
174 197 0
175 198 0
174 198 0
175 197 0
174 198 0
174 198 0
173 197 0
174 198 0
172 196 0
173 197 0
175 198 0
171 195 0
171 192 0
174 198 0
172 195 0
175 198 0
172 197 0
173 197 0
175 197 0
175 198 0
173 197 0
173 196 0
173 196 0
174 198 0
174 197 0
177 199 0
175 198 0
173 197 0
174 197 0
173 197 0
175 198 0
172 197 0
175 198 0
173 194 0
176 199 0
177 199 0
175 198 0
177 199 0
172 196 0
175 198 0
173 197 0
174 197 0
175 198 0
172 195 0
173 196 0
173 197 0
174 198 0
174 197 0
174 197 0
174 198 0
173 195 0
172 197 0
173 197 0
176 199 0
175 198 0
174 195 0
172 195 0
172 196 0
171 196 0
174 197 0
173 197 0
171 194 0
174 197 0
173 196 0
174 196 0
172 196 0
175 197 0
174 197 0
173 197 0
175 197 0
174 198 0
173 197 0
173 197 0
170 194 0
171 195 0
173 197 0
176 199 0
174 198 0
173 197 0
173 195 0
171 195 0
175 198 0
174 197 0
172 195 0
171 196 0
175 197 0
174 195 0
172 196 0
175 198 0
173 197 0
174 197 0
175 197 0
174 197 0
173 197 0
175 198 0
173 197 0
173 197 0
175 197 0
171 196 0
171 194 0
178 200 0
174 197 0
174 198 0
174 196 0
174 197 0
172 197 0
174 197 0
175 198 0
175 198 0
175 198 0
174 198 0
174 197 0
172 196 0
173 197 0
173 197 0
173 196 0
175 198 0
178 200 0
174 198 0
176 198 0
175 198 0
174 197 0
173 197 0
174 198 0
174 198 0
175 198 0
174 198 0
173 197 0
174 198 0
175 198 0
173 197 0
175 198 0
172 196 0
175 198 0
174 198 0
175 198 0
173 197 0
174 198 0
173 197 0
174 197 0
173 197 0
177 199 0
172 197 0
173 197 0
175 198 0
171 196 0
175 198 0
172 197 0
175 198 0
172 197 0
173 197 0
174 197 0
174 198 0
173 197 0
174 197 0
177 199 0
174 198 0
174 197 0
174 198 0
173 197 0
174 198 0
173 197 0
173 197 0
173 197 0
175 198 0
175 198 0
175 198 0
173 197 0
174 198 0
175 198 0
174 198 0
175 198 0
174 198 0
175 198 0
174 198 0
175 198 0
174 197 0
173 197 0
174 197 0
177 199 0
173 197 0
175 198 0
173 197 0
174 198 0
175 198 0
174 198 0
174 197 0
175 198 0
174 198 0
174 198 0
175 198 0
174 197 0
175 198 0
177 199 0
175 198 0
174 197 0
173 197 0
175 198 0
176 198 0
174 198 0
174 198 0
173 197 0
174 198 0
174 198 0
175 198 0
172 197 0
173 197 0
173 197 0
175 198 0
177 199 0
176 198 0
174 198 0
176 198 0
174 198 0
175 198 0
173 197 0
175 198 0
174 198 0
174 197 0
175 198 0
176 199 0
174 197 0
175 198 0
178 200 0
175 198 0
174 198 0
174 198 0
175 198 0
175 198 0
175 198 0
172 197 0
175 198 0
174 197 0
172 197 0
175 198 0
176 199 0
173 197 0
174 197 0
175 198 0
174 198 0
175 198 0
176 198 0
175 198 0
174 198 0
170 196 0
175 198 0
174 198 0
174 197 0
174 198 0
172 197 0
174 198 0
174 197 0
173 197 0
174 198 0
175 198 0
175 198 0
176 199 0
175 198 0
173 197 0
177 199 0
171 196 0
176 199 0
176 199 0
175 198 0
172 196 0
175 198 0
174 197 0
174 197 0
175 198 0
176 199 0
176 199 0
173 197 0
171 196 0
175 198 0
175 198 0
176 199 0
174 198 0
175 198 0
173 197 0
172 197 0
176 198 0
175 198 0
176 199 0
173 197 0
174 198 0
174 198 0
174 198 0
174 198 0
175 198 0
175 198 0
174 197 0
175 198 0
175 198 0
176 198 0
172 196 0
176 198 0
174 198 0
176 199 0
176 198 0
175 198 0
175 198 0
173 197 0
174 197 0
176 199 0
173 197 0
176 198 0
176 199 0
175 198 0
175 198 0
176 199 0
173 197 0
177 199 0
176 199 0
172 196 0
174 197 0
175 198 0
174 198 0
175 198 0
173 197 0
177 199 0
176 198 0
175 198 0
174 198 0
175 198 0
175 198 0
174 198 0
175 198 0
173 197 0
176 199 0
175 198 0
172 197 0
174 198 0
175 198 0
173 197 0
174 197 0
174 198 0
175 198 0
174 197 0
176 199 0
174 198 0
172 197 0
175 198 0
175 198 0
175 198 0
173 197 0
175 198 0
175 198 0
176 198 0
175 198 0
175 198 0
176 199 0
175 198 0
172 197 0
175 198 0
173 197 0
173 197 0
173 197 0
173 197 0
173 197 0
174 197 0
175 198 0
174 198 0
174 198 0
176 198 0
172 196 0
172 195 0
173 197 0
174 198 0
173 196 0
171 196 0
174 198 0
176 199 0
176 198 0
175 198 0
173 197 0
172 197 0
171 196 0
175 198 0
174 197 0
175 198 0
174 198 0
176 199 0
174 198 0
177 199 0
176 198 0
174 198 0
172 197 0
174 198 0
174 197 0
174 198 0
176 198 0
174 197 0
176 199 0
174 198 0
173 197 0
172 197 0
175 198 0
172 196 0
176 199 0
172 197 0
172 196 0
175 198 0
175 198 0
175 198 0
177 199 0
177 199 0
174 198 0
174 198 0
171 196 0
174 197 0
174 198 0
174 198 0
172 196 0
177 198 0
174 197 0
171 195 0
175 198 0
175 198 0
176 197 0
172 197 0
174 197 0
173 197 0
176 199 0
174 198 0
173 197 0
173 197 0
174 197 0
176 198 0
175 196 0
173 197 0
175 198 0
174 197 0
175 198 0
174 198 0
175 198 0
173 197 0
174 197 0
175 197 0
173 197 0
177 199 0
176 198 0
176 199 0
174 198 0
172 196 0
177 199 0
174 196 0
171 195 0
173 196 0
175 196 0
173 197 0
172 196 0
173 196 0
173 196 0
174 197 0
172 197 0
176 198 0
172 196 0
174 198 0
172 195 0
177 199 0
173 197 0
174 197 0
171 193 0
173 195 0
173 197 0
173 196 0
174 196 0
172 195 0
176 198 0
172 196 0
173 196 0
173 197 0
171 194 0
173 195 0
173 197 0
175 196 0
174 197 0
176 199 0
174 198 0
171 194 0
175 198 0
173 197 0
175 197 0
171 194 0
174 197 0
174 197 0
175 197 0
173 197 0
173 197 0
173 197 0
174 197 0
174 197 0
174 198 0
174 197 0
173 197 0
172 196 0
175 198 0
176 199 0
172 195 0
177 199 0
173 197 0
172 197 0
171 193 0
175 198 0
174 198 0
174 197 0
175 198 0
173 197 0
172 196 0
172 196 0
173 196 0
174 197 0
171 196 0
173 197 0
173 197 0
173 197 0
175 198 0
175 198 0
175 198 0
174 197 0
172 197 0
176 198 0
174 198 0
175 197 0
172 196 0
173 197 0
174 197 0
172 197 0
174 197 0
175 198 0
176 198 0
174 198 0
174 197 0
173 197 0
174 198 0
173 197 0
175 198 0
173 197 0
175 198 0
176 198 0
173 197 0
175 198 0
174 198 0
174 198 0
175 198 0
175 198 0
175 198 0
174 197 0
173 197 0
174 198 0
175 198 0
174 198 0
173 197 0
174 198 0
176 199 0
175 198 0
175 198 0
173 197 0
175 198 0
172 197 0
175 198 0
175 198 0
174 197 0
173 197 0
174 197 0
174 198 0
172 197 0
174 198 0
174 198 0
174 197 0
174 198 0
176 199 0
174 198 0
175 198 0
174 198 0
174 198 0
175 198 0
175 198 0
178 200 0
175 198 0
172 197 0
174 198 0
173 197 0
175 198 0
174 198 0
173 197 0
172 196 0
175 198 0
177 199 0
174 198 0
174 197 0
172 197 0
173 197 0
174 197 0
175 198 0
174 197 0
173 197 0
175 198 0
172 197 0
174 198 0
175 198 0
172 197 0
176 198 0
175 198 0
175 198 0
174 198 0
172 197 0
174 198 0
177 199 0
173 197 0
173 197 0
174 197 0
177 199 0
174 198 0
174 198 0
176 199 0
176 199 0
175 198 0
175 198 0
174 197 0
175 198 0
174 198 0
176 199 0
177 199 0
176 199 0
173 197 0
173 197 0
174 198 0
174 198 0
175 198 0
176 199 0
175 198 0
178 200 0
175 198 0
173 197 0
175 198 0
173 197 0
174 198 0
174 198 0
175 198 0
172 196 0
176 199 0
171 196 0
175 198 0
174 197 0
175 198 0
173 197 0
174 198 0
173 197 0
172 197 0
175 198 0
173 197 0
175 198 0
175 198 0
175 198 0
176 198 0
175 198 0
175 198 0
173 197 0
177 199 0
175 198 0
176 199 0
174 198 0
176 199 0
176 199 0
173 197 0
176 198 0
173 197 0
176 198 0
175 198 0
173 197 0
175 198 0
174 197 0
174 197 0
175 198 0
176 199 0
175 198 0
176 199 0
173 197 0
174 198 0
176 199 0
175 198 0
175 198 0
176 198 0
175 198 0
172 197 0
174 197 0
173 197 0
174 198 0
176 199 0
174 198 0
172 197 0
174 198 0
175 198 0
174 197 0
177 199 0
173 197 0
173 197 0
173 197 0
173 197 0
175 198 0
174 198 0
175 198 0
176 198 0
176 199 0
171 196 0
174 198 0
172 196 0
173 197 0
174 198 0
173 197 0
175 198 0
174 197 0
175 198 0
175 198 0
176 198 0
175 198 0
176 198 0
176 199 0
175 198 0
174 198 0
174 198 0
173 197 0
176 198 0
173 197 0
175 198 0
174 198 0
177 199 0
173 197 0
176 198 0
174 198 0
174 197 0
175 198 0
174 198 0
175 198 0
177 199 0
175 198 0
174 198 0
174 197 0
176 198 0
176 198 0
175 198 0
175 198 0
176 199 0
175 198 0
172 197 0
172 196 0
175 198 0
175 198 0
173 197 0
175 198 0
175 198 0
172 197 0
174 198 0
175 198 0
177 199 0
174 198 0
173 197 0
172 197 0
175 198 0
174 198 0
174 198 0
173 197 0
174 198 0
173 197 0
174 198 0
172 197 0
173 197 0
173 197 0
174 197 0
174 198 0
175 198 0
174 198 0
176 199 0
174 198 0
174 197 0
175 198 0
174 198 0
171 196 0
175 198 0
173 197 0
176 198 0
175 198 0
175 198 0
176 199 0
174 197 0
177 199 0
176 198 0
175 198 0
174 198 0
174 197 0
173 197 0
172 194 0
174 197 0
173 197 0
175 198 0
175 198 0
175 198 0
174 198 0
174 198 0
176 197 0
174 196 0
174 198 0
175 198 0
174 197 0
176 198 0
173 197 0
176 198 0
176 199 0
172 197 0
174 198 0
176 199 0
175 198 0
173 197 0
175 198 0
174 197 0
172 196 0
173 195 0
175 198 0
173 197 0
174 197 0
173 197 0
174 196 0
173 197 0
176 199 0
174 197 0
171 196 0
175 198 0
174 198 0
173 197 0
174 197 0
175 198 0
175 198 0
174 197 0
174 198 0
172 197 0
173 197 0
175 198 0
174 196 0
174 198 0
175 198 0
173 197 0
175 197 0
174 198 0
175 198 0
174 195 0
173 197 0
174 197 0
176 199 0
173 197 0
175 198 0
176 198 0
175 198 0
174 197 0
172 195 0
175 198 0
174 198 0
170 194 0
173 195 0
173 197 0
172 197 0
174 198 0
172 195 0
173 196 0
173 195 0
175 198 0
172 195 0
171 196 0
174 198 0
175 196 0
174 197 0
173 197 0
172 197 0
173 196 0
176 199 0
173 197 0
173 197 0
173 197 0
174 198 0
171 194 0
172 196 0
175 198 0
172 197 0
175 198 0
173 197 0
174 197 0
174 197 0
173 197 0
172 195 0
175 195 0
175 198 0
173 197 0
172 196 0
174 198 0
175 197 0
175 198 0
174 197 0
171 196 0
173 196 0
175 198 0
174 197 0
175 198 0
174 197 0
174 198 0
173 197 0
175 198 0
174 198 0
174 197 0
172 196 0
174 197 0
174 198 0
173 196 0
173 197 0
175 198 0
174 197 0
174 197 0
174 198 0
175 198 0
175 198 0
174 198 0
173 197 0
174 198 0
176 198 0
174 198 0
173 197 0
175 198 0
176 197 0
175 198 0
172 197 0
172 196 0
173 197 0
174 197 0
173 197 0
175 198 0
175 198 0
177 199 0
173 197 0
174 198 0
173 197 0
174 197 0
174 198 0
176 199 0
171 195 0
174 197 0
175 198 0
174 198 0
174 197 0
174 198 0
175 198 0
174 198 0
173 197 0
171 196 0
174 198 0
175 198 0
178 200 0
175 198 0
175 198 0
173 197 0
176 199 0
175 198 0
174 198 0
172 197 0
176 199 0
173 197 0
174 197 0
175 198 0
174 198 0
175 198 0
176 199 0
173 197 0
173 197 0
173 197 0
173 197 0
173 197 0
173 197 0
175 198 0
173 197 0
175 198 0
177 199 0
172 197 0
170 196 0
174 197 0
174 198 0
175 198 0
174 198 0
173 197 0
174 198 0
175 198 0
177 199 0
174 197 0
174 198 0
174 197 0
176 199 0
175 198 0
175 198 0
174 197 0
175 198 0
173 197 0
172 196 0
172 197 0
174 198 0
175 198 0
175 198 0
175 198 0
175 198 0
176 198 0
173 197 0
174 198 0
175 198 0
176 199 0
174 197 0
176 198 0
175 198 0
174 198 0
174 197 0
176 199 0
174 197 0
175 198 0
175 198 0
175 198 0
175 198 0
176 199 0
173 197 0
173 197 0
175 198 0
174 198 0
175 198 0
175 198 0
178 199 0
173 197 0
174 198 0
175 198 0
175 198 0
175 198 0
173 197 0
172 197 0
175 198 0
174 198 0
173 197 0
173 197 0
173 197 0
175 198 0
175 198 0
173 197 0
175 198 0
174 198 0
174 198 0
175 198 0
174 198 0
176 199 0
173 197 0
176 199 0
174 198 0
173 197 0
175 198 0
172 197 0
174 198 0
173 197 0
176 198 0
177 199 0
176 199 0
173 197 0
174 197 0
175 198 0
174 198 0
174 197 0
176 199 0
175 198 0
175 198 0
175 198 0
174 197 0
178 200 0
175 198 0
174 198 0
174 198 0
177 199 0
175 198 0
174 198 0
175 198 0
177 199 0
176 198 0
173 197 0
175 198 0
173 197 0
176 198 0
173 197 0
174 198 0
175 198 0
172 197 0
175 198 0
174 198 0
175 198 0
175 198 0
174 197 0
175 198 0
174 198 0
177 199 0
175 198 0
173 197 0
173 197 0
172 195 0
175 198 0
174 198 0
175 198 0
177 199 0
175 198 0
175 198 0
175 198 0
175 198 0
172 197 0
176 198 0
174 197 0
174 198 0
175 198 0
174 198 0
174 198 0
177 199 0
174 198 0
174 197 0
174 198 0
175 198 0
175 198 0
176 199 0
173 197 0
172 197 0
173 197 0
172 197 0
176 199 0
176 199 0
173 197 0
174 197 0
175 198 0
176 199 0
174 198 0
175 198 0
173 197 0
174 198 0
175 198 0
176 199 0
174 197 0
175 198 0
172 196 0
174 198 0
172 197 0
175 198 0
173 197 0
173 197 0
175 198 0
174 198 0
173 197 0
174 198 0
173 197 0
173 197 0
175 198 0
175 198 0
174 197 0
175 198 0
173 197 0
176 198 0
173 197 0
173 197 0
174 198 0
172 195 0
175 198 0
176 199 0
173 197 0
175 198 0
176 198 0
173 196 0
173 197 0
173 197 0
173 197 0
175 198 0
173 197 0
176 199 0
175 198 0
173 197 0
174 197 0
174 198 0
174 198 0
174 197 0
174 197 0
175 198 0
174 198 0
173 197 0
175 198 0
174 198 0
176 199 0
176 199 0
175 198 0
175 198 0
175 198 0
175 198 0
174 198 0
172 195 0
175 198 0
175 197 0
175 198 0
174 198 0
176 199 0
174 197 0
174 198 0
174 198 0
175 198 0
173 196 0
175 198 0
176 198 0
176 199 0
175 198 0
173 196 0
174 197 0
173 196 0
174 198 0
175 198 0
174 197 0
175 198 0
174 197 0
176 199 0
175 198 0
174 197 0
174 198 0
173 197 0
175 197 0
176 199 0
172 196 0
173 196 0
170 193 0
175 198 0
174 198 0
173 197 0
173 197 0
176 199 0
175 198 0
174 197 0
176 198 0
175 198 0
173 197 0
174 198 0
175 198 0
174 198 0
171 195 0
174 198 0
172 197 0
174 198 0
174 196 0
174 198 0
172 197 0
173 196 0
174 198 0
176 199 0
174 198 0
173 197 0
174 197 0
174 197 0
174 198 0
172 195 0
174 195 0
172 196 0
175 197 0
173 196 0
174 198 0
171 195 0
173 197 0
174 197 0
174 196 0
172 197 0
174 197 0
174 198 0
173 197 0
175 197 0
171 195 0
175 198 0
175 198 0
172 196 0
172 194 0
173 196 0
173 197 0
174 197 0
174 197 0
175 198 0
172 197 0
173 197 0
172 196 0
172 195 0
172 197 0
172 197 0
175 197 0
173 197 0
176 198 0
174 198 0
174 197 0
173 197 0
174 197 0
173 196 0
174 197 0
173 197 0
174 197 0
174 198 0
174 197 0
174 196 0
173 197 0
172 195 0
172 197 0
176 199 0
173 197 0
174 198 0
174 198 0
175 197 0
176 198 0
175 198 0
173 197 0
173 197 0
176 198 0
173 197 0
176 199 0
173 196 0
174 197 0
175 198 0
173 196 0
174 197 0
173 197 0
172 195 0
174 198 0
175 198 0
173 197 0
175 198 0
172 197 0
175 198 0
173 196 0
176 198 0
175 198 0
172 196 0
175 198 0
177 199 0
175 198 0
173 197 0
174 198 0
176 199 0
173 197 0
174 198 0
175 198 0
178 200 0
174 197 0
173 197 0
175 197 0
172 196 0
176 198 0
173 197 0
175 198 0
175 198 0
175 198 0
174 198 0
174 197 0
176 199 0
177 199 0
173 197 0
176 199 0
172 196 0
176 199 0
172 196 0
175 198 0
177 199 0
176 198 0
175 198 0
176 199 0
174 197 0
175 198 0
174 197 0
174 198 0
175 198 0
173 197 0
174 197 0
175 198 0
175 198 0
173 197 0
176 199 0
172 197 0
174 198 0
175 198 0
175 198 0
174 197 0
173 197 0
174 198 0
174 197 0
177 199 0
176 198 0
174 198 0
173 197 0
176 199 0
174 198 0
175 198 0
176 198 0
175 198 0
176 198 0
175 198 0
173 196 0
175 198 0
173 197 0
173 197 0
174 197 0
174 198 0
176 199 0
172 197 0
175 198 0
174 198 0
174 198 0
176 199 0
172 197 0
176 199 0
173 197 0
174 198 0
176 199 0
174 198 0
176 199 0
174 198 0
174 198 0
175 198 0
174 198 0
173 197 0
173 197 0
174 198 0
175 198 0
174 198 0
173 197 0
176 199 0
172 197 0
176 198 0
173 197 0
173 197 0
172 196 0
173 197 0
176 199 0
174 198 0
175 198 0
173 197 0
175 198 0
178 200 0
175 198 0
175 198 0
174 198 0
176 199 0
174 197 0
174 198 0
175 198 0
176 198 0
174 197 0
175 198 0
173 197 0
174 197 0
173 197 0
176 199 0
173 197 0
175 198 0
172 196 0
174 198 0
173 197 0
174 198 0
177 199 0
174 198 0
175 198 0
172 197 0
174 197 0
176 199 0
175 198 0
172 196 0
175 198 0
175 198 0
175 198 0
174 198 0
175 198 0
176 199 0
175 198 0
175 198 0
174 198 0
176 199 0
173 197 0
175 198 0
173 197 0
173 197 0
174 198 0
175 198 0
174 198 0
174 198 0
176 199 0
174 198 0
174 198 0
174 198 0
177 199 0
173 197 0
176 199 0
174 197 0
174 198 0
173 197 0
176 199 0
174 198 0
174 197 0
173 197 0
178 199 0
173 197 0
176 198 0
174 198 0
176 199 0
175 198 0
175 198 0
174 198 0
174 198 0
174 198 0
173 197 0
173 197 0
173 197 0
175 198 0
175 198 0
173 197 0
175 198 0
175 198 0
173 197 0
175 198 0
170 196 0
176 198 0
175 198 0
174 198 0
177 199 0
175 197 0
174 197 0
174 198 0
175 198 0
175 198 0
173 197 0
172 197 0
173 197 0
176 198 0
177 199 0
175 198 0
176 199 0
173 197 0
174 198 0
174 197 0
175 198 0
173 197 0
175 198 0
175 198 0
175 198 0
174 198 0
176 199 0
174 197 0
175 198 0
175 198 0
173 197 0
174 198 0
175 198 0
174 198 0
175 198 0
174 198 0
176 199 0
173 197 0
172 196 0
176 198 0
174 197 0
173 197 0
176 198 0
176 198 0
173 197 0
175 198 0
175 198 0
173 197 0
175 198 0
175 198 0
177 198 0
174 198 0
176 198 0
173 197 0
175 198 0
175 198 0
172 197 0
175 198 0
173 197 0
173 197 0
174 197 0
175 198 0
173 197 0
175 197 0
173 197 0
177 199 0
172 196 0
175 198 0
176 199 0
172 195 0
176 199 0
172 197 0
173 197 0
173 197 0
173 197 0
175 198 0
174 197 0
175 198 0
176 198 0
177 199 0
175 198 0
176 199 0
175 198 0
174 197 0
175 198 0
173 196 0
176 199 0
175 198 0
173 196 0
173 197 0
174 198 0
177 199 0
175 198 0
175 198 0
174 198 0
173 196 0
174 198 0
173 197 0
175 198 0
176 199 0
174 198 0
174 197 0
177 199 0
175 198 0
174 197 0
176 199 0
176 199 0
173 197 0
173 195 0
175 197 0
174 198 0
176 199 0
175 198 0
172 196 0
173 196 0
172 197 0
174 198 0
174 198 0
174 197 0
174 198 0
175 198 0
174 197 0
174 197 0
174 198 0
173 197 0
174 198 0
175 198 0
174 196 0
173 197 0
174 198 0
173 195 0
173 197 0
174 198 0
173 196 0
171 195 0
174 197 0
174 197 0
174 198 0
174 198 0
173 195 0
174 198 0
173 197 0
175 198 0
174 198 0
170 195 0
173 197 0
175 198 0
177 199 0
175 197 0
174 197 0
173 197 0
174 198 0
173 197 0
173 196 0
174 195 0
172 197 0
173 197 0
176 197 0
175 197 0
175 198 0
175 196 0
174 196 0
175 198 0
175 198 0
173 196 0
171 196 0
173 197 0
175 198 0
174 197 0
174 197 0
172 196 0
173 196 0
172 195 0
174 197 0
173 196 0
174 196 0
173 197 0
172 196 0
174 197 0
174 196 0
174 198 0
172 195 0
173 197 0
174 198 0
176 198 0
175 198 0
176 198 0
173 197 0
175 198 0
174 197 0
173 196 0
175 198 0
175 198 0
175 198 0
173 197 0
173 197 0
172 196 0
173 197 0
175 198 0
172 197 0
175 198 0
175 198 0
173 197 0
175 198 0
173 197 0
174 197 0
177 199 0
173 197 0
174 197 0
175 198 0
174 198 0
175 198 0
174 197 0
175 198 0
177 199 0
174 197 0
172 197 0
173 197 0
174 197 0
174 197 0
173 197 0
173 197 0
173 197 0
174 197 0
174 197 0
174 197 0
175 198 0
175 198 0
175 198 0
175 198 0
174 198 0
176 199 0
174 197 0
176 198 0
177 199 0
174 197 0
176 198 0
177 199 0
173 197 0
174 198 0
174 198 0
174 197 0
175 198 0
175 198 0
175 198 0
173 197 0
173 197 0
175 198 0
173 197 0
172 197 0
176 199 0
176 198 0
172 197 0
174 197 0
172 196 0
175 198 0
174 198 0
175 198 0
175 198 0
174 198 0
173 197 0
174 197 0
174 197 0
175 198 0
174 197 0
173 197 0
176 198 0
171 196 0
175 198 0
174 198 0
175 198 0
176 198 0
174 197 0
174 197 0
173 197 0
176 199 0
177 199 0
175 198 0
173 197 0
177 199 0
175 198 0
174 198 0
176 199 0
176 199 0
173 197 0
175 198 0
174 197 0
175 198 0
174 197 0
173 197 0
173 197 0
176 198 0
176 198 0
174 198 0
172 197 0
176 199 0
173 197 0
174 198 0
175 198 0
175 198 0
175 198 0
174 198 0
176 198 0
173 197 0
176 198 0
173 197 0
175 198 0
173 197 0
175 198 0
173 197 0
174 198 0
174 198 0
175 198 0
172 197 0
173 197 0
174 197 0
174 197 0
175 198 0
174 198 0
174 198 0
176 199 0
174 198 0
173 197 0
174 197 0
176 199 0
177 199 0
175 198 0
173 197 0
174 198 0
174 198 0
173 197 0
175 198 0
174 198 0
175 198 0
174 198 0
172 197 0
175 198 0
172 197 0
176 199 0
174 198 0
176 199 0
175 198 0
174 197 0
173 197 0
174 197 0
173 197 0
175 198 0
174 198 0
174 198 0
174 198 0
175 198 0
175 198 0
174 198 0
174 198 0
175 198 0
174 198 0
174 197 0
175 198 0
175 198 0
173 197 0
171 196 0
175 198 0
176 199 0
175 198 0
175 198 0
176 199 0
174 198 0
175 198 0
176 198 0
175 198 0
176 198 0
174 198 0
175 198 0
175 198 0
177 199 0
177 199 0
175 198 0
176 199 0
174 198 0
174 197 0
176 199 0
177 199 0
174 197 0
174 198 0
174 198 0
173 197 0
174 198 0
176 199 0
176 198 0
173 197 0
175 198 0
174 197 0
176 199 0
175 198 0
174 198 0
172 197 0
176 198 0
177 199 0
172 197 0
174 197 0
175 198 0
174 197 0
174 198 0
173 197 0
174 198 0
174 198 0
174 197 0
174 198 0
175 198 0
173 197 0
177 199 0
176 199 0
174 198 0
171 196 0
174 198 0
173 196 0
173 197 0
175 198 0
173 197 0
175 198 0
175 198 0
174 197 0
176 198 0
174 198 0
174 198 0
176 198 0
177 199 0
173 197 0
175 198 0
173 197 0
175 198 0
173 197 0
174 198 0
174 197 0
175 198 0
174 198 0
175 198 0
173 197 0
174 198 0
173 197 0
176 199 0
174 197 0
177 198 0
175 198 0
173 197 0
175 198 0
175 198 0
175 198 0
175 198 0
174 198 0
176 198 0
173 197 0
176 199 0
171 195 0
174 198 0
174 198 0
173 197 0
174 197 0
174 198 0
171 196 0
177 199 0
178 199 0
176 199 0
173 197 0
176 199 0
174 198 0
174 198 0
173 197 0
175 198 0
175 198 0
175 198 0
175 198 0
175 197 0
175 198 0
176 199 0
174 198 0
174 198 0
172 196 0
173 197 0
174 198 0
174 197 0
173 197 0
175 198 0
174 198 0
176 199 0
175 198 0
175 198 0
173 197 0
173 197 0
175 198 0
175 197 0
174 198 0
173 197 0
174 197 0
175 198 0
171 196 0
174 197 0
176 198 0
177 199 0
175 198 0
176 198 0
172 195 0
173 197 0
174 195 0
175 198 0
175 198 0
174 197 0
174 198 0
174 198 0
173 197 0
175 198 0
174 198 0
173 196 0
174 198 0
174 197 0
174 196 0
171 196 0
175 198 0
174 197 0
174 197 0
173 197 0
175 198 0
174 198 0
172 196 0
173 196 0
176 199 0
173 196 0
175 198 0
175 198 0
174 197 0
175 198 0
172 196 0
173 197 0
172 196 0
172 197 0
176 199 0
173 197 0
172 196 0
176 198 0
175 197 0
174 197 0
172 197 0
171 196 0
175 198 0
174 198 0
172 196 0
176 199 0
175 198 0
174 197 0
173 197 0
174 197 0
175 197 0
171 194 0
173 197 0
173 197 0
175 197 0
176 199 0
174 197 0
171 196 0
176 199 0
169 193 0
173 197 0
175 198 0
174 197 0
173 197 0
174 197 0
175 198 0
176 199 0
173 195 0
174 197 0
174 197 0
174 197 0
173 195 0
172 197 0
170 195 0
172 196 0
174 197 0
175 198 0
174 197 0
175 198 0
173 196 0
173 197 0
175 198 0
173 197 0
174 198 0
175 198 0
176 199 0
174 197 0
173 196 0
174 197 0
176 199 0
172 197 0
174 197 0
174 197 0
175 198 0
177 199 0
172 196 0
176 199 0
173 197 0
175 198 0
172 196 0
175 198 0
173 197 0
174 197 0
174 198 0
174 198 0
176 198 0
174 197 0
176 199 0
173 197 0
175 198 0
174 198 0
173 197 0
174 196 0
173 197 0
173 197 0
174 197 0
174 198 0
176 199 0
175 198 0
175 198 0
175 198 0
173 197 0
173 197 0
173 197 0
172 196 0
173 197 0
173 197 0
176 198 0
173 197 0
174 198 0
175 198 0
174 197 0
173 197 0
174 198 0
173 197 0
174 197 0
175 198 0
178 200 0
172 197 0
174 197 0
175 198 0
176 199 0
174 197 0
176 198 0
173 197 0
175 198 0
172 197 0
174 197 0
173 197 0
172 196 0
173 197 0
175 198 0
174 197 0
173 197 0
175 198 0
175 198 0
175 198 0
176 198 0
174 198 0
174 197 0
175 198 0
173 197 0
175 198 0
174 198 0
174 198 0
174 197 0
173 197 0
175 198 0
173 197 0
175 198 0
176 199 0
173 197 0
173 197 0
174 198 0
174 198 0
175 198 0
173 197 0
173 197 0
173 196 0
173 197 0
176 199 0
177 199 0
175 198 0
176 199 0
175 198 0
175 198 0
175 198 0
175 198 0
173 197 0
174 198 0
172 197 0
174 197 0
174 197 0
175 198 0
170 195 0
174 198 0
172 197 0
176 199 0
174 198 0
176 199 0
172 196 0
175 198 0
177 199 0
173 197 0
174 198 0
175 198 0
174 197 0
173 197 0
175 198 0
173 197 0
175 198 0
175 198 0
174 198 0
175 198 0
174 198 0
174 198 0
176 198 0
175 198 0
173 197 0
173 197 0
176 199 0
174 198 0
173 197 0
176 199 0
175 198 0
173 197 0
173 197 0
173 197 0
176 198 0
175 198 0
176 199 0
174 198 0
175 198 0
178 200 0
174 198 0
174 198 0
174 198 0
174 197 0
176 199 0
174 198 0
174 198 0
175 198 0
175 198 0
174 198 0
172 197 0
174 198 0
173 197 0
177 199 0
174 198 0
173 197 0
174 197 0
172 197 0
174 198 0
174 197 0
175 198 0
175 198 0
177 199 0
175 198 0
175 198 0
175 198 0
174 198 0
172 196 0
174 198 0
175 198 0
174 197 0
174 198 0
174 197 0
176 198 0
175 198 0
175 198 0
176 199 0
173 197 0
177 199 0
174 197 0
174 197 0
173 197 0
175 198 0
176 199 0
176 199 0
175 198 0
174 198 0
173 197 0
174 198 0
174 198 0
175 198 0
175 198 0
176 199 0
174 198 0
174 197 0
174 197 0
174 198 0
173 197 0
175 197 0
173 197 0
176 199 0
172 197 0
175 198 0
175 198 0
175 198 0
173 197 0
173 196 0
175 198 0
175 198 0
173 197 0
176 199 0
175 198 0
175 198 0
173 197 0
175 198 0
173 197 0
174 198 0
174 198 0
174 198 0
173 197 0
175 198 0
174 198 0
175 198 0
173 197 0
175 198 0
173 197 0
177 199 0
173 197 0
175 198 0
175 198 0
175 198 0
174 198 0
176 199 0
175 198 0
172 196 0
172 197 0
175 198 0
175 198 0
174 198 0
173 197 0
174 197 0
174 198 0
174 198 0
172 197 0
171 196 0
174 198 0
173 196 0
175 198 0
175 198 0
175 198 0
175 198 0
175 198 0
175 198 0
174 198 0
173 197 0
175 198 0
174 197 0
173 197 0
175 198 0
173 197 0
172 196 0
175 198 0
175 198 0
172 197 0
173 197 0
173 197 0
174 198 0
175 198 0
175 198 0
175 198 0
173 197 0
172 197 0
175 198 0
174 197 0
174 197 0
175 198 0
172 197 0
173 197 0
174 198 0
175 198 0
174 197 0
175 198 0
175 198 0
174 198 0
173 197 0
171 196 0
174 198 0
176 199 0
173 197 0
172 196 0
175 198 0
176 199 0
174 197 0
177 199 0
176 199 0
175 198 0
173 197 0
174 198 0
174 196 0
174 197 0
177 199 0
175 198 0
175 198 0
175 198 0
173 195 0
175 198 0
175 198 0
173 197 0
176 199 0
173 196 0
173 197 0
172 195 0
174 197 0
175 198 0
175 198 0
174 198 0
174 198 0
174 197 0
175 197 0
174 197 0
173 197 0
175 198 0
175 198 0
173 196 0
175 198 0
175 198 0
173 197 0
176 197 0
174 197 0
173 196 0
174 198 0
174 196 0
172 196 0
173 197 0
176 199 0
173 197 0
173 196 0
173 196 0
175 198 0
174 197 0
176 198 0
174 197 0
176 198 0
172 196 0
174 197 0
172 196 0
174 197 0
174 198 0
171 196 0
174 196 0
175 198 0
175 198 0
174 197 0
174 197 0
176 199 0
174 197 0
175 198 0
173 197 0
172 197 0
172 195 0
172 196 0
176 198 0
172 195 0
173 197 0
174 198 0
173 197 0
174 197 0
173 197 0
173 196 0
173 197 0
172 197 0
172 196 0
173 196 0
174 196 0
174 198 0
172 197 0
173 197 0
175 198 0
175 198 0
173 197 0
176 199 0
173 196 0
174 198 0
170 195 0
173 196 0
175 198 0
175 198 0
175 198 0
171 196 0
173 197 0
170 194 0
173 197 0
171 195 0
175 198 0
177 199 0
175 198 0
172 197 0
176 199 0
173 197 0
174 197 0
174 197 0
177 199 0
174 198 0
175 198 0
174 198 0
172 196 0
172 196 0
175 198 0
173 197 0
174 198 0
173 197 0
174 198 0
174 197 0
175 198 0
175 198 0
172 196 0
174 197 0
172 196 0
173 197 0
177 199 0
174 197 0
174 197 0
174 198 0
177 199 0
175 198 0
174 198 0
175 198 0
174 198 0
173 197 0
174 198 0
174 198 0
176 199 0
173 197 0
174 198 0
173 197 0
175 198 0
174 198 0
171 196 0
174 197 0
174 198 0
174 198 0
176 199 0
174 198 0
174 198 0
173 197 0
176 199 0
175 198 0
174 198 0
173 197 0
174 198 0
177 199 0
174 197 0
175 198 0
176 199 0
172 196 0
175 198 0
176 198 0
176 199 0
174 197 0
174 198 0
175 198 0
176 199 0
172 197 0
174 197 0
171 196 0
175 198 0
174 198 0
176 198 0
174 197 0
175 198 0
176 199 0
174 197 0
175 198 0
174 198 0
174 198 0
173 197 0
173 197 0
175 198 0
176 198 0
174 198 0
175 198 0
171 196 0
174 198 0
175 198 0
174 198 0
175 198 0
174 197 0
174 197 0
175 198 0
176 199 0
173 197 0
175 198 0
174 197 0
173 197 0
175 198 0
176 199 0
175 198 0
173 197 0
175 198 0
174 198 0
175 198 0
174 198 0
173 197 0
174 198 0
172 197 0
175 198 0
173 197 0
176 199 0
173 197 0
174 198 0
173 197 0
174 198 0
175 198 0
175 198 0
174 198 0
175 197 0
177 199 0
174 198 0
174 198 0
172 196 0
174 198 0
175 198 0
175 198 0
177 199 0
172 197 0
173 197 0
174 198 0
173 197 0
173 197 0
175 198 0
173 197 0
173 197 0
178 200 0
175 198 0
175 198 0
175 198 0
177 199 0
176 199 0
175 198 0
174 197 0
175 198 0
176 198 0
175 198 0
171 196 0
173 197 0
174 198 0
175 198 0
174 198 0
175 198 0
177 199 0
172 196 0
175 198 0
175 198 0
172 197 0
173 197 0
174 197 0
175 198 0
176 199 0
174 198 0
174 198 0
177 199 0
174 198 0
175 198 0
174 198 0
175 198 0
172 196 0
175 198 0
175 198 0
177 199 0
173 197 0
176 198 0
174 198 0
174 198 0
177 199 0
174 198 0
176 199 0
174 198 0
174 198 0
171 196 0
175 198 0
172 197 0
175 198 0
176 198 0
175 198 0
172 197 0
175 198 0
173 197 0
173 197 0
176 199 0
172 197 0
175 198 0
176 199 0
174 197 0
173 197 0
175 198 0
174 198 0
172 196 0
173 197 0
175 198 0
176 198 0
176 199 0
173 197 0
174 198 0
173 197 0
175 198 0
176 198 0
172 197 0
174 198 0
173 196 0
174 197 0
174 197 0
174 198 0
175 198 0
176 198 0
175 198 0
176 199 0
173 197 0
174 198 0
172 197 0
173 197 0
174 198 0
174 198 0
175 198 0
175 198 0
174 198 0
175 198 0
172 197 0
173 197 0
174 198 0
175 198 0
175 198 0
173 197 0
175 198 0
175 198 0
175 198 0
176 199 0
175 198 0
175 198 0
174 197 0
174 198 0
173 197 0
175 198 0
176 198 0
173 197 0
172 196 0
173 197 0
174 198 0
173 197 0
175 198 0
173 197 0
173 197 0
176 199 0
176 199 0
175 198 0
174 198 0
175 198 0
175 198 0
176 199 0
176 199 0
175 198 0
173 197 0
172 196 0
175 198 0
173 197 0
176 199 0
174 198 0
171 196 0
173 197 0
175 197 0
174 198 0
174 198 0
175 198 0
173 197 0
177 199 0
175 198 0
175 198 0
175 197 0
174 198 0
174 197 0
175 198 0
175 198 0
174 197 0
173 197 0
177 199 0
174 198 0
177 199 0
174 197 0
173 197 0
173 197 0
177 199 0
174 198 0
174 198 0
172 195 0
173 197 0
172 197 0
176 199 0
176 199 0
176 199 0
174 198 0
174 197 0
175 198 0
176 197 0
172 195 0
174 198 0
174 196 0
174 198 0
174 197 0
175 198 0
173 196 0
173 197 0
173 197 0
174 198 0
175 198 0
173 197 0
174 197 0
173 197 0
175 198 0
172 196 0
175 198 0
174 198 0
172 196 0
173 196 0
174 197 0
173 197 0
176 198 0
174 198 0
173 197 0
174 198 0
174 198 0
174 198 0
174 197 0
176 197 0
176 198 0
172 197 0
174 197 0
174 196 0
175 198 0
174 197 0
175 197 0
174 196 0
174 197 0
172 196 0
172 195 0
173 197 0
173 197 0
174 197 0
175 198 0
172 196 0
178 200 0
174 196 0
173 197 0
171 194 0
174 195 0
178 200 0
174 196 0
174 198 0
173 196 0
176 199 0
175 198 0
174 198 0
174 197 0
175 197 0
174 197 0
174 197 0
173 195 0
175 198 0
174 196 0
174 197 0
173 195 0
174 196 0
174 197 0
175 198 0
174 198 0
174 197 0
173 197 0
173 195 0
172 197 0
170 194 0
176 199 0
171 195 0
175 197 0
173 197 0
174 198 0
175 198 0
173 197 0
173 197 0
174 197 0
176 199 0
172 196 0
176 199 0
174 198 0
174 197 0
173 197 0
174 197 0
173 197 0
173 197 0
173 197 0
173 197 0
173 197 0
174 197 0
175 198 0
175 198 0
172 196 0
173 197 0
173 197 0
174 197 0
177 199 0
174 198 0
172 196 0
175 198 0
173 196 0
173 197 0
174 198 0
175 198 0
177 199 0
172 196 0
171 196 0
174 198 0
174 197 0
173 197 0
175 198 0
174 197 0
175 198 0
174 197 0
176 198 0
175 198 0
174 197 0
176 199 0
175 198 0
175 198 0
173 197 0
176 199 0
173 197 0
173 197 0
175 198 0
176 198 0
175 198 0
175 198 0
175 198 0
175 198 0
174 198 0
173 197 0
175 198 0
176 198 0
175 198 0
172 197 0
174 198 0
176 199 0
175 198 0
173 196 0
173 197 0
174 198 0
173 197 0
176 199 0
175 198 0
174 198 0
175 198 0
173 197 0
175 198 0
175 198 0
176 199 0
173 197 0
175 198 0
175 198 0
176 199 0
174 198 0
174 197 0
173 197 0
172 197 0
175 198 0
173 197 0
174 198 0
175 198 0
175 198 0
173 197 0
175 198 0
174 198 0
175 198 0
174 198 0
173 197 0
174 198 0
175 198 0
172 197 0
176 198 0
174 198 0
176 199 0
174 198 0
173 197 0
175 198 0
175 198 0
175 198 0
176 198 0
175 198 0
175 198 0
175 198 0
172 196 0
175 198 0
173 197 0
174 198 0
175 198 0
174 197 0
176 199 0
174 197 0
173 197 0
175 198 0
177 199 0
172 196 0
174 197 0
175 198 0
173 197 0
176 199 0
174 198 0
173 197 0
173 197 0
172 197 0
174 198 0
174 198 0
174 197 0
176 198 0
175 198 0
175 198 0
174 198 0
175 198 0
174 197 0
176 199 0
173 197 0
176 199 0
175 198 0
175 198 0
175 198 0
175 198 0
174 198 0
176 198 0
173 197 0
174 197 0
174 197 0
172 197 0
175 198 0
173 197 0
173 197 0
177 199 0
178 200 0
173 197 0
173 197 0
172 197 0
174 197 0
175 198 0
176 199 0
174 197 0
173 197 0
173 197 0
173 197 0
176 198 0
175 198 0
177 199 0
175 198 0
174 198 0
174 198 0
175 198 0
173 197 0
175 198 0
176 199 0
174 198 0
174 197 0
175 197 0
175 198 0
174 197 0
173 197 0
175 198 0
175 198 0
171 195 0
174 198 0
175 198 0
177 199 0
175 198 0
176 199 0
174 198 0
174 197 0
173 197 0
174 198 0
174 198 0
176 198 0
174 197 0
177 199 0
174 198 0
174 197 0
173 197 0
175 198 0
173 197 0
177 199 0
173 197 0
175 198 0
173 197 0
175 198 0
176 198 0
174 198 0
175 198 0
173 197 0
175 198 0
175 198 0
175 198 0
175 198 0
175 198 0
174 198 0
174 198 0
173 197 0
172 197 0
175 198 0
172 197 0
176 199 0
173 197 0
174 198 0
174 198 0
174 197 0
175 198 0
174 198 0
175 198 0
176 199 0
173 197 0
174 198 0
173 197 0
175 198 0
175 198 0
175 198 0
174 198 0
175 198 0
174 198 0
175 198 0
174 197 0
174 198 0
175 198 0
175 198 0
174 198 0
173 197 0
174 197 0
175 198 0
179 200 0
173 197 0
174 198 0
175 197 0
172 196 0
175 198 0
176 199 0
174 198 0
175 198 0
175 198 0
173 197 0
175 198 0
173 197 0
175 198 0
175 198 0
174 195 0
175 198 0
174 198 0
176 199 0
173 197 0
175 198 0
175 198 0
173 197 0
174 197 0
175 198 0
175 198 0
173 197 0
174 197 0
174 198 0
174 197 0
174 197 0
174 198 0
174 198 0
176 198 0
173 197 0
174 197 0
177 199 0
175 198 0
176 199 0
174 196 0
172 197 0
174 197 0
172 197 0
172 197 0
175 198 0
171 196 0
173 197 0
174 198 0
174 197 0
175 198 0
175 198 0
174 197 0
173 197 0
173 197 0
175 198 0
175 198 0
174 198 0
172 195 0
175 198 0
174 197 0
176 199 0
176 198 0
176 199 0
175 198 0
174 198 0
174 198 0
176 199 0
176 198 0
175 198 0
176 199 0
172 196 0
175 198 0
175 198 0
173 197 0
174 198 0
177 199 0
172 197 0
177 199 0
175 198 0
175 198 0
175 198 0
176 199 0
175 198 0
174 198 0
175 198 0
173 197 0
176 198 0
173 197 0
175 197 0
174 197 0
174 198 0
175 198 0
174 196 0
173 197 0
174 197 0
174 198 0
177 199 0
174 197 0
174 198 0
174 197 0
174 197 0
175 197 0
172 197 0
174 198 0
174 198 0
173 197 0
173 197 0
168 191 0
176 197 0
173 197 0
174 197 0
174 197 0
173 197 0
176 199 0
172 195 0
175 198 0
175 198 0
174 196 0
176 199 0
172 195 0
172 195 0
174 196 0
173 197 0
175 197 0
172 195 0
174 198 0
173 196 0
175 198 0
173 197 0
175 198 0
173 196 0
174 197 0
176 198 0
174 197 0
174 197 0
172 195 0
174 197 0
175 198 0
174 198 0
173 197 0
173 196 0
176 199 0
174 197 0
174 197 0
172 197 0
175 198 0
172 197 0
172 196 0
173 197 0
173 197 0
174 196 0
173 197 0
174 197 0
175 198 0
173 197 0
173 197 0
173 197 0
175 198 0
175 198 0
174 195 0
175 198 0
174 197 0
172 196 0
174 197 0
175 198 0
174 198 0
174 198 0
173 196 0
175 198 0
175 198 0
174 198 0
174 197 0
174 197 0
173 197 0
172 196 0
174 198 0
172 196 0
175 198 0
174 197 0
174 198 0
174 198 0
172 197 0
175 198 0
173 197 0
175 198 0
174 198 0
175 198 0
173 197 0
172 197 0
172 197 0
174 197 0
176 199 0
174 197 0
175 198 0
175 198 0
174 198 0
172 197 0
175 198 0
176 198 0
174 197 0
174 197 0
177 199 0
174 198 0
174 198 0
172 197 0
174 198 0
174 198 0
173 197 0
174 198 0
177 199 0
175 198 0
175 198 0
172 197 0
174 198 0
174 198 0
173 197 0
173 197 0
173 197 0
174 198 0
174 198 0
175 198 0
175 198 0
178 199 0
174 198 0
174 198 0
173 196 0
174 198 0
175 198 0
172 197 0
175 198 0
175 198 0
175 198 0
176 199 0
177 199 0
175 198 0
173 197 0
174 198 0
176 199 0
174 198 0
173 197 0
176 198 0
176 199 0
175 198 0
176 199 0
173 197 0
175 198 0
175 198 0
176 198 0
175 198 0
174 198 0
177 199 0
174 197 0
178 199 0
173 197 0
175 198 0
173 197 0
174 198 0
176 199 0
174 197 0
176 199 0
173 197 0
176 198 0
174 198 0
174 198 0
175 198 0
176 199 0
176 199 0
174 198 0
174 197 0
174 198 0
175 198 0
174 198 0
175 198 0
174 198 0
173 197 0
173 197 0
176 198 0
177 199 0
173 197 0
174 197 0
175 198 0
175 198 0
176 198 0
176 199 0
176 198 0
175 198 0
171 196 0
173 197 0
176 199 0
171 196 0
176 198 0
174 198 0
176 199 0
174 197 0
174 198 0
175 198 0
176 199 0
174 198 0
176 198 0
174 198 0
176 198 0
174 198 0
174 197 0
173 197 0
175 198 0
175 198 0
172 197 0
176 199 0
177 199 0
174 198 0
175 198 0
173 197 0
175 198 0
174 197 0
174 197 0
174 198 0
173 197 0
174 198 0
174 197 0
176 199 0
176 198 0
174 198 0
174 198 0
175 198 0
174 198 0
176 199 0
171 196 0
174 197 0
177 199 0
176 199 0
175 198 0
173 197 0
174 198 0
176 198 0
173 197 0
175 198 0
176 199 0
176 199 0
174 197 0
174 197 0
175 198 0
176 199 0
174 198 0
175 198 0
175 198 0
176 199 0
176 199 0
174 198 0
174 197 0
173 197 0
174 197 0
174 198 0
174 198 0
176 198 0
173 197 0
174 197 0
175 198 0
174 198 0
174 198 0
174 198 0
176 199 0
175 198 0
174 197 0
172 197 0
174 197 0
175 198 0
175 198 0
175 198 0
174 197 0
174 198 0
174 198 0
174 197 0
173 197 0
175 198 0
176 199 0
172 197 0
173 197 0
172 196 0
174 198 0
174 198 0
176 198 0
172 196 0
174 198 0
175 198 0
176 199 0
176 199 0
175 198 0
176 199 0
176 199 0
176 199 0
177 199 0
176 199 0
176 199 0
176 199 0
173 197 0
176 199 0
174 197 0
175 198 0
175 198 0
176 198 0
175 198 0
173 197 0
175 198 0
176 199 0
172 196 0
174 197 0
175 198 0
175 198 0
175 198 0
176 199 0
174 198 0
175 198 0
174 198 0
175 198 0
178 199 0
174 198 0
175 198 0
175 198 0
175 198 0
174 198 0
173 196 0
173 197 0
173 197 0
173 197 0
174 197 0
174 198 0
173 197 0
175 198 0
177 199 0
176 199 0
175 198 0
176 199 0
173 197 0
175 198 0
173 197 0
172 196 0
173 197 0
176 199 0
175 198 0
172 197 0
175 198 0
176 198 0
173 197 0
176 199 0
175 198 0
174 198 0
174 198 0
174 198 0
172 195 0
174 198 0
177 199 0
172 196 0
173 197 0
175 198 0
176 198 0
172 197 0
174 198 0
174 197 0
173 197 0
174 198 0
174 198 0
173 197 0
175 198 0
174 198 0
177 199 0
175 197 0
175 198 0
175 198 0
174 198 0
173 197 0
171 196 0
172 196 0
176 199 0
174 198 0
174 197 0
173 197 0
174 198 0
173 196 0
174 198 0
174 198 0
174 197 0
176 199 0
173 196 0
174 198 0
173 197 0
175 198 0
173 197 0
176 199 0
174 198 0
174 198 0
172 196 0
174 196 0
175 196 0
174 198 0
172 196 0
173 197 0
174 198 0
174 198 0
175 198 0
174 196 0
177 199 0
175 198 0
173 197 0
174 197 0
174 197 0
175 198 0
175 198 0
173 197 0
173 197 0
173 197 0
174 197 0
174 197 0
174 197 0
174 196 0
174 198 0
174 197 0
172 196 0
174 198 0
173 197 0
172 194 0
174 197 0
175 197 0
173 197 0
174 198 0
171 195 0
172 195 0
173 197 0
173 197 0
173 196 0
173 197 0
175 198 0
173 197 0
173 196 0
175 198 0
174 197 0
175 198 0
175 198 0
174 195 0
175 198 0
172 196 0
174 196 0
172 196 0
174 197 0
174 198 0
171 195 0
173 197 0
174 198 0
174 197 0
174 197 0
173 197 0
175 198 0
174 198 0
174 197 0
175 198 0
172 196 0
171 196 0
176 199 0
172 196 0
172 196 0
174 196 0
176 198 0
173 197 0
172 196 0
174 198 0
174 197 0
173 197 0
174 197 0
172 196 0
173 197 0
176 199 0
173 197 0
174 197 0
175 198 0
176 198 0
173 197 0
176 199 0
173 196 0
174 197 0
173 197 0
174 197 0
176 198 0
172 196 0
174 197 0
174 197 0
172 197 0
172 196 0
175 198 0
173 197 0
175 198 0
174 197 0
175 198 0
172 197 0
175 198 0
172 196 0
175 198 0
173 196 0
173 197 0
173 197 0
177 199 0
173 197 0
175 198 0
174 198 0
175 198 0
174 198 0
176 199 0
173 197 0
175 198 0
172 197 0
174 198 0
170 195 0
174 198 0
175 198 0
173 197 0
174 197 0
176 198 0
174 197 0
173 197 0
176 199 0
174 197 0
172 196 0
173 197 0
173 197 0
174 198 0
173 197 0
172 196 0
173 197 0
175 198 0
174 197 0
176 199 0
177 199 0
176 199 0
171 196 0
174 198 0
176 199 0
175 198 0
172 197 0
174 197 0
175 198 0
174 198 0
174 198 0
172 197 0
176 199 0
176 199 0
173 197 0
176 199 0
173 197 0
175 198 0
175 198 0
177 199 0
175 198 0
173 197 0
174 198 0
175 198 0
175 198 0
173 197 0
177 199 0
173 197 0
175 198 0
174 198 0
173 197 0
172 196 0
173 197 0
174 198 0
175 198 0
173 197 0
176 198 0
174 198 0
175 198 0
174 198 0
172 196 0
174 198 0
172 197 0
176 199 0
175 198 0
173 197 0
174 197 0
174 198 0
175 198 0
173 197 0
172 196 0
175 198 0
176 199 0
176 198 0
173 197 0
174 198 0
175 198 0
175 198 0
173 197 0
172 197 0
177 199 0
176 199 0
174 198 0
176 199 0
175 198 0
176 198 0
177 199 0
176 199 0
175 198 0
176 199 0
175 198 0
176 199 0
175 198 0
175 198 0
174 198 0
176 199 0
175 198 0
176 199 0
172 197 0
174 198 0
173 197 0
172 197 0
173 197 0
175 198 0
174 198 0
177 199 0
177 199 0
175 198 0
175 198 0
176 199 0
174 197 0
176 199 0
172 197 0
176 199 0
174 198 0
174 198 0
175 198 0
175 198 0
176 199 0
177 199 0
174 198 0
176 199 0
175 198 0
174 197 0
174 198 0
172 197 0
172 197 0
175 198 0
174 197 0
174 198 0
175 198 0
176 199 0
176 199 0
174 198 0
175 198 0
176 199 0
174 198 0
175 198 0
173 197 0
174 196 0
176 199 0
174 197 0
176 199 0
174 197 0
173 197 0
174 198 0
176 199 0
173 197 0
175 198 0
174 197 0
173 197 0
175 198 0
174 197 0
177 199 0
173 197 0
176 198 0
174 198 0
175 198 0
174 198 0
173 197 0
174 198 0
176 199 0
174 198 0
174 198 0
175 198 0
175 198 0
172 197 0
175 198 0
175 198 0
175 198 0
174 198 0
177 199 0
174 197 0
174 198 0
172 196 0
172 196 0
172 197 0
173 197 0
174 197 0
175 198 0
173 197 0
175 198 0
174 198 0
174 197 0
172 197 0
176 199 0
175 198 0
176 199 0
177 199 0
173 196 0
173 197 0
174 198 0
174 197 0
173 197 0
177 199 0
174 197 0
176 198 0
176 199 0
173 197 0
174 198 0
174 198 0
173 197 0
177 199 0
174 198 0
175 198 0
174 197 0
176 199 0
175 198 0
174 198 0
173 197 0
175 198 0
174 197 0
176 198 0
173 197 0
176 199 0
175 198 0
173 197 0
175 198 0
175 198 0
176 199 0
175 198 0
173 197 0
175 198 0
176 199 0
175 198 0
175 198 0
173 197 0
174 197 0
173 197 0
176 198 0
174 198 0
175 198 0
175 198 0
175 198 0
174 198 0
172 197 0
172 196 0
176 199 0
176 198 0
175 198 0
172 197 0
174 198 0
176 198 0
176 199 0
175 198 0
173 197 0
174 196 0
171 196 0
179 200 0
175 198 0
174 198 0
177 199 0
175 198 0
175 198 0
174 198 0
174 197 0
173 197 0
173 197 0
175 197 0
176 199 0
176 199 0
173 197 0
175 198 0
174 197 0
174 198 0
173 197 0
175 198 0
175 198 0
176 198 0
174 198 0
174 197 0
173 197 0
175 198 0
173 197 0
173 197 0
175 198 0
174 197 0
175 198 0
174 198 0
173 197 0
174 198 0
172 195 0
174 198 0
174 197 0
173 197 0
172 195 0
173 197 0
175 197 0
173 196 0
173 197 0
175 197 0
175 198 0
174 197 0
174 198 0
174 198 0
174 198 0
172 194 0
172 196 0
174 197 0
174 196 0
173 196 0
173 197 0
175 198 0
176 198 0
174 198 0
177 199 0
174 197 0
175 198 0
172 196 0
173 197 0
173 197 0
174 197 0
171 196 0
173 197 0
173 197 0
175 197 0
175 198 0
174 197 0
173 197 0
173 197 0
172 194 0
174 198 0
174 198 0
173 197 0
175 198 0
173 196 0
173 197 0
174 197 0
174 197 0
174 198 0
174 197 0
174 196 0
174 197 0
174 198 0
175 198 0
173 197 0
173 197 0
172 195 0
175 197 0
172 196 0
175 198 0
176 196 0
173 196 0
174 198 0
171 194 0
174 198 0
175 197 0
175 198 0
175 198 0
172 196 0
170 194 0
172 196 0
176 199 0
174 198 0
173 197 0
175 198 0
172 197 0
176 199 0
173 197 0
173 195 0
176 199 0
173 196 0
175 198 0
174 196 0
173 197 0
174 198 0
174 197 0
174 198 0
175 198 0
176 198 0
175 198 0
172 196 0
172 197 0
175 198 0
174 198 0
174 198 0
174 197 0
172 196 0
173 197 0
175 198 0
175 198 0
174 197 0
176 199 0
176 199 0
174 198 0
175 198 0
174 197 0
171 196 0
173 197 0
174 197 0
175 198 0
174 197 0
176 199 0
172 197 0
174 197 0
174 198 0
172 197 0
174 198 0
173 197 0
173 197 0
172 197 0
173 197 0
176 199 0
173 197 0
174 198 0
175 198 0
174 198 0
174 198 0
173 197 0
172 197 0
172 197 0
172 197 0
176 198 0
174 198 0
176 198 0
175 198 0
173 197 0
173 197 0
174 197 0
176 198 0
176 199 0
173 197 0
172 197 0
174 198 0
176 198 0
176 198 0
174 198 0
176 198 0
173 197 0
174 198 0
173 197 0
175 198 0
174 197 0
174 198 0
176 198 0
174 197 0
174 198 0
175 198 0
176 199 0
174 198 0
175 198 0
176 198 0
175 198 0
176 199 0
176 199 0
174 198 0
174 198 0
174 197 0
172 196 0
175 198 0
173 197 0
173 197 0
174 198 0
174 198 0
173 197 0
174 197 0
174 197 0
172 197 0
173 197 0
172 197 0
176 199 0
173 197 0
175 198 0
170 196 0
176 199 0
175 198 0
174 198 0
175 198 0
175 198 0
175 198 0
175 198 0
176 198 0
175 198 0
175 198 0
176 198 0
174 197 0
174 198 0
174 198 0
173 197 0
174 198 0
176 199 0
176 198 0
177 199 0
174 198 0
174 197 0
175 198 0
175 198 0
175 198 0
174 198 0
176 199 0
174 198 0
176 198 0
175 198 0
173 197 0
173 197 0
174 198 0
174 197 0
175 198 0
176 199 0
174 198 0
176 199 0
175 198 0
174 198 0
176 198 0
175 198 0
175 198 0
173 197 0
174 197 0
174 198 0
173 197 0
173 197 0
176 199 0
175 198 0
174 197 0
174 198 0
175 198 0
175 198 0
172 197 0
175 198 0
175 198 0
173 197 0
174 198 0
175 198 0
175 198 0
175 198 0
175 198 0
175 198 0
174 197 0
172 196 0
176 199 0
176 199 0
175 198 0
173 197 0
175 198 0
175 198 0
174 198 0
174 198 0
174 198 0
175 198 0
174 197 0
173 197 0
173 197 0
175 198 0
174 198 0
174 198 0
178 200 0
177 199 0
176 199 0
175 198 0
172 197 0
174 198 0
175 198 0
174 197 0
174 198 0
175 198 0
174 198 0
175 198 0
173 197 0
176 199 0
174 197 0
175 198 0
173 197 0
177 199 0
175 198 0
174 198 0
178 200 0
174 197 0
173 197 0
178 200 0
175 198 0
177 199 0
173 197 0
173 197 0
174 198 0
176 199 0
174 198 0
177 199 0
175 198 0
176 199 0
174 198 0
174 198 0
175 198 0
174 197 0
174 198 0
174 197 0
175 198 0
175 198 0
175 198 0
173 196 0
174 198 0
173 197 0
172 197 0
175 198 0
177 199 0
176 199 0
174 197 0
174 198 0
172 197 0
175 198 0
175 198 0
173 197 0
176 199 0
175 198 0
175 198 0
176 199 0
174 197 0
175 198 0
175 198 0
175 198 0
174 197 0
174 197 0
174 197 0
174 197 0
176 198 0
174 198 0
174 198 0
175 198 0
175 198 0
175 198 0
173 197 0
176 199 0
174 198 0
175 198 0
172 196 0
176 199 0
174 198 0
173 197 0
172 197 0
176 199 0
175 198 0
176 198 0
176 199 0
175 198 0
173 197 0
174 197 0
173 197 0
174 197 0
173 197 0
175 198 0
174 198 0
175 198 0
172 197 0
174 198 0
174 198 0
176 199 0
175 198 0
175 198 0
176 199 0
174 197 0
173 197 0
173 197 0
175 198 0
172 197 0
173 197 0
175 198 0
176 197 0
173 197 0
175 198 0
171 194 0
174 198 0
174 196 0
171 196 0
173 197 0
176 199 0
175 198 0
175 198 0
175 198 0
174 198 0
175 198 0
172 197 0
175 198 0
175 198 0
174 198 0
174 198 0
173 197 0
175 198 0
176 198 0
173 197 0
174 198 0
175 198 0
172 196 0
174 198 0
175 198 0
172 197 0
175 198 0
175 198 0
177 199 0
172 196 0
171 196 0
176 198 0
175 198 0
176 199 0
175 198 0
176 199 0
172 196 0
174 198 0
176 198 0
174 197 0
173 197 0
173 196 0
174 198 0
172 197 0
174 197 0
172 196 0
172 196 0
174 197 0
173 197 0
173 197 0
173 197 0
175 198 0
175 198 0
174 197 0
175 198 0
175 198 0
171 195 0
172 196 0
173 197 0
172 195 0
173 197 0
173 197 0
174 197 0
173 197 0
173 196 0
174 197 0
171 195 0
175 196 0
176 198 0
177 199 0
173 197 0
175 198 0
174 198 0
173 197 0
174 198 0
173 197 0
174 198 0
176 199 0
174 197 0
175 198 0
175 198 0
174 198 0
175 198 0
174 197 0
172 197 0
174 198 0
175 198 0
174 198 0
174 197 0
176 198 0
174 197 0
174 197 0
174 198 0
174 198 0
175 198 0
174 197 0
173 197 0
172 196 0
175 198 0
172 195 0
175 198 0
174 198 0
176 198 0
173 197 0
174 198 0
174 197 0
172 196 0
174 196 0
172 196 0
173 196 0
174 198 0
174 197 0
175 198 0
174 197 0
175 198 0
175 198 0
174 197 0
174 198 0
174 198 0
172 196 0
172 196 0
176 199 0
176 199 0
175 198 0
173 197 0
173 197 0
172 196 0
175 198 0
174 198 0
173 197 0
173 197 0
174 198 0
174 198 0
173 197 0
176 198 0
172 197 0
173 197 0
174 197 0
173 197 0
174 198 0
172 197 0
173 197 0
175 198 0
174 197 0
174 197 0
175 198 0
174 197 0
175 198 0
172 197 0
174 198 0
172 197 0
173 196 0
176 199 0
175 198 0
176 199 0
174 197 0
177 199 0
176 199 0
177 199 0
174 197 0
176 199 0
175 198 0
175 198 0
175 198 0
176 199 0
175 198 0
175 198 0
175 198 0
174 197 0
174 198 0
176 199 0
176 199 0
173 197 0
175 198 0
174 198 0
174 197 0
173 197 0
174 197 0
175 198 0
172 196 0
173 197 0
175 198 0
175 198 0
174 198 0
174 198 0
175 198 0
174 197 0
173 197 0
174 198 0
174 198 0
174 198 0
174 198 0
174 197 0
175 198 0
174 198 0
177 199 0
176 198 0
173 197 0
176 199 0
175 198 0
174 198 0
180 201 0
174 198 0
174 198 0
177 199 0
175 198 0
175 198 0
174 198 0
176 199 0
173 197 0
175 198 0
173 197 0
174 198 0
174 198 0
175 198 0
174 198 0
174 198 0
175 198 0
174 198 0
175 198 0
175 198 0
173 197 0
175 198 0
173 197 0
177 199 0
174 198 0
172 197 0
173 197 0
174 198 0
174 198 0
172 197 0
173 197 0
173 197 0
175 198 0
174 198 0
175 198 0
176 199 0
175 198 0
172 197 0
173 197 0
173 197 0
174 198 0
175 198 0
175 198 0
173 197 0
174 197 0
175 198 0
175 198 0
176 199 0
176 199 0
176 198 0
176 199 0
175 198 0
173 197 0
176 199 0
173 197 0
174 198 0
175 198 0
174 198 0
175 198 0
175 198 0
175 198 0
174 197 0
174 197 0
174 197 0
174 198 0
175 198 0
174 197 0
174 198 0
172 196 0
174 198 0
176 199 0
172 197 0
171 196 0
172 196 0
174 197 0
173 197 0
172 197 0
175 198 0
176 199 0
175 198 0
173 197 0
178 200 0
177 199 0
176 198 0
174 197 0
173 197 0
175 198 0
175 198 0
175 198 0
174 198 0
175 198 0
173 197 0
174 197 0
174 197 0
175 198 0
176 199 0
175 198 0
172 197 0
176 199 0
172 197 0
173 197 0
175 198 0
174 198 0
171 196 0
175 198 0
173 197 0
174 197 0
175 198 0
175 198 0
173 197 0
172 197 0
174 198 0
174 198 0
175 198 0
173 197 0
171 196 0
173 197 0
174 198 0
175 198 0
175 198 0
175 198 0
172 197 0
175 198 0
174 197 0
173 197 0
176 199 0
175 198 0
176 198 0
174 198 0
174 198 0
173 197 0
174 198 0
172 196 0
174 197 0
173 196 0
174 198 0
175 198 0
172 197 0
175 198 0
174 196 0
176 199 0
174 198 0
175 198 0
174 198 0
177 199 0
175 198 0
175 198 0
175 198 0
174 198 0
172 197 0
176 198 0
175 198 0
175 198 0
177 199 0
172 196 0
174 196 0
174 197 0
175 198 0
174 198 0
175 198 0
175 198 0
176 199 0
175 198 0
173 197 0
175 198 0
172 197 0
174 198 0
173 197 0
176 199 0
174 198 0
174 198 0
174 198 0
176 199 0
176 198 0
175 198 0
174 197 0
177 199 0
173 197 0
176 199 0
174 198 0
174 198 0
172 197 0
173 197 0
173 197 0
174 196 0
174 198 0
173 197 0
172 197 0
175 198 0
173 197 0
174 197 0
174 198 0
175 198 0
176 198 0
174 196 0
174 198 0
174 198 0
175 198 0
178 200 0
175 197 0
174 197 0
174 197 0
174 198 0
174 197 0
172 197 0
174 196 0
175 198 0
174 198 0
175 198 0
174 198 0
173 197 0
173 197 0
173 197 0
172 197 0
173 196 0
175 198 0
175 197 0
175 197 0
174 198 0
172 197 0
174 196 0
175 198 0
174 198 0
174 196 0
173 196 0
173 197 0
171 195 0
174 198 0
170 195 0
174 198 0
173 197 0
175 198 0
176 197 0
176 198 0
173 197 0
173 197 0
172 197 0
172 196 0
175 198 0
175 198 0
174 196 0
175 198 0
175 198 0
173 197 0
174 198 0
173 196 0
175 198 0
173 196 0
175 198 0
174 198 0
176 198 0
173 197 0
175 198 0
175 198 0
173 196 0
172 195 0
173 197 0
173 197 0
174 198 0
176 198 0
176 198 0
175 198 0
170 193 0
173 196 0
175 198 0
174 198 0
175 198 0
172 195 0
174 196 0
175 198 0
172 196 0
173 197 0
174 197 0
173 197 0
173 195 0
174 197 0
174 198 0
175 198 0
176 199 0
172 196 0
174 196 0
173 197 0
174 197 0
172 196 0
173 197 0
175 198 0
174 198 0
174 197 0
174 198 0
173 197 0
174 198 0
177 199 0
173 197 0
174 197 0
175 198 0
173 197 0
175 198 0
174 198 0
173 197 0
172 196 0
174 197 0
175 198 0
174 198 0
176 198 0
176 199 0
174 198 0
174 197 0
173 197 0
174 197 0
173 197 0
175 198 0
174 197 0
178 200 0
176 199 0
174 197 0
173 197 0
172 197 0
176 199 0
171 196 0
173 197 0
173 197 0
173 197 0
176 199 0
174 198 0
175 198 0
174 198 0
173 197 0
174 197 0
174 197 0
174 197 0
176 198 0
173 197 0
174 198 0
175 198 0
173 197 0
171 196 0
173 197 0
175 198 0
175 198 0
175 198 0
175 198 0
174 198 0
174 198 0
175 198 0
174 197 0
175 198 0
174 197 0
175 198 0
176 198 0
173 197 0
175 198 0
173 197 0
174 198 0
175 198 0
175 198 0
175 198 0
175 198 0
177 199 0
176 199 0
175 198 0
173 197 0
172 197 0
173 197 0
175 198 0
175 198 0
174 198 0
175 198 0
175 198 0
175 198 0
174 197 0
173 197 0
175 198 0
173 197 0
176 198 0
176 198 0
174 198 0
176 199 0
174 198 0
175 198 0
174 198 0
175 198 0
175 198 0
173 197 0
173 197 0
172 196 0
175 198 0
172 197 0
174 197 0
174 198 0
175 198 0
177 199 0
175 198 0
174 198 0
175 198 0
172 197 0
174 198 0
173 197 0
176 199 0
175 198 0
175 198 0
173 197 0
174 198 0
175 198 0
174 197 0
175 198 0
175 198 0
174 198 0
172 196 0
175 198 0
174 197 0
176 199 0
175 198 0
175 198 0
174 198 0
176 199 0
174 198 0
174 198 0
176 198 0
175 198 0
174 197 0
173 197 0
172 197 0
172 197 0
176 199 0
173 197 0
175 198 0
176 198 0
175 198 0
174 198 0
175 198 0
174 198 0
172 197 0
175 198 0
176 199 0
176 199 0
174 197 0
175 198 0
174 198 0
174 197 0
177 199 0
176 199 0
174 198 0
175 198 0
174 198 0
174 198 0
175 198 0
174 198 0
176 198 0
177 199 0
175 198 0
175 198 0
174 198 0
172 196 0
173 197 0
175 198 0
173 197 0
174 198 0
173 197 0
175 198 0
175 198 0
173 197 0
175 198 0
174 197 0
176 198 0
172 196 0
175 198 0
174 198 0
173 197 0
176 199 0
174 198 0
175 198 0
174 198 0
173 197 0
174 198 0
174 197 0
178 200 0
173 197 0
173 197 0
173 197 0
174 198 0
176 199 0
175 198 0
174 198 0
175 198 0
174 198 0
178 200 0
175 198 0
176 198 0
174 197 0
175 198 0
175 198 0
176 199 0
173 197 0
177 199 0
174 197 0
175 198 0
174 198 0
177 199 0
176 199 0
175 198 0
172 197 0
174 198 0
175 198 0
175 198 0
173 197 0
174 198 0
175 198 0
175 198 0
178 200 0
175 198 0
174 198 0
172 196 0
175 198 0
177 199 0
176 198 0
174 198 0
176 199 0
176 197 0
174 198 0
174 198 0
172 197 0
173 197 0
174 198 0
175 198 0
175 198 0
175 198 0
176 199 0
175 198 0
174 198 0
174 197 0
173 197 0
173 197 0
174 198 0
174 197 0
175 198 0
173 197 0
174 198 0
172 196 0
175 198 0
174 196 0
176 199 0
170 196 0
175 198 0
174 198 0
174 198 0
174 198 0
174 198 0
175 198 0
176 199 0
177 199 0
174 197 0
176 198 0
176 199 0
174 197 0
174 198 0
176 198 0
174 198 0
174 198 0
172 197 0
176 199 0
173 197 0
176 199 0
174 197 0
174 197 0
175 198 0
173 197 0
175 198 0
172 197 0
174 196 0
173 197 0
175 198 0
173 197 0
175 198 0
175 198 0
177 199 0
172 196 0
175 197 0
175 198 0
173 196 0
172 197 0
174 197 0
175 198 0
175 198 0
176 198 0
173 197 0
173 197 0
176 198 0
173 197 0
171 196 0
174 196 0
172 197 0
175 198 0
175 198 0
176 198 0
174 197 0
172 195 0
176 199 0
175 198 0
175 198 0
174 197 0
174 197 0
176 197 0
176 199 0
174 198 0
175 198 0
174 198 0
172 195 0
175 197 0
176 199 0
173 197 0
176 199 0
174 198 0
172 197 0
176 199 0
176 199 0
176 199 0
173 197 0
174 198 0
176 198 0
173 197 0
174 198 0
174 197 0
172 197 0
172 195 0
174 198 0
175 198 0
176 197 0
171 194 0
177 199 0
174 198 0
176 199 0
172 195 0
175 198 0
174 197 0
170 193 0
172 195 0
176 198 0
175 197 0
174 198 0
175 198 0
174 197 0
173 197 0
174 197 0
175 198 0
174 197 0
174 198 0
175 198 0
176 199 0
172 196 0
172 196 0
176 198 0
175 198 0
172 196 0
176 199 0
176 198 0
175 197 0
175 198 0
174 198 0
174 196 0
177 199 0
172 197 0
177 199 0
175 198 0
173 197 0
174 197 0
177 199 0
173 197 0
176 199 0
172 197 0
173 196 0
175 198 0
174 197 0
175 198 0
173 197 0
174 198 0
175 198 0
174 198 0
175 198 0
173 197 0
173 196 0
175 198 0
176 199 0
176 199 0
173 196 0
174 197 0
173 197 0
174 198 0
175 198 0
176 198 0
174 198 0
173 197 0
173 197 0
172 196 0
173 197 0
173 197 0
173 196 0
174 198 0
172 196 0
175 198 0
175 198 0
174 197 0
174 197 0
174 198 0
175 198 0
176 199 0
172 197 0
172 196 0
172 197 0
174 198 0
176 198 0
171 195 0
176 199 0
176 199 0
175 198 0
176 199 0
174 198 0
174 198 0
176 197 0
174 197 0
174 197 0
175 198 0
173 197 0
173 197 0
173 197 0
175 198 0
173 197 0
174 198 0
175 198 0
174 196 0
174 198 0
172 196 0
174 197 0
175 198 0
174 198 0
173 197 0
174 198 0
175 198 0
175 198 0
174 197 0
172 196 0
175 198 0
175 198 0
175 198 0
176 199 0
174 198 0
174 197 0
174 198 0
174 198 0
175 198 0
175 198 0
176 199 0
175 198 0
175 198 0
175 198 0
177 199 0
174 198 0
176 199 0
173 197 0
174 197 0
174 198 0
174 198 0
175 198 0
174 198 0
174 198 0
175 198 0
173 197 0
175 198 0
176 199 0
177 199 0
176 199 0
172 196 0
176 198 0
172 197 0
174 198 0
174 198 0
174 198 0
174 198 0
175 198 0
175 198 0
175 198 0
177 199 0
174 197 0
173 197 0
177 199 0
172 196 0
176 199 0
176 199 0
177 199 0
176 199 0
176 198 0
174 198 0
174 198 0
175 198 0
175 198 0
175 198 0
174 198 0
173 197 0
177 199 0
175 198 0
175 198 0
174 198 0
175 198 0
173 197 0
174 198 0
175 198 0
175 198 0
174 198 0
175 198 0
174 198 0
174 197 0
175 198 0
175 198 0
173 197 0
175 198 0
175 198 0
176 199 0
174 197 0
175 198 0
174 198 0
174 198 0
173 197 0
176 199 0
177 199 0
177 199 0
175 198 0
176 199 0
176 199 0
176 199 0
174 197 0
174 198 0
175 198 0
176 198 0
173 197 0
175 198 0
173 197 0
177 199 0
176 198 0
175 198 0
172 197 0
173 197 0
176 198 0
173 197 0
173 197 0
174 197 0
175 198 0
175 198 0
174 198 0
175 198 0
175 198 0
173 197 0
174 197 0
174 197 0
175 198 0
176 199 0
174 198 0
174 198 0
173 197 0
174 198 0
172 197 0
175 198 0
172 197 0
176 199 0
176 199 0
175 198 0
175 198 0
176 199 0
175 198 0
174 198 0
174 198 0
175 198 0
173 197 0
174 198 0
175 198 0
172 197 0
174 198 0
174 198 0
174 197 0
174 198 0
175 198 0
173 197 0
176 198 0
172 197 0
174 198 0
173 197 0
175 198 0
175 198 0
174 198 0
175 198 0
173 197 0
173 197 0
175 198 0
174 198 0
174 198 0
175 198 0
175 198 0
175 198 0
174 197 0
173 196 0
172 197 0
176 199 0
175 198 0
176 199 0
175 198 0
173 197 0
174 197 0
174 198 0
172 197 0
174 197 0
172 197 0
175 198 0
177 199 0
174 198 0
172 197 0
173 197 0
177 199 0
176 198 0
175 198 0
173 197 0
174 198 0
175 198 0
173 197 0
174 198 0
175 198 0
173 197 0
173 197 0
173 197 0
173 197 0
175 198 0
176 199 0
175 198 0
174 198 0
173 197 0
174 197 0
174 198 0
175 198 0
174 198 0
176 199 0
174 196 0
175 198 0
177 199 0
175 198 0
175 198 0
175 198 0
172 197 0
174 198 0
174 197 0
173 196 0
174 198 0
173 197 0
176 199 0
173 197 0
175 198 0
177 199 0
174 198 0
173 197 0
173 197 0
175 198 0
174 198 0
174 197 0
175 198 0
175 198 0
174 197 0
176 199 0
175 198 0
175 198 0
175 198 0
176 199 0
175 198 0
174 198 0
174 198 0
174 198 0
176 199 0
172 196 0
175 198 0
173 196 0
175 198 0
175 198 0
175 198 0
174 197 0
174 198 0
174 197 0
175 197 0
173 197 0
175 198 0
172 197 0
175 198 0
174 197 0
174 198 0
174 197 0
175 198 0
172 197 0
174 198 0
174 198 0
174 197 0
175 198 0
176 198 0
176 199 0
176 199 0
173 197 0
174 196 0
176 199 0
171 196 0
174 198 0
174 197 0
175 198 0
173 197 0
174 197 0
172 195 0
173 196 0
174 198 0
174 198 0
174 198 0
174 197 0
174 197 0
174 198 0
175 198 0
171 196 0
174 197 0
173 197 0
175 198 0
174 197 0
174 198 0
175 198 0
173 197 0
174 198 0
174 198 0
172 194 0
177 199 0
174 196 0
175 198 0
174 197 0
173 197 0
173 196 0
171 196 0
175 197 0
175 198 0
175 198 0
177 199 0
173 197 0
174 198 0
172 196 0
175 198 0
174 197 0
176 199 0
175 198 0
174 197 0
174 197 0
174 198 0
173 197 0
174 198 0
173 197 0
173 196 0
176 198 0
175 198 0
171 196 0
174 197 0
175 198 0
174 197 0
173 196 0
175 198 0
175 198 0
174 198 0
175 198 0
175 198 0
175 198 0
173 197 0
174 197 0
174 197 0
174 198 0
174 198 0
174 197 0
172 197 0
173 195 0
174 198 0
173 197 0
173 197 0
172 197 0
175 198 0
176 199 0
175 198 0
174 197 0
173 196 0
173 197 0
173 196 0
174 198 0
172 195 0
173 197 0
173 197 0
175 198 0
173 197 0
173 196 0
174 198 0
174 197 0
172 196 0
175 198 0
175 198 0
173 196 0
172 196 0
174 198 0
175 197 0
175 198 0
174 197 0
175 198 0
176 199 0
173 197 0
176 199 0
174 198 0
176 199 0
177 199 0
173 197 0
173 196 0
173 197 0
174 196 0
174 197 0
177 199 0
173 197 0
174 197 0
175 198 0
174 198 0
176 198 0
173 197 0
174 198 0
175 198 0
175 198 0
176 199 0
175 198 0
174 197 0
174 197 0
174 197 0
175 198 0
174 197 0
176 198 0
175 198 0
174 197 0
174 198 0
175 198 0
174 198 0
174 197 0
178 200 0
174 198 0
176 198 0
174 197 0
171 195 0
174 198 0
174 197 0
175 198 0
174 198 0
173 196 0
174 197 0
176 198 0
172 197 0
175 198 0
174 198 0
174 198 0
173 197 0
172 196 0
172 197 0
175 198 0
175 198 0
175 198 0
176 199 0
174 198 0
176 198 0
175 198 0
174 197 0
174 197 0
174 197 0
175 198 0
175 198 0
173 197 0
172 197 0
174 197 0
173 197 0
175 198 0
174 197 0
174 198 0
173 197 0
173 197 0
175 198 0
172 197 0
172 197 0
173 197 0
175 198 0
172 197 0
174 197 0
175 198 0
175 198 0
176 199 0
174 197 0
173 197 0
177 199 0
174 197 0
174 197 0
172 197 0
174 198 0
172 197 0
176 199 0
176 199 0
175 198 0
176 198 0
173 197 0
175 198 0
174 198 0
172 196 0
174 197 0
176 199 0
175 198 0
175 198 0
174 198 0
174 197 0
174 197 0
176 199 0
176 199 0
174 198 0
177 199 0
175 198 0
174 198 0
173 197 0
174 197 0
174 198 0
176 199 0
175 198 0
175 198 0
174 198 0
174 197 0
173 197 0
175 198 0
177 199 0
176 198 0
174 197 0
175 198 0
175 198 0
176 199 0
175 198 0
173 197 0
173 197 0
175 198 0
177 199 0
172 197 0
175 198 0
174 197 0
173 197 0
174 198 0
174 198 0
173 197 0
174 198 0
175 198 0
175 198 0
174 198 0
173 197 0
174 198 0
177 199 0
176 199 0
173 197 0
174 198 0
173 197 0
172 197 0
172 197 0
175 198 0
175 198 0
176 199 0
173 197 0
173 197 0
175 198 0
175 198 0
173 197 0
176 199 0
174 198 0
175 198 0
173 197 0
172 197 0
175 198 0
175 198 0
173 197 0
174 197 0
175 198 0
175 198 0
175 198 0
174 197 0
174 198 0
174 198 0
176 199 0
177 199 0
172 197 0
174 198 0
176 199 0
174 197 0
174 198 0
174 198 0
173 197 0
173 197 0
175 198 0
173 197 0
172 197 0
175 198 0
175 198 0
176 199 0
173 197 0
172 196 0
174 197 0
177 199 0
175 198 0
175 198 0
174 198 0
174 198 0
174 197 0
175 198 0
174 198 0
172 197 0
174 198 0
174 198 0
173 197 0
175 198 0
175 198 0
176 198 0
174 198 0
173 197 0
176 199 0
175 197 0
174 198 0
176 199 0
174 198 0
176 198 0
175 198 0
173 197 0
175 198 0
173 197 0
172 197 0
175 198 0
173 197 0
173 197 0
176 199 0
175 198 0
175 198 0
174 197 0
175 198 0
177 199 0
173 197 0
175 198 0
175 198 0
176 198 0
173 197 0
172 196 0
171 196 0
176 199 0
173 197 0
173 196 0
175 198 0
174 198 0
175 198 0
173 196 0
174 198 0
175 198 0
174 198 0
177 199 0
172 197 0
173 197 0
174 197 0
176 199 0
176 199 0
174 196 0
172 196 0
175 198 0
174 198 0
174 198 0
174 197 0
174 198 0
172 197 0
173 197 0
175 198 0
174 198 0
177 199 0
176 199 0
173 197 0
175 198 0
176 199 0
175 198 0
175 198 0
173 197 0
175 198 0
174 198 0
174 197 0
176 198 0
173 197 0
175 198 0
175 198 0
173 197 0
176 198 0
173 197 0
175 198 0
174 197 0
173 197 0
174 196 0
176 199 0
173 197 0
174 198 0
174 198 0
174 198 0
175 198 0
176 199 0
176 199 0
175 198 0
173 197 0
175 198 0
173 197 0
175 197 0
176 199 0
175 197 0
172 195 0
174 198 0
175 198 0
175 198 0
175 198 0
175 198 0
175 198 0
173 197 0
173 197 0
172 195 0
173 197 0
174 197 0
175 198 0
171 196 0
174 198 0
172 196 0
174 195 0
174 198 0
175 196 0
174 197 0
173 197 0
174 198 0
173 197 0
175 198 0
174 198 0
174 197 0
175 197 0
173 197 0
173 197 0
174 197 0
173 195 0
174 197 0
173 197 0
175 198 0
174 197 0
175 198 0
176 198 0
175 197 0
175 197 0
173 197 0
172 196 0
175 198 0
173 197 0
174 197 0
172 194 0
174 198 0
172 195 0
172 197 0
172 196 0
173 197 0
175 198 0
176 199 0
173 197 0
173 197 0
175 198 0
173 196 0
173 194 0
174 198 0
172 197 0
174 197 0
177 199 0
172 196 0
175 198 0
174 198 0
175 198 0
176 198 0
174 198 0
173 197 0
173 197 0
173 197 0
175 198 0
174 198 0
174 198 0
175 198 0
174 198 0
175 198 0
173 197 0
174 198 0
171 196 0
176 199 0
174 198 0
173 197 0
174 197 0
175 198 0
174 197 0
172 196 0
173 196 0
177 199 0
176 198 0
175 198 0
174 198 0
175 198 0
174 198 0
174 197 0
175 198 0
175 198 0
175 198 0
174 197 0
174 197 0
174 198 0
173 197 0
173 197 0
174 198 0
173 197 0
174 197 0
172 197 0
175 198 0
175 198 0
175 197 0
174 197 0
177 199 0
175 198 0
174 197 0
173 197 0
174 198 0
175 198 0
175 198 0
174 198 0
174 197 0
173 197 0
172 197 0
174 198 0
173 197 0
174 196 0
176 198 0
174 197 0
174 198 0
173 197 0
172 197 0
172 196 0
174 198 0
173 197 0
174 198 0
174 197 0
174 198 0
176 199 0
175 198 0
174 197 0
176 199 0
174 198 0
173 197 0
173 197 0
176 198 0
173 197 0
173 197 0
175 198 0
177 199 0
173 197 0
175 198 0
175 198 0
174 197 0
174 197 0
174 198 0
177 199 0
175 198 0
177 199 0
176 199 0
174 198 0
175 198 0
174 197 0
175 198 0
173 197 0
176 198 0
173 197 0
174 198 0
174 198 0
172 197 0
173 197 0
173 197 0
175 198 0
174 198 0
172 197 0
177 199 0
175 198 0
173 197 0
173 197 0
174 197 0
174 198 0
174 197 0
175 198 0
176 199 0
174 198 0
174 198 0
174 198 0
173 197 0
174 198 0
173 197 0
176 199 0
174 198 0
175 198 0
173 197 0
176 199 0
176 199 0
175 198 0
175 198 0
175 198 0
173 197 0
174 197 0
174 197 0
175 198 0
173 197 0
174 198 0
176 199 0
175 198 0
172 197 0
174 198 0
174 197 0
175 198 0
172 197 0
173 197 0
175 198 0
176 199 0
177 199 0
175 198 0
175 198 0
175 198 0
173 197 0
172 197 0
174 198 0
176 199 0
174 198 0
177 199 0
174 198 0
176 198 0
173 197 0
175 198 0
174 198 0
173 197 0
174 198 0
173 197 0
173 197 0
174 198 0
175 198 0
173 197 0
175 198 0
175 198 0
176 199 0
175 198 0
176 199 0
173 197 0
176 199 0
175 198 0
174 198 0
178 200 0
174 197 0
174 198 0
174 198 0
175 198 0
175 198 0
175 198 0
174 198 0
177 199 0
176 198 0
175 198 0
175 198 0
174 197 0
173 197 0
176 199 0
172 197 0
173 197 0
175 198 0
175 198 0
174 198 0
175 198 0
174 198 0
174 197 0
176 198 0
174 197 0
175 198 0
175 198 0
174 198 0
173 197 0
173 197 0
175 198 0
174 197 0
175 198 0
176 198 0
173 197 0
176 199 0
174 198 0
174 198 0
176 199 0
176 198 0
174 197 0
174 197 0
174 197 0
175 198 0
175 198 0
175 198 0
175 198 0
173 197 0
175 198 0
175 198 0
177 199 0
174 197 0
173 197 0
175 198 0
175 198 0
175 198 0
174 198 0
172 196 0
176 198 0
172 197 0
173 197 0
174 198 0
176 199 0
173 197 0
176 199 0
174 197 0
174 198 0
172 197 0
174 198 0
173 197 0
173 197 0
174 198 0
174 197 0
178 200 0
174 198 0
174 198 0
173 197 0
173 197 0
172 197 0
174 198 0
175 198 0
177 199 0
174 198 0
175 198 0
176 198 0
177 199 0
174 198 0
173 197 0
173 197 0
174 198 0
176 198 0
177 199 0
177 199 0
174 198 0
175 198 0
176 199 0
174 197 0
172 195 0
175 198 0
174 197 0
176 198 0
173 197 0
175 198 0
174 198 0
174 198 0
175 198 0
174 198 0
175 198 0
175 198 0
173 197 0
175 197 0
173 197 0
174 198 0
175 198 0
175 198 0
176 198 0
173 197 0
175 198 0
172 197 0
177 199 0
177 199 0
175 198 0
174 198 0
174 198 0
174 198 0
174 198 0
174 198 0
172 195 0
177 199 0
175 198 0
174 197 0
173 197 0
173 197 0
175 198 0
174 198 0
176 198 0
173 197 0
174 198 0
175 198 0
174 197 0
177 199 0
174 197 0
175 197 0
171 195 0
175 198 0
172 196 0
174 198 0
172 196 0
173 197 0
173 197 0
176 198 0
175 198 0
174 198 0
176 199 0
175 197 0
175 198 0
173 197 0
174 197 0
175 198 0
176 199 0
174 198 0
175 198 0
171 195 0
173 197 0
174 198 0
175 198 0
176 199 0
175 198 0
171 195 0
174 198 0
173 197 0
175 198 0
172 197 0
175 198 0
175 198 0
173 196 0
174 198 0
173 197 0
172 196 0
176 199 0
175 197 0
175 198 0
175 198 0
174 198 0
173 197 0
174 198 0
175 198 0
175 198 0
173 196 0
176 199 0
172 197 0
175 198 0
175 198 0
173 197 0
173 197 0
174 197 0
173 197 0
175 198 0
174 197 0
175 198 0
175 198 0
175 198 0
174 198 0
173 197 0
174 197 0
173 197 0
174 197 0
174 198 0
172 196 0
175 197 0
174 197 0
175 198 0
174 196 0
174 197 0
176 198 0
175 198 0
174 195 0
174 197 0
176 199 0
176 198 0
173 197 0
174 198 0
174 196 0
176 199 0
174 198 0
173 197 0
173 194 0
173 197 0
176 199 0
175 198 0
173 197 0
175 197 0
175 198 0
174 197 0
174 198 0
175 198 0
172 195 0
177 199 0
175 198 0
174 198 0
175 198 0
174 197 0
172 196 0
173 197 0
173 196 0
173 197 0
174 197 0
176 199 0
175 198 0
175 198 0
173 197 0
172 195 0
175 198 0
173 197 0
175 197 0
173 197 0
173 197 0
174 198 0
176 198 0
174 197 0
177 199 0
173 197 0
173 197 0
176 198 0
173 197 0
174 198 0
176 198 0
175 197 0
173 197 0
174 197 0
174 197 0
175 198 0
176 199 0
175 198 0
174 198 0
174 198 0
177 199 0
171 195 0
173 197 0
173 197 0
175 198 0
174 198 0
174 198 0
174 197 0
176 199 0
172 196 0
175 198 0
173 197 0
174 198 0
176 199 0
175 198 0
176 199 0
173 197 0
174 197 0
174 198 0
177 199 0
174 197 0
175 198 0
173 197 0
177 199 0
174 198 0
173 197 0
175 198 0
176 199 0
172 196 0
173 197 0
176 199 0
173 197 0
174 197 0
176 199 0
175 198 0
177 199 0
175 198 0
175 198 0
173 197 0
175 198 0
172 197 0
174 198 0
174 197 0
177 199 0
174 198 0
175 198 0
174 198 0
176 199 0
174 197 0
175 198 0
174 197 0
175 198 0
174 198 0
173 197 0
176 199 0
177 199 0
173 197 0
174 198 0
174 198 0
173 197 0
174 198 0
177 199 0
175 198 0
176 199 0
173 197 0
175 198 0
174 198 0
176 199 0
172 197 0
175 198 0
175 198 0
175 198 0
174 198 0
175 198 0
175 198 0
173 197 0
175 198 0
177 199 0
174 198 0
176 198 0
175 198 0
173 197 0
174 197 0
175 198 0
175 198 0
173 197 0
175 198 0
175 198 0
173 197 0
176 199 0
172 197 0
174 197 0
175 198 0
174 198 0
173 197 0
175 198 0
176 198 0
175 198 0
173 197 0
175 198 0
174 198 0
175 198 0
173 197 0
174 197 0
175 198 0
175 198 0
174 198 0
173 197 0
174 198 0
173 197 0
174 198 0
174 198 0
174 198 0
173 197 0
175 198 0
176 199 0
175 198 0
175 198 0
173 197 0
173 197 0
175 198 0
175 198 0
172 197 0
174 197 0
173 197 0
173 197 0
174 198 0
175 198 0
176 199 0
172 197 0
175 198 0
174 198 0
175 198 0
173 197 0
173 197 0
173 197 0
174 198 0
174 197 0
172 196 0
171 196 0
176 198 0
176 199 0
175 198 0
176 199 0
175 198 0
175 198 0
175 198 0
172 197 0
176 199 0
177 199 0
177 199 0
175 198 0
174 198 0
173 197 0
175 198 0
176 199 0
173 197 0
175 198 0
178 199 0
176 199 0
175 198 0
173 197 0
174 197 0
176 199 0
173 197 0
173 197 0
174 198 0
172 197 0
175 198 0
176 198 0
174 197 0
174 198 0
175 198 0
173 197 0
175 197 0
174 198 0
176 198 0
173 197 0
177 199 0
175 198 0
171 196 0
175 198 0
173 197 0
176 199 0
174 197 0
176 199 0
175 198 0
174 197 0
175 198 0
174 198 0
177 199 0
175 198 0
175 198 0
175 198 0
175 198 0
173 197 0
175 198 0
173 197 0
173 197 0
174 198 0
174 198 0
173 197 0
174 198 0
176 198 0
174 198 0
175 198 0
173 197 0
174 198 0
176 199 0
175 198 0
172 197 0
173 197 0
176 198 0
174 198 0
175 198 0
172 197 0
173 197 0
175 198 0
177 199 0
172 197 0
174 198 0
176 198 0
177 199 0
176 199 0
173 196 0
175 198 0
173 197 0
175 198 0
174 198 0
174 198 0
176 199 0
175 198 0
174 198 0
174 198 0
173 197 0
175 198 0
173 197 0
176 199 0
173 197 0
175 198 0
174 198 0
176 199 0
173 197 0
176 199 0
174 198 0
173 197 0
175 198 0
173 197 0
176 199 0
174 198 0
175 198 0
174 197 0
174 198 0
173 196 0
175 198 0
175 198 0
175 198 0
175 198 0
174 197 0
174 196 0
174 198 0
172 197 0
174 198 0
174 198 0
174 198 0
173 197 0
173 196 0
176 199 0
173 197 0
174 198 0
174 198 0
175 198 0
175 198 0
175 198 0
173 197 0
174 196 0
175 198 0
174 198 0
174 198 0
174 198 0
174 198 0
175 197 0
174 197 0
176 199 0
172 197 0
173 196 0
176 197 0
174 197 0
175 198 0
175 198 0
174 197 0
174 198 0
175 198 0
176 198 0
173 197 0
174 196 0
174 197 0
174 197 0
174 198 0
173 197 0
174 197 0
175 198 0
174 198 0
172 197 0
173 197 0
174 197 0
173 197 0
175 198 0
173 197 0
174 195 0
174 197 0
173 197 0
172 196 0
174 196 0
173 197 0
174 196 0
175 198 0
175 198 0
173 196 0
173 197 0
173 197 0
173 197 0
174 197 0
175 198 0
174 196 0
174 198 0
173 196 0
175 198 0
177 198 0
174 198 0
174 197 0
174 197 0
173 197 0
174 197 0
174 198 0
172 195 0
173 197 0
173 197 0
175 198 0
174 197 0
174 196 0
174 198 0
173 197 0
174 197 0
174 197 0
174 198 0
174 198 0
175 198 0
171 195 0
173 196 0
175 198 0
175 197 0
172 197 0
175 198 0
174 198 0
173 196 0
175 198 0
172 195 0
175 198 0
176 199 0
175 198 0
174 198 0
175 198 0
176 198 0
173 197 0
172 197 0
173 196 0
174 196 0
173 197 0
175 198 0
174 198 0
174 197 0
174 198 0
177 199 0
175 197 0
174 198 0
174 198 0
173 197 0
176 198 0
172 197 0
173 197 0
175 198 0
174 198 0
173 197 0
174 198 0
174 198 0
176 199 0
172 197 0
174 198 0
175 198 0
173 197 0
176 199 0
174 197 0
172 196 0
174 197 0
175 198 0
176 199 0
176 199 0
173 197 0
175 198 0
173 197 0
174 198 0
173 197 0
173 197 0
175 198 0
174 197 0
173 197 0
172 197 0
174 198 0
171 196 0
176 198 0
173 197 0
174 198 0
173 197 0
172 196 0
174 198 0
173 197 0
173 197 0
176 198 0
175 198 0
174 197 0
172 197 0
176 198 0
173 197 0
173 197 0
174 198 0
175 198 0
173 197 0
175 198 0
171 196 0
175 198 0
172 197 0
173 197 0
176 199 0
174 197 0
173 197 0
173 197 0
174 198 0
175 198 0
176 199 0
174 198 0
173 197 0
178 200 0
174 198 0
175 198 0
174 198 0
174 197 0
175 198 0
175 198 0
175 198 0
174 197 0
174 198 0
174 198 0
172 197 0
174 198 0
176 198 0
173 197 0
176 198 0
174 197 0
174 198 0
172 196 0
174 198 0
176 199 0
176 198 0
176 199 0
174 197 0
175 198 0
172 197 0
174 198 0
173 197 0
176 198 0
177 199 0
175 198 0
173 197 0
175 198 0
174 198 0
175 198 0
175 198 0
173 197 0
176 198 0
175 198 0
175 198 0
174 198 0
177 199 0
175 198 0
176 198 0
175 198 0
176 198 0
173 197 0
176 198 0
176 199 0
176 199 0
176 198 0
174 198 0
175 198 0
176 199 0
177 199 0
175 198 0
175 198 0
174 198 0
174 198 0
172 197 0
175 198 0
175 198 0
173 197 0
174 198 0
175 198 0
174 198 0
175 198 0
174 198 0
174 198 0
175 198 0
176 198 0
174 197 0
174 198 0
174 198 0
178 199 0
174 198 0
176 199 0
175 198 0
176 199 0
175 198 0
174 198 0
173 197 0
176 199 0
174 198 0
173 197 0
176 199 0
175 198 0
174 198 0
172 197 0
176 199 0
173 197 0
174 198 0
173 197 0
175 198 0
177 199 0
175 198 0
175 198 0
173 197 0
174 197 0
174 198 0
175 198 0
177 199 0
174 198 0
175 198 0
174 198 0
174 198 0
173 197 0
174 198 0
175 198 0
174 198 0
174 198 0
176 199 0
174 198 0
175 198 0
174 197 0
178 200 0
173 197 0
176 199 0
172 197 0
175 198 0
174 197 0
176 199 0
174 198 0
175 198 0
174 197 0
172 197 0
175 198 0
174 198 0
176 199 0
174 198 0
175 198 0
173 196 0
175 198 0
174 196 0
174 198 0
174 197 0
176 199 0
176 199 0
174 197 0
176 199 0
174 197 0
174 197 0
175 198 0
174 198 0
175 198 0
176 199 0
177 199 0
173 197 0
173 197 0
175 198 0
175 198 0
174 198 0
175 198 0
177 199 0
175 198 0
176 198 0
176 199 0
173 197 0
176 198 0
176 199 0
174 198 0
175 198 0
175 198 0
175 198 0
176 199 0
175 198 0
174 197 0
172 197 0
174 198 0
173 197 0
175 198 0
175 198 0
175 198 0
175 198 0
177 199 0
173 197 0
175 198 0
173 197 0
176 199 0
174 198 0
173 197 0
173 197 0
175 198 0
176 199 0
174 197 0
174 197 0
175 198 0
176 199 0
173 197 0
171 195 0
176 198 0
173 197 0
174 198 0
175 198 0
175 198 0
174 197 0
175 198 0
174 197 0
174 198 0
175 198 0
173 197 0
176 199 0
173 197 0
175 198 0
174 197 0
177 199 0
175 198 0
172 197 0
174 198 0
174 198 0
175 198 0
174 197 0
173 196 0
174 197 0
173 197 0
175 198 0
175 198 0
177 199 0
174 197 0
173 197 0
174 198 0
175 198 0
174 198 0
176 199 0
173 197 0
175 197 0
174 197 0
175 198 0
173 197 0
174 198 0
174 198 0
174 197 0
175 198 0
174 198 0
173 197 0
173 196 0
174 197 0
174 198 0
172 197 0
174 197 0
173 196 0
174 197 0
172 195 0
175 198 0
175 198 0
173 197 0
173 197 0
173 196 0
175 198 0
175 198 0
174 198 0
177 199 0
174 197 0
174 198 0
174 197 0
173 197 0
172 197 0
174 198 0
174 197 0
175 198 0
174 198 0
173 197 0
173 197 0
173 197 0
174 197 0
172 194 0
177 199 0
174 198 0
176 199 0
175 198 0
176 198 0
173 197 0
173 197 0
176 199 0
175 198 0
174 198 0
176 198 0
174 198 0
177 199 0
173 197 0
176 199 0
175 197 0
174 197 0
173 197 0
172 195 0
175 198 0
173 195 0
176 198 0
174 198 0
173 197 0
173 197 0
175 198 0
175 198 0
176 199 0
174 198 0
173 196 0
175 198 0
175 198 0
175 198 0
175 198 0
173 197 0
175 198 0
175 198 0
174 198 0
174 198 0
174 198 0
174 198 0
177 199 0
174 198 0
177 199 0
176 198 0
174 197 0
176 197 0
175 198 0
175 198 0
175 198 0
173 196 0
173 197 0
174 198 0
173 197 0
175 198 0
171 194 0
174 198 0
173 196 0
174 198 0
173 197 0
174 197 0
173 197 0
175 198 0
175 198 0
175 198 0
174 197 0
173 197 0
174 198 0
174 198 0
175 198 0
175 198 0
176 198 0
174 197 0
173 197 0
174 198 0
173 197 0
173 197 0
173 196 0
175 198 0
175 198 0
174 198 0
175 198 0
172 196 0
175 198 0
174 198 0
173 197 0
176 198 0
173 197 0
176 198 0
175 198 0
175 198 0
173 197 0
176 199 0
173 197 0
175 198 0
175 198 0
175 198 0
175 197 0
175 198 0
177 199 0
174 198 0
172 197 0
173 197 0
175 198 0
176 198 0
173 197 0
172 196 0
173 197 0
175 198 0
175 198 0
173 197 0
174 198 0
175 198 0
175 198 0
172 197 0
176 198 0
173 197 0
172 197 0
174 198 0
173 197 0
173 197 0
173 197 0
175 198 0
176 199 0
173 197 0
175 198 0
175 198 0
175 198 0
175 198 0
175 198 0
174 198 0
175 198 0
173 197 0
175 198 0
176 198 0
174 198 0
177 199 0
175 198 0
174 198 0
173 197 0
172 196 0
175 198 0
175 198 0
174 198 0
175 198 0
173 197 0
173 197 0
176 199 0
176 198 0
172 196 0
172 197 0
175 198 0
175 198 0
175 198 0
176 199 0
173 197 0
175 198 0
175 198 0
175 198 0
176 198 0
174 197 0
174 198 0
175 198 0
174 197 0
173 197 0
175 198 0
175 198 0
176 199 0
175 198 0
175 198 0
175 198 0
175 198 0
174 197 0
173 197 0
173 197 0
175 198 0
174 198 0
175 198 0
172 197 0
175 198 0
175 198 0
175 198 0
174 198 0
174 197 0
174 198 0
174 198 0
175 198 0
174 197 0
173 197 0
174 198 0
174 197 0
173 197 0
175 198 0
174 197 0
173 197 0
174 198 0
175 198 0
173 197 0
175 198 0
173 197 0
176 198 0
176 199 0
175 198 0
172 196 0
174 198 0
174 198 0
174 198 0
175 198 0
175 198 0
176 198 0
174 197 0
178 200 0
173 197 0
174 198 0
175 198 0
175 198 0
175 198 0
176 199 0
173 197 0
177 199 0
176 199 0
173 197 0
175 198 0
177 199 0
174 197 0
175 198 0
175 198 0
174 197 0
175 198 0
173 197 0
175 198 0
174 198 0
176 199 0
176 199 0
174 198 0
177 199 0
172 197 0
176 198 0
177 199 0
175 198 0
175 198 0
173 196 0
173 197 0
175 198 0
176 198 0
176 199 0
175 198 0
174 198 0
173 197 0
175 198 0
175 198 0
177 199 0
174 198 0
175 198 0
173 196 0
176 198 0
176 199 0
174 198 0
175 198 0
175 198 0
175 198 0
175 198 0
173 197 0
176 199 0
174 198 0
175 198 0
176 199 0
172 196 0
173 197 0
175 198 0
177 199 0
174 198 0
176 199 0
175 198 0
174 197 0
174 197 0
176 199 0
174 198 0
173 197 0
175 198 0
174 197 0
173 197 0
177 199 0
174 198 0
174 197 0
174 197 0
173 197 0
175 198 0
174 198 0
172 197 0
175 198 0
175 198 0
176 198 0
173 196 0
176 199 0
176 198 0
175 198 0
174 198 0
174 198 0
174 198 0
173 197 0
174 197 0
174 197 0
174 198 0
174 198 0
175 198 0
174 198 0
173 197 0
175 198 0
175 198 0
174 197 0
174 197 0
175 198 0
176 198 0
174 198 0
177 199 0
174 198 0
176 199 0
174 198 0
176 199 0
175 198 0
175 198 0
174 198 0
176 199 0
175 198 0
175 198 0
173 197 0
174 198 0
172 197 0
175 198 0
174 198 0
173 197 0
175 198 0
175 198 0
175 197 0
175 198 0
174 198 0
174 198 0
175 198 0
174 197 0
173 197 0
175 198 0
173 196 0
174 197 0
174 197 0
175 198 0
173 196 0
173 197 0
176 198 0
175 198 0
175 198 0
172 196 0
175 198 0
174 197 0
173 197 0
175 198 0
174 197 0
174 198 0
174 198 0
174 198 0
176 199 0
174 198 0
175 198 0
174 198 0
174 198 0
174 196 0
175 198 0
173 197 0
175 198 0
175 198 0
175 198 0
173 197 0
175 198 0
173 197 0
178 200 0
175 198 0
173 197 0
174 197 0
173 196 0
175 198 0
175 198 0
175 198 0
173 197 0
175 198 0
174 198 0
174 196 0
176 199 0
173 197 0
175 198 0
173 197 0
174 197 0
173 197 0
172 197 0
175 197 0
174 197 0
173 197 0
175 198 0
173 197 0
174 197 0
174 198 0
175 198 0
173 197 0
176 198 0
173 197 0
175 198 0
172 197 0
175 198 0
178 199 0
173 197 0
173 196 0
173 197 0
175 198 0
173 196 0
175 198 0
174 197 0
171 196 0
175 197 0
174 198 0
173 197 0
174 197 0
174 196 0
173 197 0
175 198 0
174 197 0
175 198 0
174 198 0
176 198 0
174 198 0
176 198 0
175 198 0
176 198 0
174 197 0
176 199 0
174 198 0
173 197 0
174 198 0
173 197 0
174 198 0
173 197 0
174 198 0
176 199 0
173 196 0
176 199 0
173 197 0
175 198 0
173 197 0
175 198 0
176 198 0
173 197 0
175 198 0
173 197 0
173 196 0
173 197 0
175 198 0
175 198 0
173 197 0
173 197 0
173 197 0
174 197 0
176 198 0
175 198 0
175 198 0
174 198 0
177 199 0
172 197 0
175 198 0
172 197 0
173 197 0
173 197 0
174 198 0
175 198 0
176 199 0
174 198 0
173 197 0
172 197 0
173 197 0
174 197 0
173 197 0
173 197 0
173 197 0
170 196 0
176 199 0
175 198 0
173 197 0
174 196 0
173 197 0
173 197 0
174 198 0
174 197 0
176 199 0
176 198 0
172 197 0
175 198 0
174 197 0
176 199 0
173 197 0
175 198 0
175 198 0
173 197 0
175 198 0
173 197 0
175 198 0
172 197 0
174 198 0
178 199 0
172 197 0
174 198 0
175 198 0
174 198 0
175 198 0
175 198 0
175 198 0
173 197 0
176 199 0
176 198 0
173 197 0
177 199 0
173 197 0
173 197 0
176 199 0
173 197 0
175 198 0
177 199 0
176 198 0
173 197 0
176 198 0
175 198 0
173 197 0
173 197 0
175 198 0
173 197 0
175 198 0
176 199 0
175 198 0
176 199 0
175 198 0
173 197 0
174 197 0
173 197 0
175 198 0
175 198 0
172 197 0
173 197 0
175 198 0
175 198 0
173 197 0
171 196 0
174 198 0
176 199 0
173 197 0
176 199 0
173 197 0
177 199 0
175 198 0
175 198 0
174 197 0
174 198 0
176 199 0
174 197 0
172 197 0
174 198 0
173 197 0
173 197 0
174 198 0
174 198 0
172 197 0
171 196 0
175 198 0
172 197 0
174 198 0
173 197 0
175 198 0
174 198 0
175 198 0
174 198 0
174 198 0
173 197 0
174 197 0
173 197 0
174 198 0
174 198 0
174 198 0
177 199 0
174 198 0
173 197 0
175 198 0
176 199 0
175 198 0
175 198 0
174 197 0
175 198 0
177 199 0
173 197 0
175 198 0
175 198 0
173 197 0
175 198 0
175 198 0
173 197 0
173 197 0
177 199 0
176 199 0
173 197 0
176 199 0
174 197 0
177 199 0
174 197 0
176 198 0
174 198 0
173 197 0
174 197 0
174 197 0
177 199 0
174 198 0
175 198 0
175 198 0
175 198 0
175 198 0
174 198 0
175 198 0
177 199 0
175 198 0
178 200 0
177 199 0
173 197 0
173 197 0
176 198 0
174 198 0
174 197 0
173 197 0
172 197 0
174 198 0
174 198 0
175 198 0
173 197 0
175 197 0
174 197 0
174 197 0
171 196 0
173 197 0
176 198 0
174 198 0
172 197 0
176 199 0
175 198 0
179 200 0
175 198 0
174 198 0
171 196 0
175 198 0
173 197 0
173 197 0
174 198 0
173 197 0
173 197 0
173 197 0
171 196 0
173 197 0
175 198 0
174 197 0
175 198 0
174 198 0
177 199 0
172 197 0
175 198 0
176 199 0
174 198 0
172 197 0
176 198 0
172 197 0
176 199 0
173 197 0
174 198 0
174 198 0
172 197 0
173 197 0
174 198 0
174 198 0
175 198 0
175 198 0
173 197 0
174 198 0
174 198 0
173 197 0
174 198 0
174 197 0
176 199 0
175 198 0
174 198 0
175 198 0
173 197 0
173 197 0
174 197 0
174 198 0
174 198 0
175 198 0
175 198 0
173 197 0
174 198 0
174 197 0
175 198 0
174 197 0
175 198 0
174 198 0
177 199 0
175 198 0
175 198 0
175 198 0
173 197 0
177 199 0
175 198 0
174 198 0
173 197 0
175 198 0
174 198 0
173 197 0
173 197 0
176 199 0
175 198 0
176 198 0
175 198 0
175 197 0
173 197 0
174 197 0
176 199 0
173 197 0
173 197 0
175 198 0
173 197 0
174 197 0
173 197 0
176 199 0
173 196 0
173 197 0
172 197 0
174 197 0
174 197 0
173 197 0
175 198 0
174 198 0
174 198 0
175 198 0
174 198 0
174 196 0
174 198 0
174 198 0
173 197 0
178 200 0
172 196 0
173 197 0
173 197 0
174 198 0
173 197 0
174 198 0
173 197 0
174 198 0
173 197 0
176 199 0
174 197 0
172 197 0
177 199 0
174 198 0
174 197 0
172 196 0
174 197 0
173 197 0
173 197 0
177 199 0
175 198 0
175 197 0
175 198 0
175 198 0
175 198 0
172 196 0
173 197 0
174 196 0
174 198 0
175 198 0
176 199 0
174 198 0
174 198 0
176 199 0
172 197 0
174 197 0
173 197 0
174 198 0
174 198 0
173 196 0
172 195 0
173 197 0
174 198 0
174 198 0
174 197 0
176 199 0
176 199 0
173 197 0
175 198 0
176 199 0
175 198 0
173 197 0
173 197 0
172 196 0
174 197 0
176 199 0
174 198 0
175 198 0
171 196 0
172 196 0
173 196 0
173 197 0
175 198 0
172 196 0
174 197 0
176 199 0
177 199 0
174 197 0
172 195 0
174 196 0
172 195 0
173 195 0
174 198 0
176 199 0
173 196 0
172 196 0
175 198 0
175 198 0
174 198 0
171 194 0
173 197 0
173 197 0
173 197 0
173 197 0
175 197 0
178 200 0
176 199 0
173 197 0
176 198 0
176 199 0
176 198 0
173 197 0
174 197 0
175 198 0
173 197 0
174 197 0
174 198 0
174 198 0
176 199 0
173 196 0
176 199 0
173 196 0
174 197 0
174 198 0
173 197 0
177 199 0
173 197 0
177 199 0
174 198 0
174 198 0
174 198 0
172 196 0
174 197 0
174 197 0
175 198 0
174 198 0
173 197 0
175 198 0
174 197 0
175 198 0
176 198 0
173 197 0
173 197 0
171 196 0
172 196 0
176 198 0
175 198 0
173 197 0
173 197 0
175 197 0
173 197 0
174 198 0
174 197 0
177 199 0
175 198 0
174 197 0
173 197 0
175 198 0
175 198 0
175 198 0
174 197 0
173 197 0
174 198 0
171 196 0
174 197 0
173 197 0
175 198 0
174 197 0
174 197 0
174 197 0
175 197 0
173 197 0
174 198 0
176 199 0
173 197 0
174 198 0
175 197 0
175 198 0
174 198 0
174 197 0
176 199 0
174 197 0
170 195 0
173 197 0
175 198 0
173 197 0
173 197 0
175 198 0
174 197 0
174 198 0
174 198 0
174 197 0
175 198 0
175 198 0
177 199 0
172 197 0
173 197 0
175 198 0
174 198 0
176 199 0
176 199 0
174 197 0
174 197 0
176 199 0
175 198 0
175 198 0
173 197 0
175 198 0
175 198 0
175 198 0
175 198 0
175 198 0
173 197 0
175 198 0
175 198 0
175 198 0
174 197 0
173 197 0
174 198 0
173 197 0
172 197 0
175 198 0
173 197 0
177 199 0
174 198 0
173 197 0
175 198 0
175 198 0
177 199 0
176 199 0
175 198 0
175 198 0
173 197 0
173 197 0
176 199 0
175 198 0
177 199 0
173 197 0
175 198 0
174 198 0
176 199 0
177 199 0
173 197 0
173 197 0
174 198 0
173 197 0
174 198 0
175 198 0
176 198 0
175 198 0
173 197 0
174 198 0
174 198 0
176 199 0
173 197 0
174 197 0
173 197 0
176 198 0
176 198 0
176 199 0
175 198 0
172 197 0
176 199 0
173 197 0
173 197 0
174 197 0
173 197 0
173 197 0
176 199 0
175 198 0
175 198 0
176 199 0
173 197 0
174 198 0
173 197 0
177 199 0
175 198 0
174 198 0
174 198 0
175 198 0
172 197 0
177 199 0
173 197 0
175 198 0
175 198 0
176 199 0
172 196 0
173 197 0
176 198 0
175 198 0
174 198 0
173 197 0
176 199 0
175 198 0
175 198 0
174 198 0
174 198 0
175 198 0
172 197 0
171 196 0
174 198 0
172 197 0
175 198 0
174 198 0
174 198 0
175 198 0
173 197 0
172 197 0
175 198 0
175 198 0
175 198 0
174 197 0
175 198 0
174 197 0
175 198 0
175 198 0
174 198 0
173 197 0
175 198 0
174 198 0
172 197 0
176 199 0
176 198 0
174 197 0
175 198 0
173 197 0
173 196 0
175 198 0
176 198 0
173 197 0
175 198 0
174 198 0
175 198 0
172 196 0
173 197 0
174 197 0
173 197 0
173 197 0
176 199 0
174 198 0
175 198 0
174 197 0
176 199 0
171 196 0
175 197 0
177 199 0
176 198 0
176 199 0
174 198 0
176 199 0
176 199 0
174 198 0
173 197 0
176 199 0
175 198 0
174 197 0
174 198 0
175 198 0
172 196 0
173 197 0
174 198 0
176 199 0
174 198 0
176 198 0
176 199 0
174 198 0
174 198 0
174 196 0
173 197 0
174 197 0
175 198 0
173 197 0
177 199 0
173 197 0
172 197 0
172 196 0
175 197 0
175 198 0
175 198 0
175 198 0
172 196 0
174 198 0
174 197 0
174 196 0
174 198 0
173 196 0
175 198 0
173 197 0
174 197 0
173 197 0
174 197 0
177 199 0
174 198 0
174 198 0
174 197 0
174 198 0
174 198 0
176 199 0
174 197 0
174 198 0
174 198 0
175 198 0
173 197 0
174 198 0
176 198 0
174 198 0
175 198 0
174 197 0
174 197 0
174 198 0
174 198 0
172 197 0
174 198 0
174 198 0
176 198 0
176 199 0
173 197 0
175 198 0
175 198 0
173 197 0
177 199 0
173 197 0
175 198 0
175 198 0
173 197 0
176 199 0
176 199 0
173 196 0
173 196 0
175 198 0
173 197 0
175 198 0
172 197 0
176 199 0
175 198 0
174 197 0
175 198 0
175 198 0
176 198 0
174 198 0
174 198 0
174 198 0
175 198 0
175 198 0
173 196 0
174 197 0
173 197 0
175 198 0
175 198 0
172 196 0
174 197 0
174 198 0
173 197 0
173 197 0
177 199 0
174 198 0
174 198 0
173 197 0
172 196 0
173 197 0
176 199 0
175 198 0
177 199 0
173 197 0
174 197 0
173 197 0
174 198 0
175 198 0
175 198 0
174 198 0
172 197 0
173 197 0
172 197 0
172 196 0
176 197 0
172 197 0
172 196 0
174 198 0
173 197 0
172 197 0
175 198 0
174 197 0
175 198 0
173 197 0
175 198 0
175 198 0
172 197 0
174 197 0
172 196 0
173 197 0
173 197 0
174 198 0
174 198 0
174 198 0
173 197 0
173 196 0
174 197 0
177 199 0
177 199 0
175 198 0
172 196 0
173 197 0
174 198 0
177 199 0
175 198 0
173 197 0
174 198 0
173 197 0
174 197 0
173 194 0
172 195 0
173 196 0
173 197 0
174 196 0
175 198 0
174 198 0
175 198 0
171 196 0
173 197 0
176 199 0
174 197 0
175 198 0
177 199 0
174 198 0
174 198 0
174 197 0
175 198 0
175 198 0
174 197 0
173 196 0
175 198 0
174 197 0
173 197 0
174 197 0
174 197 0
174 197 0
172 196 0
175 198 0
175 197 0
174 198 0
175 197 0
174 197 0
174 197 0
174 196 0
173 197 0
172 196 0
173 197 0
173 197 0
175 198 0
173 197 0
174 198 0
173 196 0
176 199 0
173 197 0
175 198 0
173 197 0
174 198 0
175 198 0
171 196 0
176 199 0
175 198 0
175 198 0
175 198 0
174 198 0
175 198 0
176 198 0
173 196 0
172 197 0
173 197 0
172 196 0
173 197 0
172 197 0
175 198 0
177 199 0
173 197 0
176 199 0
176 199 0
173 197 0
173 197 0
174 198 0
173 197 0
175 198 0
174 198 0
173 196 0
174 197 0
175 198 0
174 198 0
176 199 0
177 199 0
172 197 0
172 196 0
173 197 0
175 198 0
173 197 0
176 199 0
175 198 0
174 198 0
173 197 0
173 197 0
176 199 0
172 197 0
174 198 0
176 198 0
176 198 0
177 199 0
173 197 0
175 198 0
177 199 0
174 198 0
174 197 0
172 197 0
174 198 0
176 198 0
175 198 0
173 197 0
175 198 0
175 198 0
174 197 0
175 198 0
174 198 0
174 198 0
174 197 0
174 198 0
174 198 0
175 198 0
176 198 0
173 197 0
174 198 0
176 199 0
175 198 0
175 198 0
175 198 0
175 198 0
173 197 0
174 197 0
173 197 0
175 198 0
176 199 0
173 197 0
174 198 0
176 199 0
176 199 0
174 197 0
173 197 0
174 198 0
174 198 0
175 198 0
172 196 0
176 198 0
175 198 0
174 198 0
175 198 0
174 198 0
173 197 0
175 198 0
175 198 0
176 198 0
173 197 0
173 197 0
173 197 0
173 197 0
174 197 0
174 198 0
176 199 0
173 197 0
173 197 0
175 198 0
175 198 0
175 198 0
174 197 0
176 199 0
176 199 0
174 198 0
174 197 0
175 198 0
175 198 0
176 199 0
174 198 0
174 198 0
176 199 0
174 198 0
175 198 0
176 199 0
175 198 0
173 197 0
174 198 0
176 199 0
175 198 0
176 199 0
176 198 0
175 198 0
175 198 0
175 198 0
175 198 0
176 199 0
178 200 0
174 197 0
174 198 0
175 198 0
174 197 0
175 198 0
175 198 0
173 197 0
175 198 0
177 199 0
174 198 0
174 197 0
175 198 0
172 197 0
176 199 0
175 198 0
175 198 0
177 199 0
175 198 0
175 198 0
174 197 0
174 198 0
173 197 0
174 198 0
173 197 0
175 198 0
176 199 0
174 198 0
175 198 0
173 197 0
172 197 0
175 198 0
174 198 0
176 198 0
176 198 0
174 198 0
173 197 0
175 198 0
174 198 0
173 197 0
177 199 0
175 198 0
174 198 0
175 198 0
173 197 0
172 197 0
174 198 0
174 198 0
176 199 0
174 198 0
175 198 0
173 197 0
176 199 0
177 199 0
173 197 0
177 199 0
173 197 0
174 197 0
173 197 0
174 197 0
175 198 0
175 198 0
174 198 0
176 199 0
176 199 0
175 198 0
175 198 0
175 198 0
175 198 0
173 197 0
173 197 0
172 197 0
173 197 0
174 198 0
175 198 0
174 197 0
175 198 0
174 197 0
172 197 0
176 199 0
175 198 0
173 197 0
171 196 0
176 199 0
174 197 0
175 198 0
176 199 0
175 198 0
173 197 0
175 198 0
174 197 0
177 199 0
174 198 0
172 195 0
174 198 0
174 198 0
175 198 0
174 197 0
175 198 0
178 200 0
174 197 0
173 197 0
176 199 0
174 198 0
175 198 0
177 199 0
173 197 0
172 197 0
176 198 0
172 197 0
174 198 0
174 198 0
175 198 0
174 195 0
173 197 0
173 197 0
175 198 0
173 197 0
174 197 0
176 199 0
175 198 0
174 198 0
175 198 0
176 197 0
174 198 0
175 198 0
175 198 0
176 199 0
176 198 0
175 197 0
173 197 0
174 197 0
175 198 0
172 196 0
173 196 0
175 198 0
175 198 0
175 198 0
174 197 0
174 197 0
175 198 0
175 198 0
173 196 0
177 199 0
175 198 0
172 197 0
176 198 0
175 198 0
174 198 0
172 196 0
174 198 0
175 198 0
172 195 0
176 199 0
175 198 0
177 199 0
176 199 0
175 198 0
175 198 0
176 198 0
173 197 0
174 198 0
173 197 0
174 197 0
176 199 0
176 198 0
176 198 0
174 197 0
175 198 0
175 198 0
172 197 0
172 196 0
174 198 0
175 198 0
175 198 0
174 197 0
172 197 0
175 198 0
174 197 0
174 197 0
173 197 0
175 198 0
173 197 0
174 197 0
176 199 0
176 198 0
172 197 0
173 195 0
173 196 0
177 199 0
174 198 0
173 197 0
174 197 0
174 196 0
174 197 0
173 197 0
172 195 0
173 196 0
173 196 0
174 198 0
174 197 0
174 197 0
173 196 0
174 198 0
173 197 0
174 197 0
173 197 0
173 197 0
175 198 0
173 197 0
172 196 0
173 195 0
174 197 0
174 196 0
172 197 0
175 198 0
172 196 0
173 197 0
173 196 0
173 196 0
174 196 0
174 197 0
174 196 0
174 197 0
173 197 0
174 197 0
175 198 0
175 198 0
174 197 0
175 198 0
175 198 0
171 194 0
174 198 0
175 198 0
173 197 0
175 198 0
175 198 0
175 198 0
174 198 0
173 197 0
174 197 0
174 198 0
174 198 0
174 198 0
174 197 0
173 197 0
173 197 0
176 199 0
172 197 0
174 198 0
174 197 0
172 197 0
174 198 0
173 196 0
174 197 0
175 198 0
173 196 0
176 198 0
174 198 0
176 199 0
174 197 0
175 198 0
175 198 0
175 198 0
173 197 0
173 196 0
175 198 0
177 199 0
173 197 0
174 198 0
172 197 0
172 196 0
174 198 0
173 197 0
174 198 0
174 198 0
175 198 0
174 198 0
173 197 0
174 198 0
176 199 0
174 198 0
176 199 0
174 198 0
175 198 0
173 197 0
171 196 0
174 197 0
176 198 0
174 198 0
174 198 0
171 196 0
173 197 0
175 198 0
174 198 0
174 198 0
176 199 0
176 199 0
173 197 0
175 198 0
175 198 0
174 198 0
175 198 0
175 198 0
177 199 0
178 200 0
174 198 0
176 198 0
174 198 0
175 198 0
172 197 0
172 197 0
173 197 0
174 197 0
172 197 0
174 198 0
174 198 0
175 198 0
174 198 0
173 197 0
176 198 0
173 197 0
172 197 0
174 197 0
173 197 0
177 199 0
174 198 0
174 197 0
174 198 0
175 198 0
175 198 0
174 197 0
174 197 0
173 197 0
173 197 0
174 198 0
173 197 0
177 199 0
176 199 0
175 198 0
173 197 0
176 198 0
175 198 0
173 197 0
173 197 0
175 198 0
173 197 0
175 198 0
174 197 0
177 199 0
176 199 0
176 199 0
175 198 0
174 198 0
176 199 0
176 199 0
175 198 0
174 198 0
173 197 0
176 199 0
174 198 0
177 199 0
174 197 0
175 198 0
176 198 0
176 199 0
175 198 0
173 197 0
175 198 0
171 196 0
176 198 0
175 198 0
175 198 0
173 197 0
175 198 0
173 197 0
178 200 0
177 199 0
173 197 0
176 198 0
176 199 0
176 199 0
173 197 0
174 198 0
175 198 0
175 198 0
176 199 0
173 197 0
176 198 0
174 197 0
173 197 0
176 199 0
173 197 0
176 198 0
176 199 0
173 197 0
173 197 0
174 198 0
174 198 0
172 197 0
175 198 0
175 198 0
175 198 0
175 198 0
175 198 0
176 198 0
173 197 0
175 198 0
173 197 0
174 197 0
176 199 0
176 199 0
176 199 0
174 198 0
177 199 0
175 198 0
172 197 0
176 198 0
176 199 0
173 197 0
173 197 0
175 198 0
175 198 0
175 198 0
173 197 0
176 199 0
174 198 0
176 198 0
175 198 0
173 197 0
173 197 0
174 197 0
174 198 0
177 199 0
177 199 0
174 196 0
176 199 0
174 198 0
172 196 0
174 197 0
176 199 0
177 199 0
176 199 0
174 198 0
174 197 0
172 197 0
174 198 0
173 197 0
174 198 0
173 197 0
173 197 0
175 198 0
176 199 0
174 198 0
174 198 0
176 199 0
175 197 0
176 199 0
173 197 0
174 198 0
174 198 0
174 198 0
174 198 0
174 198 0
175 198 0
175 198 0
175 198 0
173 197 0
175 196 0
173 197 0
175 198 0
176 199 0
173 197 0
175 198 0
174 198 0
175 198 0
176 199 0
172 197 0
174 197 0
174 198 0
175 198 0
175 198 0
172 197 0
173 197 0
172 196 0
174 197 0
177 199 0
173 197 0
175 198 0
173 196 0
175 198 0
174 197 0
174 198 0
174 197 0
174 198 0
175 198 0
174 198 0
174 196 0
171 196 0
176 199 0
173 197 0
174 197 0
175 197 0
174 198 0
174 198 0
175 198 0
175 198 0
176 199 0
174 198 0
174 197 0
173 197 0
175 198 0
175 198 0
174 198 0
175 198 0
176 199 0
172 196 0
174 198 0
174 196 0
177 199 0
173 196 0
176 198 0
176 199 0
173 197 0
173 197 0
173 197 0
175 198 0
175 198 0
175 198 0
174 198 0
176 199 0
173 197 0
174 196 0
173 197 0
174 198 0
173 197 0
176 199 0
174 198 0
175 197 0
176 198 0
173 197 0
174 196 0
175 198 0
174 197 0
174 198 0
174 197 0
173 197 0
175 198 0
174 198 0
175 198 0
173 197 0
174 197 0
175 196 0
175 198 0
175 197 0
173 197 0
173 196 0
173 197 0
175 198 0
174 198 0
175 198 0
174 197 0
175 198 0
174 198 0
174 198 0
175 197 0
173 196 0
171 196 0
174 197 0
175 198 0
174 198 0
174 197 0
176 199 0
173 197 0
173 197 0
174 198 0
174 198 0
174 198 0
175 197 0
174 198 0
172 197 0
173 197 0
175 198 0
173 197 0
173 197 0
174 197 0
174 198 0
175 198 0
174 197 0
173 197 0
173 197 0
173 196 0
173 197 0
172 197 0
176 198 0
176 199 0
174 195 0
174 197 0
176 197 0
175 198 0
173 197 0
172 196 0
174 198 0
173 196 0
176 197 0
176 197 0
175 198 0
174 198 0
174 198 0
174 197 0
175 197 0
175 198 0
175 198 0
174 197 0
175 197 0
174 198 0
173 197 0
175 198 0
171 195 0
173 197 0
173 197 0
175 198 0
175 198 0
175 198 0
174 197 0
174 197 0
175 198 0
173 197 0
175 198 0
174 198 0
174 198 0
175 198 0
173 197 0
173 197 0
174 198 0
175 198 0
173 197 0
175 198 0
174 198 0
175 198 0
173 197 0
172 196 0
175 198 0
175 198 0
172 197 0
174 196 0
174 198 0
172 196 0
175 198 0
175 198 0
176 198 0
174 198 0
175 198 0
175 198 0
173 197 0
174 197 0
175 198 0
175 198 0
175 198 0
175 198 0
174 197 0
175 198 0
173 197 0
173 197 0
176 199 0
177 199 0
172 197 0
173 197 0
175 198 0
174 198 0
172 195 0
174 197 0
174 198 0
175 198 0
175 198 0
173 197 0
176 199 0
176 198 0
173 197 0
174 196 0
174 197 0
176 198 0
172 197 0
177 199 0
175 198 0
175 198 0
174 198 0
174 198 0
176 199 0
175 198 0
174 198 0
176 199 0
174 197 0
175 198 0
173 197 0
174 197 0
172 197 0
175 198 0
171 196 0
175 198 0
174 198 0
175 198 0
173 197 0
173 197 0
173 197 0
174 197 0
173 197 0
172 197 0
173 197 0
175 198 0
173 197 0
174 197 0
173 197 0
176 199 0
175 198 0
174 198 0
173 197 0
175 198 0
174 197 0
171 196 0
177 199 0
173 197 0
174 198 0
174 197 0
175 198 0
176 199 0
178 200 0
175 198 0
175 198 0
172 196 0
172 196 0
178 200 0
174 198 0
174 198 0
175 198 0
173 197 0
173 197 0
173 197 0
177 199 0
174 198 0
175 198 0
172 196 0
174 198 0
173 197 0
173 197 0
176 199 0
174 197 0
175 198 0
174 197 0
173 197 0
173 197 0
173 197 0
175 198 0
174 198 0
174 198 0
174 198 0
175 198 0
176 199 0
175 198 0
173 197 0
174 198 0
174 197 0
176 198 0
171 196 0
175 198 0
173 197 0
173 197 0
176 199 0
174 197 0
174 198 0
178 199 0
174 198 0
173 197 0
176 198 0
173 197 0
173 197 0
174 198 0
174 198 0
174 197 0
176 198 0
176 199 0
174 198 0
173 197 0
174 198 0
175 198 0
172 197 0
173 197 0
173 197 0
175 198 0
175 198 0
176 199 0
173 197 0
175 198 0
175 198 0
175 198 0
174 198 0
174 198 0
174 198 0
176 198 0
175 198 0
175 198 0
174 197 0
175 198 0
175 198 0
173 197 0
172 197 0
173 197 0
177 199 0
172 196 0
174 197 0
175 198 0
175 198 0
176 199 0
175 198 0
174 198 0
175 198 0
174 197 0
173 197 0
174 198 0
176 198 0
175 198 0
172 196 0
175 198 0
173 197 0
175 198 0
175 198 0
178 200 0
176 198 0
174 197 0
176 199 0
175 198 0
175 198 0
176 199 0
174 198 0
173 197 0
174 197 0
175 198 0
175 198 0
175 198 0
175 198 0
176 199 0
174 198 0
175 198 0
174 198 0
174 198 0
175 198 0
175 198 0
175 198 0
174 198 0
176 199 0
176 199 0
174 198 0
174 198 0
173 197 0
177 199 0
172 196 0
174 197 0
175 198 0
173 197 0
174 197 0
174 197 0
175 198 0
173 197 0
173 197 0
176 199 0
173 197 0
173 197 0
176 198 0
175 198 0
173 197 0
175 198 0
176 198 0
174 197 0
174 197 0
175 198 0
175 198 0
174 198 0
177 199 0
174 198 0
173 197 0
173 195 0
174 197 0
176 199 0
175 198 0
174 198 0
172 197 0
175 198 0
175 198 0
175 198 0
174 198 0
175 198 0
174 198 0
174 198 0
175 198 0
173 197 0
173 197 0
175 198 0
173 197 0
175 198 0
175 197 0
175 198 0
175 198 0
173 197 0
173 197 0
178 200 0
173 197 0
173 197 0
174 198 0
176 198 0
175 198 0
173 197 0
173 197 0
176 198 0
173 197 0
175 198 0
174 198 0
174 198 0
176 199 0
175 198 0
177 199 0
175 198 0
175 198 0
175 198 0
173 197 0
174 197 0
173 197 0
175 198 0
174 198 0
174 198 0
176 199 0
173 197 0
175 198 0
176 199 0
173 197 0
174 198 0
172 197 0
174 197 0
175 198 0
175 198 0
172 197 0
176 199 0
175 198 0
174 197 0
174 198 0
175 198 0
173 197 0
175 198 0
170 196 0
172 197 0
173 197 0
175 198 0
173 197 0
175 198 0
173 197 0
174 198 0
174 197 0
173 197 0
174 197 0
173 197 0
176 199 0
174 198 0
174 196 0
174 198 0
175 198 0
174 198 0
175 198 0
173 197 0
172 195 0
173 197 0
174 198 0
176 197 0
173 197 0
174 197 0
174 198 0
173 197 0
172 195 0
174 197 0
173 197 0
175 198 0
175 197 0
176 198 0
175 198 0
174 197 0
173 197 0
174 197 0
171 196 0
174 198 0
175 198 0
172 196 0
172 196 0
176 199 0
174 197 0
175 198 0
174 198 0
173 197 0
176 199 0
173 196 0
173 197 0
172 195 0
175 198 0
174 197 0
177 199 0
173 196 0
173 196 0
175 198 0
175 198 0
173 196 0
176 199 0
175 198 0
172 197 0
175 198 0
175 198 0
175 198 0
175 198 0
174 197 0
172 197 0
176 198 0
173 197 0
174 197 0
173 197 0
175 198 0
172 196 0
174 198 0
175 198 0
173 197 0
171 196 0
174 198 0
173 197 0
174 197 0
175 198 0
174 198 0
175 198 0
175 198 0
174 197 0
174 196 0
174 196 0
174 197 0
171 196 0
174 198 0
172 196 0
175 198 0
176 198 0
173 197 0
174 198 0
175 198 0
175 198 0
173 197 0
173 197 0
175 198 0
174 197 0
175 198 0
178 199 0
175 198 0
173 197 0
174 197 0
175 198 0
176 198 0
174 198 0
174 198 0
175 198 0
174 197 0
174 197 0
173 197 0
174 198 0
175 198 0
174 198 0
174 197 0
175 198 0
174 198 0
174 198 0
174 198 0
172 196 0
172 196 0
175 198 0
174 198 0
174 197 0
173 197 0
171 196 0
175 198 0
173 197 0
173 197 0
173 197 0
174 197 0
173 197 0
176 198 0
173 197 0
177 199 0
175 198 0
173 197 0
175 198 0
176 198 0
173 197 0
173 197 0
174 197 0
175 198 0
176 198 0
173 197 0
176 199 0
176 199 0
176 199 0
174 198 0
174 198 0
175 198 0
176 198 0
175 198 0
173 197 0
173 197 0
174 198 0
177 199 0
174 198 0
173 197 0
174 197 0
175 198 0
173 197 0
172 197 0
173 197 0
173 197 0
176 198 0
175 198 0
175 198 0
174 197 0
174 198 0
174 198 0
176 199 0
173 197 0
172 197 0
176 199 0
173 197 0
175 198 0
174 198 0
173 197 0
175 198 0
174 197 0
174 198 0
175 198 0
173 196 0
173 197 0
174 198 0
174 198 0
176 199 0
173 197 0
172 197 0
176 199 0
173 197 0
174 198 0
175 198 0
175 198 0
174 198 0
173 197 0
174 198 0
173 197 0
176 199 0
171 196 0
173 197 0
172 197 0
175 198 0
174 198 0
175 198 0
174 197 0
175 198 0
176 198 0
175 198 0
174 197 0
176 198 0
177 199 0
176 199 0
175 198 0
177 199 0
175 198 0
175 198 0
176 199 0
174 198 0
175 198 0
173 197 0
174 198 0
175 198 0
178 200 0
175 198 0
176 199 0
177 199 0
173 197 0
175 198 0
172 197 0
175 198 0
173 197 0
174 198 0
176 199 0
174 198 0
173 197 0
176 199 0
174 198 0
177 199 0
175 198 0
175 198 0
174 198 0
175 198 0
176 199 0
174 198 0
177 199 0
174 198 0
175 198 0
173 197 0
175 198 0
174 198 0
175 198 0
175 198 0
173 197 0
174 197 0
174 198 0
176 199 0
176 199 0
174 197 0
175 198 0
175 198 0
175 198 0
173 197 0
175 198 0
174 198 0
174 198 0
174 198 0
172 196 0
175 198 0
174 197 0
172 197 0
176 199 0
172 197 0
173 197 0
174 198 0
175 198 0
172 197 0
176 199 0
175 198 0
175 198 0
171 196 0
175 198 0
175 198 0
173 197 0
175 198 0
173 196 0
176 198 0
173 196 0
174 198 0
173 197 0
175 198 0
172 197 0
172 197 0
172 197 0
176 199 0
176 198 0
176 198 0
175 198 0
175 198 0
174 197 0
174 197 0
173 197 0
174 197 0
174 197 0
176 199 0
174 197 0
174 198 0
175 198 0
176 199 0
176 198 0
173 197 0
173 197 0
176 199 0
176 199 0
172 197 0
177 199 0
175 198 0
176 199 0
173 197 0
172 197 0
173 197 0
176 199 0
176 198 0
174 198 0
175 198 0
174 197 0
174 198 0
175 198 0
173 197 0
174 198 0
176 199 0
174 197 0
175 197 0
173 197 0
174 197 0
174 197 0
173 197 0
172 197 0
174 198 0
176 199 0
176 199 0
173 197 0
174 198 0
176 199 0
173 197 0
175 198 0
173 197 0
175 198 0
176 199 0
173 197 0
172 197 0
172 195 0
176 198 0
175 198 0
173 196 0
176 197 0
175 198 0
174 196 0
173 197 0
173 196 0
173 197 0
173 197 0
174 198 0
175 198 0
173 197 0
175 198 0
175 198 0
174 198 0
174 197 0
175 198 0
174 198 0
172 197 0
175 197 0
172 197 0
171 196 0
173 197 0
173 197 0
175 198 0
175 198 0
173 197 0
175 198 0
173 197 0
175 198 0
175 198 0
175 198 0
174 197 0
173 197 0
173 197 0
171 196 0
172 196 0
175 198 0
173 197 0
176 199 0
174 197 0
172 197 0
174 198 0
172 195 0
174 198 0
176 199 0
173 197 0
174 197 0
174 198 0
174 197 0
170 195 0
173 197 0
172 197 0
173 197 0
174 198 0
173 197 0
174 198 0
174 197 0
175 198 0
175 198 0
173 197 0
175 198 0
174 196 0
173 195 0
177 199 0
175 198 0
175 198 0
173 197 0
174 196 0
176 198 0
176 199 0
175 197 0
174 198 0
175 198 0
176 199 0
175 198 0
173 197 0
175 198 0
177 199 0
175 198 0
174 198 0
176 199 0
176 199 0
174 198 0
173 196 0
174 198 0
174 198 0
176 198 0
175 198 0
172 195 0
174 198 0
174 197 0
173 197 0
175 198 0
175 198 0
173 197 0
173 197 0
176 199 0
176 199 0
176 198 0
173 195 0
174 197 0
174 198 0
175 198 0
175 198 0
173 197 0
175 198 0
173 195 0
173 197 0
174 197 0
177 199 0
175 198 0
175 198 0
173 197 0
175 198 0
174 197 0
172 197 0
173 197 0
173 197 0
176 199 0
174 198 0
173 197 0
172 196 0
174 197 0
174 197 0
172 196 0
175 198 0
173 197 0
174 198 0
174 198 0
173 197 0
173 196 0
172 195 0
173 197 0
174 197 0
174 196 0
175 198 0
177 199 0
174 197 0
175 198 0
173 197 0
176 199 0
174 197 0
173 197 0
173 197 0
171 196 0
173 197 0
174 198 0
176 199 0
173 197 0
175 198 0
174 197 0
175 198 0
173 197 0
174 198 0
176 199 0
174 198 0
177 199 0
173 197 0
175 198 0
174 198 0
176 198 0
174 198 0
175 198 0
176 199 0
174 198 0
174 198 0
175 198 0
173 197 0
174 198 0
176 198 0
175 198 0
175 198 0
175 198 0
173 196 0
173 197 0
175 198 0
172 196 0
174 198 0
175 198 0
174 198 0
176 199 0
174 198 0
174 197 0
177 199 0
175 198 0
176 198 0
177 199 0
173 197 0
174 198 0
177 199 0
175 198 0
173 197 0
176 199 0
175 198 0
175 198 0
174 197 0
176 199 0
175 198 0
175 198 0
177 199 0
176 199 0
173 197 0
175 198 0
174 197 0
173 197 0
174 197 0
176 199 0
174 198 0
173 197 0
174 198 0
174 198 0
174 198 0
175 198 0
175 198 0
176 199 0
175 198 0
178 200 0
176 199 0
175 198 0
173 197 0
176 198 0
173 197 0
174 197 0
174 198 0
173 197 0
175 198 0
174 197 0
174 198 0
174 197 0
175 198 0
176 199 0
174 198 0
173 197 0
174 197 0
176 199 0
174 198 0
175 198 0
176 199 0
175 198 0
175 198 0
174 198 0
174 198 0
173 197 0
175 198 0
177 199 0
175 198 0
177 199 0
174 198 0
175 198 0
174 198 0
173 197 0
173 197 0
177 199 0
175 198 0
172 197 0
176 199 0
176 199 0
173 197 0
174 197 0
177 199 0
176 199 0
174 198 0
175 198 0
174 197 0
174 197 0
174 198 0
174 197 0
175 198 0
174 197 0
174 198 0
176 199 0
178 199 0
177 199 0
175 198 0
177 199 0
176 198 0
175 198 0
174 198 0
175 198 0
175 198 0
173 197 0
174 198 0
173 197 0
174 197 0
173 197 0
175 198 0
174 197 0
174 198 0
176 199 0
175 198 0
177 199 0
174 198 0
175 198 0
177 199 0
173 197 0
174 197 0
175 198 0
177 199 0
176 199 0
173 197 0
178 200 0
174 198 0
177 199 0
174 198 0
174 198 0
172 197 0
176 199 0
174 198 0
175 198 0
174 198 0
175 198 0
174 197 0
176 199 0
175 198 0
173 197 0
174 198 0
174 198 0
175 198 0
175 198 0
172 197 0
175 198 0
176 199 0
175 198 0
173 197 0
174 198 0
175 198 0
175 198 0
173 197 0
172 197 0
174 198 0
173 197 0
175 198 0
175 198 0
174 197 0
175 198 0
175 198 0
174 198 0
175 198 0
176 199 0
173 197 0
174 198 0
176 199 0
174 197 0
175 198 0
173 197 0
176 199 0
176 199 0
176 199 0
173 197 0
175 198 0
173 197 0
173 197 0
176 199 0
174 197 0
176 198 0
173 197 0
175 198 0
173 197 0
176 199 0
174 197 0
175 198 0
174 198 0
173 197 0
174 198 0
173 197 0
173 197 0
173 197 0
172 196 0
172 197 0
174 198 0
171 196 0
174 198 0
174 197 0
174 198 0
173 197 0
175 198 0
173 197 0
173 197 0
174 198 0
173 197 0
173 197 0
174 198 0
173 197 0
173 197 0
174 198 0
176 199 0
176 199 0
173 197 0
175 198 0
175 198 0
174 198 0
172 197 0
174 198 0
173 197 0
173 197 0
175 198 0
176 198 0
177 199 0
174 197 0
174 198 0
175 198 0
174 198 0
175 198 0
173 197 0
173 197 0
173 197 0
174 197 0
174 198 0
174 198 0
173 197 0
174 197 0
174 198 0
173 197 0
175 198 0
172 197 0
175 198 0
173 197 0
175 197 0
174 198 0
176 198 0
174 198 0
175 198 0
173 197 0
175 198 0
174 198 0
172 197 0
173 197 0
174 198 0
174 198 0
175 198 0
175 198 0
174 198 0
170 195 0
175 197 0
175 198 0
173 197 0
173 197 0
173 197 0
174 198 0
175 198 0
172 197 0
173 197 0
173 196 0
173 197 0
175 198 0
173 197 0
174 198 0
172 197 0
174 198 0
176 198 0
173 197 0
174 197 0
174 198 0
175 198 0
171 196 0
175 198 0
173 197 0
173 196 0
178 200 0
175 198 0
173 197 0
174 197 0
175 198 0
172 196 0
172 195 0
174 197 0
174 197 0
174 198 0
176 198 0
176 198 0
175 198 0
175 198 0
174 198 0
174 198 0
173 197 0
174 197 0
173 197 0
173 197 0
174 197 0
173 197 0
175 198 0
174 197 0
176 199 0
174 196 0
174 197 0
175 198 0
174 196 0
174 198 0
174 196 0
176 199 0
176 197 0
172 195 0
173 196 0
177 199 0
174 195 0
176 199 0
170 195 0
174 198 0
173 197 0
173 197 0
175 198 0
174 198 0
176 199 0
174 198 0
175 198 0
174 198 0
173 197 0
174 198 0
177 199 0
174 198 0
175 198 0
173 196 0
173 197 0
175 198 0
174 198 0
173 197 0
175 198 0
173 197 0
175 198 0
175 197 0
173 197 0
175 198 0
173 197 0
174 197 0
175 198 0
174 198 0
174 198 0
174 198 0
174 198 0
173 197 0
175 198 0
174 196 0
174 198 0
172 197 0
174 197 0
175 198 0
173 197 0
174 197 0
174 198 0
174 198 0
174 198 0
174 198 0
172 196 0
175 198 0
175 198 0
173 197 0
175 198 0
172 196 0
175 198 0
177 199 0
173 197 0
174 198 0
173 196 0
172 197 0
175 198 0
176 198 0
173 197 0
173 197 0
174 197 0
174 198 0
172 195 0
173 197 0
174 197 0
175 198 0
174 198 0
175 198 0
171 196 0
175 198 0
172 197 0
175 198 0
172 196 0
172 197 0
172 196 0
174 198 0
173 197 0
174 198 0
176 199 0
174 197 0
177 199 0
175 198 0
173 197 0
173 197 0
173 197 0
174 198 0
174 198 0
177 199 0
177 199 0
175 198 0
175 198 0
174 198 0
174 198 0
174 198 0
172 196 0
175 198 0
176 199 0
174 198 0
175 198 0
177 199 0
174 198 0
174 198 0
176 199 0
173 197 0
174 197 0
173 197 0
175 198 0
175 198 0
173 197 0
174 197 0
175 198 0
174 197 0
172 196 0
175 198 0
176 199 0
176 199 0
175 198 0
173 197 0
176 199 0
172 197 0
173 197 0
175 198 0
174 198 0
173 197 0
175 198 0
172 197 0
175 198 0
174 197 0
176 199 0
172 197 0
172 197 0
175 198 0
175 198 0
175 198 0
175 198 0
173 197 0
173 197 0
174 198 0
174 198 0
175 198 0
176 199 0
173 197 0
173 197 0
174 197 0
173 197 0
172 196 0
175 198 0
175 198 0
173 197 0
172 197 0
177 199 0
175 198 0
177 199 0
175 198 0
175 198 0
174 197 0
173 197 0
177 199 0
173 197 0
172 196 0
174 198 0
175 198 0
173 197 0
176 199 0
175 198 0
176 199 0
175 198 0
175 198 0
174 197 0
176 199 0
173 197 0
174 198 0
176 199 0
178 199 0
175 198 0
174 197 0
175 198 0
174 198 0
173 197 0
174 198 0
174 197 0
174 198 0
176 198 0
172 197 0
174 198 0
174 198 0
172 197 0
177 199 0
174 198 0
173 197 0
174 198 0
175 198 0
171 196 0
176 199 0
176 199 0
174 198 0
176 199 0
173 197 0
175 198 0
175 198 0
176 198 0
173 197 0
176 199 0
173 197 0
175 198 0
175 198 0
173 197 0
175 198 0
174 197 0
172 197 0
176 199 0
172 197 0
172 197 0
176 199 0
175 198 0
176 199 0
175 198 0
174 198 0
178 200 0
174 198 0
173 197 0
175 198 0
173 197 0
174 198 0
175 198 0
175 198 0
175 198 0
174 198 0
175 198 0
174 198 0
173 197 0
174 198 0
178 200 0
174 198 0
174 198 0
174 198 0
174 198 0
174 198 0
175 198 0
177 199 0
173 197 0
174 197 0
175 198 0
174 197 0
175 198 0
174 198 0
174 197 0
176 198 0
176 198 0
172 197 0
176 199 0
175 198 0
175 198 0
172 197 0
178 200 0
174 198 0
174 198 0
174 197 0
174 197 0
176 199 0
175 198 0
175 198 0
173 197 0
174 197 0
174 197 0
174 197 0
175 198 0
174 198 0
175 198 0
174 198 0
175 198 0
172 197 0
175 198 0
173 197 0
174 198 0
175 198 0
171 196 0
174 198 0
174 198 0
175 198 0
175 198 0
172 196 0
175 198 0
177 199 0
174 198 0
173 197 0
176 199 0
172 197 0
174 198 0
174 197 0
173 197 0
174 197 0
176 199 0
174 198 0
175 198 0
173 197 0
174 197 0
173 196 0
175 198 0
175 198 0
178 198 0
175 198 0
175 198 0
177 199 0
171 195 0
177 199 0
174 197 0
173 196 0
174 195 0
174 197 0
176 199 0
177 199 0
173 197 0
174 198 0
172 197 0
173 197 0
177 199 0
177 199 0
175 198 0
172 197 0
174 198 0
174 198 0
174 197 0
174 198 0
175 197 0
174 197 0
174 198 0
176 199 0
174 198 0
174 198 0
175 198 0
176 199 0
174 197 0
174 197 0
175 198 0
175 198 0
174 198 0
175 198 0
174 198 0
174 198 0
174 198 0
175 198 0
174 198 0
175 198 0
174 198 0
175 198 0
173 197 0
174 198 0
173 197 0
174 198 0
174 198 0
174 198 0
173 196 0
174 198 0
173 196 0
171 195 0
173 197 0
173 197 0
176 199 0
175 198 0
175 198 0
174 198 0
172 196 0
175 198 0
175 198 0
173 197 0
175 198 0
176 199 0
172 197 0
171 196 0
174 198 0
177 199 0
173 197 0
175 197 0
173 197 0
174 198 0
176 199 0
175 198 0
175 198 0
174 197 0
176 198 0
172 196 0
172 196 0
174 197 0
174 198 0
175 198 0
176 199 0
174 198 0
173 197 0
174 198 0
174 197 0
175 198 0
173 197 0
174 197 0
173 194 0
174 197 0
172 196 0
174 197 0
175 198 0
174 198 0
173 197 0
175 198 0
175 198 0
175 198 0
175 198 0
171 196 0
175 198 0
174 198 0
176 199 0
174 197 0
174 197 0
175 198 0
174 198 0
176 199 0
176 198 0
173 196 0
175 198 0
174 198 0
176 198 0
173 196 0
173 196 0
171 196 0
175 198 0
174 197 0
175 198 0
173 197 0
173 197 0
172 196 0
177 198 0
175 198 0
173 197 0
174 196 0
173 197 0
174 197 0
175 198 0
172 196 0
176 198 0
171 196 0
174 197 0
176 199 0
175 198 0
173 197 0
176 199 0
172 195 0
175 198 0
173 197 0
173 197 0
175 198 0
173 197 0
174 198 0
174 198 0
173 197 0
174 196 0
175 198 0
175 198 0
175 198 0
176 199 0
174 197 0
174 197 0
174 198 0
175 198 0
175 197 0
175 198 0
174 198 0
177 199 0
174 197 0
176 199 0
175 198 0
175 198 0
174 197 0
173 197 0
175 198 0
174 197 0
176 197 0
173 197 0
174 198 0
175 198 0
172 197 0
174 197 0
174 197 0
174 198 0
175 198 0
175 198 0
175 198 0
174 197 0
174 197 0
173 197 0
173 197 0
173 197 0
175 198 0
177 199 0
176 199 0
174 198 0
175 198 0
175 198 0
175 198 0
174 198 0
175 198 0
174 198 0
173 197 0
174 198 0
173 197 0
175 198 0
173 197 0
175 198 0
177 199 0
173 197 0
174 197 0
175 198 0
173 197 0
178 200 0
175 198 0
175 198 0
174 197 0
174 198 0
174 198 0
175 198 0
173 197 0
176 199 0
172 197 0
175 198 0
173 197 0
177 199 0
177 199 0
175 198 0
174 198 0
175 198 0
172 197 0
175 198 0
174 197 0
174 198 0
174 198 0
174 197 0
174 198 0
174 198 0
173 197 0
176 199 0
174 198 0
173 197 0
174 198 0
175 198 0
176 198 0
176 198 0
174 198 0
174 198 0
175 198 0
176 199 0
174 198 0
173 197 0
174 198 0
173 197 0
174 198 0
175 198 0
176 199 0
175 198 0
175 198 0
174 197 0
174 198 0
174 198 0
174 198 0
174 198 0
173 197 0
173 197 0
175 198 0
172 197 0
173 197 0
175 198 0
173 197 0
173 197 0
176 199 0
174 197 0
175 198 0
173 197 0
174 197 0
174 198 0
176 199 0
175 198 0
177 199 0
175 198 0
175 198 0
175 198 0
172 197 0
175 198 0
175 198 0
175 198 0
174 198 0
173 197 0
176 199 0
174 198 0
175 198 0
174 198 0
174 198 0
174 198 0
173 197 0
175 198 0
173 197 0
174 198 0
175 198 0
175 198 0
174 198 0
175 198 0
174 198 0
173 197 0
175 198 0
175 198 0
175 198 0
172 197 0
173 197 0
174 197 0
173 197 0
174 198 0
173 197 0
174 196 0
175 198 0
175 198 0
175 198 0
173 197 0
173 197 0
175 198 0
173 197 0
176 199 0
174 198 0
173 197 0
175 198 0
175 198 0
176 198 0
175 198 0
177 199 0
172 197 0
174 198 0
175 198 0
175 198 0
175 198 0
172 196 0
173 197 0
175 198 0
175 198 0
174 198 0
175 198 0
173 197 0
175 198 0
174 197 0
176 199 0
174 198 0
173 197 0
174 197 0
174 198 0
174 198 0
175 198 0
173 197 0
173 197 0
175 198 0
173 197 0
174 198 0
173 197 0
176 198 0
177 199 0
175 198 0
172 197 0
175 198 0
175 198 0
175 198 0
174 198 0
174 197 0
175 198 0
173 197 0
175 198 0
175 198 0
172 197 0
176 198 0
174 198 0
172 197 0
174 198 0
171 195 0
175 198 0
176 199 0
173 197 0
175 198 0
175 198 0
174 197 0
174 198 0
175 198 0
175 198 0
174 197 0
174 198 0
176 199 0
175 198 0
174 198 0
175 198 0
172 196 0
172 197 0
175 198 0
173 197 0
174 198 0
176 199 0
173 196 0
173 197 0
174 198 0
175 198 0
176 198 0
174 197 0
175 198 0
175 197 0
174 198 0
173 197 0
175 198 0
175 198 0
175 198 0
176 198 0
172 197 0
173 197 0
176 199 0
175 198 0
176 198 0
175 198 0
173 197 0
173 197 0
175 198 0
173 197 0
173 197 0
172 197 0
174 197 0
175 198 0
173 197 0
172 196 0
175 198 0
174 197 0
174 198 0
173 197 0
176 198 0
174 197 0
175 198 0
173 197 0
175 198 0
173 197 0
172 197 0
174 198 0
174 198 0
174 197 0
174 198 0
175 198 0
174 198 0
174 196 0
174 198 0
173 197 0
176 198 0
174 198 0
174 197 0
173 197 0
174 196 0
175 198 0
174 198 0
172 197 0
174 198 0
176 199 0
174 198 0
175 197 0
176 199 0
177 199 0
173 196 0
172 196 0
175 196 0
176 199 0
175 198 0
173 197 0
173 197 0
172 196 0
174 197 0
174 198 0
175 198 0
175 198 0
173 196 0
175 198 0
175 198 0
175 198 0
174 197 0
174 198 0
175 198 0
174 198 0
177 199 0
175 198 0
174 197 0
175 198 0
174 197 0
174 198 0
173 197 0
173 196 0
176 199 0
173 197 0
174 197 0
174 198 0
174 198 0
172 196 0
174 198 0
171 194 0
172 196 0
174 197 0
172 197 0
174 198 0
173 196 0
174 198 0
175 198 0
174 198 0
173 197 0
172 196 0
175 198 0
175 198 0
175 198 0
175 198 0
174 198 0
174 197 0
174 198 0
174 198 0
175 198 0
175 198 0
174 197 0
176 199 0
175 198 0
175 198 0
173 197 0
175 198 0
172 197 0
174 198 0
175 198 0
172 196 0
175 198 0
174 198 0
174 198 0
175 198 0
173 197 0
175 198 0
174 197 0
175 198 0
176 199 0
172 197 0
176 199 0
175 198 0
172 195 0
173 196 0
173 197 0
175 198 0
176 199 0
176 199 0
173 197 0
176 199 0
173 197 0
175 198 0
175 198 0
174 198 0
174 198 0
177 199 0
173 197 0
175 198 0
176 199 0
174 198 0
174 198 0
173 197 0
174 198 0
177 199 0
174 198 0
174 198 0
176 198 0
174 197 0
174 197 0
172 197 0
174 198 0
175 198 0
176 199 0
174 198 0
177 199 0
173 197 0
173 197 0
174 197 0
176 198 0
174 197 0
174 197 0
174 198 0
173 197 0
173 197 0
173 197 0
173 197 0
175 198 0
176 198 0
175 198 0
176 198 0
173 197 0
173 197 0
175 198 0
174 197 0
173 197 0
173 197 0
173 197 0
172 196 0
175 197 0
176 198 0
174 197 0
173 197 0
172 196 0
174 198 0
175 198 0
175 198 0
174 198 0
173 197 0
174 198 0
175 198 0
176 198 0
175 198 0
173 197 0
175 198 0
174 197 0
174 198 0
176 199 0
177 199 0
173 197 0
174 198 0
174 198 0
176 199 0
174 198 0
177 199 0
174 197 0
175 198 0
175 198 0
173 197 0
173 197 0
173 197 0
175 198 0
172 197 0
173 197 0
174 198 0
174 198 0
177 199 0
174 198 0
175 198 0
173 197 0
174 198 0
173 197 0
176 199 0
173 197 0
176 199 0
176 199 0
174 198 0
177 199 0
174 198 0
174 197 0
173 197 0
174 198 0
172 197 0
175 198 0
173 197 0
176 198 0
175 198 0
177 199 0
174 198 0
176 199 0
173 197 0
173 197 0
176 199 0
174 198 0
174 198 0
176 198 0
176 198 0
174 197 0
173 197 0
173 197 0
171 196 0
174 198 0
174 197 0
172 197 0
174 197 0
175 198 0
174 198 0
174 198 0
176 199 0
175 198 0
174 198 0
173 197 0
174 197 0
175 198 0
175 198 0
175 198 0
174 198 0
175 198 0
175 198 0
175 198 0
174 198 0
176 199 0
174 197 0
174 198 0
175 198 0
176 198 0
174 198 0
172 197 0
175 198 0
174 197 0
175 198 0
173 197 0
175 198 0
172 197 0
176 199 0
176 198 0
175 198 0
175 198 0
173 197 0
175 198 0
176 199 0
172 197 0
172 197 0
176 198 0
175 198 0
174 196 0
173 197 0
174 198 0
174 198 0
175 198 0
173 197 0
173 197 0
173 197 0
175 198 0
174 198 0
172 197 0
175 198 0
176 199 0
173 197 0
174 198 0
175 197 0
173 197 0
176 199 0
173 197 0
175 198 0
175 198 0
175 198 0
174 198 0
174 197 0
174 198 0
177 199 0
176 199 0
173 197 0
173 197 0
175 198 0
173 197 0
175 198 0
175 198 0
178 199 0
176 199 0
174 197 0
173 197 0
176 198 0
174 198 0
175 198 0
174 198 0
173 197 0
177 199 0
171 196 0
174 198 0
174 197 0
174 197 0
174 198 0
173 197 0
175 198 0
174 198 0
173 197 0
173 197 0
174 197 0
175 198 0
174 198 0
173 197 0
175 198 0
178 199 0
175 198 0
172 197 0
178 200 0
173 197 0
175 198 0
174 198 0
173 197 0
175 198 0
174 198 0
174 198 0
174 197 0
173 197 0
174 198 0
175 198 0
175 198 0
174 198 0
172 197 0
174 198 0
174 197 0
175 198 0
174 198 0
175 198 0
175 198 0
177 199 0
176 198 0
176 199 0
175 198 0
175 198 0
176 199 0
174 197 0
174 198 0
176 199 0
172 197 0
175 198 0
173 197 0
174 198 0
175 198 0
173 197 0
175 198 0
177 199 0
173 197 0
173 197 0
173 197 0
176 199 0
174 198 0
172 197 0
173 196 0
174 198 0
176 199 0
174 197 0
175 198 0
176 198 0
174 198 0
175 198 0
173 197 0
173 197 0
174 197 0
173 197 0
174 198 0
174 196 0
175 198 0
174 197 0
173 197 0
176 199 0
175 198 0
174 197 0
174 198 0
173 196 0
173 197 0
174 197 0
174 198 0
173 197 0
174 197 0
177 199 0
175 198 0
175 198 0
176 199 0
174 198 0
173 197 0
175 198 0
174 197 0
175 198 0
175 197 0
174 198 0
174 197 0
176 199 0
173 197 0
173 197 0
172 195 0
176 199 0
176 199 0
174 198 0
174 197 0
173 197 0
172 196 0
174 198 0
174 197 0
173 196 0
174 197 0
174 198 0
174 198 0
173 197 0
176 198 0
175 198 0
175 198 0
172 196 0
174 198 0
175 198 0
172 197 0
176 199 0
173 197 0
175 198 0
175 198 0
173 197 0
172 196 0
172 196 0
173 197 0
174 198 0
175 198 0
175 198 0
174 197 0
174 197 0
172 196 0
174 198 0
172 197 0
173 197 0
174 198 0
175 198 0
174 197 0
173 196 0
172 195 0
174 198 0
174 197 0
175 198 0
173 197 0
173 197 0
174 197 0
176 199 0
174 198 0
174 198 0
174 196 0
175 198 0
172 197 0
173 196 0
173 197 0
173 197 0
174 198 0
175 198 0
172 196 0
178 200 0
174 198 0
173 197 0
174 197 0
176 199 0
172 197 0
174 197 0
175 198 0
174 198 0
172 196 0
174 196 0
175 198 0
175 198 0
173 197 0
173 197 0
172 195 0
176 199 0
174 198 0
173 197 0
174 197 0
174 198 0
174 198 0
174 198 0
174 198 0
172 195 0
172 196 0
175 198 0
176 199 0
175 198 0
175 198 0
176 199 0
173 197 0
175 198 0
174 198 0
174 197 0
175 198 0
175 198 0
174 198 0
174 198 0
172 196 0
177 199 0
175 198 0
174 198 0
173 197 0
174 197 0
173 197 0
175 198 0
174 198 0
175 198 0
174 197 0
172 197 0
173 197 0
174 198 0
172 197 0
176 199 0
174 198 0
176 199 0
174 198 0
175 198 0
175 198 0
173 197 0
176 198 0
175 198 0
175 198 0
173 197 0
173 197 0
173 197 0
173 197 0
174 198 0
175 198 0
173 197 0
175 198 0
174 197 0
173 197 0
174 197 0
172 197 0
175 198 0
177 199 0
176 199 0
174 198 0
175 198 0
173 197 0
174 198 0
176 199 0
174 198 0
173 197 0
176 199 0
172 197 0
175 198 0
175 198 0
175 198 0
177 199 0
172 196 0
172 196 0
174 198 0
175 198 0
174 198 0
174 197 0
175 198 0
175 198 0
173 197 0
177 199 0
174 198 0
175 198 0
174 198 0
174 197 0
176 198 0
174 198 0
175 198 0
176 199 0
174 198 0
175 198 0
177 199 0
174 198 0
173 197 0
177 199 0
174 198 0
171 196 0
174 198 0
172 197 0
173 197 0
176 199 0
172 196 0
175 198 0
174 198 0
173 197 0
174 197 0
173 197 0
176 199 0
177 199 0
173 197 0
177 199 0
173 197 0
174 198 0
176 199 0
173 197 0
175 198 0
175 198 0
173 197 0
176 199 0
176 199 0
177 199 0
174 198 0
173 197 0
176 199 0
175 198 0
174 197 0
173 197 0
175 198 0
175 198 0
175 198 0
174 198 0
174 198 0
174 198 0
175 198 0
172 197 0
175 198 0
175 198 0
176 199 0
173 197 0
172 197 0
175 198 0
177 199 0
175 198 0
173 197 0
174 198 0
174 197 0
174 198 0
175 198 0
174 197 0
173 197 0
175 198 0
176 199 0
174 197 0
175 198 0
174 198 0
175 198 0
173 197 0
173 197 0
173 197 0
175 198 0
177 199 0
174 198 0
174 198 0
172 197 0
173 197 0
176 198 0
174 198 0
174 198 0
174 198 0
173 197 0
175 198 0
174 198 0
175 198 0
175 198 0
176 198 0
175 198 0
174 198 0
176 198 0
173 197 0
178 200 0
173 197 0
174 198 0
172 196 0
173 197 0
175 198 0
174 198 0
172 196 0
172 197 0
173 197 0
173 197 0
173 197 0
176 199 0
174 198 0
177 199 0
176 199 0
174 197 0
173 197 0
176 199 0
173 197 0
174 198 0
173 197 0
176 199 0
175 198 0
174 198 0
174 198 0
177 199 0
174 198 0
175 198 0
174 197 0
174 198 0
173 197 0
173 197 0
175 198 0
175 198 0
174 198 0
174 198 0
176 199 0
174 198 0
175 198 0
172 196 0
174 198 0
173 197 0
175 198 0
175 198 0
174 197 0
175 198 0
174 198 0
173 197 0
174 197 0
172 196 0
174 197 0
176 199 0
174 197 0
175 198 0
174 198 0
171 196 0
174 198 0
174 196 0
173 197 0
174 198 0
173 197 0
176 199 0
174 198 0
173 197 0
177 199 0
173 197 0
174 198 0
174 198 0
176 198 0
174 197 0
174 197 0
175 197 0
174 198 0
173 197 0
177 199 0
176 199 0
174 197 0
174 198 0
173 196 0
175 198 0
176 199 0
177 199 0
173 197 0
175 198 0
174 198 0
176 199 0
174 198 0
174 196 0
172 195 0
175 198 0
173 197 0
175 198 0
173 197 0
174 197 0
174 197 0
174 198 0
175 198 0
174 198 0
176 198 0
173 197 0
172 197 0
176 198 0
173 196 0
174 198 0
178 200 0
177 199 0
175 198 0
174 198 0
174 198 0
174 197 0
172 196 0
174 198 0
173 197 0
175 198 0
174 198 0
174 198 0
174 197 0
174 198 0
175 198 0
173 196 0
175 198 0
174 197 0
174 197 0
173 197 0
174 197 0
173 197 0
173 197 0
176 199 0
175 198 0
174 198 0
175 198 0
174 196 0
174 197 0
173 196 0
175 198 0
174 197 0
174 197 0
175 198 0
174 196 0
174 197 0
175 198 0
174 197 0
173 197 0
174 198 0
175 198 0
176 198 0
174 198 0
173 196 0
174 198 0
174 197 0
175 198 0
178 200 0
175 198 0
174 198 0
176 198 0
176 199 0
174 197 0
176 199 0
174 197 0
176 199 0
173 197 0
174 197 0
173 196 0
172 196 0
174 198 0
173 197 0
176 197 0
174 197 0
173 197 0
174 197 0
173 197 0
174 197 0
174 198 0
174 197 0
174 198 0
174 197 0
175 198 0
177 199 0
174 198 0
174 197 0
174 198 0
174 196 0
176 199 0
174 196 0
174 198 0
172 197 0
174 197 0
175 198 0
175 198 0
177 199 0
177 199 0
174 198 0
173 197 0
173 197 0
175 198 0
173 197 0
173 197 0
175 198 0
172 196 0
173 196 0
174 197 0
176 199 0
175 198 0
175 198 0
176 198 0
175 198 0
173 197 0
174 198 0
175 198 0
174 197 0
174 197 0
173 195 0
174 197 0
174 197 0
174 198 0
173 197 0
175 198 0
171 195 0
174 197 0
175 198 0
174 198 0
173 197 0
174 198 0
174 197 0
172 197 0
173 197 0
176 199 0
173 197 0
175 198 0
174 198 0
172 196 0
174 197 0
176 199 0
175 198 0
174 197 0
175 198 0
175 198 0
173 197 0
172 197 0
172 197 0
174 197 0
173 197 0
175 198 0
176 199 0
173 197 0
173 197 0
176 198 0
175 198 0
175 198 0
176 199 0
174 197 0
173 197 0
173 197 0
173 197 0
176 199 0
171 196 0
174 197 0
175 198 0
174 198 0
175 198 0
174 198 0
175 198 0
173 197 0
177 199 0
174 197 0
175 198 0
172 197 0
174 198 0
173 197 0
173 197 0
173 197 0
173 197 0
177 199 0
178 200 0
175 198 0
175 198 0
176 199 0
177 199 0
175 198 0
175 198 0
173 197 0
174 197 0
174 197 0
174 197 0
177 199 0
175 198 0
176 199 0
175 198 0
173 197 0
175 198 0
172 196 0
174 197 0
174 198 0
175 198 0
175 198 0
173 197 0
177 199 0
173 197 0
174 198 0
175 198 0
175 198 0
176 199 0
175 198 0
175 198 0
175 198 0
173 197 0
175 198 0
175 198 0
173 197 0
175 198 0
176 198 0
177 199 0
174 198 0
174 198 0
175 198 0
174 198 0
174 198 0
174 198 0
174 197 0
175 198 0
175 198 0
174 197 0
175 198 0
174 198 0
172 196 0
173 197 0
176 198 0
175 198 0
174 198 0
174 197 0
176 199 0
175 198 0
173 197 0
173 197 0
174 198 0
175 198 0
174 197 0
175 198 0
173 197 0
176 198 0
174 198 0
175 198 0
173 197 0
177 199 0
173 197 0
174 198 0
174 197 0
177 199 0
173 197 0
174 197 0
174 197 0
175 198 0
176 198 0
176 199 0
172 197 0
173 197 0
176 199 0
173 197 0
175 198 0
174 198 0
174 198 0
175 198 0
174 198 0
174 198 0
172 197 0
174 197 0
174 198 0
175 198 0
174 198 0
173 197 0
173 197 0
175 198 0
174 198 0
173 197 0
177 199 0
173 197 0
172 197 0
174 197 0
172 196 0
174 198 0
176 199 0
173 197 0
173 197 0
174 198 0
174 198 0
174 198 0
177 199 0
176 199 0
176 199 0
175 198 0
174 198 0
175 198 0
171 196 0
172 197 0
174 197 0
176 198 0
174 198 0
173 197 0
173 197 0
174 198 0
173 197 0
177 199 0
174 198 0
173 197 0
173 197 0
173 197 0
173 197 0
177 199 0
174 198 0
173 197 0
175 198 0
175 198 0
175 198 0
174 198 0
175 198 0
174 197 0
175 198 0
175 198 0
175 198 0
174 196 0
175 198 0
173 197 0
174 197 0
172 197 0
175 198 0
176 199 0
175 198 0
174 198 0
174 198 0
173 197 0
174 197 0
175 198 0
176 199 0
175 198 0
176 199 0
174 197 0
176 198 0
175 198 0
175 198 0
173 197 0
174 198 0
173 197 0
172 197 0
170 195 0
173 197 0
174 198 0
176 199 0
174 197 0
177 199 0
175 198 0
173 197 0
172 197 0
173 197 0
176 199 0
175 198 0
174 198 0
172 196 0
176 198 0
175 198 0
175 198 0
176 199 0
174 198 0
174 197 0
175 198 0
172 197 0
176 199 0
174 198 0
174 198 0
174 198 0
175 198 0
174 198 0
174 198 0
175 198 0
175 198 0
176 198 0
172 197 0
173 197 0
174 197 0
176 199 0
175 198 0
176 198 0
174 197 0
174 198 0
174 198 0
175 198 0
175 198 0
175 198 0
176 198 0
172 197 0
175 198 0
176 199 0
174 198 0
177 199 0
175 198 0
173 197 0
173 196 0
175 198 0
173 197 0
174 198 0
174 197 0
175 198 0
173 197 0
171 196 0
174 198 0
174 196 0
177 199 0
174 198 0
176 199 0
174 198 0
172 197 0
174 198 0
172 197 0
173 197 0
175 198 0
173 197 0
174 197 0
173 197 0
175 197 0
173 195 0
171 195 0
174 198 0
173 197 0
175 198 0
176 199 0
175 198 0
172 196 0
177 199 0
175 198 0
173 197 0
174 197 0
172 196 0
174 196 0
174 198 0
174 198 0
176 198 0
174 197 0
175 198 0
173 197 0
174 197 0
173 197 0
177 199 0
176 199 0
173 197 0
174 198 0
175 198 0
173 197 0
173 197 0
174 197 0
172 196 0
173 197 0
174 198 0
175 198 0
176 198 0
175 198 0
172 197 0
175 198 0
175 198 0
175 198 0
174 198 0
175 198 0
175 198 0
176 198 0
174 198 0
175 198 0
174 198 0
175 198 0
173 197 0
173 197 0
173 197 0
174 196 0
174 197 0
174 197 0
173 197 0
174 197 0
175 198 0
174 197 0
174 197 0
173 197 0
175 198 0
175 197 0
173 197 0
176 198 0
174 198 0
172 197 0
174 197 0
173 196 0
174 198 0
175 198 0
173 197 0
175 198 0
173 197 0
175 198 0
173 196 0
174 196 0
173 196 0
175 198 0
175 198 0
174 198 0
174 198 0
174 198 0
174 198 0
174 197 0
174 198 0
174 198 0
174 197 0
175 198 0
173 196 0
173 197 0
176 199 0
174 197 0
175 198 0
175 198 0
172 197 0
172 197 0
174 198 0
175 198 0
175 198 0
173 197 0
175 198 0
171 196 0
176 199 0
174 198 0
175 197 0
175 198 0
174 197 0
174 197 0
172 197 0
174 197 0
174 198 0
174 198 0
178 200 0
173 197 0
172 197 0
172 196 0
173 197 0
176 198 0
174 197 0
174 198 0
173 197 0
175 198 0
171 196 0
176 198 0
176 199 0
172 196 0
178 199 0
174 198 0
172 196 0
176 199 0
173 197 0
174 197 0
176 199 0
174 198 0
173 197 0
175 198 0
174 198 0
175 198 0
175 198 0
177 199 0
175 198 0
174 197 0
174 197 0
172 197 0
175 198 0
176 199 0
173 197 0
174 198 0
174 197 0
174 198 0
174 198 0
173 197 0
175 198 0
174 197 0
175 198 0
174 197 0
174 198 0
175 198 0
174 198 0
176 199 0
175 198 0
173 197 0
176 199 0
174 198 0
176 199 0
175 198 0
175 198 0
174 197 0
176 199 0
173 197 0
175 198 0
174 197 0
175 198 0
176 198 0
174 198 0
173 197 0
174 198 0
175 198 0
174 198 0
175 198 0
176 199 0
175 198 0
174 198 0
174 198 0
174 198 0
176 198 0
176 199 0
174 198 0
173 197 0
176 199 0
173 197 0
172 196 0
174 197 0
176 199 0
176 199 0
176 199 0
174 198 0
175 198 0
174 198 0
174 197 0
173 197 0
175 198 0
175 198 0
175 198 0
175 198 0
174 198 0
175 198 0
174 198 0
174 198 0
175 198 0
175 198 0
174 197 0
173 197 0
175 198 0
174 198 0
175 198 0
173 197 0
174 197 0
175 198 0
176 199 0
174 198 0
174 198 0
174 198 0
175 198 0
175 198 0
173 197 0
174 197 0
175 198 0
175 198 0
176 198 0
175 198 0
174 198 0
174 198 0
175 198 0
175 198 0
172 197 0
174 197 0
174 198 0
173 197 0
175 198 0
173 197 0
175 198 0
174 198 0
174 198 0
175 198 0
173 197 0
172 197 0
172 197 0
175 198 0
176 199 0
176 199 0
173 197 0
175 198 0
174 197 0
174 197 0
176 199 0
175 198 0
175 198 0
174 198 0
176 199 0
176 198 0
176 199 0
174 198 0
173 197 0
175 197 0
174 197 0
176 199 0
175 198 0
175 198 0
176 198 0
174 197 0
173 197 0
179 200 0
177 199 0
172 197 0
173 197 0
177 199 0
173 197 0
174 198 0
174 198 0
174 197 0
173 197 0
173 197 0
174 198 0
173 197 0
175 198 0
174 198 0
175 198 0
176 198 0
174 197 0
173 197 0
175 198 0
175 198 0
172 196 0
173 197 0
175 198 0
173 197 0
174 198 0
175 198 0
173 197 0
174 198 0
173 196 0
173 197 0
175 198 0
176 199 0
172 196 0
173 197 0
176 198 0
175 198 0
173 197 0
174 196 0
175 198 0
174 198 0
176 199 0
174 197 0
174 197 0
176 198 0
175 198 0
175 198 0
174 197 0
174 198 0
175 198 0
174 198 0
175 198 0
176 199 0
174 197 0
175 198 0
175 198 0
173 197 0
175 198 0
172 197 0
178 200 0
173 197 0
173 197 0
175 198 0
173 197 0
175 198 0
173 197 0
174 198 0
175 198 0
175 198 0
173 197 0
173 197 0
175 198 0
172 197 0
176 198 0
176 199 0
174 198 0
174 197 0
174 198 0
174 197 0
174 198 0
175 197 0
172 196 0
176 198 0
174 198 0
174 198 0
172 197 0
174 198 0
173 197 0
173 197 0
175 198 0
176 198 0
173 197 0
174 198 0
175 198 0
175 198 0
174 198 0
174 198 0
172 196 0
176 198 0
176 198 0
175 198 0
175 198 0
174 197 0
172 197 0
176 198 0
175 198 0
174 197 0
175 198 0
173 197 0
174 196 0
175 198 0
175 198 0
175 198 0
175 198 0
174 198 0
173 197 0
178 200 0
174 198 0
174 198 0
173 197 0
174 198 0
173 197 0
175 198 0
175 198 0
177 199 0
175 198 0
176 199 0
175 198 0
175 198 0
177 199 0
173 197 0
176 199 0
174 198 0
173 197 0
173 197 0
174 198 0
176 199 0
176 199 0
174 197 0
172 196 0
176 199 0
175 197 0
174 198 0
171 196 0
175 198 0
177 199 0
175 198 0
173 197 0
174 197 0
175 198 0
174 198 0
175 198 0
172 193 0
174 197 0
173 197 0
173 197 0
177 199 0
177 199 0
177 199 0
173 197 0
173 197 0
172 197 0
175 198 0
174 197 0
177 199 0
174 197 0
174 198 0
174 197 0
177 199 0
174 197 0
177 199 0
174 198 0
172 196 0
175 198 0
176 198 0
174 198 0
173 197 0
174 196 0
173 197 0
173 197 0
174 198 0
176 198 0
176 199 0
173 197 0
175 198 0
174 197 0
174 197 0
175 198 0
173 196 0
174 196 0
173 197 0
174 198 0
174 198 0
172 195 0
175 198 0
174 197 0
173 197 0
174 198 0
175 198 0
174 198 0
174 197 0
173 197 0
172 195 0
175 198 0
174 196 0
173 197 0
172 196 0
175 198 0
175 198 0
175 198 0
174 198 0
174 196 0
174 197 0
174 198 0
172 197 0
173 197 0
174 197 0
174 198 0
173 197 0
177 199 0
173 197 0
175 198 0
175 198 0
173 197 0
174 198 0
174 198 0
176 199 0
174 197 0
175 198 0
174 198 0
174 197 0
175 198 0
175 198 0
174 197 0
173 197 0
177 199 0
173 197 0
174 198 0
173 196 0
173 197 0
174 198 0
176 199 0
174 197 0
175 198 0
174 198 0
174 198 0
174 198 0
173 197 0
174 197 0
174 198 0
174 197 0
175 198 0
174 197 0
174 198 0
174 197 0
175 198 0
176 199 0
175 198 0
174 198 0
173 197 0
173 197 0
172 197 0
174 198 0
174 198 0
175 198 0
174 198 0
174 198 0
176 198 0
174 198 0
173 197 0
174 198 0
173 197 0
174 197 0
174 198 0
176 198 0
174 198 0
173 197 0
174 198 0
175 198 0
174 197 0
178 199 0
173 197 0
175 198 0
173 197 0
175 198 0
174 197 0
172 197 0
174 197 0
174 198 0
175 198 0
173 197 0
176 198 0
174 198 0
174 197 0
174 198 0
176 199 0
172 197 0
174 197 0
174 198 0
175 198 0
172 197 0
175 198 0
174 197 0
172 197 0
176 199 0
176 198 0
176 199 0
173 197 0
173 197 0
175 198 0
175 198 0
176 199 0
173 197 0
174 198 0
173 197 0
175 198 0
175 198 0
173 197 0
173 197 0
175 198 0
173 197 0
176 199 0
175 198 0
173 197 0
174 198 0
173 197 0
175 198 0
174 198 0
173 197 0
176 198 0
176 199 0
174 198 0
172 197 0
173 197 0
175 198 0
174 198 0
175 198 0
174 198 0
173 197 0
173 197 0
173 197 0
171 196 0
173 197 0
174 198 0
175 198 0
175 198 0
176 199 0
172 197 0
174 198 0
175 198 0
174 197 0
174 197 0
173 197 0
176 198 0
174 198 0
175 198 0
174 198 0
175 198 0
172 197 0
174 198 0
175 198 0
173 197 0
174 198 0
174 198 0
176 199 0
175 198 0
173 197 0
175 198 0
174 198 0
175 198 0
176 199 0
174 198 0
174 198 0
175 198 0
174 197 0
175 198 0
175 198 0
174 198 0
178 199 0
175 198 0
174 197 0
176 199 0
176 198 0
175 198 0
175 198 0
173 197 0
175 198 0
173 197 0
175 198 0
176 198 0
173 197 0
177 199 0
174 198 0
172 196 0
172 197 0
174 198 0
176 198 0
173 197 0
174 198 0
176 199 0
174 198 0
173 197 0
175 198 0
172 195 0
175 198 0
173 197 0
176 198 0
175 198 0
175 198 0
175 198 0
173 196 0
176 198 0
174 197 0
173 197 0
174 198 0
174 198 0
172 196 0
176 198 0
176 199 0
173 197 0
173 197 0
175 198 0
174 198 0
172 196 0
176 198 0
173 197 0
175 198 0
177 199 0
174 198 0
173 197 0
174 198 0
175 198 0
174 198 0
174 198 0
174 198 0
173 197 0
176 199 0
175 198 0
175 198 0
175 198 0
174 196 0
175 198 0
175 198 0
176 199 0
176 199 0
175 198 0
174 198 0
175 197 0
175 198 0
172 197 0
174 198 0
173 197 0
175 198 0
175 198 0
172 197 0
171 196 0
174 197 0
176 199 0
174 198 0
175 198 0
173 197 0
175 197 0
174 198 0
176 199 0
174 197 0
174 198 0
175 198 0
173 197 0
173 197 0
175 198 0
176 199 0
173 196 0
173 197 0
175 198 0
175 198 0
176 199 0
172 197 0
175 198 0
176 198 0
174 198 0
175 198 0
174 198 0
174 198 0
174 198 0
175 198 0
175 198 0
176 198 0
174 197 0
172 197 0
174 198 0
173 197 0
173 197 0
174 198 0
173 197 0
174 198 0
175 198 0
175 198 0
174 198 0
173 197 0
176 198 0
175 198 0
174 198 0
174 198 0
174 198 0
176 199 0
174 197 0
174 198 0
173 197 0
173 197 0
175 198 0
175 198 0
175 198 0
172 196 0
174 198 0
176 199 0
175 198 0
176 199 0
175 198 0
174 197 0
173 196 0
176 199 0
173 197 0
175 198 0
175 198 0
172 196 0
175 198 0
174 198 0
174 198 0
172 196 0
173 197 0
173 197 0
174 198 0
174 197 0
173 197 0
172 195 0
172 196 0
177 199 0
174 198 0
176 198 0
175 198 0
175 198 0
173 197 0
172 196 0
174 198 0
176 199 0
172 197 0
170 196 0
176 199 0
174 197 0
174 198 0
172 196 0
177 199 0
174 198 0
171 195 0
174 198 0
173 197 0
174 198 0
175 198 0
173 197 0
175 198 0
176 199 0
176 198 0
174 198 0
173 197 0
174 197 0
175 198 0
176 199 0
173 197 0
175 198 0
176 198 0
173 196 0
175 198 0
176 199 0
173 197 0
175 198 0
176 199 0
174 198 0
175 197 0
172 196 0
173 197 0
176 197 0
174 197 0
172 197 0
174 198 0
175 198 0
175 198 0
174 198 0
175 198 0
176 198 0
173 197 0
175 198 0
173 197 0
171 196 0
173 197 0
173 197 0
174 198 0
173 197 0
174 198 0
174 198 0
173 197 0
175 198 0
173 197 0
176 199 0
174 197 0
173 197 0
178 200 0
175 198 0
175 198 0
176 198 0
174 198 0
176 198 0
174 198 0
177 199 0
173 197 0
175 198 0
174 197 0
176 199 0
174 197 0
173 197 0
173 197 0
174 198 0
172 196 0
175 198 0
174 198 0
175 198 0
174 197 0
174 197 0
175 198 0
175 198 0
175 198 0
175 198 0
172 197 0
173 197 0
175 197 0
176 199 0
174 198 0
174 197 0
175 198 0
174 197 0
173 197 0
175 198 0
175 198 0
174 198 0
174 198 0
174 198 0
175 198 0
176 199 0
174 198 0
174 198 0
174 198 0
173 197 0
173 197 0
176 199 0
175 198 0
172 196 0
175 198 0
173 197 0
175 198 0
175 198 0
174 198 0
173 197 0
176 198 0
174 197 0
174 198 0
174 198 0
173 197 0
173 197 0
173 197 0
174 197 0
174 197 0
174 198 0
174 198 0
173 197 0
175 198 0
174 197 0
174 198 0
174 197 0
176 199 0
173 197 0
174 197 0
172 197 0
174 197 0
172 196 0
174 198 0
173 197 0
173 197 0
174 198 0
175 198 0
175 198 0
175 198 0
173 197 0
173 197 0
173 197 0
173 197 0
173 197 0
173 197 0
175 198 0
174 198 0
173 197 0
176 198 0
175 198 0
175 198 0
176 199 0
175 198 0
174 198 0
175 198 0
176 198 0
175 198 0
173 197 0
174 198 0
175 198 0
176 198 0
176 199 0
178 199 0
176 198 0
175 198 0
173 197 0
174 198 0
174 197 0
175 198 0
175 198 0
175 198 0
173 197 0
176 198 0
175 198 0
174 198 0
174 198 0
175 198 0
175 198 0
174 198 0
175 198 0
171 196 0
174 198 0
175 198 0
175 198 0
174 198 0
175 198 0
174 198 0
172 197 0
175 198 0
175 198 0
175 198 0
176 199 0
174 198 0
174 197 0
176 199 0
176 198 0
176 199 0
175 198 0
174 198 0
175 198 0
178 200 0
172 197 0
170 196 0
174 198 0
176 199 0
175 198 0
172 197 0
176 199 0
174 197 0
174 198 0
173 197 0
175 198 0
174 197 0
172 197 0
175 198 0
176 199 0
175 198 0
175 198 0
171 196 0
175 198 0
173 197 0
176 199 0
174 198 0
172 197 0
176 198 0
176 198 0
174 198 0
174 198 0
173 197 0
175 198 0
176 199 0
173 197 0
175 198 0
173 197 0
173 197 0
175 198 0
174 198 0
176 199 0
173 197 0
175 198 0
176 199 0
173 197 0
174 198 0
178 200 0
175 198 0
174 197 0
175 198 0
176 199 0
174 197 0
173 197 0
176 198 0
173 197 0
172 196 0
174 197 0
174 198 0
174 198 0
175 198 0
174 198 0
176 199 0
177 199 0
174 198 0
173 197 0
173 197 0
171 196 0
174 198 0
172 197 0
172 197 0
174 198 0
174 198 0
174 197 0
174 198 0
172 197 0
175 198 0
174 198 0
173 197 0
174 197 0
174 197 0
175 198 0
174 198 0
175 198 0
173 197 0
174 198 0
177 199 0
172 197 0
176 198 0
173 197 0
176 199 0
174 198 0
174 198 0
173 197 0
173 197 0
174 198 0
174 197 0
174 196 0
173 197 0
176 199 0
173 197 0
174 198 0
175 197 0
175 198 0
174 197 0
175 198 0
175 198 0
178 200 0
174 198 0
174 198 0
174 198 0
174 198 0
174 198 0
173 197 0
174 197 0
176 199 0
173 197 0
173 197 0
174 198 0
176 199 0
177 199 0
176 199 0
175 198 0
176 199 0
175 198 0
174 198 0
176 199 0
174 198 0
172 197 0
176 198 0
175 198 0
174 197 0
175 198 0
175 198 0
176 199 0
176 199 0
175 198 0
174 198 0
172 197 0
174 198 0
174 198 0
175 198 0
174 198 0
173 197 0
172 197 0
175 198 0
175 198 0
174 197 0
175 198 0
175 198 0
173 197 0
177 198 0
174 198 0
174 198 0
175 198 0
174 198 0
174 197 0
174 198 0
175 198 0
173 196 0
174 197 0
176 199 0
173 196 0
176 199 0
173 197 0
175 198 0
172 197 0
177 198 0
176 198 0
174 198 0
175 198 0
175 198 0
173 197 0
175 198 0
174 198 0
176 198 0
176 199 0
173 197 0
176 199 0
172 196 0
173 197 0
173 197 0
174 197 0
178 200 0
176 198 0
176 199 0
176 198 0
175 198 0
173 197 0
174 197 0
175 198 0
172 196 0
175 198 0
176 198 0
174 198 0
173 196 0
176 199 0
173 195 0
174 198 0
173 196 0
176 198 0
172 196 0
175 198 0
175 198 0
174 198 0
174 196 0
173 197 0
172 197 0
176 199 0
175 198 0
174 198 0
174 197 0
173 197 0
175 198 0
171 194 0
176 198 0
173 197 0
173 197 0
174 198 0
176 199 0
173 197 0
176 198 0
173 197 0
174 197 0
173 197 0
176 199 0
174 195 0
171 196 0
172 196 0
175 198 0
176 198 0
173 197 0
174 197 0
175 198 0
174 198 0
175 198 0
177 199 0
175 198 0
174 197 0
175 198 0
174 197 0
175 198 0
174 198 0
175 198 0
174 197 0
172 197 0
172 197 0
172 197 0
174 198 0
175 198 0
177 199 0
177 199 0
175 197 0
173 197 0
172 196 0
173 197 0
173 197 0
175 198 0
173 197 0
175 198 0
174 198 0
174 198 0
173 197 0
172 197 0
174 197 0
174 198 0
173 197 0
173 197 0
173 197 0
175 198 0
175 198 0
173 196 0
175 198 0
176 198 0
176 199 0
175 198 0
173 197 0
177 199 0
174 197 0
173 197 0
173 197 0
173 197 0
174 196 0
173 197 0
174 198 0
175 198 0
175 198 0
176 199 0
174 197 0
175 198 0
175 198 0
173 197 0
175 198 0
176 198 0
175 198 0
174 198 0
174 197 0
174 198 0
175 198 0
175 198 0
174 198 0
173 197 0
175 198 0
173 197 0
174 197 0
175 198 0
173 197 0
175 198 0
174 198 0
175 198 0
175 198 0
174 198 0
174 197 0
175 198 0
175 198 0
173 197 0
175 198 0
172 196 0
174 198 0
173 197 0
174 197 0
176 199 0
175 198 0
176 199 0
176 199 0
175 198 0
172 196 0
176 199 0
175 198 0
173 197 0
174 197 0
173 197 0
173 197 0
172 196 0
175 198 0
173 197 0
176 198 0
176 199 0
176 198 0
173 197 0
174 198 0
174 197 0
175 198 0
174 198 0
176 199 0
174 198 0
174 198 0
174 198 0
176 199 0
174 197 0
172 196 0
177 199 0
172 197 0
172 197 0
175 198 0
175 198 0
179 200 0
174 198 0
173 197 0
173 197 0
175 198 0
174 197 0
172 197 0
176 198 0
175 198 0
174 198 0
172 197 0
174 197 0
177 199 0
173 197 0
173 197 0
174 198 0
172 196 0
175 198 0
175 198 0
173 197 0
174 197 0
174 197 0
173 197 0
175 198 0
174 197 0
175 198 0
175 198 0
174 198 0
175 198 0
175 198 0
175 198 0
175 198 0
175 198 0
175 198 0
175 198 0
175 198 0
175 198 0
173 197 0
174 197 0
173 197 0
176 198 0
175 198 0
174 197 0
173 197 0
173 197 0
175 198 0
173 197 0
172 197 0
173 197 0
175 198 0
173 197 0
174 197 0
175 198 0
173 197 0
176 198 0
174 197 0
174 197 0
174 198 0
173 197 0
177 199 0
177 199 0
173 197 0
173 197 0
175 198 0
173 197 0
176 199 0
175 198 0
174 197 0
175 198 0
174 197 0
174 198 0
175 198 0
175 198 0
174 198 0
174 197 0
174 198 0
175 198 0
176 198 0
177 199 0
175 198 0
175 198 0
174 198 0
176 199 0
175 198 0
174 198 0
173 197 0
173 197 0
174 197 0
175 198 0
175 198 0
175 198 0
177 199 0
175 198 0
174 198 0
175 198 0
175 198 0
174 198 0
174 198 0
175 198 0
175 198 0
172 196 0
174 198 0
175 198 0
174 197 0
175 198 0
175 198 0
173 197 0
173 197 0
175 198 0
171 196 0
172 197 0
173 197 0
175 198 0
172 197 0
176 198 0
173 197 0
175 198 0
174 197 0
175 198 0
175 198 0
174 198 0
176 199 0
174 198 0
175 198 0
174 198 0
175 198 0
176 199 0
173 197 0
175 198 0
173 197 0
175 198 0
178 200 0
174 198 0
175 198 0
177 199 0
176 199 0
177 199 0
173 197 0
174 197 0
173 197 0
175 198 0
173 197 0
176 198 0
173 197 0
173 197 0
174 198 0
176 198 0
174 198 0
176 199 0
175 198 0
174 197 0
174 197 0
176 198 0
170 196 0
176 199 0
175 198 0
173 197 0
175 198 0
177 199 0
175 198 0
176 199 0
175 198 0
176 198 0
173 197 0
173 196 0
174 198 0
175 198 0
175 197 0
174 198 0
173 197 0
176 199 0
173 196 0
174 198 0
175 198 0
174 198 0
173 197 0
178 200 0
175 198 0
175 198 0
172 197 0
176 199 0
175 198 0
175 198 0
174 196 0
174 197 0
175 198 0
174 197 0
173 196 0
173 197 0
175 198 0
174 198 0
175 198 0
174 198 0
174 198 0
172 197 0
174 198 0
177 199 0
176 197 0
173 196 0
170 196 0
176 198 0
175 198 0
175 198 0
175 198 0
176 199 0
172 196 0
174 197 0
174 198 0
174 198 0
172 194 0
176 199 0
174 198 0
175 198 0
175 198 0
175 198 0
174 198 0
173 197 0
177 199 0
175 198 0
177 199 0
174 196 0
173 197 0
173 196 0
174 198 0
174 197 0
174 198 0
174 198 0
174 198 0
174 197 0
174 196 0
174 198 0
172 197 0
174 198 0
176 199 0
175 198 0
175 198 0
175 198 0
171 195 0
174 198 0
174 197 0
172 196 0
175 198 0
174 198 0
176 198 0
176 198 0
173 196 0
173 196 0
176 199 0
174 198 0
174 197 0
174 198 0
176 199 0
173 197 0
172 197 0
173 197 0
173 197 0
175 198 0
173 197 0
173 197 0
176 199 0
176 199 0
173 197 0
173 197 0
174 196 0
174 198 0
176 198 0
176 199 0
173 196 0
176 198 0
175 198 0
175 198 0
174 197 0
174 197 0
176 199 0
172 197 0
176 199 0
174 197 0
173 196 0
177 199 0
175 198 0
170 194 0
173 197 0
175 198 0
174 197 0
175 198 0
174 197 0
173 197 0
173 197 0
173 196 0
174 197 0
172 196 0
174 198 0
173 197 0
172 197 0
174 198 0
173 197 0
174 197 0
175 198 0
176 199 0
174 196 0
174 198 0
174 198 0
175 198 0
173 197 0
172 197 0
176 197 0
172 196 0
174 197 0
176 199 0
175 198 0
174 198 0
175 198 0
174 198 0
174 198 0
173 196 0
176 198 0
172 197 0
175 198 0
175 198 0
175 198 0
174 198 0
175 198 0
173 197 0
174 198 0
173 197 0
171 195 0
175 198 0
173 197 0
174 197 0
175 198 0
173 197 0
173 197 0
175 198 0
173 197 0
171 196 0
174 198 0
174 198 0
172 196 0
175 198 0
174 197 0
173 197 0
175 198 0
173 197 0
176 199 0
174 198 0
175 198 0
172 197 0
173 197 0
173 197 0
175 198 0
172 197 0
174 198 0
173 197 0
173 197 0
172 197 0
176 198 0
176 199 0
173 197 0
175 198 0
176 198 0
174 198 0
174 197 0
173 197 0
177 199 0
173 197 0
174 197 0
176 198 0
172 197 0
174 197 0
174 198 0
174 198 0
174 197 0
175 198 0
172 197 0
175 198 0
174 198 0
175 198 0
175 198 0
173 197 0
173 197 0
174 198 0
175 198 0
174 197 0
174 197 0
173 197 0
175 198 0
174 198 0
173 197 0
174 198 0
173 197 0
174 198 0
175 198 0
173 197 0
174 197 0
175 198 0
173 197 0
176 198 0
178 199 0
175 198 0
176 198 0
173 197 0
176 199 0
175 198 0
175 198 0
173 197 0
173 197 0
173 197 0
174 198 0
174 198 0
171 196 0
175 198 0
173 197 0
173 197 0
174 198 0
176 199 0
175 198 0
173 197 0
177 199 0
173 197 0
175 198 0
174 198 0
175 198 0
176 199 0
175 198 0
173 197 0
175 198 0
174 197 0
175 198 0
173 197 0
175 198 0
176 199 0
174 198 0
174 198 0
176 199 0
175 198 0
173 197 0
173 197 0
175 198 0
174 198 0
174 198 0
174 197 0
175 198 0
175 198 0
172 197 0
173 197 0
175 198 0
175 198 0
174 198 0
178 200 0
173 197 0
177 199 0
172 196 0
175 198 0
176 199 0
177 199 0
175 198 0
178 200 0
176 198 0
175 198 0
173 197 0
176 199 0
174 198 0
174 198 0
175 198 0
175 198 0
175 198 0
173 197 0
175 198 0
171 196 0
173 197 0
174 198 0
176 199 0
174 197 0
175 198 0
175 198 0
175 198 0
174 198 0
176 198 0
173 197 0
174 198 0
176 199 0
174 198 0
173 197 0
174 198 0
174 198 0
175 198 0
174 198 0
175 198 0
175 198 0
174 198 0
173 197 0
176 198 0
174 197 0
175 198 0
174 198 0
175 198 0
175 198 0
175 198 0
175 198 0
175 198 0
176 198 0
174 197 0
172 197 0
177 199 0
173 197 0
173 197 0
176 199 0
176 199 0
172 197 0
172 197 0
173 197 0
176 199 0
175 198 0
175 198 0
173 197 0
176 198 0
176 199 0
174 198 0
173 197 0
176 199 0
172 197 0
173 197 0
175 198 0
173 197 0
175 198 0
176 198 0
172 197 0
173 196 0
174 197 0
175 198 0
176 199 0
174 198 0
173 197 0
174 198 0
177 199 0
176 199 0
173 197 0
175 198 0
174 197 0
175 198 0
176 199 0
174 198 0
176 199 0
173 197 0
173 196 0
175 198 0
173 197 0
174 197 0
173 197 0
174 198 0
175 198 0
175 198 0
175 198 0
176 198 0
175 198 0
177 199 0
174 198 0
174 198 0
176 197 0
177 199 0
174 196 0
175 198 0
175 198 0
174 197 0
174 197 0
174 198 0
176 199 0
172 197 0
173 197 0
174 198 0
174 198 0
175 198 0
176 198 0
174 198 0
175 198 0
173 197 0
175 198 0
176 198 0
175 198 0
174 198 0
176 198 0
175 198 0
175 198 0
174 198 0
175 198 0
173 197 0
176 199 0
173 197 0
177 199 0
173 197 0
173 197 0
175 197 0
177 199 0
172 195 0
176 199 0
174 198 0
173 197 0
175 198 0
175 198 0
174 198 0
175 198 0
174 198 0
175 198 0
174 197 0
174 197 0
174 198 0
176 198 0
176 198 0
174 197 0
175 197 0
176 199 0
174 198 0
174 197 0
175 198 0
172 197 0
174 197 0
173 197 0
175 198 0
175 198 0
175 198 0
175 198 0
175 198 0
176 197 0
173 197 0
175 198 0
174 198 0
174 198 0
174 197 0
174 198 0
174 197 0
175 198 0
172 197 0
174 198 0
174 198 0
175 198 0
173 196 0
175 198 0
173 197 0
176 199 0
174 198 0
176 199 0
176 198 0
176 199 0
175 198 0
172 196 0
175 198 0
175 198 0
174 196 0
172 196 0
172 197 0
175 198 0
173 197 0
175 198 0
173 197 0
173 197 0
174 198 0
173 197 0
173 197 0
176 198 0
174 197 0
175 198 0
175 198 0
175 198 0
174 197 0
176 198 0
175 198 0
173 197 0
175 198 0
175 198 0
174 197 0
172 196 0
173 197 0
177 199 0
177 199 0
174 197 0
173 197 0
176 197 0
173 197 0
173 197 0
173 197 0
174 197 0
173 197 0
173 197 0
173 196 0
173 197 0
172 195 0
174 198 0
174 195 0
173 197 0
173 197 0
170 195 0
175 198 0
174 197 0
172 197 0
173 197 0
172 196 0
173 197 0
175 198 0
177 199 0
175 198 0
175 197 0
174 196 0
174 198 0
174 198 0
175 198 0
175 198 0
174 197 0
175 198 0
174 198 0
175 197 0
175 198 0
175 198 0
174 198 0
175 198 0
172 197 0
174 198 0
174 197 0
175 198 0
173 197 0
174 198 0
173 197 0
176 198 0
172 196 0
176 199 0
175 198 0
175 198 0
175 198 0
176 199 0
174 196 0
173 196 0
173 197 0
175 198 0
174 197 0
172 197 0
174 198 0
175 198 0
174 198 0
175 198 0
175 198 0
174 197 0
177 199 0
174 198 0
174 197 0
174 197 0
173 197 0
174 198 0
175 198 0
174 198 0
174 198 0
172 197 0
174 198 0
173 197 0
174 198 0
174 197 0
175 198 0
176 199 0
174 198 0
175 198 0
174 197 0
176 198 0
174 198 0
174 198 0
174 197 0
175 198 0
171 196 0
173 197 0
174 197 0
174 198 0
175 198 0
176 199 0
176 198 0
175 198 0
172 196 0
173 197 0
174 198 0
176 198 0
172 197 0
173 197 0
175 198 0
174 197 0
176 199 0
173 197 0
175 198 0
176 199 0
175 198 0
175 198 0
173 197 0
174 198 0
174 198 0
175 198 0
174 198 0
174 197 0
174 198 0
175 198 0
174 198 0
176 199 0
175 198 0
173 197 0
174 198 0
174 198 0
175 198 0
175 198 0
173 197 0
174 198 0
175 198 0
175 198 0
175 198 0
174 198 0
173 197 0
175 198 0
174 198 0
175 198 0
173 197 0
174 197 0
173 197 0
176 198 0
175 198 0
174 197 0
173 197 0
174 197 0
176 199 0
174 198 0
176 199 0
174 197 0
177 199 0
176 199 0
173 197 0
173 197 0
176 199 0
177 199 0
173 197 0
173 197 0
175 198 0
175 198 0
176 199 0
174 198 0
174 198 0
173 197 0
176 199 0
174 197 0
174 198 0
174 197 0
174 198 0
176 199 0
173 197 0
175 198 0
172 197 0
175 198 0
173 197 0
174 197 0
174 198 0
177 199 0
176 199 0
175 198 0
174 198 0
172 197 0
174 197 0
172 197 0
177 199 0
174 197 0
173 197 0
176 199 0
175 198 0
175 198 0
176 199 0
174 197 0
175 198 0
172 197 0
173 197 0
174 198 0
173 197 0
176 199 0
173 197 0
177 199 0
177 199 0
174 198 0
173 197 0
175 198 0
174 198 0
174 198 0
177 199 0
174 197 0
176 198 0
173 197 0
174 198 0
175 198 0
174 197 0
174 198 0
174 198 0
175 198 0
174 198 0
173 197 0
175 198 0
174 198 0
173 197 0
173 197 0
175 198 0
176 198 0
173 197 0
173 197 0
176 199 0
175 198 0
174 198 0
176 199 0
175 198 0
174 198 0
175 198 0
176 199 0
174 198 0
176 198 0
177 199 0
175 198 0
174 198 0
173 197 0
175 198 0
172 197 0
174 197 0
174 198 0
173 197 0
173 197 0
173 197 0
174 197 0
176 199 0
176 199 0
176 198 0
176 199 0
174 198 0
176 199 0
174 198 0
173 196 0
174 197 0
174 198 0
173 197 0
174 198 0
175 198 0
175 198 0
175 198 0
174 198 0
174 198 0
174 197 0
175 198 0
174 198 0
175 198 0
175 198 0
174 197 0
174 196 0
173 197 0
174 197 0
174 197 0
174 197 0
174 198 0
175 198 0
176 199 0
173 197 0
173 197 0
175 198 0
174 197 0
174 198 0
174 197 0
173 197 0
174 197 0
176 199 0
175 198 0
176 198 0
174 198 0
174 198 0
174 197 0
173 197 0
174 198 0
175 198 0
174 197 0
174 198 0
176 199 0
174 198 0
174 196 0
175 198 0
175 198 0
174 198 0
173 197 0
177 199 0
176 198 0
174 198 0
175 198 0
174 198 0
175 198 0
173 197 0
172 197 0
174 198 0
176 198 0
172 196 0
174 197 0
175 198 0
174 197 0
176 198 0
175 198 0
173 197 0
175 198 0
172 197 0
173 197 0
173 197 0
173 197 0
172 195 0
173 197 0
176 198 0
173 197 0
175 198 0
174 197 0
175 198 0
174 197 0
173 197 0
175 198 0
174 197 0
173 196 0
173 196 0
174 197 0
174 198 0
172 197 0
174 197 0
174 197 0
173 197 0
175 198 0
170 195 0
174 198 0
174 197 0
175 198 0
174 197 0
176 198 0
173 196 0
175 198 0
176 199 0
175 198 0
175 198 0
174 197 0
176 199 0
175 198 0
177 199 0
173 197 0
175 198 0
174 197 0
175 198 0
174 197 0
174 198 0
173 197 0
173 196 0
174 195 0
175 198 0
174 197 0
172 196 0
173 197 0
173 196 0
170 193 0
173 197 0
173 197 0
175 198 0
174 198 0
175 198 0
174 198 0
173 197 0
173 197 0
172 197 0
173 197 0
172 196 0
175 197 0
174 196 0
175 198 0
175 198 0
176 199 0
175 198 0
173 196 0
176 198 0
173 197 0
174 197 0
174 197 0
175 198 0
175 198 0
171 195 0
175 198 0
175 198 0
172 196 0
172 197 0
174 198 0
177 199 0
176 199 0
175 198 0
174 198 0
177 199 0
173 197 0
177 199 0
175 198 0
174 197 0
173 197 0
175 198 0
174 198 0
174 198 0
173 197 0
174 197 0
175 198 0
176 199 0
175 198 0
175 198 0
175 198 0
175 198 0
176 199 0
175 198 0
174 197 0
174 197 0
173 196 0
173 197 0
173 197 0
175 198 0
172 196 0
173 197 0
173 197 0
173 197 0
176 198 0
175 198 0
175 198 0
173 196 0
173 196 0
175 198 0
174 198 0
173 197 0
175 198 0
175 198 0
177 199 0
176 198 0
173 196 0
174 197 0
174 198 0
174 197 0
174 197 0
176 199 0
173 197 0
174 197 0
174 198 0
173 197 0
172 197 0
172 197 0
172 196 0
175 198 0
176 198 0
174 197 0
175 198 0
176 198 0
172 197 0
175 198 0
174 197 0
174 197 0
174 197 0
173 197 0
175 198 0
175 198 0
172 197 0
175 198 0
175 198 0
175 198 0
174 198 0
174 197 0
175 198 0
174 198 0
174 196 0
175 198 0
173 197 0
175 197 0
176 198 0
174 197 0
172 197 0
174 198 0
175 198 0
174 197 0
173 197 0
174 197 0
175 198 0
174 198 0
173 197 0
172 196 0
176 199 0
173 197 0
173 197 0
175 198 0
174 197 0
176 199 0
175 198 0
174 198 0
175 198 0
171 196 0
175 198 0
174 197 0
175 198 0
173 196 0
174 197 0
173 197 0
175 198 0
173 197 0
176 199 0
175 198 0
173 197 0
175 198 0
173 197 0
174 198 0
174 198 0
173 197 0
174 198 0
175 198 0
174 198 0
175 198 0
176 198 0
175 198 0
177 199 0
174 197 0
173 197 0
175 198 0
175 198 0
174 198 0
176 198 0
173 197 0
174 198 0
173 197 0
174 198 0
173 197 0
175 198 0
175 198 0
176 199 0
173 197 0
175 198 0
174 198 0
175 198 0
175 198 0
176 199 0
175 198 0
173 196 0
174 198 0
173 197 0
173 197 0
172 197 0
175 198 0
176 199 0
173 197 0
174 197 0
174 198 0
175 198 0
174 198 0
175 198 0
175 198 0
175 198 0
176 199 0
175 198 0
174 198 0
175 198 0
174 197 0
175 198 0
175 198 0
174 198 0
175 198 0
174 198 0
176 199 0
174 198 0
175 198 0
175 198 0
175 198 0
175 198 0
174 198 0
173 197 0
175 198 0
174 198 0
175 198 0
176 199 0
174 198 0
176 198 0
175 198 0
174 197 0
175 198 0
174 197 0
176 198 0
176 198 0
177 199 0
174 198 0
175 198 0
174 198 0
173 197 0
176 199 0
175 198 0
174 197 0
172 197 0
174 198 0
173 197 0
176 199 0
175 198 0
176 199 0
176 199 0
178 200 0
172 196 0
176 199 0
175 198 0
174 197 0
175 198 0
173 197 0
176 199 0
171 196 0
175 198 0
178 200 0
175 198 0
173 197 0
176 199 0
173 197 0
176 198 0
174 197 0
174 198 0
175 198 0
176 199 0
173 197 0
173 197 0
175 198 0
175 198 0
175 198 0
173 197 0
176 199 0
177 199 0
177 199 0
175 198 0
173 197 0
171 196 0
175 198 0
176 199 0
177 199 0
175 198 0
175 198 0
175 198 0
174 198 0
175 198 0
174 198 0
174 198 0
175 198 0
173 197 0
174 198 0
176 199 0
175 198 0
174 198 0
174 198 0
176 199 0
174 197 0
174 198 0
174 198 0
171 196 0
174 198 0
174 198 0
176 198 0
173 197 0
176 199 0
177 199 0
175 198 0
172 197 0
174 197 0
175 198 0
175 198 0
174 198 0
174 198 0
174 197 0
174 197 0
175 198 0
176 199 0
175 198 0
175 198 0
175 198 0
174 198 0
175 198 0
177 199 0
175 198 0
174 198 0
176 199 0
175 198 0
173 197 0
174 198 0
175 198 0
175 198 0
176 197 0
174 198 0
174 198 0
173 197 0
175 198 0
178 199 0
174 196 0
175 198 0
173 197 0
174 198 0
174 197 0
170 196 0
174 196 0
175 198 0
175 198 0
176 199 0
174 198 0
175 198 0
174 197 0
174 196 0
176 198 0
173 197 0
173 197 0
176 199 0
175 198 0
172 197 0
175 198 0
173 197 0
173 197 0
174 198 0
172 196 0
174 198 0
174 197 0
175 198 0
175 198 0
176 198 0
175 198 0
174 198 0
174 198 0
174 198 0
174 197 0
174 198 0
173 197 0
174 198 0
175 198 0
174 197 0
173 197 0
176 199 0
173 197 0
174 198 0
174 198 0
173 197 0
173 197 0
173 197 0
173 197 0
175 198 0
173 196 0
174 198 0
174 197 0
174 198 0
175 198 0
174 198 0
176 198 0
174 198 0
173 196 0
174 198 0
175 198 0
174 197 0
174 195 0
174 198 0
175 198 0
174 198 0
176 197 0
175 198 0
174 197 0
175 198 0
173 196 0
174 198 0
173 196 0
173 197 0
174 198 0
173 197 0
173 195 0
174 197 0
173 197 0
174 198 0
172 196 0
175 198 0
172 195 0
174 198 0
174 198 0
175 198 0
174 198 0
173 197 0
176 197 0
176 199 0
175 198 0
176 199 0
175 198 0
174 197 0
175 198 0
175 198 0
175 198 0
174 197 0
174 198 0
173 197 0
175 198 0
174 198 0
173 197 0
174 198 0
172 196 0
174 197 0
176 198 0
172 194 0
173 197 0
174 198 0
174 198 0
174 198 0
176 198 0
173 197 0
174 198 0
171 195 0
175 198 0
173 197 0
173 197 0
176 199 0
174 198 0
174 198 0
175 198 0
175 198 0
173 197 0
174 198 0
175 198 0
173 197 0
173 197 0
173 197 0
173 197 0
172 196 0
174 197 0
178 198 0
173 197 0
174 197 0
175 198 0
173 197 0
173 197 0
173 197 0
174 198 0
173 197 0
176 199 0
176 199 0
175 198 0
173 197 0
175 198 0
176 199 0
172 197 0
175 198 0
176 198 0
175 198 0
174 198 0
173 197 0
175 198 0
175 198 0
174 198 0
174 198 0
174 197 0
176 199 0
176 198 0
172 197 0
173 197 0
171 196 0
174 197 0
173 196 0
175 198 0
173 196 0
175 198 0
173 197 0
174 198 0
175 198 0
173 197 0
174 198 0
174 197 0
174 198 0
175 198 0
175 198 0
174 197 0
174 198 0
173 197 0
174 198 0
175 198 0
174 198 0
175 198 0
174 198 0
173 197 0
173 197 0
174 197 0
174 198 0
173 197 0
172 197 0
173 197 0
174 198 0
176 199 0
173 197 0
175 198 0
175 198 0
176 199 0
175 198 0
176 199 0
173 197 0
174 197 0
173 197 0
175 198 0
175 198 0
173 197 0
173 197 0
173 197 0
177 199 0
173 197 0
174 197 0
173 197 0
172 197 0
176 199 0
176 199 0
173 197 0
175 198 0
176 199 0
177 199 0
172 197 0
174 197 0
176 198 0
176 198 0
175 198 0
175 198 0
174 198 0
175 198 0
176 199 0
173 197 0
178 200 0
175 198 0
173 197 0
175 198 0
174 198 0
175 198 0
172 197 0
178 199 0
173 197 0
176 199 0
173 197 0
172 197 0
176 198 0
175 198 0
174 198 0
173 197 0
174 198 0
174 198 0
174 197 0
176 199 0
173 197 0
175 198 0
173 197 0
176 199 0
174 197 0
175 198 0
175 198 0
175 198 0
178 199 0
174 198 0
176 198 0
174 198 0
173 197 0
173 197 0
171 196 0
175 198 0
171 196 0
175 198 0
174 198 0
174 197 0
176 198 0
175 198 0
176 199 0
172 197 0
177 199 0
175 198 0
173 197 0
173 197 0
173 197 0
174 197 0
174 198 0
174 198 0
175 198 0
175 198 0
176 198 0
174 198 0
174 198 0
175 198 0
175 198 0
173 197 0
173 197 0
174 198 0
174 198 0
175 198 0
173 197 0
174 198 0
174 198 0
173 197 0
173 197 0
175 198 0
175 198 0
176 199 0
175 198 0
173 197 0
173 197 0
175 198 0
173 196 0
175 198 0
174 197 0
173 197 0
175 198 0
174 198 0
174 198 0
173 197 0
173 197 0
172 197 0
173 197 0
172 197 0
175 198 0
174 197 0
173 197 0
175 198 0
174 197 0
174 198 0
174 196 0
173 197 0
174 197 0
176 199 0
173 197 0
174 198 0
173 197 0
175 198 0
176 198 0
175 198 0
173 197 0
173 197 0
176 198 0
175 198 0
174 198 0
174 198 0
172 197 0
175 198 0
173 197 0
173 197 0
174 198 0
173 197 0
174 198 0
175 198 0
175 198 0
176 199 0
172 197 0
176 199 0
172 197 0
175 198 0
174 198 0
175 198 0
175 198 0
177 199 0
175 198 0
176 199 0
174 198 0
175 198 0
173 197 0
175 198 0
176 198 0
174 198 0
176 199 0
173 197 0
175 198 0
175 198 0
172 197 0
175 198 0
172 197 0
174 198 0
175 198 0
175 198 0
175 198 0
175 198 0
175 198 0
174 197 0
176 199 0
175 198 0
174 197 0
173 197 0
175 198 0
174 198 0
175 198 0
174 197 0
174 198 0
174 198 0
173 197 0
174 197 0
173 197 0
172 196 0
176 199 0
173 197 0
175 198 0
175 197 0
175 198 0
174 197 0
177 199 0
174 198 0
176 198 0
174 198 0
175 198 0
175 198 0
175 198 0
174 198 0
174 198 0
175 198 0
175 198 0
177 199 0
173 197 0
173 196 0
173 197 0
173 196 0
175 198 0
173 197 0
173 197 0
174 198 0
172 197 0
173 197 0
175 198 0
175 198 0
175 198 0
174 198 0
173 196 0
173 197 0
176 197 0
175 198 0
176 199 0
175 198 0
174 198 0
176 199 0
174 197 0
175 198 0
177 199 0
172 197 0
176 198 0
174 198 0
175 198 0
173 197 0
175 198 0
173 197 0
172 196 0
172 197 0
176 199 0
174 198 0
175 198 0
174 198 0
176 198 0
174 197 0
174 198 0
175 198 0
174 198 0
174 198 0
172 197 0
175 198 0
174 198 0
173 197 0
174 197 0
176 199 0
173 197 0
177 199 0
173 196 0
172 197 0
176 198 0
176 199 0
173 197 0
173 197 0
175 198 0
174 196 0
174 198 0
173 197 0
175 198 0
174 198 0
177 199 0
173 197 0
173 197 0
176 199 0
175 198 0
175 198 0
173 197 0
173 197 0
175 197 0
174 197 0
174 197 0
173 197 0
173 197 0
174 198 0
175 198 0
174 195 0
174 197 0
175 198 0
173 196 0
174 198 0
173 197 0
176 199 0
172 197 0
176 199 0
175 198 0
175 198 0
176 199 0
173 197 0
173 197 0
176 198 0
175 198 0
174 196 0
176 198 0
175 198 0
174 197 0
173 197 0
175 198 0
173 197 0
172 196 0
175 198 0
173 197 0
173 197 0
173 197 0
174 197 0
174 197 0
175 198 0
174 197 0
174 198 0
175 197 0
175 198 0
173 197 0
174 198 0
173 197 0
172 197 0
173 197 0
175 198 0
175 198 0
173 197 0
174 198 0
174 198 0
175 197 0
172 196 0
175 198 0
176 198 0
176 198 0
173 197 0
174 198 0
175 198 0
175 198 0
175 197 0
176 198 0
173 197 0
174 198 0
175 198 0
178 200 0
175 198 0
172 196 0
175 198 0
174 198 0
174 197 0
177 199 0
171 195 0
172 197 0
174 197 0
175 198 0
174 198 0
174 198 0
174 198 0
173 197 0
174 196 0
174 197 0
175 198 0
174 197 0
175 198 0
173 196 0
174 198 0
173 197 0
174 197 0
172 197 0
176 199 0
173 197 0
174 198 0
173 197 0
175 198 0
173 197 0
174 198 0
175 198 0
175 198 0
175 198 0
177 199 0
175 198 0
175 198 0
176 197 0
175 198 0
175 198 0
174 198 0
174 198 0
176 198 0
176 198 0
174 198 0
174 197 0
173 197 0
174 197 0
172 196 0
173 197 0
173 197 0
175 198 0
175 198 0
173 197 0
176 199 0
174 197 0
174 197 0
175 198 0
176 197 0
174 198 0
173 197 0
175 198 0
173 197 0
175 198 0
175 198 0
174 198 0
174 198 0
176 199 0
175 198 0
178 200 0
174 197 0
176 198 0
175 198 0
173 197 0
173 197 0
173 197 0
175 198 0
174 197 0
174 198 0
174 197 0
174 198 0
174 198 0
175 198 0
174 198 0
175 198 0
174 198 0
173 197 0
174 198 0
175 198 0
174 198 0
175 198 0
172 197 0
174 198 0
174 198 0
177 199 0
174 198 0
173 197 0
172 196 0
175 198 0
175 198 0
175 198 0
176 198 0
173 197 0
174 198 0
173 197 0
172 197 0
174 197 0
171 196 0
177 199 0
174 197 0
174 197 0
174 198 0
175 198 0
175 198 0
174 198 0
175 198 0
176 199 0
174 198 0
175 198 0
172 197 0
174 197 0
174 198 0
175 198 0
172 197 0
173 197 0
173 197 0
174 197 0
174 197 0
175 198 0
175 198 0
173 197 0
173 197 0
176 199 0
174 197 0
173 197 0
175 198 0
174 197 0
175 198 0
176 199 0
174 198 0
172 197 0
177 199 0
175 198 0
175 198 0
175 198 0
175 198 0
176 199 0
174 198 0
172 196 0
174 198 0
175 198 0
174 198 0
173 197 0
173 197 0
174 198 0
175 198 0
172 196 0
173 197 0
173 197 0
174 198 0
173 197 0
175 198 0
176 199 0
176 199 0
173 197 0
175 198 0
176 198 0
173 197 0
173 197 0
173 197 0
174 197 0
172 197 0
178 200 0
175 198 0
173 197 0
174 198 0
175 198 0
176 199 0
173 197 0
173 197 0
174 198 0
175 198 0
176 199 0
175 198 0
173 197 0
175 198 0
174 198 0
174 198 0
174 198 0
174 197 0
174 197 0
173 197 0
172 196 0
174 198 0
173 197 0
175 198 0
174 198 0
175 198 0
174 198 0
175 198 0
178 200 0
175 198 0
174 198 0
174 198 0
174 197 0
174 198 0
175 198 0
174 198 0
176 198 0
176 198 0
175 198 0
176 199 0
172 196 0
173 197 0
174 198 0
174 197 0
175 198 0
174 198 0
174 198 0
172 196 0
173 197 0
173 197 0
174 198 0
174 196 0
172 196 0
175 198 0
173 197 0
172 196 0
173 197 0
174 197 0
174 198 0
174 197 0
173 197 0
176 199 0
174 198 0
171 196 0
174 198 0
174 197 0
175 198 0
174 196 0
175 198 0
174 198 0
174 198 0
175 198 0
176 199 0
173 197 0
175 198 0
173 197 0
176 199 0
173 197 0
174 198 0
174 198 0
174 198 0
173 197 0
174 198 0
173 197 0
173 197 0
173 197 0
176 199 0
174 198 0
173 196 0
174 197 0
175 198 0
176 199 0
175 198 0
174 198 0
173 196 0
174 197 0
174 197 0
174 198 0
176 199 0
175 198 0
174 196 0
174 197 0
173 197 0
175 198 0
175 198 0
175 198 0
174 197 0
175 198 0
174 197 0
173 197 0
173 197 0
175 198 0
175 198 0
175 198 0
175 197 0
174 198 0
172 196 0
177 199 0
176 199 0
174 197 0
175 198 0
174 197 0
175 198 0
175 198 0
173 197 0
174 197 0
174 198 0
173 197 0
173 197 0
174 198 0
176 199 0
173 197 0
174 198 0
174 197 0
174 198 0
175 198 0
176 199 0
172 197 0
175 198 0
175 198 0
174 198 0
172 195 0
175 198 0
171 196 0
175 197 0
173 197 0
172 196 0
172 197 0
177 199 0
174 197 0
175 198 0
174 198 0
172 197 0
175 198 0
172 197 0
175 198 0
176 199 0
175 198 0
174 197 0
173 197 0
176 198 0
175 198 0
174 198 0
175 198 0
176 198 0
173 197 0
176 198 0
176 199 0
173 197 0
173 197 0
175 198 0
174 197 0
175 198 0
174 196 0
174 197 0
175 198 0
177 199 0
174 198 0
173 197 0
176 199 0
173 196 0
175 198 0
174 198 0
174 197 0
173 197 0
173 197 0
172 195 0
173 197 0
173 197 0
173 197 0
176 199 0
177 199 0
174 197 0
174 198 0
175 198 0
175 198 0
175 198 0
176 199 0
173 197 0
174 197 0
175 198 0
172 196 0
172 196 0
174 198 0
174 198 0
174 197 0
173 197 0
174 198 0
175 198 0
174 196 0
173 197 0
175 198 0
174 197 0
176 199 0
175 198 0
174 197 0
174 197 0
175 198 0
173 197 0
172 196 0
174 197 0
174 198 0
174 198 0
174 198 0
175 198 0
175 198 0
178 200 0
174 197 0
173 197 0
175 198 0
173 197 0
174 197 0
175 198 0
174 197 0
176 198 0
175 198 0
173 197 0
174 197 0
173 197 0
173 197 0
175 198 0
174 198 0
175 198 0
173 197 0
175 198 0
174 198 0
174 197 0
173 197 0
173 197 0
176 198 0
172 196 0
174 197 0
176 199 0
173 197 0
174 198 0
175 198 0
173 197 0
174 198 0
176 198 0
175 198 0
174 198 0
173 197 0
174 197 0
176 199 0
174 197 0
175 198 0
175 198 0
174 198 0
174 197 0
174 198 0
174 198 0
176 198 0
176 199 0
175 198 0
175 198 0
172 197 0
175 198 0
174 198 0
174 198 0
172 196 0
175 198 0
173 197 0
173 197 0
175 198 0
175 198 0
175 198 0
174 198 0
174 198 0
174 198 0
176 199 0
174 197 0
175 198 0
173 197 0
176 198 0
175 198 0
173 197 0
175 198 0
174 197 0
175 198 0
175 198 0
175 198 0
174 197 0
175 198 0
174 198 0
175 198 0
173 197 0
175 198 0
175 198 0
173 197 0
175 198 0
175 198 0
176 199 0
174 198 0
173 197 0
174 198 0
174 198 0
174 198 0
175 198 0
175 198 0
175 198 0
175 198 0
174 197 0
172 197 0
175 198 0
174 198 0
177 199 0
175 198 0
174 198 0
176 199 0
175 198 0
175 198 0
175 198 0
175 198 0
175 198 0
174 198 0
175 198 0
177 199 0
175 198 0
174 198 0
175 198 0
176 199 0
173 197 0
175 198 0
174 197 0
174 197 0
176 198 0
174 198 0
177 199 0
176 198 0
174 198 0
176 199 0
177 199 0
176 199 0
175 198 0
174 198 0
172 197 0
174 198 0
174 198 0
175 198 0
175 198 0
171 196 0
173 197 0
176 198 0
174 198 0
175 198 0
176 199 0
174 198 0
175 198 0
175 198 0
175 198 0
175 198 0
175 198 0
173 197 0
176 199 0
175 198 0
176 198 0
174 198 0
173 197 0
174 198 0
173 197 0
176 199 0
174 197 0
174 198 0
174 198 0
173 197 0
173 197 0
174 198 0
172 197 0
174 197 0
173 197 0
173 197 0
175 198 0
175 198 0
173 197 0
173 197 0
176 199 0
175 198 0
175 198 0
174 197 0
174 198 0
174 197 0
175 198 0
175 198 0
173 197 0
175 198 0
174 198 0
174 197 0
174 198 0
178 199 0
174 198 0
173 197 0
175 198 0
176 199 0
175 198 0
174 198 0
172 196 0
176 199 0
172 197 0
173 197 0
173 197 0
172 197 0
175 198 0
175 198 0
174 197 0
177 199 0
176 198 0
174 198 0
173 197 0
176 198 0
178 200 0
174 198 0
174 198 0
172 196 0
176 198 0
176 199 0
173 197 0
175 198 0
174 198 0
174 198 0
172 197 0
175 198 0
176 198 0
174 198 0
175 198 0
174 198 0
173 197 0
174 198 0
173 197 0
174 198 0
176 198 0
175 198 0
174 198 0
176 199 0
176 198 0
174 197 0
173 197 0
171 195 0
174 198 0
175 198 0
173 197 0
174 197 0
173 197 0
175 198 0
175 198 0
175 197 0
174 198 0
176 199 0
174 198 0
174 197 0
175 198 0
174 197 0
171 195 0
174 198 0
177 199 0
174 197 0
176 199 0
176 199 0
174 197 0
175 197 0
174 198 0
175 198 0
173 197 0
174 198 0
174 198 0
174 198 0
176 198 0
174 197 0
171 195 0
175 198 0
174 198 0
174 198 0
174 198 0
176 199 0
175 198 0
175 198 0
174 198 0
174 198 0
176 199 0
173 197 0
174 198 0
175 198 0
173 197 0
177 199 0
175 198 0
177 199 0
175 198 0
175 198 0
174 197 0
175 198 0
173 197 0
173 197 0
174 197 0
174 197 0
174 197 0
175 197 0
173 197 0
175 198 0
175 198 0
173 197 0
172 197 0
175 198 0
173 197 0
175 198 0
176 199 0
173 197 0
175 198 0
176 199 0
175 198 0
177 199 0
175 198 0
175 198 0
176 199 0
172 197 0
176 199 0
177 199 0
175 198 0
172 197 0
175 198 0
172 196 0
174 197 0
175 198 0
175 198 0
173 197 0
175 198 0
174 198 0
175 198 0
175 198 0
174 197 0
175 197 0
175 198 0
174 198 0
175 197 0
173 197 0
174 197 0
173 197 0
172 197 0
175 198 0
174 197 0
175 198 0
174 198 0
172 196 0
173 197 0
174 198 0
175 198 0
174 198 0
173 197 0
175 198 0
175 198 0
175 198 0
172 196 0
175 198 0
176 199 0
174 198 0
172 197 0
177 199 0
173 197 0
173 197 0
177 199 0
174 197 0
175 198 0
174 197 0
175 198 0
174 198 0
176 198 0
174 198 0
174 198 0
176 198 0
174 197 0
174 198 0
174 198 0
176 199 0
173 197 0
174 197 0
175 198 0
174 197 0
174 198 0
176 199 0
173 197 0
174 198 0
174 198 0
174 198 0
174 196 0
176 199 0
175 198 0
174 197 0
175 196 0
173 196 0
175 198 0
175 198 0
174 198 0
177 199 0
175 198 0
176 199 0
174 198 0
174 198 0
173 197 0
174 197 0
174 197 0
176 199 0
176 199 0
175 198 0
176 199 0
176 199 0
177 199 0
175 198 0
175 197 0
173 197 0
175 198 0
171 196 0
176 199 0
173 197 0
174 198 0
173 197 0
174 198 0
177 199 0
173 196 0
174 196 0
174 198 0
174 197 0
173 197 0
173 197 0
172 196 0
175 198 0
173 197 0
175 198 0
175 198 0
173 197 0
174 198 0
174 198 0
176 199 0
175 198 0
174 198 0
176 199 0
173 196 0
175 198 0
176 199 0
174 198 0
175 198 0
175 198 0
174 198 0
175 198 0
175 198 0
175 198 0
175 198 0
173 197 0
173 197 0
175 198 0
174 198 0
173 197 0
174 198 0
175 198 0
175 198 0
174 197 0
173 196 0
174 198 0
174 198 0
174 197 0
177 199 0
176 199 0
176 199 0
176 199 0
172 196 0
175 198 0
173 197 0
175 198 0
173 197 0
175 198 0
173 197 0
173 197 0
176 198 0
174 198 0
172 197 0
174 197 0
174 198 0
176 199 0
176 198 0
174 197 0
176 199 0
173 197 0
173 197 0
175 198 0
174 198 0
177 199 0
175 198 0
175 198 0
175 198 0
174 198 0
175 198 0
173 197 0
173 197 0
173 197 0
177 199 0
174 198 0
172 197 0
173 197 0
175 198 0
175 198 0
174 198 0
174 197 0
176 199 0
175 198 0
173 197 0
174 197 0
174 198 0
173 197 0
173 197 0
176 198 0
175 198 0
175 198 0
173 197 0
171 196 0
172 197 0
177 199 0
172 197 0
174 197 0
178 199 0
174 198 0
173 197 0
175 198 0
173 197 0
175 198 0
175 198 0
173 197 0
174 198 0
176 198 0
172 196 0
173 197 0
174 198 0
175 198 0
174 197 0
175 198 0
176 199 0
175 198 0
176 198 0
176 199 0
175 198 0
173 197 0
174 197 0
175 198 0
175 198 0
173 197 0
175 198 0
172 196 0
172 197 0
172 197 0
174 198 0
174 198 0
174 198 0
173 197 0
174 197 0
173 197 0
173 197 0
175 198 0
172 197 0
176 199 0
172 197 0
173 197 0
174 198 0
175 198 0
177 199 0
175 198 0
174 198 0
175 198 0
174 198 0
175 198 0
174 197 0
174 198 0
174 197 0
174 198 0
173 197 0
175 198 0
173 197 0
174 197 0
177 199 0
173 197 0
173 197 0
175 198 0
174 198 0
174 198 0
173 197 0
172 196 0
173 197 0
174 198 0
176 198 0
173 197 0
172 197 0
177 199 0
173 197 0
176 198 0
176 199 0
173 197 0
175 198 0
173 197 0
173 197 0
173 197 0
174 197 0
173 197 0
173 197 0
175 198 0
175 198 0
174 198 0
171 195 0
173 197 0
174 198 0
177 199 0
174 198 0
173 197 0
173 196 0
174 197 0
175 198 0
175 198 0
176 199 0
174 197 0
176 199 0
174 198 0
176 199 0
176 199 0
174 198 0
174 197 0
176 198 0
174 197 0
175 198 0
174 197 0
173 197 0
175 198 0
174 198 0
174 197 0
174 198 0
176 198 0
173 197 0
174 198 0
177 199 0
171 196 0
175 198 0
174 197 0
174 198 0
175 198 0
174 198 0
176 199 0
174 198 0
179 200 0
174 198 0
176 199 0
174 197 0
176 199 0
173 197 0
174 198 0
174 198 0
175 198 0
173 197 0
174 198 0
174 198 0
174 198 0
173 197 0
174 198 0
172 197 0
174 198 0
174 197 0
173 197 0
173 196 0
173 197 0
177 199 0
175 198 0
174 198 0
172 196 0
174 198 0
174 198 0
172 197 0
175 198 0
173 197 0
173 196 0
174 198 0
174 197 0
174 198 0
175 198 0
172 197 0
173 197 0
173 196 0
175 198 0
175 198 0
175 198 0
178 199 0
174 197 0
174 198 0
171 196 0
174 198 0
176 198 0
173 197 0
175 198 0
174 198 0
174 196 0
175 198 0
172 197 0
174 197 0
176 197 0
175 198 0
174 198 0
175 198 0
175 198 0
175 198 0
172 197 0
172 196 0
174 197 0
175 198 0
175 198 0
175 198 0
175 198 0
175 198 0
174 198 0
172 197 0
173 197 0
173 197 0
173 197 0
175 198 0
174 198 0
172 196 0
174 197 0
173 196 0
175 198 0
175 198 0
174 198 0
174 197 0
174 198 0
174 198 0
175 198 0
174 197 0
173 197 0
175 198 0
173 197 0
176 199 0
175 198 0
172 194 0
172 197 0
175 197 0
174 197 0
174 198 0
171 195 0
175 198 0
175 198 0
175 198 0
175 198 0
176 199 0
171 196 0
175 198 0
175 198 0
174 198 0
177 199 0
177 199 0
172 196 0
176 198 0
176 198 0
174 197 0
175 198 0
174 198 0
174 197 0
173 197 0
174 198 0
174 197 0
173 197 0
175 198 0
173 197 0
175 198 0
174 197 0
175 198 0
173 197 0
174 197 0
175 198 0
173 197 0
172 196 0
174 197 0
175 198 0
176 199 0
171 196 0
175 198 0
174 197 0
174 197 0
174 198 0
175 198 0
175 198 0
173 197 0
175 198 0
175 198 0
175 198 0
175 198 0
174 197 0
173 197 0
173 197 0
174 198 0
174 197 0
176 199 0
173 197 0
176 199 0
175 198 0
173 197 0
176 199 0
174 197 0
174 196 0
175 198 0
175 198 0
175 198 0
174 197 0
174 197 0
172 197 0
173 197 0
174 197 0
173 197 0
174 198 0
176 199 0
174 197 0
175 198 0
174 197 0
174 197 0
175 198 0
174 198 0
174 198 0
175 198 0
172 196 0
175 198 0
174 198 0
176 199 0
174 198 0
172 197 0
175 198 0
174 198 0
172 196 0
175 198 0
175 198 0
173 197 0
173 197 0
173 197 0
171 196 0
175 198 0
174 198 0
173 197 0
174 197 0
173 197 0
173 197 0
175 198 0
173 197 0
175 198 0
175 198 0
174 198 0
175 198 0
175 198 0
175 198 0
174 198 0
172 196 0
175 198 0
176 199 0
173 197 0
174 198 0
173 197 0
171 196 0
174 198 0
174 197 0
173 197 0
174 198 0
174 197 0
176 198 0
176 199 0
173 197 0
176 199 0
177 199 0
175 198 0
174 198 0
175 198 0
174 197 0
173 197 0
175 198 0
175 198 0
174 197 0
173 197 0
173 196 0
174 198 0
174 197 0
173 197 0
173 197 0
173 197 0
176 198 0
174 197 0
174 198 0
175 198 0
174 198 0
175 198 0
173 197 0
176 199 0
174 198 0
173 197 0
176 198 0
176 199 0
175 198 0
174 198 0
174 198 0
174 198 0
175 198 0
174 198 0
175 198 0
174 198 0
172 197 0
175 198 0
175 198 0
171 196 0
173 197 0
173 197 0
174 198 0
174 197 0
178 200 0
176 199 0
173 197 0
173 197 0
175 198 0
176 198 0
174 198 0
173 197 0
175 198 0
176 198 0
174 198 0
172 197 0
175 198 0
172 197 0
176 198 0
176 199 0
174 198 0
172 197 0
174 198 0
174 198 0
174 198 0
173 197 0
173 197 0
176 199 0
173 197 0
176 199 0
174 197 0
177 199 0
173 197 0
174 197 0
174 198 0
175 198 0
172 197 0
175 198 0
174 197 0
174 198 0
174 198 0
177 199 0
173 197 0
174 198 0
174 198 0
175 198 0
175 198 0
175 198 0
174 198 0
175 198 0
174 198 0
175 198 0
174 198 0
173 197 0
173 197 0
177 199 0
173 197 0
176 198 0
176 199 0
174 198 0
175 198 0
173 197 0
173 197 0
173 197 0
175 198 0
175 198 0
176 198 0
172 197 0
176 199 0
174 198 0
175 198 0
176 199 0
174 197 0
176 199 0
174 197 0
173 197 0
175 198 0
174 198 0
174 197 0
176 198 0
173 197 0
174 197 0
176 199 0
176 199 0
176 199 0
177 199 0
174 198 0
174 198 0
175 198 0
174 197 0
172 197 0
173 197 0
174 198 0
173 197 0
176 198 0
174 198 0
175 198 0
171 196 0
174 197 0
176 198 0
173 197 0
174 198 0
175 198 0
175 198 0
175 198 0
174 198 0
173 197 0
176 199 0
174 198 0
174 197 0
178 200 0
175 198 0
173 197 0
174 198 0
174 198 0
175 198 0
175 198 0
175 198 0
173 197 0
176 199 0
173 197 0
174 198 0
174 198 0
174 197 0
176 199 0
174 198 0
173 197 0
175 198 0
175 198 0
172 197 0
175 198 0
176 198 0
175 198 0
174 197 0
173 197 0
176 198 0
175 198 0
175 197 0
174 197 0
173 197 0
177 199 0
175 198 0
173 197 0
176 199 0
174 198 0
177 199 0
176 199 0
173 197 0
173 197 0
175 198 0
176 198 0
174 196 0
174 198 0
175 198 0
175 198 0
176 199 0
175 198 0
174 198 0
174 198 0
174 198 0
175 198 0
176 199 0
176 199 0
173 197 0
174 198 0
174 198 0
172 197 0
175 198 0
176 199 0
174 198 0
177 199 0
175 198 0
174 198 0
174 198 0
175 198 0
174 198 0
173 197 0
174 198 0
174 198 0
175 198 0
173 196 0
175 198 0
175 198 0
174 198 0
176 199 0
174 198 0
173 197 0
172 197 0
173 197 0
174 197 0
175 198 0
177 199 0
174 198 0
174 197 0
175 198 0
174 198 0
174 198 0
174 198 0
172 196 0
175 198 0
174 198 0
173 197 0
175 198 0
173 197 0
175 198 0
173 197 0
174 198 0
174 198 0
175 198 0
175 198 0
173 197 0
175 198 0
172 196 0
174 198 0
174 197 0
173 196 0
174 198 0
173 197 0
174 198 0
174 198 0
174 197 0
174 198 0
174 198 0
173 197 0
174 198 0
175 198 0
174 198 0
173 197 0
173 197 0
175 198 0
174 198 0
174 197 0
174 198 0
173 197 0
175 198 0
176 198 0
173 197 0
176 198 0
174 198 0
174 197 0
173 197 0
174 198 0
171 195 0
172 195 0
175 198 0
175 198 0
175 198 0
175 198 0
175 198 0
173 197 0
176 198 0
172 197 0
173 196 0
174 198 0
176 198 0
174 198 0
174 198 0
176 198 0
174 197 0
174 196 0
176 199 0
174 197 0
175 198 0
174 197 0
176 197 0
172 196 0
174 198 0
173 197 0
175 198 0
177 199 0
173 197 0
173 197 0
174 198 0
173 197 0
175 198 0
173 197 0
174 198 0
175 198 0
174 198 0
175 198 0
176 199 0
176 198 0
174 197 0
175 198 0
174 197 0
175 198 0
174 198 0
175 198 0
173 197 0
175 198 0
176 198 0
175 198 0
175 198 0
173 197 0
175 198 0
175 198 0
176 199 0
174 197 0
173 197 0
175 198 0
176 199 0
176 199 0
176 199 0
175 198 0
172 196 0
177 199 0
175 198 0
175 198 0
172 196 0
174 197 0
174 198 0
173 197 0
175 198 0
174 197 0
174 198 0
173 197 0
174 198 0
175 198 0
173 197 0
174 198 0
173 197 0
173 196 0
175 198 0
174 197 0
174 198 0
173 197 0
175 198 0
176 199 0
173 197 0
176 199 0
174 197 0
174 198 0
174 198 0
177 199 0
174 197 0
173 197 0
174 198 0
174 198 0
173 197 0
174 198 0
175 198 0
173 197 0
175 198 0
173 197 0
174 198 0
173 197 0
172 196 0
173 197 0
175 198 0
176 198 0
174 198 0
173 197 0
175 198 0
173 197 0
175 198 0
174 198 0
175 198 0
176 198 0
174 197 0
174 197 0
176 198 0
174 198 0
173 197 0
173 197 0
175 198 0
173 197 0
175 198 0
173 197 0
175 198 0
176 199 0
173 197 0
175 198 0
174 198 0
174 197 0
173 197 0
173 197 0
174 198 0
175 198 0
175 198 0
174 198 0
173 196 0
175 198 0
174 198 0
173 197 0
175 198 0
174 197 0
175 198 0
175 198 0
174 198 0
173 197 0
173 197 0
174 198 0
174 198 0
176 199 0
174 197 0
172 196 0
176 198 0
174 198 0
176 199 0
172 196 0
173 197 0
177 199 0
175 198 0
175 198 0
173 197 0
175 198 0
174 198 0
174 198 0
174 197 0
177 199 0
173 197 0
173 197 0
174 198 0
174 197 0
174 198 0
175 198 0
176 198 0
176 199 0
174 197 0
175 198 0
173 197 0
177 199 0
172 197 0
173 197 0
175 198 0
175 198 0
173 197 0
175 198 0
175 198 0
174 198 0
174 198 0
174 198 0
174 198 0
174 198 0
177 199 0
175 198 0
172 197 0
172 197 0
175 198 0
174 197 0
174 198 0
175 198 0
174 197 0
175 198 0
176 198 0
175 198 0
173 197 0
172 196 0
174 197 0
173 197 0
175 198 0
174 197 0
173 197 0
175 198 0
174 198 0
177 199 0
172 196 0
174 197 0
175 198 0
175 198 0
176 199 0
175 198 0
175 198 0
173 197 0
175 198 0
174 197 0
174 198 0
171 196 0
174 198 0
173 197 0
174 198 0
174 197 0
175 198 0
175 198 0
174 198 0
176 199 0
176 198 0
173 197 0
171 196 0
175 198 0
174 198 0
172 197 0
174 198 0
178 199 0
176 199 0
175 198 0
175 198 0
174 198 0
173 197 0
174 198 0
174 198 0
171 196 0
172 197 0
177 199 0
176 199 0
175 198 0
175 198 0
175 198 0
173 197 0
174 198 0
172 196 0
172 197 0
176 199 0
172 197 0
175 198 0
174 197 0
176 198 0
173 197 0
175 198 0
174 198 0
171 196 0
174 197 0
178 200 0
172 197 0
173 197 0
174 198 0
174 197 0
176 198 0
174 198 0
173 197 0
172 196 0
174 197 0
175 198 0
174 198 0
174 198 0
174 197 0
174 197 0
174 198 0
174 197 0
174 197 0
174 197 0
172 197 0
176 198 0
174 198 0
174 198 0
175 198 0
174 198 0
177 199 0
172 195 0
174 197 0
176 199 0
178 200 0
176 199 0
175 198 0
172 197 0
174 197 0
175 198 0
175 198 0
174 197 0
176 199 0
174 197 0
175 198 0
172 197 0
174 198 0
173 197 0
174 198 0
177 199 0
174 197 0
173 197 0
176 199 0
174 196 0
173 196 0
174 197 0
175 198 0
174 198 0
174 198 0
175 198 0
175 198 0
175 198 0
174 198 0
175 198 0
173 197 0
176 199 0
177 199 0
175 198 0
174 196 0
174 198 0
174 197 0
177 199 0
175 198 0
175 198 0
176 199 0
174 198 0
174 197 0
172 197 0
176 199 0
174 197 0
175 198 0
175 198 0
175 198 0
174 198 0
175 198 0
175 198 0
175 198 0
174 198 0
174 197 0
174 198 0
173 197 0
174 198 0
175 198 0
175 198 0
173 197 0
173 197 0
178 199 0
174 198 0
176 198 0
176 199 0
174 198 0
175 198 0
174 198 0
174 197 0
173 197 0
178 200 0
175 198 0
175 198 0
176 199 0
176 197 0
175 198 0
174 196 0
172 196 0
174 197 0
173 197 0
176 199 0
172 197 0
171 196 0
174 198 0
175 198 0
174 198 0
175 198 0
175 198 0
173 196 0
172 195 0
175 198 0
174 198 0
174 197 0
175 198 0
175 198 0
173 197 0
173 196 0
174 198 0
173 197 0
174 197 0
174 198 0
174 197 0
174 197 0
173 197 0
172 197 0
174 197 0
176 199 0
174 198 0
172 196 0
175 198 0
174 197 0
172 197 0
179 200 0
175 198 0
171 196 0
175 198 0
175 198 0
174 198 0
174 197 0
174 198 0
173 197 0
171 196 0
173 197 0
173 196 0
172 196 0
174 197 0
173 197 0
171 196 0
173 197 0
173 196 0
174 198 0
174 197 0
175 198 0
176 199 0
171 196 0
174 197 0
175 198 0
174 198 0
171 196 0
174 198 0
174 198 0
173 197 0
174 196 0
173 197 0
174 198 0
175 198 0
177 199 0
174 198 0
173 197 0
176 199 0
173 197 0
176 199 0
174 197 0
175 198 0
176 199 0
175 198 0
176 199 0
174 198 0
175 198 0
175 198 0
173 197 0
175 198 0
173 197 0
174 198 0
175 198 0
175 198 0
176 198 0
174 197 0
175 198 0
175 198 0
174 198 0
175 198 0
174 197 0
175 198 0
174 197 0
177 199 0
174 198 0
174 198 0
176 199 0
175 198 0
173 197 0
174 198 0
175 198 0
175 198 0
174 197 0
174 198 0
174 197 0
175 198 0
174 198 0
173 197 0
174 198 0
174 198 0
172 197 0
176 199 0
173 197 0
173 197 0
171 196 0
172 196 0
178 199 0
176 199 0
174 197 0
172 196 0
173 196 0
174 197 0
175 198 0
173 197 0
174 198 0
174 198 0
176 199 0
175 198 0
175 198 0
176 199 0
175 198 0
175 198 0
176 198 0
176 198 0
173 197 0
176 199 0
171 196 0
177 199 0
172 197 0
175 198 0
176 199 0
175 198 0
174 197 0
175 198 0
173 197 0
172 197 0
176 199 0
176 198 0
176 199 0
174 198 0
173 197 0
175 198 0
173 197 0
174 198 0
175 198 0
176 199 0
173 197 0
172 196 0
174 198 0
175 198 0
176 198 0
174 197 0
175 198 0
175 198 0
174 198 0
176 199 0
176 199 0
173 197 0
173 197 0
175 198 0
175 198 0
174 198 0
176 198 0
176 199 0
174 198 0
175 198 0
173 197 0
175 198 0
174 198 0
177 199 0
178 200 0
173 197 0
173 197 0
176 199 0
174 197 0
173 197 0
175 198 0
175 198 0
175 198 0
174 198 0
176 198 0
175 198 0
177 199 0
173 197 0
175 198 0
176 198 0
175 198 0
175 198 0
174 198 0
175 198 0
175 198 0
174 198 0
172 196 0
176 199 0
173 197 0
173 197 0
174 198 0
174 198 0
173 197 0
174 198 0
175 198 0
175 198 0
172 197 0
174 198 0
172 196 0
175 198 0
173 197 0
176 199 0
175 198 0
175 198 0
176 199 0
174 198 0
173 197 0
174 197 0
176 199 0
173 197 0
173 197 0
173 197 0
174 197 0
177 199 0
175 198 0
178 199 0
176 199 0
174 198 0
175 198 0
175 198 0
174 198 0
174 198 0
176 199 0
174 197 0
173 197 0
172 197 0
175 198 0
175 198 0
176 198 0
175 198 0
173 197 0
175 198 0
175 198 0
178 200 0
175 198 0
174 198 0
177 199 0
175 198 0
173 197 0
175 198 0
174 198 0
175 198 0
177 199 0
175 198 0
173 197 0
174 197 0
174 198 0
176 199 0
174 197 0
174 198 0
173 197 0
174 198 0
174 198 0
173 197 0
176 199 0
172 197 0
174 198 0
176 199 0
172 197 0
175 198 0
175 198 0
176 198 0
174 198 0
175 198 0
175 198 0
175 198 0
173 197 0
174 198 0
176 199 0
174 198 0
173 197 0
176 199 0
175 198 0
172 196 0
175 198 0
174 197 0
175 198 0
174 197 0
173 197 0
174 198 0
177 199 0
174 197 0
173 196 0
177 199 0
176 198 0
174 198 0
175 198 0
175 198 0
175 198 0
174 197 0
174 198 0
175 198 0
175 198 0
173 197 0
175 198 0
174 198 0
174 198 0
172 197 0
174 198 0
176 199 0
174 198 0
174 198 0
174 198 0
175 198 0
173 197 0
175 198 0
176 199 0
175 198 0
175 198 0
174 197 0
173 197 0
173 197 0
174 198 0
176 197 0
176 197 0
173 197 0
175 198 0
174 197 0
174 197 0
174 197 0
176 198 0
174 198 0
174 198 0
175 198 0
172 197 0
174 197 0
174 198 0
175 197 0
175 198 0
174 197 0
174 198 0
175 198 0
173 197 0
175 198 0
175 198 0
174 197 0
176 198 0
175 198 0
174 198 0
177 199 0
176 199 0
175 198 0
173 196 0
176 199 0
178 200 0
175 198 0
174 198 0
174 198 0
174 198 0
175 198 0
174 198 0
173 197 0
175 198 0
175 198 0
175 198 0
174 198 0
175 198 0
173 197 0
172 197 0
174 197 0
173 197 0
173 196 0
175 198 0
174 198 0
171 196 0
174 197 0
174 197 0
174 198 0
173 197 0
174 197 0
174 197 0
177 199 0
176 199 0
173 197 0
175 198 0
175 197 0
175 198 0
174 198 0
174 198 0
175 198 0
175 198 0
175 198 0
174 197 0
175 198 0
172 197 0
174 198 0
175 198 0
174 198 0
172 196 0
173 197 0
176 197 0
171 196 0
176 199 0
175 198 0
173 197 0
175 198 0
175 198 0
175 197 0
177 199 0
175 198 0
175 198 0
175 198 0
175 198 0
176 198 0
173 197 0
173 196 0
175 198 0
174 198 0
177 199 0
172 197 0
174 197 0
175 197 0
175 198 0
175 198 0
173 197 0
174 198 0
173 195 0
174 198 0
173 197 0
175 198 0
175 198 0
175 198 0
176 199 0
175 198 0
170 195 0
175 198 0
173 197 0
173 197 0
174 197 0
175 198 0
174 196 0
173 196 0
176 199 0
175 198 0
173 197 0
174 198 0
172 196 0
175 198 0
174 198 0
176 199 0
174 197 0
174 197 0
175 198 0
175 198 0
173 197 0
174 198 0
173 197 0
173 197 0
175 198 0
174 198 0
172 197 0
174 198 0
176 199 0
174 197 0
173 197 0
176 199 0
174 197 0
175 198 0
175 198 0
177 199 0
176 199 0
174 198 0
174 198 0
177 199 0
174 197 0
174 197 0
174 197 0
174 197 0
173 197 0
173 197 0
173 197 0
176 199 0
175 198 0
174 198 0
174 197 0
175 198 0
172 197 0
173 197 0
175 198 0
175 198 0
175 198 0
174 197 0
174 198 0
176 199 0
172 197 0
175 198 0
176 199 0
174 197 0
173 196 0
175 198 0
178 199 0
170 195 0
175 198 0
175 198 0
174 198 0
174 198 0
174 196 0
175 198 0
174 197 0
175 198 0
175 198 0
175 198 0
173 197 0
171 195 0
175 198 0
176 199 0
175 198 0
173 197 0
174 198 0
175 198 0
173 197 0
172 197 0
175 198 0
174 198 0
175 198 0
173 197 0
173 197 0
174 198 0
173 197 0
176 199 0
175 197 0
173 197 0
173 197 0
171 196 0
175 198 0
175 198 0
174 198 0
175 198 0
173 197 0
174 197 0
175 198 0
173 197 0
176 199 0
174 198 0
174 198 0
174 198 0
173 197 0
173 197 0
174 197 0
174 198 0
174 197 0
175 198 0
172 197 0
173 197 0
176 199 0
174 197 0
172 197 0
174 198 0
174 197 0
175 198 0
176 199 0
173 197 0
175 198 0
175 198 0
174 197 0
176 199 0
174 197 0
176 199 0
174 197 0
176 199 0
174 197 0
171 196 0
173 197 0
175 198 0
174 198 0
174 197 0
177 199 0
174 198 0
175 198 0
174 198 0
175 198 0
174 197 0
174 197 0
173 197 0
174 198 0
175 198 0
176 199 0
174 198 0
174 197 0
174 198 0
175 198 0
173 197 0
172 197 0
174 197 0
173 197 0
175 198 0
173 197 0
174 197 0
174 198 0
176 198 0
174 198 0
174 198 0
174 198 0
174 198 0
174 198 0
174 197 0
174 198 0
175 198 0
175 198 0
172 197 0
175 198 0
175 198 0
174 198 0
176 198 0
175 198 0
173 197 0
178 199 0
173 197 0
174 197 0
172 197 0
176 199 0
173 197 0
176 198 0
172 197 0
173 197 0
175 198 0
174 197 0
174 197 0
175 198 0
174 198 0
173 197 0
174 198 0
173 197 0
175 198 0
176 198 0
175 198 0
176 199 0
176 198 0
174 198 0
172 197 0
176 199 0
177 199 0
175 198 0
174 197 0
175 198 0
174 198 0
173 197 0
173 197 0
177 199 0
174 198 0
174 197 0
175 198 0
173 197 0
177 199 0
177 199 0
176 199 0
174 197 0
172 196 0
177 199 0
173 197 0
174 197 0
174 198 0
174 197 0
172 197 0
175 198 0
171 196 0
173 197 0
174 198 0
174 198 0
176 199 0
175 198 0
175 198 0
174 198 0
173 197 0
177 199 0
176 198 0
175 198 0
177 199 0
174 198 0
173 197 0
173 197 0
176 199 0
174 198 0
176 199 0
174 198 0
175 198 0
176 199 0
174 198 0
173 197 0
175 198 0
178 200 0
173 197 0
175 198 0
177 199 0
174 198 0
174 197 0
175 198 0
174 197 0
174 198 0
175 198 0
174 198 0
174 198 0
174 197 0
174 198 0
175 198 0
174 197 0
174 197 0
175 198 0
173 197 0
175 198 0
172 197 0
175 198 0
172 197 0
173 197 0
174 198 0
173 196 0
176 198 0
175 198 0
175 198 0
173 197 0
173 197 0
174 198 0
175 198 0
174 198 0
173 196 0
175 198 0
174 198 0
174 198 0
175 198 0
175 198 0
175 198 0
175 198 0
174 198 0
174 197 0
175 198 0
175 198 0
173 196 0
174 197 0
175 198 0
176 199 0
174 198 0
174 197 0
175 198 0
174 197 0
176 199 0
175 198 0
174 198 0
175 198 0
173 197 0
174 198 0
175 198 0
173 197 0
175 198 0
173 197 0
173 197 0
176 199 0
173 197 0
175 198 0
173 197 0
175 198 0
176 197 0
174 198 0
173 197 0
174 198 0
175 198 0
175 198 0
170 195 0
175 198 0
173 197 0
177 199 0
174 198 0
175 198 0
175 198 0
175 198 0
173 197 0
173 197 0
175 198 0
173 197 0
177 199 0
175 198 0
174 197 0
174 197 0
173 197 0
174 197 0
173 197 0
175 198 0
174 197 0
174 198 0
177 199 0
173 197 0
175 198 0
175 198 0
176 199 0
173 197 0
177 199 0
174 198 0
173 197 0
174 197 0
177 199 0
174 198 0
175 198 0
174 198 0
174 198 0
174 197 0
175 198 0
177 199 0
174 197 0
174 198 0
175 198 0
174 198 0
175 198 0
176 198 0
174 197 0
177 199 0
176 199 0
174 197 0
172 196 0
173 197 0
173 197 0
175 198 0
174 198 0
176 198 0
173 196 0
173 197 0
174 198 0
176 199 0
175 198 0
173 197 0
173 197 0
176 199 0
172 196 0
174 198 0
174 197 0
175 198 0
175 198 0
173 197 0
175 198 0
175 198 0
174 198 0
175 198 0
174 198 0
175 198 0
175 198 0
175 198 0
174 198 0
175 198 0
173 197 0
176 199 0
175 198 0
176 198 0
176 199 0
173 197 0
175 198 0
175 198 0
174 197 0
174 197 0
174 198 0
173 197 0
173 197 0
175 198 0
173 197 0
175 198 0
175 198 0
176 199 0
174 198 0
173 197 0
173 197 0
175 198 0
175 198 0
174 198 0
175 198 0
173 196 0
176 199 0
173 197 0
173 197 0
173 197 0
173 197 0
174 197 0
173 197 0
175 198 0
173 197 0
174 198 0
173 197 0
172 197 0
174 198 0
175 198 0
177 199 0
174 198 0
174 198 0
176 199 0
171 196 0
173 197 0
173 197 0
175 198 0
173 197 0
176 198 0
176 199 0
175 198 0
174 197 0
175 198 0
174 198 0
178 200 0
174 196 0
173 197 0
173 196 0
175 198 0
175 198 0
176 198 0
175 198 0
172 197 0
176 199 0
175 198 0
176 199 0
177 199 0
175 198 0
172 197 0
174 197 0
173 197 0
174 198 0
173 197 0
176 199 0
176 199 0
177 199 0
173 197 0
175 198 0
177 199 0
174 198 0
173 197 0
174 198 0
175 198 0
174 197 0
174 197 0
176 199 0
175 198 0
174 197 0
176 199 0
174 198 0
174 198 0
173 197 0
177 199 0
173 197 0
174 198 0
173 197 0
173 197 0
174 197 0
176 199 0
175 198 0
174 198 0
173 197 0
176 199 0
173 197 0
173 197 0
176 199 0
175 198 0
174 198 0
177 199 0
174 198 0
174 198 0
175 198 0
176 199 0
175 198 0
176 199 0
174 197 0
174 197 0
174 198 0
176 199 0
174 197 0
173 197 0
177 199 0
174 198 0
174 198 0
173 197 0
174 198 0
173 197 0
174 197 0
175 197 0
176 199 0
173 197 0
175 198 0
174 197 0
178 200 0
174 197 0
177 199 0
174 198 0
176 199 0
173 197 0
176 199 0
173 197 0
176 199 0
175 198 0
173 197 0
174 197 0
172 197 0
174 198 0
174 198 0
175 198 0
175 198 0
176 198 0
175 198 0
176 199 0
174 198 0
175 198 0
173 197 0
175 198 0
174 198 0
173 197 0
176 198 0
173 197 0
175 198 0
176 198 0
173 197 0
174 198 0
176 199 0
175 198 0
174 198 0
175 198 0
175 198 0
175 198 0
174 197 0
174 198 0
175 198 0
175 198 0
172 196 0
176 199 0
174 198 0
174 198 0
176 199 0
176 199 0
175 198 0
173 197 0
173 197 0
175 198 0
174 198 0
175 198 0
176 199 0
174 197 0
175 198 0
176 198 0
175 198 0
177 199 0
175 198 0
174 197 0
175 198 0
174 198 0
174 198 0
174 198 0
176 199 0
176 199 0
176 198 0
174 198 0
173 197 0
173 197 0
174 198 0
175 198 0
174 198 0
175 198 0
177 199 0
175 198 0
175 198 0
176 199 0
174 198 0
174 198 0
174 197 0
175 197 0
173 197 0
176 199 0
174 197 0
173 197 0
176 199 0
174 198 0
176 198 0
176 199 0
173 197 0
176 199 0
177 199 0
174 197 0
175 198 0
174 198 0
175 198 0
173 197 0
173 197 0
176 199 0
173 197 0
174 198 0
173 197 0
173 197 0
173 197 0
173 197 0
174 198 0
175 198 0
174 197 0
174 198 0
175 198 0
175 198 0
173 197 0
173 197 0
175 198 0
175 198 0
175 198 0
174 198 0
175 198 0
174 198 0
176 199 0
175 198 0
175 198 0
175 198 0
176 199 0
174 197 0
175 198 0
175 198 0
175 198 0
174 198 0
173 197 0
174 198 0
176 199 0
173 197 0
174 198 0
174 198 0
174 198 0
175 198 0
173 197 0
173 197 0
175 198 0
173 197 0
174 198 0
174 198 0
173 197 0
174 197 0
174 197 0
176 199 0
173 197 0
175 198 0
176 199 0
172 196 0
173 197 0
174 198 0
175 198 0
174 198 0
175 198 0
176 198 0
172 197 0
173 197 0
175 198 0
174 198 0
175 198 0
176 198 0
175 198 0
174 198 0
172 196 0
173 196 0
174 198 0
175 198 0
172 197 0
176 199 0
176 199 0
175 198 0
175 198 0
171 195 0
173 197 0
175 198 0
174 197 0
174 198 0
171 195 0
174 197 0
176 199 0
176 199 0
176 199 0
175 198 0
173 196 0
175 198 0
175 198 0
175 198 0
175 197 0
173 197 0
175 198 0
175 198 0
174 197 0
173 196 0
176 199 0
176 198 0
175 198 0
175 198 0
173 197 0
174 198 0
174 198 0
174 197 0
173 197 0
173 197 0
175 198 0
175 198 0
172 196 0
173 197 0
174 195 0
174 198 0
174 197 0
173 197 0
175 198 0
173 197 0
177 199 0
175 198 0
175 198 0
175 197 0
174 198 0
174 198 0
172 197 0
172 196 0
172 196 0
172 196 0
174 198 0
176 199 0
172 197 0
175 198 0
176 199 0
175 198 0
175 197 0
173 197 0
175 198 0
173 197 0
176 199 0
175 198 0
173 197 0
176 198 0
175 198 0
174 198 0
173 197 0
176 199 0
173 197 0
175 198 0
174 197 0
174 197 0
174 198 0
175 198 0
174 198 0
175 198 0
174 197 0
174 198 0
174 196 0
173 196 0
172 196 0
176 199 0
174 197 0
174 198 0
173 197 0
174 198 0
173 197 0
173 197 0
174 197 0
174 198 0
177 199 0
175 198 0
175 198 0
173 197 0
173 197 0
175 198 0
174 197 0
175 198 0
175 197 0
174 198 0
174 197 0
176 198 0
178 200 0
175 198 0
175 198 0
174 196 0
174 198 0
175 198 0
174 198 0
175 198 0
176 199 0
174 197 0
172 197 0
176 199 0
172 196 0
174 198 0
170 196 0
176 198 0
175 198 0
173 197 0
174 198 0
174 198 0
173 197 0
173 197 0
176 198 0
176 198 0
173 197 0
174 197 0
175 198 0
173 197 0
173 197 0
173 197 0
176 199 0
175 198 0
174 197 0
175 198 0
174 197 0
177 199 0
174 198 0
174 198 0
175 198 0
175 198 0
174 197 0
174 198 0
176 199 0
176 198 0
176 198 0
176 198 0
176 199 0
177 199 0
175 198 0
174 196 0
175 198 0
175 198 0
176 199 0
175 198 0
173 197 0
173 197 0
174 198 0
174 197 0
174 198 0
174 198 0
174 198 0
174 198 0
174 198 0
173 197 0
174 197 0
172 196 0
173 197 0
176 199 0
173 197 0
176 198 0
175 198 0
174 197 0
173 197 0
173 197 0
174 198 0
174 197 0
176 199 0
174 198 0
173 197 0
174 197 0
173 197 0
175 198 0
174 197 0
170 195 0
175 198 0
173 197 0
175 198 0
173 197 0
174 197 0
174 198 0
175 198 0
173 197 0
175 198 0
175 198 0
173 197 0
173 197 0
174 198 0
177 199 0
174 197 0
172 196 0
174 198 0
172 197 0
174 198 0
173 197 0
174 197 0
172 197 0
172 197 0
177 199 0
173 197 0
176 199 0
176 198 0
173 197 0
173 197 0
173 197 0
176 199 0
174 198 0
175 198 0
175 198 0
174 197 0
174 198 0
175 198 0
173 197 0
176 199 0
175 198 0
174 198 0
174 197 0
175 198 0
176 199 0
174 198 0
176 199 0
175 198 0
177 199 0
173 197 0
175 198 0
175 198 0
175 198 0
173 197 0
173 197 0
174 198 0
175 198 0
174 198 0
177 199 0
174 198 0
174 197 0
173 197 0
175 198 0
173 197 0
172 197 0
177 199 0
174 198 0
174 197 0
174 197 0
173 197 0
175 198 0
174 197 0
174 197 0
172 197 0
175 198 0
173 197 0
173 197 0
172 196 0
172 197 0
173 197 0
173 197 0
173 197 0
174 197 0
174 198 0
176 199 0
176 199 0
174 197 0
174 198 0
173 197 0
175 198 0
176 199 0
174 198 0
176 198 0
175 198 0
175 197 0
176 199 0
175 198 0
175 198 0
175 198 0
174 198 0
174 198 0
176 199 0
176 199 0
176 198 0
174 198 0
173 197 0
174 198 0
176 199 0
174 198 0
174 198 0
176 199 0
174 198 0
175 198 0
173 197 0
177 199 0
175 198 0
174 198 0
175 198 0
172 197 0
175 198 0
175 198 0
173 197 0
175 198 0
175 198 0
175 198 0
175 198 0
176 199 0
174 198 0
175 198 0
174 198 0
172 197 0
175 198 0
175 198 0
172 196 0
173 197 0
175 198 0
174 198 0
175 198 0
172 197 0
173 197 0
175 198 0
174 198 0
173 197 0
172 197 0
173 197 0
173 197 0
176 198 0
173 197 0
175 197 0
175 198 0
174 198 0
174 198 0
177 199 0
177 199 0
176 199 0
172 196 0
175 198 0
174 197 0
174 198 0
173 197 0
174 198 0
173 197 0
173 197 0
171 196 0
172 196 0
177 199 0
176 198 0
173 197 0
174 198 0
173 197 0
174 198 0
173 197 0
174 198 0
176 198 0
176 199 0
174 198 0
175 198 0
174 197 0
174 198 0
173 197 0
172 197 0
173 197 0
175 198 0
175 198 0
174 197 0
175 198 0
174 198 0
176 199 0
174 198 0
175 198 0
174 198 0
173 197 0
176 199 0
174 195 0
175 198 0
173 197 0
175 198 0
176 199 0
175 198 0
175 198 0
173 197 0
174 197 0
175 198 0
174 197 0
174 196 0
175 197 0
174 198 0
174 198 0
173 196 0
175 198 0
176 198 0
175 198 0
175 198 0
175 198 0
175 198 0
175 198 0
174 196 0
174 198 0
176 199 0
175 198 0
173 197 0
174 197 0
175 198 0
174 198 0
175 198 0
176 199 0
173 197 0
173 197 0
175 198 0
174 198 0
175 198 0
173 197 0
174 198 0
175 198 0
172 197 0
175 198 0
174 198 0
175 198 0
175 198 0
174 197 0
174 198 0
173 197 0
174 197 0
175 198 0
175 198 0
173 196 0
176 199 0
175 197 0
174 197 0
175 198 0
173 197 0
176 199 0
174 198 0
172 196 0
175 198 0
174 198 0
175 198 0
175 198 0
173 197 0
173 197 0
176 198 0
173 197 0
174 198 0
174 197 0
173 197 0
173 197 0
175 198 0
176 198 0
174 198 0
175 198 0
174 198 0
174 198 0
174 196 0
176 199 0
175 198 0
174 198 0
175 197 0
175 198 0
171 196 0
173 197 0
176 199 0
174 198 0
174 197 0
174 198 0
172 196 0
174 198 0
175 198 0
174 198 0
176 199 0
174 197 0
174 197 0
174 198 0
174 198 0
176 197 0
174 198 0
174 198 0
175 198 0
174 197 0
175 198 0
172 197 0
172 197 0
173 197 0
175 198 0
173 197 0
173 197 0
171 195 0
174 197 0
176 198 0
174 198 0
174 198 0
175 197 0
174 198 0
175 198 0
172 196 0
174 198 0
173 197 0
173 197 0
175 198 0
176 198 0
172 195 0
174 198 0
175 198 0
174 197 0
174 198 0
174 197 0
174 197 0
177 199 0
175 198 0
175 198 0
176 198 0
173 197 0
175 198 0
174 197 0
172 195 0
174 198 0
176 199 0
174 198 0
176 199 0
175 198 0
172 197 0
175 198 0
173 197 0
173 197 0
174 198 0
175 198 0
173 197 0
174 197 0
175 198 0
175 198 0
175 198 0
173 197 0
173 197 0
176 199 0
175 198 0
177 199 0
174 198 0
175 198 0
173 197 0
176 199 0
174 198 0
174 198 0
174 198 0
175 198 0
174 198 0
178 200 0
174 198 0
173 197 0
174 198 0
175 198 0
173 197 0
173 197 0
172 197 0
174 196 0
173 197 0
175 198 0
173 197 0
174 198 0
176 199 0
175 198 0
174 197 0
175 198 0
173 197 0
175 198 0
173 197 0
175 198 0
176 198 0
175 198 0
174 198 0
174 197 0
174 198 0
176 199 0
176 199 0
177 199 0
175 198 0
174 198 0
175 198 0
176 199 0
174 198 0
174 198 0
174 198 0
175 198 0
174 198 0
173 197 0
175 198 0
174 197 0
174 197 0
177 199 0
176 198 0
176 198 0
175 198 0
174 198 0
175 198 0
176 199 0
174 197 0
173 197 0
176 199 0
174 198 0
174 197 0
175 198 0
175 198 0
172 197 0
176 199 0
174 198 0
176 199 0
176 199 0
174 197 0
175 198 0
174 198 0
176 199 0
174 198 0
174 198 0
175 198 0
177 199 0
174 197 0
172 197 0
176 199 0
176 199 0
172 197 0
174 198 0
175 198 0
175 198 0
173 197 0
173 197 0
173 197 0
174 198 0
175 198 0
176 199 0
174 198 0
174 197 0
171 196 0
174 198 0
175 198 0
174 198 0
177 199 0
176 199 0
175 198 0
173 197 0
174 198 0
176 199 0
172 196 0
175 198 0
172 196 0
173 197 0
174 197 0
174 197 0
174 198 0
172 197 0
175 198 0
174 197 0
174 197 0
175 198 0
173 197 0
174 197 0
173 197 0
173 197 0
174 198 0
177 199 0
174 197 0
172 197 0
174 197 0
174 198 0
176 199 0
173 197 0
177 199 0
177 199 0
175 198 0
175 198 0
175 198 0
175 198 0
175 198 0
172 196 0
173 197 0
175 198 0
175 198 0
174 197 0
175 198 0
176 198 0
173 197 0
177 199 0
173 197 0
173 197 0
174 198 0
173 197 0
175 198 0
175 198 0
175 198 0
175 198 0
175 198 0
176 199 0
174 198 0
176 199 0
176 199 0
173 197 0
174 198 0
174 197 0
172 196 0
175 198 0
176 199 0
175 198 0
176 199 0
174 198 0
172 197 0
172 197 0
175 198 0
173 197 0
176 199 0
177 199 0
175 198 0
173 197 0
175 198 0
174 198 0
174 198 0
174 198 0
173 197 0
173 197 0
176 198 0
176 199 0
175 198 0
175 198 0
174 197 0
174 198 0
173 197 0
173 197 0
175 198 0
175 198 0
174 197 0
174 198 0
174 198 0
174 198 0
173 197 0
175 198 0
173 197 0
174 197 0
171 195 0
174 198 0
173 197 0
175 198 0
176 199 0
174 197 0
173 196 0
176 199 0
176 199 0
175 198 0
173 197 0
174 197 0
174 198 0
174 198 0
174 198 0
174 198 0
174 198 0
175 198 0
173 196 0
178 200 0
175 198 0
173 197 0
174 198 0
177 199 0
174 198 0
171 196 0
173 197 0
174 198 0
173 197 0
174 197 0
173 197 0
174 197 0
171 195 0
174 198 0
175 198 0
176 199 0
175 198 0
175 198 0
175 198 0
174 197 0
174 198 0
175 198 0
173 197 0
175 198 0
175 198 0
176 199 0
174 197 0
176 199 0
172 197 0
172 197 0
175 198 0
171 196 0
174 198 0
174 197 0
174 198 0
175 198 0
173 197 0
176 199 0
175 198 0
176 198 0
174 197 0
173 197 0
175 198 0
175 198 0
174 198 0
175 198 0
174 197 0
176 197 0
173 197 0
173 197 0
172 196 0
173 197 0
174 198 0
173 197 0
173 197 0
173 197 0
174 196 0
174 198 0
174 196 0
173 197 0
171 196 0
174 198 0
173 197 0
176 198 0
175 198 0
173 197 0
173 197 0
173 197 0
176 199 0
174 198 0
174 198 0
177 199 0
174 197 0
174 198 0
174 198 0
175 198 0
173 197 0
175 197 0
175 198 0
175 198 0
175 198 0
175 198 0
177 199 0
173 197 0
173 197 0
175 198 0
176 199 0
172 196 0
174 198 0
173 197 0
170 194 0
173 196 0
175 198 0
174 198 0
175 198 0
174 198 0
176 199 0
174 197 0
174 198 0
176 199 0
174 198 0
176 199 0
174 198 0
173 197 0
173 197 0
175 197 0
175 197 0
173 197 0
173 197 0
176 199 0
174 198 0
174 197 0
174 197 0
173 197 0
174 198 0
172 196 0
173 197 0
175 198 0
175 198 0
176 199 0
174 197 0
173 197 0
174 197 0
172 197 0
175 197 0
176 199 0
173 197 0
173 197 0
176 198 0
172 197 0
175 198 0
175 198 0
175 198 0
174 198 0
174 198 0
175 198 0
174 197 0
175 198 0
174 198 0
175 198 0
175 198 0
176 197 0
174 197 0
175 198 0
175 198 0
172 196 0
173 197 0
174 198 0
174 197 0
175 198 0
175 198 0
174 198 0
175 198 0
176 198 0
174 197 0
174 198 0
176 199 0
175 198 0
174 198 0
175 198 0
175 198 0
174 198 0
175 198 0
175 198 0
175 198 0
176 199 0
175 198 0
173 197 0
173 197 0
174 196 0
173 197 0
174 197 0
175 198 0
174 197 0
174 198 0
173 197 0
174 198 0
177 199 0
176 199 0
175 198 0
174 198 0
174 198 0
174 198 0
172 197 0
175 198 0
173 197 0
174 197 0
173 197 0
173 197 0
174 197 0
174 196 0
175 198 0
173 197 0
176 199 0
175 198 0
173 197 0
172 196 0
174 198 0
173 197 0
174 197 0
175 198 0
173 197 0
176 199 0
176 199 0
174 197 0
174 198 0
174 198 0
176 198 0
175 198 0
176 199 0
174 198 0
174 198 0
174 197 0
175 198 0
176 198 0
174 198 0
173 196 0
173 197 0
174 197 0
172 197 0
174 198 0
175 198 0
175 198 0
175 198 0
174 198 0
173 197 0
176 199 0
175 198 0
174 198 0
175 198 0
172 197 0
173 197 0
173 197 0
175 198 0
172 196 0
173 197 0
173 196 0
173 197 0
174 197 0
175 198 0
173 197 0
172 196 0
173 197 0
174 198 0
173 197 0
174 198 0
174 198 0
174 197 0
175 198 0
175 198 0
175 198 0
174 197 0
174 198 0
175 198 0
174 198 0
175 198 0
177 199 0
175 198 0
174 198 0
175 198 0
173 197 0
175 198 0
174 197 0
174 198 0
174 198 0
175 198 0
174 198 0
174 198 0
177 199 0
173 197 0
172 196 0
175 198 0
175 198 0
175 198 0
175 198 0
173 197 0
171 196 0
176 199 0
174 198 0
174 198 0
175 198 0
176 199 0
173 197 0
172 196 0
178 199 0
172 197 0
174 197 0
176 199 0
176 199 0
175 198 0
173 197 0
175 198 0
173 197 0
176 199 0
175 198 0
174 198 0
174 198 0
175 198 0
173 197 0
174 198 0
173 197 0
173 197 0
174 198 0
178 200 0
174 198 0
175 198 0
175 198 0
174 198 0
175 198 0
173 197 0
172 196 0
173 197 0
172 197 0
174 198 0
174 198 0
174 197 0
175 198 0
175 198 0
174 198 0
173 197 0
176 199 0
174 198 0
176 198 0
174 197 0
173 197 0
176 199 0
174 198 0
174 198 0
175 198 0
173 197 0
176 198 0
176 199 0
173 197 0
175 198 0
175 198 0
173 197 0
177 199 0
176 198 0
174 198 0
174 197 0
176 199 0
176 199 0
175 198 0
174 198 0
175 198 0
174 197 0
177 199 0
175 198 0
174 198 0
172 197 0
172 197 0
176 199 0
175 198 0
176 199 0
174 198 0
173 197 0
175 198 0
173 197 0
171 195 0
174 198 0
176 199 0
173 197 0
173 197 0
175 198 0
173 197 0
177 199 0
173 197 0
174 198 0
174 198 0
176 198 0
175 197 0
175 198 0
175 198 0
176 199 0
172 197 0
175 198 0
173 197 0
176 199 0
174 198 0
173 197 0
173 197 0
172 197 0
175 197 0
175 198 0
173 197 0
174 198 0
175 198 0
173 197 0
175 198 0
174 198 0
172 197 0
173 197 0
172 197 0
175 197 0
172 196 0
174 198 0
175 198 0
176 199 0
173 197 0
175 198 0
177 199 0
177 199 0
174 198 0
174 198 0
173 197 0
176 199 0
174 197 0
177 199 0
174 198 0
176 199 0
174 198 0
173 197 0
175 198 0
174 198 0
175 197 0
173 197 0
175 198 0
174 197 0
175 198 0
175 198 0
178 200 0
177 199 0
173 197 0
174 198 0
176 199 0
176 199 0
175 198 0
173 197 0
175 198 0
176 199 0
175 198 0
173 197 0
175 198 0
176 198 0
176 199 0
173 197 0
175 198 0
175 198 0
173 197 0
175 198 0
176 199 0
174 198 0
173 197 0
173 197 0
174 197 0
176 198 0
176 199 0
174 197 0
174 197 0
174 197 0
174 197 0
175 198 0
175 198 0
175 198 0
175 198 0
176 199 0
175 198 0
173 197 0
175 198 0
172 197 0
174 198 0
174 198 0
174 197 0
175 198 0
173 197 0
173 197 0
173 197 0
173 196 0
175 198 0
173 197 0
174 198 0
175 198 0
175 197 0
175 197 0
172 197 0
174 197 0
175 198 0
173 196 0
177 199 0
175 198 0
173 197 0
176 198 0
174 197 0
174 197 0
175 197 0
174 198 0
173 197 0
174 198 0
175 198 0
175 197 0
174 196 0
173 197 0
176 199 0
177 199 0
174 198 0
172 196 0
175 198 0
173 197 0
173 197 0
172 196 0
175 198 0
175 198 0
171 196 0
172 197 0
176 199 0
174 198 0
174 198 0
175 198 0
178 199 0
176 198 0
171 196 0
172 196 0
174 198 0
171 196 0
174 198 0
175 198 0
173 197 0
174 197 0
175 198 0
172 197 0
173 197 0
175 198 0
175 198 0
177 199 0
174 197 0
173 197 0
175 198 0
174 197 0
172 197 0
173 197 0
173 196 0
175 198 0
175 198 0
175 198 0
172 197 0
176 198 0
173 197 0
175 198 0
174 198 0
174 197 0
175 198 0
175 198 0
173 197 0
175 198 0
173 197 0
176 198 0
175 198 0
175 198 0
172 196 0
174 197 0
174 197 0
175 198 0
174 198 0
173 197 0
173 197 0
174 198 0
172 195 0
176 198 0
175 198 0
175 198 0
175 198 0
176 199 0
175 198 0
173 197 0
173 196 0
175 198 0
175 198 0
176 199 0
176 199 0
175 198 0
175 198 0
175 198 0
173 197 0
171 196 0
174 198 0
176 199 0
175 198 0
174 198 0
175 198 0
174 197 0
174 198 0
175 198 0
175 198 0
173 197 0
174 198 0
174 198 0
173 197 0
173 197 0
175 198 0
177 199 0
174 198 0
173 197 0
174 197 0
175 198 0
172 197 0
173 197 0
173 197 0
176 199 0
175 198 0
175 198 0
174 197 0
173 197 0
174 197 0
176 199 0
175 198 0
175 198 0
174 197 0
177 199 0
170 196 0
175 198 0
174 197 0
174 197 0
175 198 0
175 198 0
175 198 0
175 198 0
172 197 0
175 198 0
173 197 0
176 199 0
175 198 0
174 198 0
176 198 0
173 197 0
174 198 0
175 198 0
172 197 0
172 197 0
176 199 0
175 198 0
175 198 0
175 197 0
176 199 0
173 197 0
172 197 0
174 197 0
174 198 0
173 197 0
173 197 0
174 198 0
175 198 0
174 198 0
175 198 0
175 198 0
175 198 0
174 197 0
176 198 0
176 199 0
173 197 0
173 197 0
174 198 0
173 197 0
173 197 0
173 197 0
174 198 0
175 198 0
174 198 0
174 197 0
176 199 0
174 198 0
174 197 0
173 197 0
172 197 0
173 197 0
174 198 0
174 197 0
173 197 0
175 197 0
173 197 0
175 198 0
176 199 0
173 197 0
176 198 0
177 199 0
175 198 0
175 198 0
175 198 0
174 198 0
173 197 0
176 199 0
175 198 0
173 197 0
173 197 0
174 197 0
174 198 0
174 197 0
173 197 0
174 197 0
175 198 0
175 198 0
172 197 0
176 199 0
175 198 0
175 198 0
175 198 0
179 200 0
176 199 0
172 197 0
174 198 0
175 198 0
173 197 0
176 199 0
176 198 0
176 199 0
174 198 0
174 198 0
175 198 0
176 199 0
174 197 0
176 199 0
175 198 0
173 197 0
173 197 0
173 197 0
176 198 0
174 198 0
174 198 0
174 197 0
176 199 0
174 198 0
174 198 0
175 198 0
172 196 0
173 197 0
175 198 0
173 197 0
178 199 0
176 199 0
174 198 0
172 196 0
173 197 0
176 199 0
177 199 0
170 193 0
177 199 0
173 197 0
175 198 0
173 196 0
177 199 0
174 198 0
176 199 0
172 197 0
174 197 0
174 197 0
177 199 0
172 197 0
176 199 0
174 197 0
176 199 0
173 197 0
174 198 0
174 197 0
174 198 0
175 198 0
176 199 0
174 198 0
174 198 0
173 197 0
172 197 0
177 199 0
174 198 0
176 199 0
173 196 0
174 196 0
174 198 0
175 198 0
175 198 0
173 197 0
175 198 0
176 198 0
175 198 0
177 199 0
174 197 0
175 198 0
172 197 0
174 198 0
176 199 0
175 198 0
176 199 0
176 198 0
174 198 0
174 197 0
173 197 0
174 198 0
176 198 0
175 198 0
174 196 0
177 199 0
174 197 0
175 198 0
173 197 0
173 197 0
175 198 0
174 198 0
175 198 0
175 198 0
175 198 0
175 198 0
176 198 0
177 199 0
173 197 0
176 199 0
176 199 0
174 198 0
176 199 0
176 199 0
176 198 0
173 197 0
173 197 0
174 198 0
175 198 0
175 198 0
176 199 0
175 198 0
175 198 0
173 197 0
175 198 0
173 197 0
175 198 0
175 198 0
173 197 0
173 197 0
176 198 0
174 197 0
175 198 0
176 199 0
176 199 0
174 198 0
173 197 0
173 197 0
178 200 0
173 197 0
178 200 0
174 198 0
174 197 0
174 196 0
176 198 0
173 197 0
173 196 0
175 198 0
174 198 0
175 198 0
175 198 0
174 198 0
173 197 0
174 197 0
174 198 0
175 198 0
173 197 0
175 198 0
174 198 0
175 198 0
175 197 0
175 198 0
173 197 0
175 198 0
174 198 0
173 197 0
175 198 0
174 197 0
174 198 0
173 197 0
176 198 0
172 197 0
175 198 0
174 197 0
172 196 0
175 198 0
173 197 0
174 198 0
175 198 0
174 198 0
172 197 0
175 198 0
175 198 0
175 198 0
173 197 0
174 198 0
173 197 0
175 198 0
172 196 0
174 198 0
175 198 0
174 198 0
175 198 0
176 197 0
172 194 0
174 198 0
175 198 0
174 198 0
174 197 0
172 197 0
173 197 0
173 197 0
174 197 0
177 199 0
174 198 0
176 199 0
174 197 0
175 198 0
175 198 0
174 198 0
176 199 0
174 198 0
175 198 0
173 197 0
173 196 0
172 197 0
173 197 0
172 195 0
174 198 0
175 198 0
173 197 0
173 196 0
174 197 0
175 198 0
174 198 0
176 198 0
175 198 0
173 196 0
178 200 0
173 197 0
174 198 0
175 198 0
175 198 0
173 197 0
175 198 0
175 198 0
174 197 0
175 198 0
175 198 0
174 198 0
175 198 0
172 196 0
173 196 0
176 199 0
175 198 0
176 198 0
172 196 0
176 199 0
174 197 0
176 199 0
175 198 0
176 199 0
173 197 0
174 197 0
173 197 0
174 197 0
173 197 0
173 197 0
175 198 0
175 198 0
175 198 0
174 197 0
174 197 0
175 198 0
173 197 0
172 196 0
174 197 0
176 198 0
177 199 0
175 198 0
174 197 0
175 198 0
173 197 0
176 198 0
173 197 0
175 198 0
175 198 0
174 198 0
174 196 0
175 198 0
174 198 0
175 198 0
172 196 0
174 198 0
175 198 0
176 199 0
172 196 0
174 198 0
174 197 0
176 199 0
176 199 0
173 197 0
173 197 0
174 198 0
172 196 0
174 197 0
174 198 0
175 198 0
176 199 0
175 198 0
173 197 0
174 198 0
173 197 0
173 197 0
174 198 0
172 196 0
174 197 0
174 198 0
177 199 0
174 198 0
174 197 0
174 197 0
173 197 0
176 198 0
176 199 0
174 198 0
173 197 0
176 199 0
175 198 0
173 197 0
173 197 0
177 199 0
175 198 0
173 197 0
173 197 0
176 199 0
174 197 0
175 198 0
174 198 0
175 198 0
176 198 0
176 199 0
175 198 0
174 197 0
176 198 0
174 198 0
175 198 0
175 198 0
173 197 0
175 198 0
172 197 0
172 196 0
173 197 0
175 198 0
172 196 0
175 198 0
174 198 0
174 198 0
176 198 0
178 200 0
175 198 0
175 198 0
174 197 0
175 198 0
177 199 0
174 198 0
174 197 0
177 199 0
174 197 0
175 198 0
173 197 0
174 198 0
173 197 0
176 199 0
174 197 0
176 198 0
173 197 0
173 197 0
176 199 0
175 198 0
175 198 0
175 198 0
172 197 0
174 197 0
175 198 0
175 198 0
175 198 0
175 198 0
174 198 0
174 198 0
173 197 0
173 197 0
175 198 0
175 198 0
174 198 0
174 197 0
176 198 0
174 197 0
176 198 0
173 197 0
175 198 0
175 198 0
175 198 0
175 198 0
175 198 0
174 197 0
175 198 0
173 197 0
174 198 0
175 198 0
174 198 0
177 199 0
176 199 0
176 199 0
175 198 0
176 198 0
175 198 0
176 199 0
177 199 0
173 197 0
173 197 0
176 199 0
175 198 0
176 199 0
174 198 0
175 198 0
174 197 0
174 198 0
174 198 0
175 198 0
177 199 0
174 197 0
174 198 0
173 197 0
175 198 0
173 197 0
176 199 0
172 197 0
177 199 0
177 199 0
175 198 0
174 198 0
174 198 0
174 198 0
175 198 0
175 198 0
173 197 0
175 198 0
175 198 0
173 197 0
175 198 0
175 198 0
175 198 0
173 197 0
172 197 0
175 198 0
176 199 0
172 196 0
174 198 0
175 198 0
174 198 0
175 198 0
175 198 0
172 197 0
174 197 0
174 198 0
174 198 0
177 199 0
172 197 0
174 197 0
175 198 0
173 197 0
172 197 0
173 197 0
174 197 0
174 198 0
175 198 0
173 197 0
176 199 0
174 197 0
173 196 0
175 198 0
174 197 0
172 197 0
174 197 0
176 199 0
176 199 0
174 198 0
173 197 0
175 198 0
176 198 0
173 197 0
176 199 0
176 198 0
173 197 0
173 197 0
173 197 0
173 197 0
173 197 0
172 197 0
174 198 0
174 197 0
174 197 0
175 198 0
173 197 0
174 198 0
173 197 0
173 197 0
173 197 0
173 197 0
175 198 0
174 197 0
174 197 0
174 198 0
174 198 0
175 198 0
173 196 0
174 198 0
175 198 0
174 198 0
176 199 0
175 198 0
176 198 0
174 198 0
175 198 0
172 197 0
174 198 0
173 197 0
176 199 0
173 197 0
172 196 0
172 196 0
174 198 0
176 198 0
175 198 0
172 197 0
173 197 0
174 197 0
176 199 0
174 197 0
174 197 0
175 198 0
176 198 0
173 196 0
173 197 0
175 198 0
173 197 0
172 197 0
175 197 0
174 198 0
172 197 0
175 198 0
171 196 0
174 197 0
173 196 0
174 197 0
174 198 0
174 197 0
174 198 0
174 197 0
175 198 0
175 198 0
172 197 0
173 197 0
173 197 0
174 197 0
173 196 0
174 197 0
174 198 0
175 198 0
175 198 0
175 198 0
175 198 0
174 198 0
175 198 0
173 197 0
176 198 0
174 197 0
174 198 0
175 198 0
176 199 0
177 199 0
173 197 0
174 197 0
176 198 0
173 197 0
177 199 0
174 198 0
176 199 0
174 196 0
177 199 0
175 198 0
177 199 0
172 196 0
174 198 0
177 199 0
175 198 0
173 197 0
173 197 0
176 199 0
174 197 0
176 199 0
175 198 0
176 199 0
174 198 0
175 198 0
177 199 0
176 198 0
172 197 0
173 197 0
174 198 0
175 198 0
172 196 0
176 199 0
175 198 0
174 198 0
173 197 0
174 197 0
173 197 0
175 198 0
173 197 0
176 199 0
175 198 0
175 198 0
177 199 0
175 198 0
174 198 0
174 198 0
174 198 0
176 198 0
174 198 0
174 198 0
175 198 0
173 196 0
174 198 0
173 197 0
173 197 0
174 197 0
174 197 0
174 197 0
173 197 0
173 197 0
174 197 0
175 198 0
175 198 0
172 196 0
175 198 0
176 198 0
175 198 0
173 197 0
178 200 0
173 197 0
176 198 0
173 197 0
173 196 0
175 198 0
175 198 0
176 198 0
178 200 0
175 198 0
174 198 0
176 198 0
173 197 0
173 197 0
175 198 0
177 199 0
171 196 0
175 198 0
175 198 0
174 197 0
175 198 0
174 197 0
174 197 0
174 196 0
174 197 0
176 199 0
175 198 0
174 198 0
173 197 0
174 197 0
174 198 0
173 197 0
175 198 0
172 196 0
174 197 0
176 199 0
176 199 0
176 198 0
175 198 0
176 198 0
174 198 0
173 197 0
174 198 0
173 197 0
174 198 0
176 199 0
174 196 0
174 198 0
173 197 0
173 197 0
174 198 0
173 197 0
174 198 0
173 197 0
173 197 0
175 197 0
175 198 0
173 197 0
175 198 0
176 199 0
174 198 0
175 198 0
175 198 0
174 198 0
176 198 0
175 198 0
174 198 0
173 197 0
173 197 0
176 198 0
175 198 0
174 198 0
176 199 0
172 197 0
174 198 0
175 198 0
176 198 0
176 198 0
174 198 0
175 198 0
174 198 0
176 198 0
174 197 0
172 196 0
174 198 0
174 198 0
174 198 0
176 199 0
174 197 0
174 198 0
174 198 0
174 198 0
173 197 0
174 198 0
175 198 0
176 199 0
173 197 0
175 198 0
174 198 0
176 199 0
174 197 0
173 197 0
176 198 0
174 198 0
173 197 0
176 199 0
175 198 0
175 198 0
176 199 0
174 198 0
173 197 0
173 197 0
173 197 0
174 197 0
174 198 0
174 197 0
175 198 0
175 198 0
176 199 0
175 198 0
173 197 0
174 198 0
173 197 0
173 197 0
175 198 0
176 199 0
178 199 0
176 199 0
176 199 0
176 199 0
174 198 0
175 198 0
174 197 0
176 199 0
173 197 0
176 199 0
176 199 0
175 198 0
176 199 0
172 197 0
176 199 0
174 198 0
177 199 0
175 198 0
173 197 0
175 198 0
172 197 0
178 200 0
174 197 0
174 197 0
174 198 0
177 199 0
175 198 0
176 199 0
174 198 0
174 198 0
174 197 0
175 198 0
176 198 0
171 196 0
175 198 0
176 199 0
176 199 0
174 198 0
176 199 0
173 197 0
177 199 0
172 196 0
175 198 0
173 197 0
174 197 0
173 197 0
174 198 0
173 197 0
174 197 0
173 197 0
176 198 0
174 198 0
174 198 0
175 198 0
170 196 0
175 198 0
174 197 0
173 197 0
176 199 0
173 197 0
175 198 0
176 199 0
173 197 0
175 198 0
175 198 0
173 197 0
175 198 0
174 198 0
172 196 0
174 197 0
172 197 0
176 199 0
174 198 0
174 197 0
174 198 0
176 199 0
174 198 0
174 198 0
173 197 0
173 197 0
176 199 0
174 197 0
172 197 0
173 197 0
172 197 0
173 197 0
176 199 0
174 197 0
177 199 0
176 199 0
175 197 0
175 198 0
176 199 0
175 198 0
176 199 0
173 197 0
177 199 0
172 197 0
174 198 0
176 198 0
174 198 0
176 199 0
174 196 0
175 198 0
174 197 0
174 198 0
172 197 0
173 197 0
174 198 0
175 198 0
174 198 0
176 199 0
176 198 0
173 197 0
175 198 0
174 198 0
175 198 0
177 199 0
175 198 0
174 197 0
175 198 0
174 198 0
174 198 0
175 198 0
171 196 0
173 197 0
177 199 0
171 196 0
175 198 0
177 199 0
175 198 0
174 198 0
174 198 0
176 198 0
174 198 0
174 197 0
174 198 0
175 198 0
174 198 0
176 198 0
176 199 0
176 199 0
178 200 0
174 198 0
176 199 0
173 197 0
177 199 0
175 198 0
174 198 0
174 198 0
175 198 0
174 198 0
173 197 0
174 197 0
175 198 0
173 197 0
175 198 0
174 198 0
174 198 0
175 198 0
173 197 0
174 197 0
175 198 0
176 198 0
176 198 0
174 198 0
174 198 0
174 198 0
174 198 0
176 199 0
174 198 0
173 197 0
174 197 0
174 197 0
174 198 0
173 197 0
175 198 0
174 196 0
176 199 0
176 198 0
173 197 0
175 198 0
175 198 0
173 197 0
177 199 0
173 197 0
173 197 0
173 197 0
176 198 0
176 199 0
175 198 0
173 197 0
174 198 0
173 197 0
176 199 0
175 198 0
175 198 0
175 198 0
176 199 0
173 197 0
175 198 0
175 198 0
173 197 0
175 198 0
174 197 0
172 196 0
177 199 0
173 197 0
174 198 0
177 199 0
173 197 0
175 198 0
176 198 0
175 198 0
175 198 0
173 197 0
172 196 0
172 196 0
177 199 0
173 197 0
173 197 0
172 196 0
171 195 0
175 198 0
174 197 0
175 198 0
174 196 0
175 198 0
175 198 0
174 198 0
175 198 0
176 198 0
175 198 0
172 197 0
172 196 0
174 197 0
175 198 0
172 197 0
174 198 0
175 198 0
175 198 0
174 198 0
174 198 0
173 197 0
174 198 0
173 197 0
172 197 0
176 199 0
172 196 0
175 198 0
175 198 0
172 197 0
175 198 0
176 198 0
174 197 0
173 197 0
176 199 0
175 198 0
174 198 0
174 197 0
175 198 0
172 197 0
173 197 0
175 198 0
177 199 0
173 197 0
172 196 0
175 198 0
174 198 0
174 198 0
173 197 0
175 198 0
174 198 0
174 198 0
177 198 0
172 197 0
173 197 0
174 197 0
174 198 0
174 197 0
174 198 0
176 199 0
176 199 0
177 199 0
175 198 0
174 198 0
174 198 0
176 199 0
174 197 0
172 196 0
173 197 0
177 198 0
176 199 0
173 197 0
175 198 0
175 198 0
174 197 0
173 197 0
173 197 0
174 197 0
174 198 0
174 196 0
176 198 0
173 197 0
175 198 0
171 196 0
174 198 0
174 198 0
175 198 0
173 197 0
173 197 0
175 198 0
174 197 0
175 198 0
175 198 0
176 199 0
176 199 0
173 197 0
174 197 0
174 198 0
174 197 0
174 197 0
176 198 0
173 196 0
173 197 0
176 199 0
174 198 0
175 198 0
173 197 0
176 198 0
173 196 0
173 197 0
176 199 0
173 197 0
175 198 0
173 197 0
174 198 0
173 197 0
175 198 0
175 198 0
175 198 0
174 197 0
173 197 0
174 198 0
174 197 0
175 198 0
174 197 0
175 198 0
172 196 0
175 198 0
173 197 0
174 198 0
174 198 0
175 198 0
171 196 0
175 198 0
174 198 0
174 197 0
174 198 0
175 198 0
174 197 0
173 197 0
172 196 0
174 197 0
176 199 0
175 198 0
175 198 0
175 198 0
174 198 0
176 199 0
173 197 0
176 199 0
174 197 0
174 198 0
173 197 0
174 198 0
172 196 0
175 198 0
174 197 0
172 196 0
173 197 0
172 197 0
176 199 0
174 198 0
173 197 0
174 198 0
175 198 0
171 196 0
175 198 0
174 198 0
173 197 0
174 198 0
173 197 0
174 198 0
175 198 0
174 197 0
175 198 0
174 197 0
175 198 0
174 198 0
175 198 0
174 197 0
174 197 0
172 196 0
176 199 0
176 199 0
175 198 0
175 198 0
174 197 0
175 198 0
174 197 0
175 198 0
177 199 0
172 197 0
174 198 0
174 197 0
176 199 0
175 198 0
172 196 0
176 198 0
173 197 0
176 198 0
172 197 0
174 198 0
171 196 0
173 197 0
173 197 0
173 197 0
177 199 0
175 198 0
173 197 0
175 198 0
175 198 0
176 198 0
175 198 0
175 198 0
174 197 0
174 197 0
174 197 0
174 197 0
174 197 0
172 197 0
174 198 0
173 197 0
177 199 0
176 198 0
173 197 0
174 198 0
173 197 0
174 198 0
175 198 0
175 198 0
175 198 0
173 197 0
173 197 0
175 198 0
174 198 0
175 198 0
175 198 0
173 197 0
175 198 0
173 197 0
173 197 0
174 198 0
172 197 0
174 198 0
174 197 0
174 198 0
176 199 0
177 199 0
173 197 0
174 198 0
174 197 0
176 199 0
176 199 0
177 199 0
174 197 0
174 198 0
173 197 0
177 199 0
177 199 0
174 198 0
175 198 0
175 198 0
176 199 0
175 198 0
174 198 0
176 199 0
175 198 0
177 199 0
177 199 0
175 198 0
177 199 0
173 197 0
174 198 0
176 199 0
176 199 0
174 198 0
175 198 0
175 198 0
173 197 0
174 198 0
175 198 0
175 198 0
174 197 0
174 197 0
175 198 0
174 198 0
173 197 0
175 198 0
177 199 0
176 198 0
174 198 0
175 198 0
174 197 0
177 199 0
175 198 0
175 198 0
175 198 0
176 199 0
174 198 0
174 198 0
175 198 0
175 198 0
175 198 0
173 197 0
174 198 0
172 197 0
172 197 0
176 199 0
175 198 0
174 198 0
177 199 0
174 197 0
175 198 0
173 197 0
176 199 0
171 196 0
175 198 0
174 198 0
173 197 0
175 198 0
174 198 0
176 199 0
174 198 0
174 197 0
174 198 0
173 197 0
173 197 0
174 197 0
173 196 0
175 198 0
173 197 0
176 199 0
173 197 0
173 197 0
174 198 0
174 198 0
174 198 0
173 197 0
176 199 0
174 198 0
174 198 0
175 198 0
175 198 0
174 198 0
175 198 0
173 197 0
175 198 0
172 197 0
175 198 0
174 197 0
175 198 0
175 198 0
173 197 0
173 197 0
172 196 0
172 197 0
174 198 0
174 198 0
174 198 0
175 198 0
173 197 0
174 196 0
175 198 0
175 198 0
175 198 0
173 196 0
172 196 0
174 197 0
177 199 0
174 198 0
175 198 0
174 198 0
172 196 0
173 197 0
175 198 0
174 197 0
174 198 0
173 197 0
172 196 0
175 198 0
172 197 0
173 197 0
175 198 0
174 197 0
173 194 0
176 199 0
177 199 0
174 198 0
175 198 0
174 198 0
176 199 0
174 198 0
174 198 0
174 198 0
175 198 0
174 198 0
175 198 0
173 197 0
175 197 0
174 198 0
176 199 0
175 198 0
173 197 0
174 197 0
176 199 0
175 198 0
172 197 0
171 196 0
175 198 0
172 197 0
174 198 0
175 198 0
175 198 0
174 198 0
174 198 0
175 198 0
174 198 0
175 198 0
172 197 0
173 197 0
174 198 0
175 198 0
174 198 0
175 198 0
174 198 0
174 197 0
174 197 0
174 198 0
174 197 0
173 197 0
174 198 0
174 198 0
175 198 0
172 196 0
177 199 0
175 198 0
173 197 0
174 197 0
175 198 0
174 198 0
175 198 0
172 197 0
173 196 0
176 199 0
172 197 0
176 198 0
173 196 0
172 196 0
175 198 0
175 198 0
171 195 0
172 197 0
174 197 0
176 199 0
175 198 0
175 198 0
173 197 0
171 196 0
176 199 0
175 198 0
174 198 0
174 197 0
176 199 0
175 197 0
175 198 0
175 198 0
177 199 0
176 199 0
174 198 0
175 198 0
173 197 0
174 198 0
175 198 0
173 197 0
176 199 0
175 198 0
175 198 0
173 197 0
174 196 0
174 198 0
175 198 0
176 199 0
176 199 0
178 200 0
174 198 0
173 197 0
173 197 0
174 198 0
175 198 0
174 198 0
175 198 0
175 198 0
174 197 0
174 198 0
172 196 0
173 197 0
174 198 0
176 199 0
173 197 0
175 197 0
173 197 0
174 198 0
174 197 0
177 199 0
177 199 0
174 198 0
175 198 0
174 198 0
175 198 0
175 198 0
173 197 0
173 197 0
176 199 0
174 197 0
173 197 0
176 199 0
175 198 0
174 197 0
174 197 0
175 198 0
175 198 0
175 198 0
173 197 0
173 197 0
173 197 0
173 197 0
175 198 0
173 197 0
176 199 0
174 198 0
173 197 0
175 198 0
174 198 0
176 199 0
175 198 0
173 197 0
172 197 0
174 198 0
177 199 0
175 198 0
173 197 0
177 199 0
174 198 0
173 197 0
174 197 0
173 197 0
176 199 0
174 198 0
171 196 0
175 198 0
176 198 0
176 199 0
172 196 0
175 198 0
175 198 0
174 198 0
174 198 0
175 198 0
174 198 0
173 197 0
176 199 0
175 198 0
174 198 0
174 197 0
176 199 0
174 198 0
177 199 0
174 197 0
175 198 0
173 197 0
177 199 0
174 198 0
174 198 0
174 197 0
173 197 0
175 198 0
174 198 0
173 197 0
174 198 0
174 198 0
175 198 0
175 198 0
173 197 0
176 199 0
174 197 0
175 198 0
175 198 0
176 199 0
175 198 0
174 198 0
173 197 0
174 198 0
174 198 0
172 197 0
174 198 0
176 198 0
173 197 0
173 197 0
175 198 0
174 198 0
174 198 0
175 198 0
174 198 0
176 199 0
175 198 0
174 198 0
178 199 0
177 199 0
174 197 0
175 198 0
175 198 0
174 197 0
174 198 0
173 197 0
172 197 0
176 198 0
175 198 0
175 198 0
173 197 0
174 198 0
173 197 0
172 197 0
173 197 0
174 197 0
173 197 0
176 198 0
173 197 0
176 199 0
173 197 0
174 197 0
175 198 0
173 197 0
176 199 0
175 198 0
174 198 0
175 198 0
176 199 0
176 199 0
172 197 0
173 197 0
175 198 0
175 198 0
175 198 0
172 196 0
174 198 0
173 196 0
176 199 0
176 198 0
173 197 0
175 198 0
174 198 0
175 198 0
174 197 0
175 198 0
173 197 0
174 196 0
173 197 0
175 198 0
173 197 0
173 197 0
174 197 0
177 199 0
174 198 0
175 198 0
173 196 0
173 197 0
175 198 0
176 197 0
175 198 0
176 199 0
175 198 0
174 198 0
173 197 0
174 197 0
174 198 0
175 198 0
171 195 0
175 198 0
174 197 0
174 198 0
174 196 0
174 198 0
173 197 0
177 198 0
175 198 0
173 197 0
173 197 0
175 198 0
174 197 0
176 198 0
173 197 0
175 198 0
175 197 0
174 198 0
175 198 0
177 199 0
176 199 0
174 198 0
174 198 0
174 197 0
175 198 0
172 197 0
174 197 0
174 198 0
174 198 0
173 197 0
172 197 0
171 196 0
175 198 0
175 198 0
174 198 0
176 199 0
177 199 0
174 198 0
173 196 0
172 197 0
173 197 0
175 198 0
172 197 0
174 197 0
173 197 0
176 199 0
173 197 0
176 199 0
174 197 0
176 199 0
174 195 0
175 198 0
175 198 0
174 197 0
177 199 0
175 198 0
176 198 0
174 197 0
173 197 0
173 197 0
175 198 0
174 198 0
176 199 0
175 197 0
174 197 0
173 197 0
173 197 0
175 198 0
175 198 0
173 197 0
175 198 0
174 197 0
174 197 0
173 197 0
174 198 0
176 198 0
175 198 0
176 199 0
174 198 0
175 198 0
175 198 0
174 198 0
174 198 0
174 198 0
176 199 0
174 198 0
174 198 0
174 198 0
172 197 0
174 197 0
172 195 0
176 199 0
174 198 0
175 198 0
173 197 0
173 197 0
175 198 0
175 198 0
174 198 0
172 196 0
174 198 0
175 198 0
173 197 0
174 197 0
173 197 0
173 197 0
172 197 0
177 199 0
174 198 0
175 197 0
176 198 0
173 196 0
174 198 0
176 197 0
173 197 0
175 198 0
172 197 0
174 198 0
175 198 0
173 197 0
177 199 0
176 199 0
171 196 0
175 198 0
173 197 0
177 199 0
173 197 0
175 198 0
175 198 0
173 197 0
175 198 0
173 197 0
174 197 0
176 199 0
175 198 0
176 198 0
175 198 0
172 197 0
174 197 0
175 197 0
172 197 0
174 197 0
174 197 0
175 198 0
174 197 0
176 198 0
174 198 0
177 199 0
174 198 0
173 197 0
172 196 0
174 198 0
174 198 0
173 196 0
174 197 0
174 198 0
174 197 0
173 197 0
175 198 0
173 197 0
174 196 0
175 197 0
176 199 0
175 198 0
174 198 0
175 198 0
175 198 0
174 198 0
177 199 0
173 197 0
174 197 0
172 197 0
173 197 0
173 197 0
174 196 0
174 198 0
173 197 0
174 197 0
172 196 0
173 197 0
172 196 0
174 198 0
173 196 0
175 198 0
175 198 0
174 196 0
175 198 0
175 198 0
173 197 0
173 197 0
172 195 0
175 198 0
174 197 0
175 198 0
174 196 0
176 199 0
175 198 0
173 197 0
173 197 0
173 197 0
174 198 0
172 195 0
175 198 0
174 197 0
175 198 0
173 197 0
174 198 0
174 198 0
176 198 0
173 197 0
174 198 0
173 197 0
175 198 0
175 198 0
173 197 0
175 198 0
173 197 0
174 198 0
173 197 0
175 198 0
172 197 0
173 197 0
174 197 0
175 198 0
173 197 0
175 198 0
174 198 0
176 198 0
173 197 0
174 197 0
175 198 0
174 198 0
173 197 0
174 197 0
173 197 0
175 198 0
175 198 0
174 197 0
174 197 0
175 198 0
175 198 0
175 198 0
176 199 0
174 197 0
174 198 0
175 198 0
173 197 0
174 197 0
175 198 0
173 197 0
175 198 0
176 199 0
173 197 0
173 197 0
176 198 0
173 197 0
173 197 0
173 196 0
176 198 0
175 198 0
175 198 0
173 197 0
175 198 0
175 198 0
176 199 0
174 198 0
171 196 0
175 198 0
175 198 0
174 198 0
172 197 0
174 198 0
175 198 0
176 198 0
176 199 0
173 197 0
177 199 0
176 197 0
173 196 0
174 198 0
174 197 0
173 197 0
175 198 0
174 197 0
175 198 0
172 197 0
177 199 0
174 197 0
174 197 0
173 197 0
174 197 0
174 197 0
174 198 0
175 198 0
171 196 0
175 198 0
175 198 0
174 198 0
175 198 0
177 199 0
173 197 0
173 197 0
173 197 0
175 198 0
174 198 0
176 199 0
175 198 0
175 198 0
174 198 0
174 197 0
174 198 0
176 198 0
174 198 0
174 197 0
174 197 0
174 198 0
173 197 0
174 198 0
175 198 0
173 197 0
174 198 0
174 198 0
173 197 0
175 198 0
175 198 0
174 198 0
174 197 0
175 198 0
175 198 0
176 199 0
176 199 0
173 197 0
173 197 0
176 199 0
174 197 0
175 198 0
175 198 0
175 198 0
173 197 0
174 197 0
174 198 0
173 197 0
174 197 0
174 198 0
173 197 0
176 199 0
174 197 0
175 198 0
177 199 0
174 198 0
175 198 0
174 197 0
173 197 0
174 198 0
174 197 0
175 198 0
175 198 0
174 197 0
176 199 0
174 198 0
174 198 0
173 197 0
173 197 0
178 200 0
175 198 0
175 198 0
177 199 0
176 198 0
175 198 0
175 198 0
173 197 0
172 197 0
174 198 0
174 198 0
174 198 0
176 198 0
173 197 0
174 198 0
174 198 0
176 199 0
173 197 0
174 197 0
174 198 0
176 198 0
175 198 0
174 198 0
172 197 0
173 197 0
174 198 0
175 198 0
172 196 0
174 198 0
173 197 0
174 197 0
176 198 0
173 197 0
174 198 0
175 198 0
176 199 0
174 197 0
174 197 0
174 196 0
173 196 0
172 197 0
176 199 0
172 197 0
174 198 0
175 198 0
173 197 0
173 197 0
175 198 0
177 199 0
175 198 0
176 199 0
175 198 0
175 197 0
173 197 0
177 199 0
173 197 0
174 197 0
175 198 0
174 198 0
175 198 0
173 197 0
173 197 0
175 198 0
175 198 0
174 197 0
175 198 0
177 199 0
175 198 0
177 199 0
176 199 0
175 197 0
174 198 0
174 198 0
176 199 0
175 198 0
172 194 0
174 198 0
173 197 0
177 199 0
175 198 0
173 197 0
177 199 0
175 198 0
171 196 0
173 197 0
173 197 0
175 198 0
174 198 0
173 196 0
175 198 0
174 198 0
175 198 0
174 198 0
175 198 0
172 197 0
172 196 0
171 196 0
176 199 0
176 199 0
174 198 0
176 199 0
175 198 0
175 198 0
174 198 0
172 197 0
174 197 0
175 198 0
175 198 0
175 198 0
172 197 0
176 199 0
175 198 0
174 198 0
176 198 0
175 198 0
173 197 0
175 198 0
176 199 0
176 199 0
176 199 0
174 197 0
176 198 0
176 199 0
174 198 0
174 198 0
174 198 0
173 197 0
176 199 0
175 198 0
174 197 0
173 197 0
173 197 0
175 198 0
175 198 0
174 198 0
175 198 0
174 198 0
174 198 0
174 198 0
173 197 0
175 198 0
174 198 0
173 197 0
177 199 0
174 197 0
174 198 0
176 199 0
173 197 0
175 198 0
175 197 0
175 197 0
177 199 0
175 198 0
175 198 0
177 199 0
172 197 0
173 197 0
174 197 0
176 197 0
176 199 0
173 197 0
174 197 0
173 197 0
174 198 0
174 198 0
176 198 0
174 198 0
175 198 0
173 197 0
175 198 0
174 198 0
175 198 0
175 198 0
173 197 0
175 198 0
174 198 0
175 198 0
175 198 0
174 198 0
176 198 0
175 198 0
174 198 0
173 197 0
174 197 0
174 197 0
173 197 0
174 198 0
175 198 0
175 198 0
175 198 0
173 197 0
175 198 0
176 199 0
174 198 0
174 198 0
174 197 0
172 197 0
172 197 0
174 198 0
173 197 0
176 199 0
176 199 0
174 196 0
175 198 0
175 198 0
174 198 0
174 198 0
174 198 0
173 197 0
176 199 0
174 198 0
171 195 0
173 197 0
173 197 0
175 198 0
174 197 0
173 197 0
174 197 0
174 197 0
173 197 0
173 197 0
172 196 0
172 197 0
176 198 0
173 196 0
172 195 0
172 196 0
175 198 0
176 198 0
173 197 0
174 198 0
173 196 0
173 197 0
176 199 0
175 198 0
175 198 0
176 199 0
173 197 0
173 197 0
173 197 0
175 198 0
173 196 0
177 199 0
173 197 0
175 198 0
172 195 0
177 198 0
176 199 0
174 198 0
174 198 0
175 198 0
173 197 0
173 197 0
174 196 0
175 198 0
174 198 0
176 199 0
174 198 0
174 197 0
174 198 0
175 198 0
174 198 0
176 198 0
174 197 0
172 196 0
174 198 0
174 198 0
176 197 0
177 199 0
175 198 0
178 200 0
175 198 0
175 198 0
176 199 0
174 197 0
174 198 0
174 198 0
175 198 0
174 197 0
173 197 0
174 198 0
175 198 0
174 197 0
173 197 0
174 197 0
174 197 0
177 199 0
174 198 0
172 197 0
175 198 0
175 198 0
174 198 0
172 197 0
175 198 0
174 197 0
175 198 0
173 197 0
174 198 0
174 197 0
175 197 0
175 198 0
176 199 0
173 197 0
177 199 0
175 198 0
174 198 0
175 198 0
172 196 0
174 198 0
174 197 0
176 199 0
173 197 0
173 197 0
175 198 0
172 197 0
173 197 0
175 198 0
173 197 0
176 199 0
177 199 0
174 197 0
175 198 0
176 198 0
174 198 0
175 198 0
172 197 0
177 199 0
173 197 0
174 198 0
175 198 0
175 198 0
177 199 0
174 197 0
173 197 0
175 198 0
175 198 0
176 199 0
173 197 0
175 198 0
174 197 0
173 197 0
175 198 0
175 198 0
176 199 0
173 197 0
176 198 0
176 199 0
176 199 0
172 197 0
175 198 0
174 197 0
173 197 0
175 198 0
174 197 0
175 198 0
176 198 0
174 197 0
174 197 0
174 198 0
177 199 0
173 197 0
174 198 0
175 198 0
175 198 0
176 198 0
174 198 0
174 198 0
173 197 0
172 196 0
173 197 0
173 197 0
174 198 0
174 198 0
174 198 0
172 197 0
175 198 0
175 198 0
175 198 0
176 199 0
172 196 0
174 197 0
176 198 0
172 196 0
174 197 0
173 197 0
177 199 0
174 198 0
176 199 0
174 197 0
174 197 0
176 198 0
175 198 0
177 199 0
173 197 0
173 197 0
174 198 0
175 198 0
175 198 0
175 198 0
174 198 0
174 198 0
174 198 0
175 198 0
172 196 0
174 198 0
175 198 0
173 197 0
174 198 0
173 197 0
172 197 0
173 197 0
177 199 0
175 198 0
175 198 0
173 197 0
176 197 0
176 199 0
174 198 0
175 198 0
174 197 0
173 197 0
173 197 0
173 197 0
173 197 0
174 198 0
175 198 0
175 198 0
175 198 0
175 198 0
174 198 0
174 198 0
173 197 0
173 197 0
173 197 0
172 197 0
175 198 0
175 198 0
175 198 0
176 199 0
172 197 0
177 199 0
176 199 0
174 197 0
176 198 0
174 198 0
176 198 0
173 197 0
176 199 0
175 198 0
175 198 0
174 197 0
177 199 0
174 198 0
176 199 0
178 200 0
173 197 0
173 197 0
174 198 0
175 198 0
174 198 0
175 198 0
175 198 0
175 198 0
172 197 0
175 198 0
174 198 0
174 198 0
174 198 0
177 198 0
173 197 0
175 198 0
174 198 0
173 197 0
172 196 0
174 198 0
174 198 0
172 196 0
176 199 0
174 197 0
175 198 0
174 198 0
174 198 0
175 198 0
174 198 0
178 200 0
176 198 0
174 198 0
174 198 0
175 198 0
172 197 0
174 198 0
174 198 0
173 197 0
173 197 0
175 198 0
174 198 0
176 199 0
174 197 0
176 199 0
175 198 0
173 197 0
173 197 0
172 197 0
172 197 0
174 198 0
176 199 0
174 197 0
174 198 0
175 198 0
173 197 0
175 198 0
175 198 0
175 198 0
174 198 0
175 198 0
175 198 0
175 198 0
172 197 0
174 197 0
173 197 0
172 197 0
172 196 0
174 197 0
174 197 0
175 197 0
173 196 0
174 198 0
176 199 0
175 198 0
173 197 0
176 199 0
172 197 0
174 198 0
174 198 0
176 199 0
175 198 0
176 198 0
174 196 0
174 198 0
173 197 0
175 198 0
173 197 0
174 198 0
173 197 0
175 198 0
173 197 0
174 197 0
175 198 0
172 197 0
174 198 0
173 197 0
177 199 0
176 198 0
176 198 0
173 197 0
175 198 0
176 199 0
173 197 0
174 198 0
172 197 0
176 198 0
175 198 0
176 198 0
174 198 0
176 198 0
172 197 0
176 199 0
173 196 0
176 197 0
173 197 0
173 197 0
173 197 0
172 197 0
174 197 0
171 196 0
174 198 0
173 197 0
175 198 0
174 198 0
175 198 0
173 197 0
176 197 0
174 198 0
171 195 0
175 198 0
173 197 0
172 197 0
176 198 0
174 196 0
175 198 0
174 198 0
175 198 0
176 198 0
176 199 0
175 198 0
173 197 0
176 199 0
174 197 0
173 197 0
175 198 0
175 198 0
174 198 0
174 198 0
173 197 0
175 197 0
176 199 0
174 196 0
173 197 0
176 199 0
174 197 0
174 198 0
174 198 0
174 198 0
174 198 0
176 198 0
176 199 0
174 197 0
172 197 0
175 198 0
173 197 0
175 198 0
175 198 0
174 198 0
175 198 0
174 198 0
175 198 0
172 196 0
173 197 0
173 197 0
174 198 0
175 198 0
175 198 0
175 198 0
174 197 0
174 198 0
172 196 0
171 196 0
174 197 0
174 198 0
174 198 0
175 198 0
174 197 0
177 199 0
173 196 0
175 198 0
173 197 0
176 199 0
173 197 0
173 197 0
174 198 0
174 198 0
173 197 0
173 197 0
172 196 0
173 197 0
176 198 0
173 197 0
175 198 0
173 197 0
175 198 0
173 197 0
174 198 0
175 198 0
174 197 0
173 196 0
176 198 0
176 199 0
176 199 0
175 198 0
174 196 0
172 196 0
172 197 0
176 198 0
174 198 0
173 197 0
172 196 0
176 198 0
175 198 0
173 197 0
175 198 0
175 198 0
173 197 0
174 198 0
175 198 0
174 197 0
174 197 0
174 198 0
175 198 0
172 197 0
176 199 0
174 198 0
175 198 0
175 198 0
174 198 0
175 198 0
176 199 0
172 196 0
172 197 0
174 197 0
174 198 0
175 198 0
174 198 0
174 198 0
175 198 0
175 198 0
174 198 0
173 197 0
176 198 0
174 198 0
174 198 0
172 197 0
175 198 0
177 199 0
173 197 0
174 197 0
174 198 0
176 199 0
173 197 0
175 198 0
173 197 0
175 198 0
173 197 0
174 198 0
174 198 0
175 198 0
175 198 0
173 197 0
176 199 0
176 198 0
176 199 0
173 197 0
175 198 0
172 197 0
175 198 0
174 197 0
177 199 0
175 198 0
175 198 0
175 198 0
176 198 0
174 197 0
175 198 0
175 198 0
174 198 0
175 198 0
174 198 0
172 197 0
173 197 0
174 198 0
173 197 0
177 199 0
176 198 0
173 197 0
174 198 0
175 198 0
172 197 0
176 199 0
174 198 0
174 198 0
175 198 0
174 198 0
176 199 0
175 198 0
174 197 0
173 197 0
177 199 0
176 198 0
173 197 0
175 198 0
176 199 0
176 199 0
176 198 0
176 199 0
174 198 0
173 197 0
176 199 0
174 197 0
174 198 0
171 196 0
175 198 0
174 197 0
174 198 0
174 197 0
174 198 0
173 197 0
174 197 0
176 198 0
174 198 0
174 197 0
173 197 0
175 198 0
173 197 0
175 198 0
173 197 0
175 198 0
176 199 0
174 198 0
174 198 0
176 199 0
174 198 0
174 198 0
176 199 0
173 197 0
174 198 0
176 198 0
175 198 0
176 198 0
175 198 0
175 198 0
175 197 0
172 197 0
174 198 0
175 198 0
175 198 0
174 198 0
175 198 0
175 198 0
175 198 0
175 198 0
174 198 0
175 198 0
176 199 0
175 198 0
178 200 0
172 197 0
176 199 0
172 197 0
175 198 0
176 199 0
176 199 0
178 199 0
175 198 0
174 198 0
175 198 0
176 199 0
176 198 0
172 197 0
174 198 0
176 199 0
177 199 0
173 197 0
173 197 0
175 198 0
176 199 0
173 197 0
174 198 0
174 197 0
176 198 0
175 198 0
173 197 0
177 199 0
176 199 0
176 199 0
175 198 0
175 198 0
173 197 0
176 199 0
175 198 0
174 198 0
171 196 0
171 196 0
173 197 0
176 198 0
175 198 0
176 199 0
175 198 0
174 198 0
177 199 0
175 198 0
174 197 0
175 198 0
173 197 0
175 198 0
173 197 0
176 199 0
172 197 0
173 197 0
174 197 0
175 198 0
175 198 0
171 196 0
174 198 0
173 197 0
173 197 0
174 198 0
174 197 0
174 197 0
174 197 0
173 197 0
174 198 0
176 198 0
173 197 0
175 198 0
174 197 0
174 197 0
173 197 0
173 197 0
173 197 0
173 197 0
174 198 0
174 198 0
176 196 0
173 197 0
175 198 0
176 199 0
175 198 0
173 196 0
174 198 0
174 198 0
172 195 0
176 199 0
175 198 0
176 198 0
174 197 0
173 197 0
171 195 0
175 198 0
174 197 0
176 199 0
175 198 0
176 199 0
172 197 0
175 198 0
175 198 0
173 197 0
176 199 0
171 196 0
174 198 0
173 197 0
172 196 0
175 198 0
174 198 0
177 199 0
173 197 0
175 198 0
174 198 0
175 198 0
174 198 0
173 197 0
176 199 0
174 198 0
174 198 0
175 198 0
173 196 0
173 197 0
172 196 0
174 197 0
171 196 0
171 196 0
173 197 0
175 198 0
174 198 0
175 198 0
176 198 0
173 197 0
173 197 0
173 197 0
175 198 0
175 198 0
175 198 0
173 197 0
174 198 0
175 198 0
172 195 0
173 197 0
176 199 0
173 197 0
176 198 0
173 197 0
174 198 0
173 197 0
176 198 0
172 195 0
174 197 0
172 197 0
175 198 0
174 198 0
174 198 0
175 198 0
174 198 0
174 197 0
173 197 0
175 198 0
175 198 0
174 197 0
174 196 0
175 198 0
175 198 0
174 198 0
174 197 0
173 197 0
176 199 0
175 198 0
175 198 0
176 198 0
173 197 0
175 197 0
175 198 0
176 199 0
176 198 0
173 197 0
174 197 0
174 197 0
173 197 0
175 198 0
174 198 0
173 197 0
175 198 0
176 199 0
175 198 0
175 198 0
174 197 0
173 197 0
175 198 0
176 198 0
177 199 0
174 198 0
175 198 0
175 198 0
175 198 0
174 198 0
173 197 0
175 198 0
175 198 0
175 198 0
176 197 0
175 198 0
175 198 0
172 197 0
174 198 0
174 197 0
174 198 0
172 196 0
176 199 0
174 198 0
173 197 0
174 198 0
173 197 0
176 199 0
173 196 0
176 198 0
174 197 0
175 198 0
175 198 0
175 198 0
176 198 0
174 198 0
174 198 0
174 198 0
175 198 0
174 197 0
175 198 0
173 197 0
174 197 0
173 197 0
174 196 0
174 196 0
174 198 0
175 198 0
173 197 0
175 198 0
175 198 0
174 198 0
173 197 0
175 198 0
173 196 0
174 197 0
176 199 0
173 196 0
174 197 0
174 197 0
173 197 0
174 198 0
174 198 0
175 198 0
172 196 0
174 198 0
174 198 0
174 197 0
172 196 0
175 198 0
176 199 0
174 198 0
173 197 0
173 197 0
177 199 0
175 198 0
173 197 0
175 198 0
176 199 0
174 197 0
173 197 0
172 195 0
174 197 0
173 197 0
175 198 0
175 198 0
173 197 0
175 198 0
175 198 0
174 198 0
172 196 0
174 197 0
175 198 0
175 198 0
171 196 0
173 197 0
176 199 0
174 197 0
173 197 0
173 197 0
175 198 0
172 197 0
176 199 0
175 198 0
174 198 0
171 196 0
173 197 0
174 197 0
173 197 0
174 198 0
174 198 0
175 198 0
173 197 0
173 197 0
176 199 0
176 198 0
173 197 0
174 197 0
173 197 0
173 197 0
175 198 0
174 197 0
176 198 0
176 199 0
173 197 0
173 197 0
174 197 0
173 197 0
174 198 0
173 197 0
175 198 0
176 198 0
175 198 0
176 199 0
176 199 0
175 198 0
176 199 0
176 199 0
177 199 0
175 198 0
174 197 0
175 198 0
175 198 0
174 197 0
175 198 0
173 197 0
175 198 0
175 198 0
173 197 0
174 198 0
174 198 0
174 198 0
174 198 0
173 197 0
175 198 0
175 198 0
175 198 0
172 197 0
175 198 0
175 198 0
176 199 0
173 197 0
172 197 0
175 198 0
175 198 0
175 198 0
175 198 0
174 198 0
176 199 0
173 197 0
174 198 0
175 198 0
176 199 0
174 198 0
175 198 0
173 197 0
175 198 0
174 198 0
173 197 0
175 198 0
172 197 0
174 198 0
175 198 0
174 198 0
172 196 0
175 198 0
174 198 0
172 196 0
175 198 0
176 199 0
174 198 0
174 197 0
174 198 0
176 199 0
172 197 0
174 198 0
174 198 0
177 199 0
175 198 0
173 197 0
174 198 0
175 198 0
176 198 0
175 198 0
174 198 0
174 198 0
178 200 0
175 198 0
172 196 0
176 199 0
174 197 0
175 198 0
175 198 0
174 197 0
172 197 0
175 198 0
173 197 0
173 197 0
172 197 0
174 197 0
174 197 0
173 197 0
176 199 0
174 198 0
175 198 0
174 197 0
175 198 0
176 199 0
177 199 0
174 198 0
178 200 0
175 198 0
176 199 0
173 197 0
173 197 0
173 197 0
175 198 0
174 198 0
172 197 0
172 196 0
175 198 0
174 198 0
174 198 0
175 198 0
174 198 0
172 197 0
175 198 0
176 199 0
177 199 0
173 197 0
174 198 0
171 196 0
173 197 0
175 198 0
175 198 0
174 198 0
177 198 0
175 198 0
174 198 0
175 198 0
177 199 0
174 197 0
175 198 0
174 197 0
176 199 0
175 198 0
175 198 0
174 198 0
173 197 0
174 198 0
176 199 0
173 197 0
176 198 0
176 198 0
175 198 0
172 196 0
174 198 0
174 198 0
173 197 0
174 198 0
173 197 0
174 197 0
174 198 0
173 197 0
174 198 0
175 197 0
173 197 0
174 198 0
176 198 0
178 200 0
176 198 0
175 197 0
172 197 0
173 197 0
174 197 0
176 199 0
174 198 0
174 197 0
176 199 0
173 197 0
175 198 0
175 198 0
175 198 0
173 197 0
174 197 0
173 197 0
175 198 0
174 197 0
177 199 0
172 197 0
174 197 0
175 198 0
173 197 0
174 198 0
174 198 0
175 198 0
175 198 0
174 198 0
176 199 0
176 199 0
176 197 0
174 198 0
176 199 0
175 198 0
174 197 0
173 196 0
174 197 0
175 198 0
176 199 0
174 197 0
172 197 0
175 198 0
172 195 0
175 198 0
174 197 0
175 198 0
174 197 0
173 197 0
173 197 0
175 198 0
175 197 0
176 198 0
173 196 0
176 197 0
174 198 0
174 198 0
173 197 0
173 197 0
174 198 0
177 199 0
176 199 0
174 198 0
173 197 0
176 199 0
172 197 0
174 198 0
176 198 0
173 197 0
174 198 0
173 197 0
174 197 0
174 198 0
174 198 0
174 198 0
175 198 0
175 197 0
176 199 0
174 198 0
172 197 0
174 198 0
173 197 0
175 198 0
174 197 0
172 196 0
174 198 0
175 198 0
175 198 0
174 196 0
173 197 0
174 197 0
174 198 0
172 196 0
175 198 0
174 197 0
176 198 0
172 195 0
176 199 0
172 197 0
174 197 0
176 199 0
175 198 0
174 196 0
175 198 0
173 197 0
174 197 0
174 198 0
174 198 0
174 197 0
176 199 0
176 198 0
175 197 0
174 198 0
174 196 0
175 198 0
173 197 0
174 198 0
174 198 0
174 198 0
174 198 0
174 198 0
175 198 0
174 198 0
175 198 0
171 196 0
173 197 0
172 197 0
176 197 0
175 198 0
176 198 0
175 198 0
175 198 0
177 199 0
176 199 0
175 198 0
176 199 0
177 199 0
174 197 0
174 197 0
176 198 0
176 199 0
174 197 0
174 198 0
173 197 0
173 197 0
172 195 0
176 199 0
175 198 0
175 198 0
175 198 0
174 198 0
175 198 0
175 198 0
175 198 0
175 198 0
170 196 0
172 197 0
176 199 0
174 198 0
174 197 0
173 197 0
174 198 0
175 198 0
172 197 0
176 199 0
172 197 0
176 198 0
175 198 0
175 198 0
171 196 0
175 198 0
175 198 0
174 198 0
172 197 0
175 198 0
174 197 0
176 199 0
172 197 0
174 198 0
176 199 0
173 197 0
176 199 0
172 197 0
175 198 0
172 196 0
175 198 0
173 197 0
176 199 0
172 196 0
176 199 0
175 198 0
173 197 0
175 198 0
172 196 0
175 198 0
176 198 0
173 197 0
174 198 0
176 198 0
174 197 0
173 197 0
176 199 0
173 196 0
174 197 0
173 197 0
175 198 0
173 197 0
176 199 0
176 199 0
175 198 0
170 195 0
175 198 0
174 197 0
176 199 0
177 199 0
173 197 0
175 198 0
176 199 0
175 198 0
172 196 0
176 199 0
177 199 0
174 198 0
174 198 0
174 198 0
174 198 0
174 198 0
176 198 0
176 199 0
175 198 0
175 198 0
174 198 0
173 197 0
176 199 0
175 198 0
174 198 0
175 198 0
174 197 0
173 197 0
173 197 0
174 197 0
175 198 0
174 198 0
174 198 0
176 199 0
175 198 0
173 197 0
174 198 0
173 197 0
176 199 0
175 198 0
178 200 0
174 198 0
175 198 0
174 197 0
172 197 0
175 198 0
173 197 0
173 197 0
177 199 0
178 200 0
174 197 0
176 199 0
172 197 0
174 198 0
174 198 0
174 197 0
177 199 0
177 199 0
173 197 0
175 198 0
174 198 0
174 197 0
175 198 0
173 197 0
174 198 0
173 197 0
173 197 0
174 198 0
172 196 0
174 198 0
176 198 0
174 198 0
175 198 0
174 197 0
175 198 0
174 198 0
174 197 0
175 198 0
175 198 0
175 198 0
174 197 0
173 197 0
175 198 0
175 198 0
175 198 0
175 198 0
175 198 0
174 198 0
173 197 0
176 199 0
175 198 0
173 197 0
178 200 0
174 198 0
174 198 0
173 197 0
174 198 0
172 196 0
172 196 0
175 198 0
173 197 0
175 198 0
176 199 0
174 198 0
175 198 0
175 198 0
173 197 0
175 197 0
174 198 0
175 198 0
173 197 0
175 198 0
175 198 0
174 198 0
175 198 0
174 198 0
177 199 0
176 199 0
174 197 0
174 198 0
175 198 0
175 198 0
175 198 0
175 198 0
174 198 0
173 197 0
176 199 0
176 198 0
175 198 0
174 197 0
173 197 0
174 198 0
172 195 0
174 198 0
176 199 0
174 198 0
175 198 0
172 197 0
176 198 0
176 199 0
175 198 0
173 197 0
175 198 0
176 198 0
172 195 0
173 197 0
173 197 0
175 198 0
176 198 0
175 198 0
175 198 0
176 199 0
173 197 0
174 198 0
174 198 0
174 198 0
173 197 0
175 198 0
175 198 0
176 199 0
175 198 0
175 198 0
173 197 0
174 197 0
174 198 0
175 198 0
174 198 0
174 197 0
177 199 0
173 197 0
173 197 0
176 199 0
173 197 0
173 197 0
174 198 0
175 198 0
173 197 0
173 197 0
175 198 0
174 198 0
175 197 0
176 198 0
173 197 0
173 197 0
176 199 0
178 200 0
177 199 0
177 199 0
175 198 0
173 197 0
173 197 0
176 198 0
173 196 0
175 197 0
174 198 0
174 197 0
176 198 0
172 197 0
173 197 0
173 197 0
174 197 0
174 198 0
175 198 0
173 197 0
173 197 0
172 196 0
176 198 0
172 197 0
173 197 0
173 197 0
173 197 0
174 197 0
175 198 0
173 196 0
175 198 0
173 197 0
175 198 0
174 198 0
174 197 0
174 197 0
174 197 0
173 197 0
175 198 0
174 198 0
173 197 0
175 198 0
173 197 0
174 197 0
173 197 0
174 198 0
176 199 0
174 198 0
175 198 0
175 198 0
174 198 0
175 198 0
177 199 0
175 198 0
175 198 0
176 199 0
174 197 0
175 198 0
174 198 0
175 198 0
171 196 0
173 197 0
176 199 0
173 197 0
173 197 0
174 197 0
172 197 0
175 198 0
175 198 0
174 198 0
176 199 0
171 196 0
172 197 0
176 198 0
174 197 0
174 198 0
175 198 0
173 196 0
177 199 0
175 198 0
172 196 0
173 197 0
175 198 0
174 198 0
175 198 0
175 198 0
174 197 0
174 197 0
177 199 0
174 198 0
174 197 0
175 198 0
175 198 0
174 198 0
174 198 0
173 197 0
175 198 0
173 197 0
175 198 0
176 199 0
175 198 0
173 197 0
175 198 0
175 198 0
173 197 0
175 198 0
175 198 0
174 198 0
175 198 0
172 196 0
175 198 0
173 197 0
176 198 0
177 199 0
175 198 0
173 195 0
173 197 0
172 197 0
175 198 0
174 198 0
175 198 0
175 198 0
173 197 0
176 198 0
173 197 0
175 198 0
173 197 0
175 198 0
175 198 0
174 198 0
173 197 0
173 196 0
174 197 0
174 197 0
174 198 0
172 196 0
175 198 0
177 199 0
175 198 0
174 197 0
174 198 0
174 197 0
175 198 0
175 198 0
175 198 0
174 198 0
175 198 0
174 198 0
171 196 0
173 197 0
171 195 0
176 197 0
176 198 0
173 197 0
175 198 0
172 197 0
175 198 0
174 198 0
174 198 0
176 199 0
174 197 0
176 199 0
176 199 0
174 198 0
175 198 0
176 199 0
175 198 0
176 199 0
175 198 0
174 198 0
175 198 0
176 199 0
173 197 0
176 199 0
173 196 0
174 198 0
174 197 0
175 198 0
175 198 0
174 197 0
175 198 0
176 199 0
174 198 0
173 197 0
173 197 0
175 198 0
175 198 0
173 197 0
175 198 0
174 198 0
174 198 0
172 197 0
174 198 0
176 199 0
175 198 0
174 197 0
173 197 0
173 197 0
174 197 0
175 198 0
173 197 0
173 197 0
173 197 0
176 199 0
176 199 0
175 198 0
174 198 0
172 197 0
172 197 0
174 197 0
174 198 0
174 197 0
174 198 0
173 197 0
174 198 0
175 198 0
176 198 0
174 197 0
172 197 0
175 198 0
173 197 0
173 197 0
173 197 0
176 199 0
175 198 0
174 197 0
175 198 0
174 198 0
176 198 0
176 199 0
171 196 0
174 198 0
174 197 0
175 198 0
175 198 0
176 199 0
174 198 0
173 197 0
174 198 0
173 197 0
171 196 0
173 197 0
175 198 0
175 198 0
175 198 0
174 198 0
173 197 0
175 198 0
174 198 0
177 199 0
175 198 0
174 198 0
173 197 0
176 199 0
175 198 0
176 199 0
175 198 0
175 198 0
176 199 0
175 198 0
174 198 0
175 198 0
174 198 0
174 197 0
176 199 0
173 197 0
173 197 0
173 197 0
173 197 0
174 197 0
174 198 0
175 198 0
175 198 0
174 198 0
175 198 0
173 197 0
173 197 0
174 198 0
175 198 0
174 197 0
174 198 0
173 197 0
175 198 0
175 198 0
173 197 0
174 198 0
173 197 0
175 198 0
175 198 0
176 199 0
174 198 0
176 199 0
173 197 0
176 198 0
176 198 0
178 199 0
177 199 0
173 197 0
173 197 0
176 199 0
175 198 0
174 197 0
175 198 0
176 198 0
176 197 0
174 198 0
173 197 0
175 198 0
174 198 0
174 198 0
176 199 0
175 198 0
176 198 0
176 198 0
176 198 0
174 197 0
173 197 0
175 198 0
173 197 0
174 198 0
175 198 0
175 198 0
175 198 0
175 198 0
175 198 0
173 197 0
174 198 0
176 198 0
175 198 0
175 198 0
172 196 0
173 197 0
173 197 0
178 200 0
173 197 0
177 199 0
175 198 0
175 198 0
174 198 0
174 198 0
175 198 0
173 196 0
173 197 0
173 197 0
174 197 0
174 198 0
174 198 0
174 197 0
174 198 0
175 198 0
176 199 0
175 197 0
175 198 0
175 198 0
177 199 0
174 198 0
173 197 0
171 196 0
173 197 0
177 199 0
172 197 0
175 198 0
172 196 0
173 197 0
173 197 0
174 197 0
176 197 0
175 198 0
174 197 0
174 197 0
175 198 0
172 197 0
174 196 0
173 197 0
176 199 0
173 197 0
173 197 0
174 198 0
174 198 0
176 199 0
174 198 0
175 198 0
173 197 0
175 198 0
174 197 0
174 197 0
175 198 0
175 198 0
174 197 0
174 198 0
176 198 0
173 197 0
174 198 0
175 198 0
174 197 0
175 198 0
172 197 0
175 198 0
173 197 0
176 198 0
172 197 0
172 196 0
175 198 0
174 198 0
175 198 0
174 198 0
175 197 0
178 200 0
174 198 0
175 198 0
174 196 0
173 197 0
172 196 0
176 199 0
175 198 0
175 198 0
174 197 0
173 197 0
174 198 0
175 198 0
175 198 0
175 198 0
172 196 0
173 197 0
173 197 0
174 198 0
173 197 0
172 195 0
175 198 0
173 197 0
175 198 0
172 197 0
174 198 0
174 196 0
174 197 0
175 198 0
172 196 0
173 197 0
176 199 0
175 198 0
174 198 0
173 197 0
172 196 0
172 196 0
176 199 0
175 198 0
173 197 0
171 196 0
176 199 0
173 197 0
177 199 0
175 198 0
175 198 0
173 196 0
177 199 0
174 198 0
178 200 0
173 197 0
174 197 0
174 197 0
174 197 0
174 198 0
173 196 0
174 198 0
174 198 0
176 197 0
173 197 0
175 198 0
174 197 0
175 198 0
173 196 0
176 199 0
175 198 0
176 199 0
172 197 0
172 196 0
179 200 0
172 196 0
174 198 0
172 196 0
176 199 0
173 197 0
173 197 0
176 199 0
175 198 0
175 197 0
174 198 0
173 197 0
174 197 0
173 197 0
173 197 0
173 197 0
173 196 0
176 198 0
174 195 0
175 198 0
175 197 0
177 198 0
175 198 0
173 197 0
175 198 0
173 197 0
176 199 0
173 197 0
175 198 0
172 197 0
174 197 0
176 199 0
174 198 0
174 198 0
174 198 0
175 198 0
173 197 0
175 198 0
173 197 0
174 197 0
174 197 0
174 198 0
174 198 0
175 198 0
174 198 0
173 197 0
174 198 0
175 197 0
171 195 0
172 197 0
174 197 0
175 198 0
175 198 0
176 199 0
174 198 0
174 198 0
174 197 0
175 198 0
173 197 0
174 198 0
171 196 0
175 198 0
174 198 0
174 198 0
174 198 0
176 198 0
176 199 0
177 199 0
174 198 0
176 199 0
174 198 0
174 198 0
173 197 0
175 198 0
175 198 0
173 197 0
171 196 0
176 198 0
174 198 0
173 197 0
175 198 0
173 197 0
174 197 0
173 197 0
176 199 0
175 198 0
175 198 0
175 198 0
176 199 0
177 199 0
175 198 0
172 196 0
174 198 0
175 198 0
174 197 0
172 197 0
175 198 0
170 196 0
174 198 0
173 197 0
175 198 0
173 197 0
175 198 0
174 197 0
174 198 0
175 198 0
175 198 0
173 197 0
173 196 0
176 199 0
173 197 0
176 198 0
174 198 0
174 198 0
174 197 0
171 196 0
175 197 0
172 197 0
175 198 0
176 199 0
175 198 0
177 199 0
174 198 0
175 198 0
175 198 0
176 199 0
175 198 0
174 197 0
174 197 0
177 198 0
174 197 0
175 198 0
177 199 0
176 199 0
175 198 0
173 197 0
175 198 0
175 198 0
173 197 0
175 198 0
175 198 0
173 197 0
172 196 0
174 198 0
176 198 0
176 199 0
174 197 0
176 199 0
174 198 0
175 198 0
176 199 0
174 197 0
176 199 0
176 199 0
175 198 0
173 197 0
175 198 0
174 198 0
174 198 0
174 198 0
175 198 0
174 198 0
176 199 0
176 198 0
174 197 0
175 198 0
177 199 0
174 198 0
173 197 0
173 197 0
174 197 0
174 198 0
173 197 0
174 198 0
176 198 0
177 199 0
176 198 0
175 198 0
173 197 0
171 196 0
174 197 0
174 197 0
174 198 0
176 199 0
177 199 0
176 199 0
172 197 0
174 198 0
174 197 0
175 198 0
172 197 0
175 198 0
173 197 0
172 197 0
174 198 0
172 197 0
175 198 0
175 198 0
175 198 0
173 197 0
172 197 0
173 197 0
173 197 0
174 198 0
176 199 0
175 198 0
174 198 0
173 197 0
175 198 0
175 198 0
175 198 0
175 198 0
173 197 0
174 198 0
174 198 0
175 198 0
173 197 0
174 197 0
174 198 0
174 197 0
175 198 0
173 197 0
173 197 0
174 198 0
175 198 0
172 197 0
173 197 0
176 199 0
175 198 0
176 199 0
173 197 0
176 199 0
177 199 0
177 199 0
174 197 0
175 198 0
175 198 0
174 197 0
175 198 0
176 199 0
174 198 0
175 198 0
173 197 0
173 197 0
174 198 0
174 197 0
176 199 0
175 198 0
174 197 0
175 198 0
174 197 0
173 197 0
173 197 0
172 197 0
176 199 0
174 198 0
175 198 0
174 197 0
175 198 0
175 198 0
174 198 0
175 198 0
172 197 0
175 198 0
176 198 0
174 198 0
175 198 0
176 199 0
174 198 0
172 197 0
175 198 0
174 197 0
175 198 0
174 198 0
174 198 0
174 197 0
175 198 0
175 198 0
177 199 0
175 198 0
173 196 0
173 197 0
175 198 0
176 198 0
175 198 0
174 198 0
175 198 0
172 195 0
171 195 0
177 199 0
173 197 0
173 197 0
175 198 0
172 196 0
175 198 0
175 198 0
173 197 0
173 197 0
176 199 0
173 197 0
172 197 0
175 198 0
174 198 0
172 197 0
175 198 0
177 199 0
174 198 0
173 197 0
174 197 0
174 197 0
175 198 0
175 198 0
175 198 0
176 198 0
173 197 0
173 196 0
173 196 0
176 199 0
176 198 0
174 198 0
175 198 0
175 198 0
174 198 0
172 196 0
174 197 0
174 198 0
174 197 0
174 198 0
175 198 0
175 198 0
173 197 0
175 198 0
176 199 0
172 197 0
174 198 0
175 198 0
176 199 0
174 198 0
174 197 0
175 198 0
173 197 0
177 199 0
172 196 0
174 198 0
178 200 0
173 197 0
174 198 0
174 198 0
172 197 0
173 197 0
174 198 0
175 198 0
173 197 0
173 197 0
174 198 0
173 197 0
175 198 0
176 199 0
174 198 0
174 198 0
173 197 0
175 198 0
177 199 0
175 198 0
174 197 0
173 197 0
177 199 0
172 197 0
173 197 0
174 198 0
173 197 0
175 198 0
175 198 0
172 196 0
176 198 0
173 197 0
174 198 0
173 197 0
174 197 0
175 198 0
176 198 0
176 199 0
175 198 0
173 197 0
174 198 0
173 197 0
177 199 0
175 198 0
174 197 0
176 198 0
173 197 0
172 196 0
174 198 0
175 198 0
176 197 0
173 196 0
176 199 0
174 197 0
175 198 0
175 198 0
172 196 0
175 198 0
175 198 0
174 197 0
171 196 0
175 198 0
173 196 0
176 198 0
175 198 0
175 198 0
175 198 0
174 197 0
175 198 0
176 199 0
174 198 0
174 197 0
173 197 0
175 198 0
177 199 0
175 198 0
176 199 0
171 196 0
174 197 0
175 198 0
173 197 0
172 197 0
173 197 0
173 196 0
174 197 0
171 196 0
174 197 0
176 198 0
174 197 0
175 198 0
175 198 0
176 199 0
174 198 0
175 198 0
175 198 0
173 197 0
173 197 0
176 199 0
174 198 0
172 197 0
174 198 0
174 198 0
174 197 0
174 198 0
174 196 0
175 197 0
173 197 0
173 197 0
174 195 0
173 197 0
175 198 0
173 197 0
174 198 0
176 199 0
175 197 0
175 198 0
173 197 0
177 199 0
174 198 0
175 198 0
175 198 0
177 199 0
174 198 0
174 198 0
172 197 0
175 197 0
178 200 0
174 197 0
176 198 0
175 198 0
175 198 0
174 197 0
174 198 0
173 197 0
175 198 0
174 198 0
175 198 0
178 200 0
174 198 0
174 197 0
173 197 0
173 197 0
176 198 0
175 198 0
175 198 0
174 197 0
174 198 0
174 197 0
176 198 0
176 199 0
172 197 0
176 196 0
174 198 0
175 198 0
174 198 0
172 197 0
175 198 0
172 197 0
174 198 0
176 198 0
174 198 0
175 198 0
175 198 0
175 198 0
173 197 0
174 198 0
174 197 0
175 198 0
174 198 0
177 199 0
174 198 0
173 197 0
176 199 0
175 198 0
172 197 0
175 198 0
172 197 0
172 197 0
174 197 0
174 198 0
173 197 0
172 196 0
174 198 0
175 198 0
174 197 0
173 197 0
173 197 0
175 198 0
175 198 0
176 199 0
174 197 0
174 198 0
175 198 0
174 198 0
174 198 0
175 198 0
173 197 0
176 199 0
175 198 0
176 199 0
175 198 0
175 198 0
173 197 0
175 198 0
174 198 0
174 198 0
174 197 0
173 197 0
174 198 0
173 197 0
172 197 0
175 198 0
175 198 0
175 198 0
174 198 0
174 198 0
173 197 0
176 199 0
174 198 0
174 198 0
174 197 0
174 198 0
175 198 0
175 198 0
173 197 0
174 197 0
174 198 0
175 198 0
173 197 0
176 199 0
175 198 0
175 198 0
175 198 0
175 198 0
175 198 0
175 198 0
176 198 0
174 198 0
174 197 0
175 198 0
175 198 0
176 199 0
175 198 0
176 199 0
177 199 0
173 197 0
176 199 0
175 198 0
174 198 0
174 198 0
172 197 0
173 197 0
178 200 0
176 199 0
174 198 0
173 197 0
175 198 0
175 198 0
175 198 0
175 198 0
176 199 0
174 198 0
176 199 0
172 197 0
174 198 0
173 197 0
175 198 0
174 197 0
175 198 0
173 197 0
173 197 0
175 198 0
175 198 0
174 198 0
174 198 0
174 198 0
174 198 0
176 199 0
176 199 0
176 199 0
173 197 0
175 198 0
175 198 0
175 198 0
174 198 0
173 197 0
176 199 0
175 198 0
175 198 0
176 199 0
176 199 0
174 197 0
176 198 0
174 197 0
175 198 0
175 198 0
176 198 0
173 197 0
175 198 0
176 199 0
173 197 0
177 199 0
174 198 0
175 198 0
174 198 0
175 198 0
175 198 0
174 198 0
174 198 0
175 198 0
174 198 0
174 198 0
173 197 0
175 198 0
176 199 0
175 198 0
176 199 0
175 198 0
175 198 0
171 196 0
175 198 0
175 197 0
174 198 0
176 199 0
175 198 0
177 199 0
174 198 0
174 198 0
176 198 0
174 197 0
174 198 0
174 198 0
175 198 0
177 199 0
174 198 0
175 198 0
176 198 0
175 198 0
175 198 0
175 198 0
172 196 0
179 200 0
173 197 0
174 198 0
174 197 0
172 196 0
174 197 0
175 198 0
174 198 0
175 198 0
174 198 0
175 198 0
173 197 0
172 197 0
173 197 0
175 198 0
174 198 0
176 199 0
175 198 0
174 198 0
177 199 0
177 199 0
174 198 0
175 198 0
174 198 0
173 197 0
176 199 0
175 198 0
174 197 0
173 197 0
174 198 0
176 199 0
174 197 0
174 198 0
174 197 0
174 198 0
174 198 0
172 197 0
172 197 0
176 199 0
175 198 0
174 198 0
175 198 0
174 198 0
173 197 0
175 198 0
175 198 0
174 197 0
174 197 0
175 198 0
174 197 0
176 198 0
174 198 0
175 198 0
175 198 0
173 197 0
174 197 0
175 198 0
172 195 0
174 198 0
174 198 0
175 198 0
173 197 0
172 197 0
176 199 0
174 198 0
175 198 0
173 197 0
177 199 0
172 197 0
176 199 0
175 198 0
176 199 0
174 198 0
174 198 0
176 199 0
174 197 0
173 196 0
175 198 0
174 198 0
173 197 0
175 198 0
174 197 0
174 198 0
175 198 0
175 198 0
175 198 0
174 197 0
177 199 0
173 197 0
175 198 0
175 198 0
175 198 0
171 196 0
177 199 0
171 196 0
174 197 0
173 197 0
174 197 0
173 197 0
174 197 0
175 198 0
173 197 0
175 198 0
175 198 0
173 197 0
175 198 0
174 198 0
174 198 0
173 197 0
176 199 0
175 198 0
176 199 0
173 197 0
176 199 0
174 196 0
176 198 0
173 197 0
174 197 0
172 197 0
174 197 0
175 198 0
175 198 0
172 194 0
176 198 0
175 198 0
176 198 0
174 196 0
175 198 0
174 196 0
175 198 0
174 197 0
175 198 0
177 199 0
173 197 0
177 199 0
175 198 0
172 196 0
173 197 0
171 196 0
174 197 0
172 196 0
176 199 0
174 198 0
176 199 0
174 197 0
174 198 0
176 199 0
174 198 0
174 197 0
175 198 0
173 197 0
173 197 0
173 197 0
174 198 0
173 197 0
175 198 0
176 199 0
175 198 0
175 198 0
175 198 0
174 198 0
175 198 0
175 198 0
175 198 0
173 197 0
175 198 0
173 197 0
175 198 0
174 198 0
175 198 0
176 199 0
175 198 0
174 198 0
174 197 0
174 198 0
175 198 0
174 198 0
173 197 0
175 198 0
174 198 0
174 198 0
177 199 0
174 198 0
175 198 0
174 197 0
176 199 0
173 197 0
173 197 0
173 197 0
177 199 0
175 198 0
172 196 0
176 199 0
175 198 0
174 197 0
175 198 0
176 199 0
174 198 0
175 198 0
173 197 0
175 198 0
173 197 0
176 198 0
173 197 0
175 198 0
176 199 0
175 198 0
177 199 0
174 198 0
172 197 0
175 198 0
174 197 0
173 197 0
173 197 0
174 197 0
172 197 0
173 197 0
173 197 0
174 198 0
174 198 0
175 198 0
174 198 0
174 198 0
175 198 0
175 198 0
176 197 0
174 198 0
175 198 0
174 197 0
172 196 0
174 197 0
175 198 0
177 199 0
174 197 0
174 198 0
173 197 0
175 198 0
174 198 0
174 198 0
176 199 0
174 197 0
174 198 0
174 197 0
174 198 0
174 198 0
174 197 0
175 198 0
175 198 0
174 198 0
174 198 0
173 197 0
174 198 0
173 197 0
174 198 0
173 197 0
173 197 0
172 197 0
176 198 0
175 198 0
173 197 0
173 197 0
172 196 0
173 197 0
174 198 0
175 198 0
176 199 0
175 198 0
175 198 0
174 198 0
176 198 0
176 199 0
174 198 0
174 198 0
174 198 0
175 198 0
176 199 0
175 198 0
174 198 0
174 198 0
174 197 0
176 198 0
173 197 0
177 199 0
173 197 0
174 198 0
177 199 0
173 197 0
175 198 0
173 197 0
173 197 0
176 199 0
176 199 0
174 198 0
173 197 0
173 197 0
177 199 0
174 198 0
176 199 0
172 197 0
175 198 0
173 197 0
174 198 0
173 197 0
174 198 0
175 198 0
172 197 0
175 198 0
175 198 0
174 198 0
174 198 0
175 198 0
175 198 0
175 198 0
173 197 0
174 198 0
172 197 0
176 198 0
175 198 0
176 199 0
175 198 0
175 198 0
174 198 0
173 197 0
175 198 0
174 198 0
175 198 0
174 197 0
174 198 0
174 198 0
174 198 0
177 199 0
177 199 0
174 198 0
176 199 0
175 198 0
174 198 0
174 198 0
176 199 0
174 198 0
173 197 0
174 198 0
174 198 0
174 198 0
173 197 0
175 198 0
172 197 0
177 199 0
175 198 0
175 198 0
175 198 0
174 198 0
173 197 0
176 198 0
175 198 0
174 198 0
174 198 0
175 198 0
174 198 0
177 199 0
174 198 0
175 198 0
174 196 0
174 198 0
174 198 0
175 198 0
176 198 0
172 197 0
177 199 0
175 198 0
174 198 0
175 198 0
175 198 0
173 197 0
173 197 0
174 197 0
172 196 0
174 197 0
175 198 0
175 198 0
173 197 0
175 198 0
174 198 0
175 198 0
174 198 0
173 197 0
175 198 0
176 198 0
174 198 0
175 198 0
174 198 0
173 197 0
176 198 0
174 197 0
173 196 0
174 197 0
172 197 0
175 198 0
175 198 0
174 198 0
174 198 0
175 198 0
174 198 0
175 198 0
176 199 0
176 199 0
176 198 0
174 198 0
174 197 0
174 198 0
174 198 0
173 197 0
175 198 0
173 197 0
176 199 0
174 197 0
173 197 0
173 197 0
174 197 0
174 198 0
175 198 0
174 198 0
174 198 0
172 197 0
173 197 0
173 197 0
173 197 0
175 198 0
177 199 0
174 198 0
175 198 0
173 197 0
173 197 0
174 198 0
175 198 0
174 197 0
173 197 0
176 199 0
175 198 0
175 198 0
174 197 0
173 197 0
174 197 0
176 199 0
174 198 0
175 198 0
174 198 0
174 198 0
175 198 0
173 197 0
176 199 0
173 197 0
173 197 0
173 197 0
175 198 0
176 199 0
174 198 0
173 197 0
176 199 0
174 198 0
174 198 0
173 197 0
177 199 0
173 197 0
175 198 0
175 198 0
174 198 0
172 197 0
176 198 0
176 199 0
174 197 0
176 199 0
174 197 0
176 199 0
174 198 0
175 198 0
173 197 0
177 199 0
174 197 0
172 196 0
173 197 0
175 198 0
173 197 0
175 198 0
174 197 0
173 197 0
174 198 0
173 197 0
172 196 0
174 198 0
173 197 0
174 198 0
176 198 0
176 198 0
174 198 0
172 197 0
175 198 0
173 197 0
177 199 0
175 198 0
174 198 0
173 197 0
172 197 0
177 199 0
174 197 0
174 198 0
174 197 0
175 198 0
176 198 0
175 198 0
175 198 0
174 198 0
173 197 0
174 197 0
173 197 0
175 198 0
174 197 0
173 196 0
174 198 0
175 198 0
175 198 0
177 199 0
172 197 0
176 199 0
174 198 0
175 198 0
175 198 0
174 197 0
174 197 0
173 197 0
175 198 0
174 198 0
173 196 0
174 198 0
173 197 0
172 197 0
173 197 0
173 197 0
174 198 0
173 197 0
177 199 0
174 198 0
174 198 0
175 198 0
176 199 0
175 198 0
175 198 0
174 198 0
172 197 0
173 197 0
174 198 0
175 198 0
173 197 0
176 199 0
172 197 0
174 197 0
171 196 0
174 198 0
174 198 0
174 197 0
174 198 0
175 198 0
172 195 0
176 199 0
175 198 0
176 199 0
175 198 0
175 198 0
173 197 0
174 197 0
175 198 0
174 198 0
172 197 0
173 197 0
174 197 0
175 198 0
172 197 0
174 197 0
175 198 0
172 196 0
176 198 0
177 199 0
173 197 0
172 196 0
175 198 0
175 198 0
175 198 0
175 198 0
174 197 0
176 199 0
174 197 0
175 198 0
174 198 0
177 199 0
176 199 0
175 198 0
174 197 0
174 197 0
173 196 0
173 197 0
175 198 0
174 196 0
173 197 0
173 197 0
173 197 0
175 198 0
174 198 0
173 197 0
172 196 0
174 196 0
174 198 0
172 197 0
176 198 0
175 198 0
176 199 0
173 197 0
174 197 0
176 199 0
176 198 0
175 198 0
174 198 0
175 198 0
173 197 0
175 198 0
175 198 0
176 198 0
174 197 0
174 198 0
171 196 0
174 197 0
174 197 0
171 195 0
174 198 0
174 198 0
173 197 0
177 199 0
176 199 0
175 198 0
173 197 0
175 198 0
174 197 0
177 199 0
175 198 0
176 199 0
172 197 0
174 198 0
177 199 0
174 197 0
176 198 0
174 198 0
175 198 0
175 198 0
174 197 0
173 197 0
173 197 0
176 199 0
175 198 0
175 198 0
173 197 0
174 198 0
172 197 0
173 197 0
175 198 0
174 198 0
176 199 0
174 198 0
175 198 0
174 198 0
175 198 0
176 199 0
173 197 0
173 197 0
174 197 0
176 199 0
173 197 0
176 199 0
174 197 0
175 198 0
174 198 0
174 197 0
174 197 0
176 199 0
173 197 0
176 199 0
174 197 0
174 198 0
175 198 0
175 198 0
174 198 0
176 199 0
175 198 0
174 197 0
174 198 0
174 198 0
175 198 0
176 199 0
173 197 0
174 197 0
176 198 0
173 197 0
174 198 0
174 197 0
174 198 0
174 198 0
172 196 0
171 196 0
175 198 0
175 198 0
174 198 0
174 198 0
175 198 0
177 199 0
174 198 0
175 198 0
174 197 0
173 197 0
176 199 0
174 198 0
176 199 0
173 197 0
173 197 0
175 198 0
173 197 0
172 197 0
175 198 0
175 198 0
176 198 0
176 198 0
173 197 0
173 197 0
174 198 0
173 197 0
176 198 0
174 198 0
174 198 0
175 198 0
174 197 0
176 199 0
175 198 0
174 198 0
177 199 0
175 198 0
173 197 0
175 198 0
173 197 0
177 199 0
174 198 0
176 199 0
177 199 0
174 197 0
173 197 0
175 198 0
173 197 0
175 198 0
174 197 0
173 197 0
174 198 0
174 197 0
174 198 0
175 198 0
173 197 0
176 199 0
174 198 0
175 198 0
173 197 0
173 197 0
173 197 0
173 197 0
173 197 0
174 197 0
174 198 0
174 197 0
174 198 0
176 199 0
174 198 0
175 198 0
175 198 0
174 198 0
175 198 0
175 198 0
173 197 0
176 199 0
174 197 0
175 198 0
175 198 0
175 198 0
174 198 0
176 199 0
175 198 0
175 198 0
173 197 0
176 199 0
176 199 0
175 198 0
176 198 0
174 198 0
175 198 0
176 199 0
175 198 0
177 199 0
174 197 0
175 198 0
174 198 0
173 197 0
174 197 0
175 198 0
175 198 0
173 197 0
173 197 0
176 199 0
174 198 0
172 197 0
176 198 0
172 196 0
173 197 0
172 197 0
175 198 0
174 197 0
176 198 0
175 198 0
175 198 0
177 199 0
174 198 0
174 198 0
175 198 0
174 198 0
174 198 0
173 197 0
173 197 0
173 197 0
173 197 0
175 198 0
173 197 0
174 198 0
175 198 0
174 197 0
172 197 0
175 198 0
174 198 0
173 197 0
174 197 0
173 197 0
173 197 0
175 198 0
173 197 0
175 198 0
175 198 0
176 198 0
174 197 0
175 198 0
175 198 0
173 197 0
178 199 0
173 197 0
174 198 0
175 198 0
173 197 0
175 198 0
173 197 0
174 198 0
175 198 0
175 198 0
172 197 0
174 198 0
176 199 0
177 199 0
176 198 0
173 197 0
175 198 0
174 198 0
176 199 0
173 197 0
173 197 0
172 197 0
176 199 0
174 198 0
174 197 0
176 198 0
173 197 0
177 199 0
172 196 0
176 199 0
174 198 0
175 198 0
175 198 0
174 198 0
175 198 0
173 197 0
173 196 0
175 198 0
174 198 0
175 198 0
173 197 0
175 198 0
174 198 0
175 198 0
176 199 0
173 197 0
176 199 0
174 197 0
174 198 0
175 198 0
174 197 0
173 196 0
175 198 0
173 197 0
174 198 0
173 197 0
176 199 0
173 197 0
176 199 0
176 198 0
173 196 0
175 198 0
174 198 0
177 199 0
173 197 0
175 198 0
174 198 0
175 198 0
173 196 0
173 197 0
175 198 0
173 197 0
177 199 0
175 198 0
173 197 0
173 197 0
174 197 0
175 198 0
173 197 0
173 197 0
173 197 0
172 195 0
176 199 0
175 198 0
174 198 0
175 198 0
173 197 0
174 198 0
174 197 0
172 197 0
174 198 0
175 198 0
175 198 0
174 197 0
174 197 0
173 196 0
174 198 0
174 197 0
172 197 0
175 198 0
175 198 0
176 199 0
175 198 0
173 196 0
174 198 0
175 198 0
173 197 0
173 197 0
173 197 0
176 197 0
173 197 0
174 198 0
176 199 0
171 196 0
173 197 0
173 197 0
173 196 0
174 197 0
174 198 0
174 195 0
174 198 0
176 199 0
174 198 0
175 198 0
174 198 0
173 197 0
173 197 0
173 197 0
174 198 0
174 197 0
176 199 0
171 196 0
175 198 0
172 197 0
176 198 0
177 199 0
175 198 0
173 197 0
174 197 0
174 197 0
175 198 0
172 196 0
175 198 0
173 197 0
173 197 0
173 197 0
172 197 0
173 197 0
175 198 0
175 198 0
175 198 0
172 197 0
177 199 0
174 198 0
174 197 0
174 197 0
174 198 0
174 197 0
175 198 0
175 198 0
175 198 0
172 197 0
175 198 0
175 198 0
173 197 0
174 198 0
176 199 0
173 197 0
172 196 0
175 198 0
174 197 0
175 198 0
172 196 0
174 198 0
175 198 0
173 197 0
174 197 0
177 199 0
176 199 0
173 197 0
175 198 0
174 198 0
174 197 0
177 199 0
173 197 0
174 197 0
173 197 0
173 197 0
176 199 0
174 198 0
174 197 0
173 197 0
173 197 0
175 198 0
173 197 0
174 198 0
173 197 0
175 198 0
174 198 0
173 197 0
175 198 0
173 197 0
174 198 0
174 197 0
174 198 0
174 198 0
174 198 0
174 198 0
175 198 0
174 198 0
175 198 0
175 198 0
174 198 0
174 198 0
174 198 0
176 198 0
173 197 0
175 198 0
175 198 0
173 197 0
174 198 0
175 198 0
174 198 0
173 197 0
174 198 0
173 197 0
174 198 0
175 198 0
173 197 0
176 198 0
176 198 0
175 198 0
173 197 0
175 198 0
176 198 0
175 198 0
173 197 0
177 199 0
172 197 0
172 197 0
174 198 0
175 198 0
173 197 0
175 198 0
175 198 0
174 197 0
174 198 0
171 196 0
174 197 0
173 197 0
176 198 0
176 199 0
174 198 0
175 198 0
174 197 0
172 196 0
173 197 0
175 198 0
173 197 0
174 198 0
174 197 0
175 198 0
174 198 0
175 198 0
176 199 0
174 198 0
175 198 0
174 198 0
175 198 0
175 198 0
175 198 0
174 198 0
174 198 0
174 198 0
175 198 0
173 197 0
174 198 0
174 197 0
176 198 0
174 198 0
174 198 0
174 198 0
174 197 0
172 196 0
175 198 0
173 197 0
175 198 0
175 198 0
174 198 0
173 197 0
173 197 0
174 197 0
175 198 0
171 196 0
174 197 0
175 198 0
174 198 0
173 197 0
175 198 0
174 197 0
173 197 0
174 197 0
172 197 0
173 197 0
174 198 0
174 198 0
176 198 0
176 199 0
176 198 0
175 198 0
173 197 0
174 197 0
175 198 0
173 197 0
173 197 0
175 198 0
174 197 0
173 197 0
175 198 0
175 198 0
175 198 0
175 198 0
175 198 0
174 197 0
176 199 0
174 197 0
173 197 0
175 198 0
175 198 0
175 198 0
175 198 0
173 197 0
175 198 0
175 198 0
173 197 0
175 198 0
175 198 0
175 198 0
172 196 0
175 198 0
175 198 0
172 196 0
174 198 0
174 197 0
173 197 0
173 197 0
174 198 0
175 198 0
174 197 0
173 197 0
173 197 0
177 199 0
176 199 0
174 198 0
173 197 0
173 197 0
174 198 0
176 198 0
175 197 0
174 197 0
175 198 0
176 199 0
174 198 0
175 198 0
176 199 0
175 198 0
175 198 0
175 198 0
176 198 0
175 198 0
174 197 0
174 198 0
173 197 0
175 198 0
176 198 0
176 199 0
176 199 0
174 197 0
175 198 0
176 198 0
174 198 0
174 198 0
175 198 0
175 197 0
176 198 0
174 198 0
173 197 0
174 198 0
172 197 0
175 198 0
175 198 0
175 198 0
173 197 0
175 198 0
176 199 0
176 199 0
176 199 0
175 198 0
173 197 0
174 198 0
174 198 0
174 198 0
175 198 0
175 198 0
175 198 0
175 198 0
175 198 0
174 198 0
173 197 0
173 196 0
171 196 0
173 196 0
175 198 0
174 198 0
176 199 0
172 196 0
174 196 0
173 197 0
175 198 0
174 198 0
173 197 0
173 197 0
176 199 0
174 198 0
177 199 0
174 197 0
174 198 0
173 195 0
175 198 0
173 197 0
176 199 0
175 198 0
176 199 0
175 198 0
173 195 0
176 199 0
176 198 0
172 197 0
175 198 0
175 198 0
176 199 0
172 197 0
175 198 0
174 198 0
174 198 0
175 198 0
176 198 0
175 198 0
176 197 0
172 195 0
175 198 0
175 198 0
174 198 0
174 198 0
173 197 0
175 198 0
173 196 0
174 197 0
174 197 0
176 198 0
173 197 0
174 197 0
173 197 0
173 196 0
175 198 0
175 198 0
174 198 0
175 198 0
174 197 0
174 198 0
175 198 0
175 198 0
176 198 0
173 197 0
174 197 0
175 198 0
175 198 0
174 197 0
174 198 0
175 198 0
176 198 0
175 198 0
175 198 0
174 196 0
176 198 0
175 198 0
174 198 0
173 197 0
173 197 0
174 197 0
176 198 0
175 198 0
174 198 0
175 198 0
176 199 0
172 196 0
176 199 0
176 198 0
173 195 0
171 195 0
175 198 0
173 197 0
174 198 0
173 196 0
174 198 0
175 198 0
177 199 0
174 198 0
175 198 0
175 198 0
175 198 0
175 198 0
175 198 0
172 197 0
174 196 0
175 198 0
172 196 0
174 198 0
175 198 0
173 197 0
175 198 0
174 198 0
175 198 0
172 197 0
174 198 0
174 198 0
175 198 0
174 198 0
172 196 0
174 198 0
176 198 0
175 198 0
174 197 0
173 197 0
175 198 0
178 200 0
172 195 0
174 198 0
175 198 0
176 199 0
175 198 0
175 198 0
174 198 0
174 197 0
174 198 0
173 196 0
173 197 0
175 198 0
177 199 0
175 198 0
175 198 0
173 197 0
173 197 0
173 197 0
173 197 0
176 198 0
172 197 0
174 198 0
173 197 0
175 198 0
176 198 0
173 197 0
174 197 0
174 198 0
173 197 0
174 198 0
173 197 0
175 198 0
175 198 0
175 198 0
174 197 0
172 196 0
176 198 0
175 198 0
172 196 0
173 197 0
175 198 0
175 198 0
173 197 0
175 198 0
172 197 0
174 198 0
174 198 0
173 197 0
172 197 0
172 197 0
175 198 0
175 198 0
173 197 0
176 198 0
173 197 0
173 197 0
172 197 0
174 198 0
175 198 0
175 198 0
173 197 0
175 198 0
175 198 0
174 198 0
174 197 0
178 199 0
173 197 0
175 198 0
175 198 0
175 198 0
174 198 0
174 198 0
176 199 0
176 199 0
176 199 0
175 198 0
174 198 0
174 198 0
177 199 0
174 198 0
176 199 0
173 197 0
173 197 0
175 198 0
174 198 0
173 197 0
174 197 0
177 199 0
176 199 0
175 198 0
174 197 0
175 198 0
173 197 0
174 198 0
176 199 0
175 198 0
174 197 0
172 197 0
176 199 0
175 198 0
175 198 0
175 198 0
176 198 0
174 197 0
173 197 0
176 198 0
174 198 0
176 199 0
175 198 0
172 197 0
173 197 0
175 198 0
172 197 0
175 198 0
175 198 0
176 199 0
173 197 0
175 198 0
174 197 0
173 197 0
175 198 0
173 197 0
176 198 0
173 197 0
175 198 0
173 197 0
173 197 0
175 198 0
174 198 0
176 199 0
173 197 0
176 199 0
175 198 0
175 198 0
178 199 0
175 198 0
176 199 0
174 197 0
174 197 0
175 198 0
175 198 0
175 198 0
174 197 0
173 197 0
175 198 0
174 198 0
175 198 0
173 197 0
177 199 0
176 198 0
