P3
256 256
255
199 223 255
199 223 255
199 223 255
198 223 255
198 223 255
198 223 255
198 223 255
198 223 255
198 223 255
198 223 255
198 223 255
198 223 255
198 223 255
198 223 255
198 223 255
198 223 255
198 223 255
198 223 255
198 223 255
197 222 255
197 222 255
197 222 255
197 222 255
197 222 255
197 222 255
197 222 255
197 222 255
197 222 255
197 222 255
197 222 255
197 222 255
197 222 255
197 222 255
197 222 255
197 222 255
196 222 255
196 222 255
196 222 255
196 222 255
196 222 255
196 222 255
196 222 255
196 222 255
196 222 255
196 222 255
196 222 255
196 222 255
196 222 255
196 222 255
196 222 255
196 222 255
196 222 255
196 221 255
195 221 255
195 221 255
195 221 255
195 221 255
195 221 255
195 221 255
195 221 255
195 221 255
195 221 255
195 221 255
195 221 255
195 221 255
195 221 255
195 221 255
195 221 255
195 221 255
195 221 255
195 221 255
195 221 255
195 221 255
195 221 255
194 221 255
194 221 255
194 221 255
194 221 255
194 221 255
194 221 255
194 221 255
194 221 255
194 221 255
194 221 255
194 221 255
194 221 255
194 221 255
194 221 255
194 221 255
194 221 255
194 221 255
194 221 255
194 221 255
194 221 255
194 221 255
194 221 255
194 221 255
194 220 255
194 220 255
194 220 255
194 220 255
194 220 255
194 220 255
194 220 255
194 220 255
193 220 255
193 220 255
193 220 255
193 220 255
193 220 255
193 220 255
193 220 255
193 220 255
193 220 255
193 220 255
193 220 255
193 220 255
193 220 255
193 220 255
193 220 255
193 220 255
193 220 255
193 220 255
193 220 255
193 220 255
193 220 255
193 220 255
193 220 255
193 220 255
193 220 255
193 220 255
193 220 255
193 220 255
193 220 255
193 220 255
193 220 255
193 220 255
193 220 255
193 220 255
193 220 255
193 220 255
193 220 255
193 220 255
193 220 255
193 220 255
193 220 255
193 220 255
193 220 255
193 220 255
193 220 255
194 220 255
194 220 255
194 220 255
194 220 255
194 220 255
194 220 255
194 220 255
194 220 255
194 220 255
194 221 255
194 221 255
194 221 255
194 221 255
194 221 255
194 221 255
194 221 255
194 221 255
194 221 255
194 221 255
194 221 255
194 221 255
194 221 255
194 221 255
194 221 255
194 221 255
194 221 255
194 221 255
194 221 255
194 221 255
194 221 255
194 221 255
195 221 255
195 221 255
195 221 255
195 221 255
195 221 255
195 221 255
195 221 255
195 221 255
195 221 255
195 221 255
195 221 255
195 221 255
195 221 255
195 221 255
195 221 255
195 221 255
195 221 255
195 221 255
195 221 255
195 221 255
195 221 255
196 221 255
196 221 255
196 222 255
196 222 255
196 222 255
196 222 255
196 222 255
196 222 255
196 222 255
196 222 255
196 222 255
196 222 255
196 222 255
196 222 255
196 222 255
196 222 255
196 222 255
196 222 255
197 222 255
197 222 255
197 222 255
197 222 255
197 222 255
197 222 255
197 222 255
197 222 255
197 222 255
197 222 255
197 222 255
197 222 255
197 222 255
197 222 255
197 222 255
197 222 255
198 223 255
198 223 255
198 223 255
198 223 255
198 223 255
198 223 255
198 223 255
198 223 255
198 223 255
198 223 255
198 223 255
198 223 255
198 223 255
198 223 255
198 223 255
198 223 255
199 223 255
199 223 255
199 223 255
199 223 255
199 223 255
199 223 255
199 223 255
199 223 255
199 223 255
198 223 255
198 223 255
198 223 255
198 223 255
198 223 255
198 223 255
198 223 255
198 223 255
198 223 255
198 223 255
198 223 255
198 223 255
198 223 255
198 223 255
198 223 255
198 223 255
197 222 255
197 222 255
197 222 255
197 222 255
197 222 255
197 222 255
197 222 255
197 222 255
197 222 255
197 222 255
197 222 255
197 222 255
197 222 255
197 222 255
197 222 255
197 222 255
197 222 255
196 222 255
196 222 255
196 222 255
196 222 255
196 222 255
196 222 255
196 222 255
196 222 255
196 222 255
196 222 255
196 222 255
196 222 255
196 222 255
196 222 255
196 222 255
196 222 255
196 221 255
195 221 255
195 221 255
195 221 255
195 221 255
195 221 255
195 221 255
195 221 255
195 221 255
195 221 255
195 221 255
195 221 255
195 221 255
195 221 255
195 221 255
195 221 255
195 221 255
195 221 255
195 221 255
195 221 255
195 221 255
195 221 255
195 221 255
194 221 255
194 221 255
194 221 255
194 221 255
194 221 255
194 221 255
194 221 255
194 221 255
194 221 255
194 221 255
194 221 255
194 221 255
194 221 255
194 221 255
194 221 255
194 221 255
194 221 255
194 221 255
194 221 255
194 221 255
194 221 255
194 221 255
194 221 255
194 221 255
194 220 255
194 220 255
194 220 255
194 220 255
194 220 255
194 220 255
194 220 255
194 220 255
194 220 255
194 220 255
193 220 255
193 220 255
193 220 255
193 220 255
193 220 255
193 220 255
193 220 255
193 220 255
193 220 255
193 220 255
193 220 255
193 220 255
193 220 255
193 220 255
193 220 255
193 220 255
193 220 255
193 220 255
193 220 255
193 220 255
193 220 255
193 220 255
193 220 255
193 220 255
193 220 255
193 220 255
193 220 255
193 220 255
193 220 255
193 220 255
193 220 255
193 220 255
193 220 255
194 220 255
194 220 255
194 220 255
194 220 255
194 220 255
194 220 255
194 220 255
194 220 255
194 220 255
194 220 255
194 221 255
194 221 255
194 221 255
194 221 255
194 221 255
194 221 255
194 221 255
194 221 255
194 221 255
194 221 255
194 221 255
194 221 255
194 221 255
194 221 255
194 221 255
194 221 255
194 221 255
194 221 255
194 221 255
194 221 255
194 221 255
194 221 255
194 221 255
194 221 255
195 221 255
195 221 255
195 221 255
195 221 255
195 221 255
195 221 255
195 221 255
195 221 255
195 221 255
195 221 255
195 221 255
195 221 255
195 221 255
195 221 255
195 221 255
195 221 255
195 221 255
195 221 255
195 221 255
195 221 255
195 221 255
195 221 255
196 221 255
196 222 255
196 222 255
196 222 255
196 222 255
196 222 255
196 222 255
196 222 255
196 222 255
196 222 255
196 222 255
196 222 255
196 222 255
196 222 255
196 222 255
196 222 255
196 222 255
197 222 255
197 222 255
197 222 255
197 222 255
197 222 255
197 222 255
197 222 255
197 222 255
197 222 255
197 222 255
197 222 255
197 222 255
197 222 255
197 222 255
197 222 255
197 222 255
197 223 255
198 223 255
198 223 255
198 223 255
198 223 255
198 223 255
198 223 255
198 223 255
198 223 255
198 223 255
198 223 255
198 223 255
198 223 255
198 223 255
198 223 255
198 223 255
198 223 255
199 223 255
199 223 255
199 223 255
199 223 255
199 223 255
199 223 255
199 223 255
199 223 255
199 223 255
199 223 255
199 223 255
199 223 255
199 223 255
198 223 255
198 223 255
198 223 255
198 223 255
198 223 255
198 223 255
198 223 255
198 223 255
198 223 255
198 223 255
198 223 255
198 223 255
198 223 255
198 223 255
198 223 255
198 223 255
197 222 255
197 222 255
197 222 255
197 222 255
197 222 255
197 222 255
197 222 255
197 222 255
197 222 255
197 222 255
197 222 255
197 222 255
197 222 255
197 222 255
197 222 255
197 222 255
197 222 255
196 222 255
196 222 255
196 222 255
196 222 255
196 222 255
196 222 255
196 222 255
196 222 255
196 222 255
196 222 255
196 222 255
196 222 255
196 222 255
196 222 255
196 222 255
196 222 255
196 221 255
196 221 255
195 221 255
195 221 255
195 221 255
195 221 255
195 221 255
195 221 255
195 221 255
195 221 255
195 221 255
195 221 255
195 221 255
195 221 255
195 221 255
195 221 255
195 221 255
195 221 255
195 221 255
195 221 255
195 221 255
195 221 255
195 221 255
195 221 255
194 221 255
194 221 255
194 221 255
194 221 255
194 221 255
194 221 255
194 221 255
194 221 255
194 221 255
194 221 255
194 221 255
194 221 255
194 221 255
194 221 255
194 221 255
194 221 255
194 221 255
194 221 255
194 221 255
194 221 255
194 221 255
194 221 255
194 221 255
194 221 255
194 221 255
194 221 255
194 221 255
194 220 255
194 220 255
194 220 255
194 220 255
194 220 255
194 220 255
194 220 255
194 220 255
194 220 255
194 220 255
194 220 255
194 220 255
194 220 255
194 220 255
194 220 255
194 220 255
194 220 255
194 220 255
194 220 255
193 220 255
193 220 255
194 220 255
193 220 255
194 220 255
194 220 255
194 220 255
194 220 255
194 220 255
194 220 255
194 220 255
194 220 255
194 220 255
194 220 255
194 220 255
194 220 255
194 220 255
194 220 255
194 220 255
194 220 255
194 220 255
194 220 255
194 221 255
194 221 255
194 221 255
194 221 255
194 221 255
194 221 255
194 221 255
194 221 255
194 221 255
194 221 255
194 221 255
194 221 255
194 221 255
194 221 255
194 221 255
194 221 255
194 221 255
194 221 255
194 221 255
194 221 255
194 221 255
194 221 255
194 221 255
194 221 255
194 221 255
194 221 255
194 221 255
194 221 255
195 221 255
195 221 255
195 221 255
195 221 255
195 221 255
195 221 255
195 221 255
195 221 255
195 221 255
195 221 255
195 221 255
195 221 255
195 221 255
195 221 255
195 221 255
195 221 255
195 221 255
195 221 255
195 221 255
195 221 255
195 221 255
196 221 255
196 221 255
196 222 255
196 222 255
196 222 255
196 222 255
196 222 255
196 222 255
196 222 255
196 222 255
196 222 255
196 222 255
196 222 255
196 222 255
196 222 255
196 222 255
196 222 255
196 222 255
197 222 255
197 222 255
197 222 255
197 222 255
197 222 255
197 222 255
197 222 255
197 222 255
197 222 255
197 222 255
197 222 255
197 222 255
197 222 255
197 222 255
197 222 255
197 222 255
197 222 255
198 223 255
198 223 255
198 223 255
198 223 255
198 223 255
198 223 255
198 223 255
198 223 255
198 223 255
198 223 255
198 223 255
198 223 255
198 223 255
198 223 255
198 223 255
198 223 255
199 223 255
199 223 255
199 223 255
199 223 255
199 223 255
199 223 255
199 223 255
199 223 255
199 223 255
199 223 255
199 223 255
199 223 255
199 223 255
199 223 255
199 223 255
199 223 255
199 223 255
198 223 255
198 223 255
198 223 255
198 223 255
198 223 255
198 223 255
198 223 255
198 223 255
198 223 255
198 223 255
198 223 255
198 223 255
198 223 255
198 223 255
198 223 255
198 223 255
197 222 255
197 222 255
197 222 255
197 222 255
197 222 255
197 222 255
197 222 255
197 222 255
197 222 255
197 222 255
197 222 255
197 222 255
197 222 255
197 222 255
197 222 255
197 222 255
197 222 255
196 222 255
196 222 255
196 222 255
196 222 255
196 222 255
196 222 255
196 222 255
196 222 255
196 222 255
196 222 255
196 222 255
196 222 255
196 222 255
196 222 255
196 222 255
196 222 255
196 222 255
196 221 255
195 221 255
195 221 255
195 221 255
195 221 255
195 221 255
195 221 255
195 221 255
195 221 255
195 221 255
195 221 255
195 221 255
195 221 255
195 221 255
195 221 255
195 221 255
195 221 255
195 221 255
195 221 255
195 221 255
195 221 255
195 221 255
195 221 255
195 221 255
194 221 255
194 221 255
194 221 255
194 221 255
194 221 255
194 221 255
194 221 255
194 221 255
194 221 255
194 221 255
194 221 255
194 221 255
194 221 255
194 221 255
194 221 255
194 221 255
194 221 255
194 221 255
194 221 255
194 221 255
194 221 255
194 221 255
194 221 255
194 221 255
194 221 255
194 221 255
194 221 255
194 221 255
194 221 255
194 221 255
194 221 255
194 221 255
194 220 255
194 220 255
194 220 255
194 220 255
194 220 255
194 220 255
194 220 255
194 220 255
194 220 255
194 220 255
194 220 255
194 220 255
194 220 255
194 220 255
194 220 255
194 220 255
194 220 255
194 220 255
194 220 255
194 220 255
194 220 255
194 220 255
194 220 255
194 220 255
194 220 255
194 221 255
194 221 255
194 221 255
194 221 255
194 221 255
194 221 255
194 221 255
194 221 255
194 221 255
194 221 255
194 221 255
194 221 255
194 221 255
194 221 255
194 221 255
194 221 255
194 221 255
194 221 255
194 221 255
194 221 255
194 221 255
194 221 255
194 221 255
194 221 255
194 221 255
194 221 255
194 221 255
194 221 255
194 221 255
194 221 255
194 221 255
194 221 255
195 221 255
195 221 255
195 221 255
195 221 255
195 221 255
195 221 255
195 221 255
195 221 255
195 221 255
195 221 255
195 221 255
195 221 255
195 221 255
195 221 255
195 221 255
195 221 255
195 221 255
195 221 255
195 221 255
195 221 255
195 221 255
195 221 255
195 221 255
196 221 255
196 222 255
196 222 255
196 222 255
196 222 255
196 222 255
196 222 255
196 222 255
196 222 255
196 222 255
196 222 255
196 222 255
196 222 255
196 222 255
196 222 255
196 222 255
196 222 255
196 222 255
197 222 255
197 222 255
197 222 255
197 222 255
197 222 255
197 222 255
197 222 255
197 222 255
197 222 255
197 222 255
197 222 255
197 222 255
197 222 255
197 222 255
197 222 255
197 222 255
197 222 255
198 223 255
198 223 255
198 223 255
198 223 255
198 223 255
198 223 255
198 223 255
198 223 255
198 223 255
198 223 255
198 223 255
198 223 255
198 223 255
198 223 255
198 223 255
198 223 255
199 223 255
199 223 255
199 223 255
199 223 255
199 223 255
199 223 255
199 223 255
199 223 255
199 223 255
199 223 255
199 223 255
199 223 255
199 223 255
199 223 255
199 223 255
199 223 255
199 223 255
199 223 255
199 223 255
199 223 255
199 223 255
198 223 255
198 223 255
198 223 255
198 223 255
198 223 255
198 223 255
198 223 255
198 223 255
198 223 255
198 223 255
198 223 255
198 223 255
198 223 255
198 223 255
198 223 255
198 223 255
197 223 255
197 222 255
197 222 255
197 222 255
197 222 255
197 222 255
197 222 255
197 222 255
197 222 255
197 222 255
197 222 255
197 222 255
197 222 255
197 222 255
197 222 255
197 222 255
197 222 255
196 222 255
196 222 255
196 222 255
196 222 255
196 222 255
196 222 255
196 222 255
196 222 255
196 222 255
196 222 255
196 222 255
196 222 255
196 222 255
196 222 255
196 222 255
196 222 255
196 222 255
196 221 255
196 221 255
195 221 255
195 221 255
195 221 255
195 221 255
195 221 255
195 221 255
195 221 255
195 221 255
195 221 255
195 221 255
195 221 255
195 221 255
195 221 255
195 221 255
195 221 255
195 221 255
195 221 255
195 221 255
195 221 255
195 221 255
195 221 255
195 221 255
195 221 255
194 221 255
194 221 255
194 221 255
194 221 255
194 221 255
194 221 255
194 221 255
194 221 255
194 221 255
194 221 255
194 221 255
194 221 255
194 221 255
194 221 255
194 221 255
194 221 255
194 221 255
194 221 255
194 221 255
194 221 255
194 221 255
194 221 255
194 221 255
194 221 255
194 221 255
194 221 255
194 221 255
194 221 255
194 221 255
194 221 255
194 221 255
194 221 255
194 221 255
194 221 255
194 221 255
194 221 255
194 221 255
194 221 255
194 221 255
194 221 255
194 221 255
194 221 255
194 221 255
194 221 255
194 221 255
194 221 255
194 221 255
194 221 255
194 221 255
194 221 255
194 221 255
194 221 255
194 221 255
194 221 255
194 221 255
194 221 255
194 221 255
194 221 255
194 221 255
194 221 255
194 221 255
194 221 255
194 221 255
194 221 255
194 221 255
194 221 255
194 221 255
194 221 255
194 221 255
194 221 255
194 221 255
194 221 255
194 221 255
194 221 255
194 221 255
194 221 255
194 221 255
194 221 255
194 221 255
194 221 255
194 221 255
194 221 255
194 221 255
195 221 255
195 221 255
195 221 255
195 221 255
195 221 255
195 221 255
195 221 255
195 221 255
195 221 255
195 221 255
195 221 255
195 221 255
195 221 255
195 221 255
195 221 255
195 221 255
195 221 255
195 221 255
195 221 255
195 221 255
195 221 255
195 221 255
195 221 255
196 221 255
196 221 255
196 222 255
196 222 255
196 222 255
196 222 255
196 222 255
196 222 255
196 222 255
196 222 255
196 222 255
196 222 255
196 222 255
196 222 255
196 222 255
196 222 255
196 222 255
196 222 255
196 222 255
197 222 255
197 222 255
197 222 255
197 222 255
197 222 255
197 222 255
197 222 255
197 222 255
197 222 255
197 222 255
197 222 255
197 222 255
197 222 255
197 222 255
197 222 255
197 222 255
197 223 255
198 223 255
198 223 255
198 223 255
198 223 255
198 223 255
198 223 255
198 223 255
198 223 255
198 223 255
198 223 255
198 223 255
198 223 255
198 223 255
198 223 255
198 223 255
198 223 255
199 223 255
199 223 255
199 223 255
199 223 255
199 223 255
199 223 255
199 223 255
199 223 255
199 223 255
199 223 255
199 223 255
199 223 255
199 223 255
199 223 255
199 223 255
199 223 255
199 223 255
199 223 255
199 223 255
199 223 255
199 223 255
199 223 255
199 223 255
199 223 255
199 223 255
198 223 255
198 223 255
198 223 255
198 223 255
198 223 255
198 223 255
198 223 255
198 223 255
198 223 255
198 223 255
198 223 255
198 223 255
198 223 255
198 223 255
198 223 255
198 223 255
197 223 255
197 222 255
197 222 255
197 222 255
197 222 255
197 222 255
197 222 255
197 222 255
197 222 255
197 222 255
197 222 255
197 222 255
197 222 255
197 222 255
197 222 255
197 222 255
197 222 255
196 222 255
196 222 255
196 222 255
196 222 255
196 222 255
196 222 255
196 222 255
196 222 255
196 222 255
196 222 255
196 222 255
196 222 255
196 222 255
196 222 255
196 222 255
196 222 255
196 222 255
196 222 255
196 221 255
195 221 255
195 221 255
195 221 255
195 221 255
195 221 255
195 221 255
195 221 255
195 221 255
195 221 255
195 221 255
195 221 255
195 221 255
195 221 255
195 221 255
195 221 255
195 221 255
195 221 255
195 221 255
195 221 255
195 221 255
195 221 255
195 221 255
195 221 255
195 221 255
195 221 255
194 221 255
194 221 255
194 221 255
194 221 255
194 221 255
194 221 255
194 221 255
194 221 255
194 221 255
194 221 255
194 221 255
194 221 255
194 221 255
194 221 255
194 221 255
194 221 255
194 221 255
194 221 255
194 221 255
194 221 255
194 221 255
194 221 255
194 221 255
194 221 255
194 221 255
194 221 255
194 221 255
194 221 255
194 221 255
194 221 255
194 221 255
194 221 255
194 221 255
194 221 255
194 221 255
194 221 255
194 221 255
194 221 255
194 221 255
194 221 255
194 221 255
194 221 255
194 221 255
194 221 255
194 221 255
194 221 255
194 221 255
194 221 255
194 221 255
194 221 255
194 221 255
194 221 255
194 221 255
194 221 255
194 221 255
194 221 255
194 221 255
194 221 255
194 221 255
194 221 255
194 221 255
194 221 255
194 221 255
194 221 255
194 221 255
194 221 255
194 221 255
194 221 255
194 221 255
194 221 255
194 221 255
194 221 255
194 221 255
194 221 255
194 221 255
195 221 255
195 221 255
195 221 255
195 221 255
195 221 255
195 221 255
195 221 255
195 221 255
195 221 255
195 221 255
195 221 255
195 221 255
195 221 255
195 221 255
195 221 255
195 221 255
195 221 255
195 221 255
195 221 255
195 221 255
195 221 255
195 221 255
195 221 255
195 221 255
195 221 255
196 221 255
196 222 255
196 222 255
196 222 255
196 222 255
196 222 255
196 222 255
196 222 255
196 222 255
196 222 255
196 222 255
196 222 255
196 222 255
196 222 255
196 222 255
196 222 255
196 222 255
196 222 255
197 222 255
197 222 255
197 222 255
197 222 255
197 222 255
197 222 255
197 222 255
197 222 255
197 222 255
197 222 255
197 222 255
197 222 255
197 222 255
197 222 255
197 222 255
197 222 255
197 222 255
197 223 255
198 223 255
198 223 255
198 223 255
198 223 255
198 223 255
198 223 255
198 223 255
198 223 255
198 223 255
198 223 255
198 223 255
198 223 255
198 223 255
198 223 255
198 223 255
198 223 255
199 223 255
199 223 255
199 223 255
199 223 255
199 223 255
199 223 255
199 223 255
199 223 255
199 223 255
199 223 255
199 223 255
199 223 255
199 223 255
199 223 255
199 224 255
199 223 255
199 223 255
199 223 255
199 223 255
199 223 255
199 223 255
199 223 255
199 223 255
199 223 255
199 223 255
199 223 255
199 223 255
199 223 255
199 223 255
198 223 255
198 223 255
198 223 255
198 223 255
198 223 255
198 223 255
198 223 255
198 223 255
198 223 255
198 223 255
198 223 255
198 223 255
198 223 255
198 223 255
198 223 255
198 223 255
198 223 255
197 222 255
197 222 255
197 222 255
197 222 255
197 222 255
197 222 255
197 222 255
197 222 255
197 222 255
197 222 255
197 222 255
197 222 255
197 222 255
197 222 255
197 222 255
197 222 255
197 222 255
196 222 255
196 222 255
196 222 255
196 222 255
196 222 255
196 222 255
196 222 255
196 222 255
196 222 255
196 222 255
196 222 255
196 222 255
196 222 255
196 222 255
196 222 255
196 222 255
196 222 255
196 221 255
196 221 255
195 221 255
195 221 255
195 221 255
195 221 255
195 221 255
195 221 255
195 221 255
195 221 255
195 221 255
195 221 255
195 221 255
195 221 255
195 221 255
195 221 255
195 221 255
195 221 255
195 221 255
195 221 255
195 221 255
195 221 255
195 221 255
195 221 255
195 221 255
195 221 255
195 221 255
195 221 255
194 221 255
194 221 255
194 221 255
194 221 255
194 221 255
194 221 255
194 221 255
194 221 255
194 221 255
194 221 255
194 221 255
194 221 255
194 221 255
194 221 255
194 221 255
194 221 255
194 221 255
194 221 255
194 221 255
194 221 255
194 221 255
194 221 255
194 221 255
194 221 255
194 221 255
194 221 255
194 221 255
194 221 255
194 221 255
194 221 255
194 221 255
194 221 255
194 221 255
194 221 255
194 221 255
194 221 255
194 221 255
194 221 255
194 221 255
194 221 255
194 221 255
194 221 255
194 221 255
194 221 255
194 221 255
194 221 255
194 221 255
194 221 255
194 221 255
194 221 255
194 221 255
194 221 255
194 221 255
194 221 255
194 221 255
194 221 255
194 221 255
194 221 255
194 221 255
194 221 255
194 221 255
194 221 255
194 221 255
194 221 255
194 221 255
194 221 255
194 221 255
195 221 255
195 221 255
195 221 255
195 221 255
195 221 255
195 221 255
195 221 255
195 221 255
195 221 255
195 221 255
195 221 255
195 221 255
195 221 255
195 221 255
195 221 255
195 221 255
195 221 255
195 221 255
195 221 255
195 221 255
195 221 255
195 221 255
195 221 255
195 221 255
195 221 255
195 221 255
196 221 255
196 221 255
196 222 255
196 222 255
196 222 255
196 222 255
196 222 255
196 222 255
196 222 255
196 222 255
196 222 255
196 222 255
196 222 255
196 222 255
196 222 255
196 222 255
196 222 255
196 222 255
196 222 255
197 222 255
197 222 255
197 222 255
197 222 255
197 222 255
197 222 255
197 222 255
197 222 255
197 222 255
197 222 255
197 222 255
197 222 255
197 222 255
197 222 255
197 222 255
197 222 255
197 222 255
197 223 255
198 223 255
198 223 255
198 223 255
198 223 255
198 223 255
198 223 255
198 223 255
198 223 255
198 223 255
198 223 255
198 223 255
198 223 255
198 223 255
198 223 255
198 223 255
198 223 255
199 223 255
199 223 255
199 223 255
199 223 255
199 223 255
199 223 255
199 223 255
199 223 255
199 223 255
199 223 255
199 223 255
199 223 255
199 223 255
199 224 255
199 224 255
199 224 255
200 224 255
199 224 255
199 224 255
199 223 255
199 223 255
199 223 255
199 223 255
199 223 255
199 223 255
199 223 255
199 223 255
199 223 255
199 223 255
199 223 255
199 223 255
199 223 255
199 223 255
198 223 255
198 223 255
198 223 255
198 223 255
198 223 255
198 223 255
198 223 255
198 223 255
198 223 255
198 223 255
198 223 255
198 223 255
198 223 255
198 223 255
198 223 255
198 223 255
198 223 255
197 222 255
197 222 255
197 222 255
197 222 255
197 222 255
197 222 255
197 222 255
197 222 255
197 222 255
197 222 255
197 222 255
197 222 255
197 222 255
197 222 255
197 222 255
197 222 255
197 222 255
196 222 255
196 222 255
196 222 255
196 222 255
196 222 255
196 222 255
196 222 255
196 222 255
196 222 255
196 222 255
196 222 255
196 222 255
196 222 255
196 222 255
196 222 255
196 222 255
196 222 255
196 222 255
196 221 255
196 221 255
195 221 255
195 221 255
195 221 255
195 221 255
195 221 255
195 221 255
195 221 255
195 221 255
195 221 255
195 221 255
195 221 255
195 221 255
195 221 255
195 221 255
195 221 255
195 221 255
195 221 255
195 221 255
195 221 255
195 221 255
195 221 255
195 221 255
195 221 255
195 221 255
195 221 255
195 221 255
195 221 255
195 221 255
194 221 255
194 221 255
194 221 255
194 221 255
194 221 255
194 221 255
194 221 255
194 221 255
194 221 255
194 221 255
194 221 255
194 221 255
194 221 255
194 221 255
194 221 255
194 221 255
194 221 255
194 221 255
194 221 255
194 221 255
194 221 255
194 221 255
194 221 255
194 221 255
194 221 255
194 221 255
194 221 255
194 221 255
194 221 255
194 221 255
194 221 255
194 221 255
194 221 255
194 221 255
194 221 255
194 221 255
194 221 255
194 221 255
194 221 255
194 221 255
194 221 255
194 221 255
194 221 255
194 221 255
194 221 255
194 221 255
194 221 255
194 221 255
194 221 255
194 221 255
194 221 255
194 221 255
194 221 255
194 221 255
194 221 255
194 221 255
194 221 255
194 221 255
195 221 255
195 221 255
195 221 255
195 221 255
195 221 255
195 221 255
195 221 255
195 221 255
195 221 255
195 221 255
195 221 255
195 221 255
195 221 255
195 221 255
195 221 255
195 221 255
195 221 255
195 221 255
195 221 255
195 221 255
195 221 255
195 221 255
195 221 255
195 221 255
195 221 255
195 221 255
195 221 255
196 221 255
196 221 255
196 222 255
196 222 255
196 222 255
196 222 255
196 222 255
196 222 255
196 222 255
196 222 255
196 222 255
196 222 255
196 222 255
196 222 255
196 222 255
196 222 255
196 222 255
196 222 255
196 222 255
196 222 255
197 222 255
197 222 255
197 222 255
197 222 255
197 222 255
197 222 255
197 222 255
197 222 255
197 222 255
197 222 255
197 222 255
197 222 255
197 222 255
197 222 255
197 222 255
197 222 255
197 222 255
198 223 255
198 223 255
198 223 255
198 223 255
198 223 255
198 223 255
198 223 255
198 223 255
198 223 255
198 223 255
198 223 255
198 223 255
198 223 255
198 223 255
198 223 255
198 223 255
198 223 255
199 223 255
199 223 255
199 223 255
199 223 255
199 223 255
199 223 255
199 223 255
199 223 255
199 223 255
199 223 255
199 223 255
199 223 255
199 223 255
199 223 255
199 224 255
199 224 255
200 224 255
200 224 255
200 224 255
200 224 255
200 224 255
199 224 255
199 224 255
199 224 255
199 223 255
199 223 255
199 223 255
199 223 255
199 223 255
199 223 255
199 223 255
199 223 255
199 223 255
199 223 255
199 223 255
199 223 255
199 223 255
198 223 255
198 223 255
198 223 255
198 223 255
198 223 255
198 223 255
198 223 255
198 223 255
198 223 255
198 223 255
198 223 255
198 223 255
198 223 255
198 223 255
198 223 255
198 223 255
198 223 255
197 222 255
197 222 255
197 222 255
197 222 255
197 222 255
197 222 255
197 222 255
197 222 255
197 222 255
197 222 255
197 222 255
197 222 255
197 222 255
197 222 255
197 222 255
197 222 255
197 222 255
196 222 255
196 222 255
196 222 255
196 222 255
196 222 255
196 222 255
196 222 255
196 222 255
196 222 255
196 222 255
196 222 255
196 222 255
196 222 255
196 222 255
196 222 255
196 222 255
196 222 255
196 222 255
196 222 255
196 221 255
196 221 255
195 221 255
195 221 255
195 221 255
195 221 255
195 221 255
195 221 255
195 221 255
195 221 255
195 221 255
195 221 255
195 221 255
195 221 255
195 221 255
195 221 255
195 221 255
195 221 255
195 221 255
195 221 255
195 221 255
195 221 255
195 221 255
195 221 255
195 221 255
195 221 255
195 221 255
195 221 255
195 221 255
195 221 255
195 221 255
194 221 255
194 221 255
194 221 255
194 221 255
194 221 255
194 221 255
194 221 255
194 221 255
194 221 255
194 221 255
194 221 255
194 221 255
194 221 255
194 221 255
194 221 255
194 221 255
194 221 255
194 221 255
194 221 255
194 221 255
194 221 255
194 221 255
194 221 255
194 221 255
194 221 255
194 221 255
194 221 255
194 221 255
194 221 255
194 221 255
194 221 255
194 221 255
194 221 255
194 221 255
194 221 255
194 221 255
194 221 255
194 221 255
194 221 255
194 221 255
194 221 255
194 221 255
194 221 255
194 221 255
194 221 255
194 221 255
194 221 255
194 221 255
195 221 255
195 221 255
195 221 255
195 221 255
195 221 255
195 221 255
195 221 255
195 221 255
195 221 255
195 221 255
195 221 255
195 221 255
195 221 255
195 221 255
195 221 255
195 221 255
195 221 255
195 221 255
195 221 255
195 221 255
195 221 255
195 221 255
195 221 255
195 221 255
195 221 255
195 221 255
195 221 255
195 221 255
195 221 255
195 221 255
196 221 255
196 221 255
196 222 255
196 222 255
196 222 255
196 222 255
196 222 255
196 222 255
196 222 255
196 222 255
196 222 255
196 222 255
196 222 255
196 222 255
196 222 255
196 222 255
196 222 255
196 222 255
196 222 255
196 222 255
197 222 255
197 222 255
197 222 255
197 222 255
197 222 255
197 222 255
197 222 255
197 222 255
197 222 255
197 222 255
197 222 255
197 222 255
197 222 255
197 222 255
197 222 255
197 222 255
197 222 255
197 222 255
198 223 255
198 223 255
198 223 255
198 223 255
198 223 255
198 223 255
198 223 255
198 223 255
198 223 255
198 223 255
198 223 255
198 223 255
198 223 255
198 223 255
198 223 255
198 223 255
198 223 255
199 223 255
199 223 255
199 223 255
199 223 255
199 223 255
199 223 255
199 223 255
199 223 255
199 223 255
199 223 255
199 223 255
199 223 255
199 223 255
199 224 255
199 224 255
199 224 255
200 224 255
200 224 255
200 224 255
200 224 255
200 224 255
200 224 255
200 224 255
200 224 255
200 224 255
199 224 255
199 224 255
199 224 255
199 223 255
199 223 255
199 223 255
199 223 255
199 223 255
199 223 255
199 223 255
199 223 255
199 223 255
199 223 255
199 223 255
199 223 255
199 223 255
198 223 255
198 223 255
198 223 255
198 223 255
198 223 255
198 223 255
198 223 255
198 223 255
198 223 255
198 223 255
198 223 255
198 223 255
198 223 255
198 223 255
198 223 255
198 223 255
198 223 255
197 223 255
197 222 255
197 222 255
197 222 255
197 222 255
197 222 255
197 222 255
197 222 255
197 222 255
197 222 255
197 222 255
197 222 255
197 222 255
197 222 255
197 222 255
197 222 255
197 222 255
197 222 255
196 222 255
196 222 255
196 222 255
196 222 255
196 222 255
196 222 255
196 222 255
196 222 255
196 222 255
196 222 255
196 222 255
196 222 255
196 222 255
196 222 255
196 222 255
196 222 255
196 222 255
196 222 255
196 222 255
196 221 255
196 221 255
195 221 255
195 221 255
195 221 255
195 221 255
195 221 255
195 221 255
195 221 255
195 221 255
195 221 255
195 221 255
195 221 255
195 221 255
195 221 255
195 221 255
195 221 255
195 221 255
195 221 255
195 221 255
195 221 255
195 221 255
195 221 255
195 221 255
195 221 255
195 221 255
195 221 255
195 221 255
195 221 255
195 221 255
195 221 255
195 221 255
195 221 255
195 221 255
195 221 255
194 221 255
194 221 255
194 221 255
194 221 255
194 221 255
194 221 255
194 221 255
194 221 255
194 221 255
194 221 255
194 221 255
194 221 255
194 221 255
194 221 255
194 221 255
194 221 255
194 221 255
194 221 255
194 221 255
194 221 255
194 221 255
194 221 255
194 221 255
194 221 255
194 221 255
194 221 255
194 221 255
194 221 255
194 221 255
194 221 255
194 221 255
194 221 255
194 221 255
194 221 255
194 221 255
195 221 255
195 221 255
195 221 255
195 221 255
195 221 255
195 221 255
195 221 255
195 221 255
195 221 255
195 221 255
195 221 255
195 221 255
195 221 255
195 221 255
195 221 255
195 221 255
195 221 255
195 221 255
195 221 255
195 221 255
195 221 255
195 221 255
195 221 255
195 221 255
195 221 255
195 221 255
195 221 255
195 221 255
195 221 255
195 221 255
195 221 255
195 221 255
195 221 255
196 221 255
196 221 255
196 222 255
196 222 255
196 222 255
196 222 255
196 222 255
196 222 255
196 222 255
196 222 255
196 222 255
196 222 255
196 222 255
196 222 255
196 222 255
196 222 255
196 222 255
196 222 255
196 222 255
196 222 255
196 222 255
197 222 255
197 222 255
197 222 255
197 222 255
197 222 255
197 222 255
197 222 255
197 222 255
197 222 255
197 222 255
197 222 255
197 222 255
197 222 255
197 222 255
197 222 255
197 222 255
197 222 255
197 223 255
198 223 255
198 223 255
198 223 255
198 223 255
198 223 255
198 223 255
198 223 255
198 223 255
198 223 255
198 223 255
198 223 255
198 223 255
198 223 255
198 223 255
198 223 255
198 223 255
198 223 255
199 223 255
199 223 255
199 223 255
199 223 255
199 223 255
199 223 255
199 223 255
199 223 255
199 223 255
199 223 255
199 223 255
199 223 255
199 223 255
199 224 255
199 224 255
199 224 255
200 224 255
200 224 255
200 224 255
200 224 255
200 224 255
200 224 255
200 224 255
200 224 255
200 224 255
200 224 255
200 224 255
200 224 255
200 224 255
199 224 255
199 224 255
199 224 255
199 223 255
199 223 255
199 223 255
199 223 255
199 223 255
199 223 255
199 223 255
199 223 255
199 223 255
199 223 255
199 223 255
199 223 255
199 223 255
198 223 255
198 223 255
198 223 255
198 223 255
198 223 255
198 223 255
198 223 255
198 223 255
198 223 255
198 223 255
198 223 255
198 223 255
198 223 255
198 223 255
198 223 255
198 223 255
198 223 255
197 223 255
197 222 255
197 222 255
197 222 255
197 222 255
197 222 255
197 222 255
197 222 255
197 222 255
197 222 255
197 222 255
197 222 255
197 222 255
197 222 255
197 222 255
197 222 255
197 222 255
197 222 255
196 222 255
196 222 255
196 222 255
196 222 255
196 222 255
196 222 255
196 222 255
196 222 255
196 222 255
196 222 255
196 222 255
196 222 255
196 222 255
196 222 255
196 222 255
196 222 255
196 222 255
196 222 255
196 222 255
196 222 255
196 221 255
196 221 255
195 221 255
195 221 255
195 221 255
195 221 255
195 221 255
195 221 255
195 221 255
195 221 255
195 221 255
195 221 255
195 221 255
195 221 255
195 221 255
195 221 255
195 221 255
195 221 255
195 221 255
195 221 255
195 221 255
195 221 255
195 221 255
195 221 255
195 221 255
195 221 255
195 221 255
195 221 255
195 221 255
195 221 255
195 221 255
195 221 255
195 221 255
195 221 255
195 221 255
195 221 255
195 221 255
195 221 255
195 221 255
195 221 255
195 221 255
195 221 255
195 221 255
195 221 255
195 221 255
195 221 255
195 221 255
194 221 255
195 221 255
194 221 255
195 221 255
194 221 255
194 221 255
195 221 255
195 221 255
195 221 255
195 221 255
195 221 255
195 221 255
195 221 255
195 221 255
195 221 255
195 221 255
195 221 255
195 221 255
195 221 255
195 221 255
195 221 255
195 221 255
195 221 255
195 221 255
195 221 255
195 221 255
195 221 255
195 221 255
195 221 255
195 221 255
195 221 255
195 221 255
195 221 255
195 221 255
195 221 255
195 221 255
195 221 255
195 221 255
195 221 255
195 221 255
195 221 255
195 221 255
195 221 255
195 221 255
195 221 255
195 221 255
195 221 255
195 221 255
195 221 255
195 221 255
196 221 255
196 221 255
196 222 255
196 222 255
196 222 255
196 222 255
196 222 255
196 222 255
196 222 255
196 222 255
196 222 255
196 222 255
196 222 255
196 222 255
196 222 255
196 222 255
196 222 255
196 222 255
196 222 255
196 222 255
196 222 255
197 222 255
197 222 255
197 222 255
197 222 255
197 222 255
197 222 255
197 222 255
197 222 255
197 222 255
197 222 255
197 222 255
197 222 255
197 222 255
197 222 255
197 222 255
197 222 255
197 222 255
197 222 255
198 223 255
198 223 255
198 223 255
198 223 255
198 223 255
198 223 255
198 223 255
198 223 255
198 223 255
198 223 255
198 223 255
198 223 255
198 223 255
198 223 255
198 223 255
198 223 255
198 223 255
199 223 255
199 223 255
199 223 255
199 223 255
199 223 255
199 223 255
199 223 255
199 223 255
199 223 255
199 223 255
199 223 255
199 223 255
199 223 255
199 223 255
199 224 255
199 224 255
199 224 255
200 224 255
200 224 255
200 224 255
200 224 255
200 224 255
200 224 255
200 224 255
200 224 255
200 224 255
200 224 255
200 224 255
200 224 255
200 224 255
200 224 255
200 224 255
200 224 255
200 224 255
199 224 255
199 224 255
199 224 255
199 223 255
199 223 255
199 223 255
199 223 255
199 223 255
199 223 255
199 223 255
199 223 255
199 223 255
199 223 255
199 223 255
199 223 255
199 223 255
199 223 255
198 223 255
198 223 255
198 223 255
198 223 255
198 223 255
198 223 255
198 223 255
198 223 255
198 223 255
198 223 255
198 223 255
198 223 255
198 223 255
198 223 255
198 223 255
198 223 255
198 223 255
197 222 255
197 222 255
197 222 255
197 222 255
197 222 255
197 222 255
197 222 255
197 222 255
197 222 255
197 222 255
197 222 255
197 222 255
197 222 255
197 222 255
197 222 255
197 222 255
197 222 255
197 222 255
196 222 255
196 222 255
196 222 255
196 222 255
196 222 255
196 222 255
196 222 255
196 222 255
196 222 255
196 222 255
196 222 255
196 222 255
196 222 255
196 222 255
196 222 255
196 222 255
196 222 255
196 222 255
196 222 255
196 222 255
196 222 255
196 221 255
196 221 255
195 221 255
195 221 255
195 221 255
195 221 255
195 221 255
195 221 255
195 221 255
195 221 255
195 221 255
195 221 255
195 221 255
195 221 255
195 221 255
195 221 255
195 221 255
195 221 255
195 221 255
195 221 255
195 221 255
195 221 255
195 221 255
195 221 255
195 221 255
195 221 255
195 221 255
195 221 255
195 221 255
195 221 255
195 221 255
195 221 255
195 221 255
195 221 255
195 221 255
195 221 255
195 221 255
195 221 255
195 221 255
195 221 255
195 221 255
195 221 255
195 221 255
195 221 255
195 221 255
195 221 255
195 221 255
195 221 255
195 221 255
195 221 255
195 221 255
195 221 255
195 221 255
195 221 255
195 221 255
195 221 255
195 221 255
195 221 255
195 221 255
195 221 255
195 221 255
195 221 255
195 221 255
195 221 255
195 221 255
195 221 255
195 221 255
195 221 255
195 221 255
195 221 255
195 221 255
195 221 255
195 221 255
195 221 255
195 221 255
195 221 255
195 221 255
195 221 255
195 221 255
195 221 255
195 221 255
195 221 255
195 221 255
195 221 255
195 221 255
195 221 255
195 221 255
195 221 255
195 221 255
196 221 255
196 221 255
196 221 255
196 222 255
196 222 255
196 222 255
196 222 255
196 222 255
196 222 255
196 222 255
196 222 255
196 222 255
196 222 255
196 222 255
196 222 255
196 222 255
196 222 255
196 222 255
196 222 255
196 222 255
196 222 255
196 222 255
196 222 255
197 222 255
197 222 255
197 222 255
197 222 255
197 222 255
197 222 255
197 222 255
197 222 255
197 222 255
197 222 255
197 222 255
197 222 255
197 222 255
197 222 255
197 222 255
197 222 255
197 222 255
197 222 255
198 223 255
198 223 255
198 223 255
198 223 255
198 223 255
198 223 255
198 223 255
198 223 255
198 223 255
198 223 255
198 223 255
198 223 255
198 223 255
198 223 255
198 223 255
198 223 255
198 223 255
199 223 255
199 223 255
199 223 255
199 223 255
199 223 255
199 223 255
199 223 255
199 223 255
199 223 255
199 223 255
199 223 255
199 223 255
199 223 255
199 223 255
199 224 255
199 224 255
200 224 255
200 224 255
200 224 255
200 224 255
200 224 255
200 224 255
200 224 255
200 224 255
200 224 255
200 224 255
200 224 255
200 224 255
200 224 255
200 224 255
200 224 255
200 224 255
200 224 255
200 224 255
200 224 255
200 224 255
200 224 255
200 224 255
200 224 255
199 224 255
199 224 255
199 223 255
199 223 255
199 223 255
199 223 255
199 223 255
199 223 255
199 223 255
199 223 255
199 223 255
199 223 255
199 223 255
199 223 255
199 223 255
199 223 255
198 223 255
198 223 255
198 223 255
198 223 255
198 223 255
198 223 255
198 223 255
198 223 255
198 223 255
198 223 255
198 223 255
198 223 255
198 223 255
198 223 255
198 223 255
198 223 255
198 223 255
197 223 255
197 222 255
197 222 255
197 222 255
197 222 255
197 222 255
197 222 255
197 222 255
197 222 255
197 222 255
197 222 255
197 222 255
197 222 255
197 222 255
197 222 255
197 222 255
197 222 255
197 222 255
197 222 255
196 222 255
196 222 255
196 222 255
196 222 255
196 222 255
196 222 255
196 222 255
196 222 255
196 222 255
196 222 255
196 222 255
196 222 255
196 222 255
196 222 255
196 222 255
196 222 255
196 222 255
196 222 255
196 222 255
196 222 255
196 222 255
196 221 255
196 221 255
195 221 255
195 221 255
195 221 255
195 221 255
195 221 255
195 221 255
195 221 255
195 221 255
195 221 255
195 221 255
195 221 255
195 221 255
195 221 255
195 221 255
195 221 255
195 221 255
195 221 255
195 221 255
195 221 255
195 221 255
195 221 255
195 221 255
195 221 255
195 221 255
195 221 255
195 221 255
195 221 255
195 221 255
195 221 255
195 221 255
195 221 255
195 221 255
195 221 255
195 221 255
195 221 255
195 221 255
195 221 255
195 221 255
195 221 255
195 221 255
195 221 255
195 221 255
195 221 255
195 221 255
195 221 255
195 221 255
195 221 255
195 221 255
195 221 255
195 221 255
195 221 255
195 221 255
195 221 255
195 221 255
195 221 255
195 221 255
195 221 255
195 221 255
195 221 255
195 221 255
195 221 255
195 221 255
195 221 255
195 221 255
195 221 255
195 221 255
195 221 255
195 221 255
195 221 255
195 221 255
195 221 255
195 221 255
195 221 255
195 221 255
195 221 255
195 221 255
195 221 255
195 221 255
195 221 255
195 221 255
195 221 255
196 221 255
196 221 255
196 222 255
196 222 255
196 222 255
196 222 255
196 222 255
196 222 255
196 222 255
196 222 255
196 222 255
196 222 255
196 222 255
196 222 255
196 222 255
196 222 255
196 222 255
196 222 255
196 222 255
196 222 255
196 222 255
196 222 255
196 222 255
197 222 255
197 222 255
197 222 255
197 222 255
197 222 255
197 222 255
197 222 255
197 222 255
197 222 255
197 222 255
197 222 255
197 222 255
197 222 255
197 222 255
197 222 255
197 222 255
197 222 255
197 222 255
197 223 255
198 223 255
198 223 255
198 223 255
198 223 255
198 223 255
198 223 255
198 223 255
198 223 255
198 223 255
198 223 255
198 223 255
198 223 255
198 223 255
198 223 255
198 223 255
198 223 255
198 223 255
199 223 255
199 223 255
199 223 255
199 223 255
199 223 255
199 223 255
199 223 255
199 223 255
199 223 255
199 223 255
199 223 255
199 223 255
199 223 255
199 223 255
199 224 255
199 224 255
200 224 255
200 224 255
200 224 255
200 224 255
200 224 255
200 224 255
200 224 255
200 224 255
200 224 255
200 224 255
200 224 255
200 224 255
200 224 255
200 224 255
200 224 255
200 224 255
200 224 255
200 224 255
200 224 255
200 224 255
200 224 255
200 224 255
200 224 255
200 224 255
200 224 255
200 224 255
200 224 255
199 224 255
199 224 255
199 223 255
199 223 255
199 223 255
199 223 255
199 223 255
199 223 255
199 223 255
199 223 255
199 223 255
199 223 255
199 223 255
199 223 255
199 223 255
199 223 255
198 223 255
198 223 255
198 223 255
198 223 255
198 223 255
198 223 255
198 223 255
198 223 255
198 223 255
198 223 255
198 223 255
198 223 255
198 223 255
198 223 255
198 223 255
198 223 255
198 223 255
198 223 255
197 222 255
197 222 255
197 222 255
197 222 255
197 222 255
197 222 255
197 222 255
197 222 255
197 222 255
197 222 255
197 222 255
197 222 255
197 222 255
197 222 255
197 222 255
197 222 255
197 222 255
197 222 255
197 222 255
196 222 255
196 222 255
196 222 255
196 222 255
196 222 255
196 222 255
196 222 255
196 222 255
196 222 255
196 222 255
196 222 255
196 222 255
196 222 255
196 222 255
196 222 255
196 222 255
196 222 255
196 222 255
196 222 255
196 222 255
196 222 255
196 222 255
196 221 255
196 221 255
195 221 255
195 221 255
195 221 255
195 221 255
195 221 255
195 221 255
195 221 255
195 221 255
195 221 255
195 221 255
195 221 255
195 221 255
195 221 255
195 221 255
195 221 255
195 221 255
195 221 255
195 221 255
195 221 255
195 221 255
195 221 255
195 221 255
195 221 255
195 221 255
195 221 255
195 221 255
195 221 255
195 221 255
195 221 255
195 221 255
195 221 255
195 221 255
195 221 255
195 221 255
195 221 255
195 221 255
195 221 255
195 221 255
195 221 255
195 221 255
195 221 255
195 221 255
195 221 255
195 221 255
195 221 255
195 221 255
195 221 255
195 221 255
195 221 255
195 221 255
195 221 255
195 221 255
195 221 255
195 221 255
195 221 255
195 221 255
195 221 255
195 221 255
195 221 255
195 221 255
195 221 255
195 221 255
195 221 255
195 221 255
195 221 255
195 221 255
195 221 255
195 221 255
195 221 255
195 221 255
195 221 255
195 221 255
195 221 255
196 221 255
196 221 255
196 222 255
196 222 255
196 222 255
196 222 255
196 222 255
196 222 255
196 222 255
196 222 255
196 222 255
196 222 255
196 222 255
196 222 255
196 222 255
196 222 255
196 222 255
196 222 255
196 222 255
196 222 255
196 222 255
196 222 255
196 222 255
196 222 255
197 222 255
197 222 255
197 222 255
197 222 255
197 222 255
197 222 255
197 222 255
197 222 255
197 222 255
197 222 255
197 222 255
197 222 255
197 222 255
197 222 255
197 222 255
197 222 255
197 222 255
197 222 255
197 222 255
197 223 255
198 223 255
198 223 255
198 223 255
198 223 255
198 223 255
198 223 255
198 223 255
198 223 255
198 223 255
198 223 255
198 223 255
198 223 255
198 223 255
198 223 255
198 223 255
198 223 255
198 223 255
199 223 255
199 223 255
199 223 255
199 223 255
199 223 255
199 223 255
199 223 255
199 223 255
199 223 255
199 223 255
199 223 255
199 223 255
199 223 255
199 224 255
199 224 255
199 224 255
200 224 255
200 224 255
200 224 255
200 224 255
200 224 255
200 224 255
200 224 255
200 224 255
200 224 255
200 224 255
200 224 255
200 224 255
200 224 255
200 224 255
200 224 255
200 224 255
200 224 255
200 224 255
200 224 255
200 224 255
200 224 255
200 224 255
200 224 255
200 224 255
200 224 255
200 224 255
200 224 255
200 224 255
200 224 255
200 224 255
200 224 255
199 224 255
199 224 255
199 224 255
199 223 255
199 223 255
199 223 255
199 223 255
199 223 255
199 223 255
199 223 255
199 223 255
199 223 255
199 223 255
199 223 255
199 223 255
199 223 255
199 223 255
198 223 255
198 223 255
198 223 255
198 223 255
198 223 255
198 223 255
198 223 255
198 223 255
198 223 255
198 223 255
198 223 255
198 223 255
198 223 255
198 223 255
198 223 255
198 223 255
198 223 255
197 222 255
197 222 255
197 222 255
197 222 255
197 222 255
197 222 255
197 222 255
197 222 255
197 222 255
197 222 255
197 222 255
197 222 255
197 222 255
197 222 255
197 222 255
197 222 255
197 222 255
197 222 255
197 222 255
197 222 255
196 222 255
196 222 255
196 222 255
196 222 255
196 222 255
196 222 255
196 222 255
196 222 255
196 222 255
196 222 255
196 222 255
196 222 255
196 222 255
196 222 255
196 222 255
196 222 255
196 222 255
196 222 255
196 222 255
196 222 255
196 222 255
196 222 255
196 222 255
196 221 255
196 221 255
196 221 255
195 221 255
195 221 255
195 221 255
195 221 255
195 221 255
195 221 255
195 221 255
195 221 255
195 221 255
195 221 255
195 221 255
195 221 255
195 221 255
195 221 255
195 221 255
195 221 255
195 221 255
195 221 255
195 221 255
195 221 255
195 221 255
195 221 255
195 221 255
195 221 255
195 221 255
195 221 255
195 221 255
195 221 255
195 221 255
195 221 255
195 221 255
195 221 255
195 221 255
195 221 255
195 221 255
195 221 255
195 221 255
195 221 255
195 221 255
195 221 255
195 221 255
195 221 255
195 221 255
195 221 255
195 221 255
195 221 255
195 221 255
195 221 255
195 221 255
195 221 255
195 221 255
195 221 255
195 221 255
195 221 255
195 221 255
195 221 255
195 221 255
195 221 255
195 221 255
195 221 255
195 221 255
195 221 255
195 221 255
195 221 255
196 221 255
196 221 255
196 222 255
196 222 255
196 222 255
196 222 255
196 222 255
196 222 255
196 222 255
196 222 255
196 222 255
196 222 255
196 222 255
196 222 255
196 222 255
196 222 255
196 222 255
196 222 255
196 222 255
196 222 255
196 222 255
196 222 255
196 222 255
196 222 255
196 222 255
197 222 255
197 222 255
197 222 255
197 222 255
197 222 255
197 222 255
197 222 255
197 222 255
197 222 255
197 222 255
197 222 255
197 222 255
197 222 255
197 222 255
197 222 255
197 222 255
197 222 255
197 222 255
197 222 255
197 223 255
198 223 255
198 223 255
198 223 255
198 223 255
198 223 255
198 223 255
198 223 255
198 223 255
198 223 255
198 223 255
198 223 255
198 223 255
198 223 255
198 223 255
198 223 255
198 223 255
198 223 255
199 223 255
199 223 255
199 223 255
199 223 255
199 223 255
199 223 255
199 223 255
199 223 255
199 223 255
199 223 255
199 223 255
199 223 255
199 223 255
199 223 255
199 224 255
199 224 255
199 224 255
200 224 255
200 224 255
200 224 255
200 224 255
200 224 255
200 224 255
200 224 255
200 224 255
200 224 255
200 224 255
200 224 255
200 224 255
200 224 255
200 224 255
200 224 255
200 224 255
201 224 255
201 224 255
201 224 255
200 224 255
200 224 255
200 224 255
200 224 255
200 224 255
200 224 255
200 224 255
200 224 255
200 224 255
200 224 255
200 224 255
200 224 255
200 224 255
200 224 255
200 224 255
200 224 255
200 224 255
199 224 255
199 224 255
199 223 255
199 223 255
199 223 255
199 223 255
199 223 255
199 223 255
199 223 255
199 223 255
199 223 255
199 223 255
199 223 255
199 223 255
199 223 255
199 223 255
198 223 255
198 223 255
198 223 255
198 223 255
198 223 255
198 223 255
198 223 255
198 223 255
198 223 255
198 223 255
198 223 255
198 223 255
198 223 255
198 223 255
198 223 255
198 223 255
198 223 255
198 223 255
197 222 255
197 222 255
197 222 255
197 222 255
197 222 255
197 222 255
197 222 255
197 222 255
197 222 255
197 222 255
197 222 255
197 222 255
197 222 255
197 222 255
197 222 255
197 222 255
197 222 255
197 222 255
197 222 255
197 222 255
196 222 255
196 222 255
196 222 255
196 222 255
196 222 255
196 222 255
196 222 255
196 222 255
196 222 255
196 222 255
196 222 255
196 222 255
196 222 255
196 222 255
196 222 255
196 222 255
196 222 255
196 222 255
196 222 255
196 222 255
196 222 255
196 222 255
196 222 255
196 222 255
196 222 255
196 221 255
196 221 255
196 221 255
195 221 255
195 221 255
195 221 255
195 221 255
195 221 255
195 221 255
195 221 255
195 221 255
195 221 255
195 221 255
195 221 255
195 221 255
195 221 255
195 221 255
195 221 255
195 221 255
195 221 255
195 221 255
195 221 255
195 221 255
195 221 255
195 221 255
195 221 255
195 221 255
195 221 255
195 221 255
195 221 255
195 221 255
195 221 255
195 221 255
195 221 255
195 221 255
195 221 255
195 221 255
195 221 255
195 221 255
195 221 255
195 221 255
195 221 255
195 221 255
195 221 255
195 221 255
195 221 255
195 221 255
195 221 255
195 221 255
195 221 255
195 221 255
195 221 255
195 221 255
195 221 255
195 221 255
195 221 255
196 221 255
196 221 255
196 221 255
196 222 255
196 222 255
196 222 255
196 222 255
196 222 255
196 222 255
196 222 255
196 222 255
196 222 255
196 222 255
196 222 255
196 222 255
196 222 255
196 222 255
196 222 255
196 222 255
196 222 255
196 222 255
196 222 255
196 222 255
196 222 255
196 222 255
196 222 255
196 222 255
196 222 255
197 222 255
197 222 255
197 222 255
197 222 255
197 222 255
197 222 255
197 222 255
197 222 255
197 222 255
197 222 255
197 222 255
197 222 255
197 222 255
197 222 255
197 222 255
197 222 255
197 222 255
197 222 255
197 222 255
197 222 255
198 223 255
198 223 255
198 223 255
198 223 255
198 223 255
198 223 255
198 223 255
198 223 255
198 223 255
198 223 255
198 223 255
198 223 255
198 223 255
198 223 255
198 223 255
198 223 255
198 223 255
198 223 255
199 223 255
199 223 255
199 223 255
199 223 255
199 223 255
199 223 255
199 223 255
199 223 255
199 223 255
199 223 255
199 223 255
199 223 255
199 223 255
199 223 255
199 224 255
199 224 255
200 224 255
200 224 255
200 224 255
200 224 255
200 224 255
200 224 255
200 224 255
200 224 255
200 224 255
200 224 255
200 224 255
200 224 255
200 224 255
200 224 255
200 224 255
200 224 255
200 224 255
201 224 255
201 224 255
201 224 255
201 224 255
201 224 255
201 224 255
201 224 255
200 224 255
200 224 255
200 224 255
200 224 255
200 224 255
200 224 255
200 224 255
200 224 255
200 224 255
200 224 255
200 224 255
200 224 255
200 224 255
200 224 255
200 224 255
200 224 255
200 224 255
199 224 255
199 224 255
199 223 255
199 223 255
199 223 255
199 223 255
199 223 255
199 223 255
199 223 255
199 223 255
199 223 255
199 223 255
199 223 255
199 223 255
199 223 255
199 223 255
198 223 255
198 223 255
198 223 255
198 223 255
198 223 255
198 223 255
198 223 255
198 223 255
198 223 255
198 223 255
198 223 255
198 223 255
198 223 255
198 223 255
198 223 255
198 223 255
198 223 255
198 223 255
197 223 255
197 222 255
197 222 255
197 222 255
197 222 255
197 222 255
197 222 255
197 222 255
197 222 255
197 222 255
197 222 255
197 222 255
197 222 255
197 222 255
197 222 255
197 222 255
197 222 255
197 222 255
197 222 255
197 222 255
197 222 255
196 222 255
196 222 255
196 222 255
196 222 255
196 222 255
196 222 255
196 222 255
196 222 255
196 222 255
196 222 255
196 222 255
196 222 255
196 222 255
196 222 255
196 222 255
196 222 255
196 222 255
196 222 255
196 222 255
196 222 255
196 222 255
196 222 255
196 222 255
196 222 255
196 222 255
196 222 255
196 222 255
196 221 255
196 221 255
196 221 255
196 221 255
195 221 255
195 221 255
195 221 255
195 221 255
195 221 255
195 221 255
195 221 255
195 221 255
195 221 255
195 221 255
195 221 255
195 221 255
195 221 255
195 221 255
195 221 255
195 221 255
195 221 255
195 221 255
195 221 255
195 221 255
195 221 255
195 221 255
195 221 255
195 221 255
195 221 255
195 221 255
195 221 255
195 221 255
195 221 255
195 221 255
195 221 255
195 221 255
195 221 255
195 221 255
195 221 255
195 221 255
195 221 255
195 221 255
195 221 255
195 221 255
195 221 255
196 221 255
196 221 255
196 221 255
196 221 255
196 222 255
196 222 255
196 222 255
196 222 255
196 222 255
196 222 255
196 222 255
196 222 255
196 222 255
196 222 255
196 222 255
196 222 255
196 222 255
196 222 255
196 222 255
196 222 255
196 222 255
196 222 255
196 222 255
196 222 255
196 222 255
196 222 255
196 222 255
196 222 255
196 222 255
196 222 255
196 222 255
197 222 255
197 222 255
197 222 255
197 222 255
197 222 255
197 222 255
197 222 255
197 222 255
197 222 255
197 222 255
197 222 255
197 222 255
197 222 255
197 222 255
197 222 255
197 222 255
197 222 255
197 222 255
197 222 255
197 222 255
197 223 255
198 223 255
198 223 255
198 223 255
198 223 255
198 223 255
198 223 255
198 223 255
198 223 255
198 223 255
198 223 255
198 223 255
198 223 255
198 223 255
198 223 255
198 223 255
198 223 255
198 223 255
198 223 255
199 223 255
199 223 255
199 223 255
199 223 255
199 223 255
199 223 255
199 223 255
199 223 255
199 223 255
199 223 255
199 223 255
199 223 255
199 223 255
199 223 255
199 224 255
199 224 255
200 224 255
200 224 255
200 224 255
200 224 255
200 224 255
200 224 255
200 224 255
200 224 255
200 224 255
200 224 255
200 224 255
200 224 255
200 224 255
200 224 255
200 224 255
200 224 255
200 224 255
201 224 255
201 224 255
201 224 255
201 224 255
201 224 255
201 224 255
201 224 255
201 224 255
201 224 255
201 224 255
201 224 255
201 224 255
200 224 255
200 224 255
200 224 255
200 224 255
200 224 255
200 224 255
200 224 255
200 224 255
200 224 255
200 224 255
200 224 255
200 224 255
200 224 255
200 224 255
200 224 255
200 224 255
199 224 255
199 224 255
199 224 255
199 223 255
199 223 255
199 223 255
199 223 255
199 223 255
199 223 255
199 223 255
199 223 255
199 223 255
199 223 255
199 223 255
199 223 255
199 223 255
199 223 255
198 223 255
198 223 255
198 223 255
198 223 255
198 223 255
198 223 255
198 223 255
198 223 255
198 223 255
198 223 255
198 223 255
198 223 255
198 223 255
198 223 255
198 223 255
198 223 255
198 223 255
198 223 255
197 222 255
197 222 255
197 222 255
197 222 255
197 222 255
197 222 255
197 222 255
197 222 255
197 222 255
197 222 255
197 222 255
197 222 255
197 222 255
197 222 255
197 222 255
197 222 255
197 222 255
197 222 255
197 222 255
197 222 255
197 222 255
196 222 255
196 222 255
196 222 255
196 222 255
196 222 255
196 222 255
196 222 255
196 222 255
196 222 255
196 222 255
196 222 255
196 222 255
196 222 255
196 222 255
196 222 255
196 222 255
196 222 255
196 222 255
196 222 255
196 222 255
196 222 255
196 222 255
196 222 255
196 222 255
196 222 255
196 222 255
196 222 255
196 222 255
196 222 255
196 222 255
196 222 255
196 221 255
196 221 255
196 221 255
196 221 255
196 221 255
196 221 255
195 221 255
195 221 255
195 221 255
195 221 255
195 221 255
195 221 255
195 221 255
195 221 255
195 221 255
195 221 255
195 221 255
195 221 255
195 221 255
195 221 255
195 221 255
195 221 255
195 221 255
195 221 255
195 221 255
195 221 255
195 221 255
195 221 255
195 221 255
196 221 255
196 221 255
196 221 255
196 221 255
196 221 255
196 222 255
196 222 255
196 222 255
196 222 255
196 222 255
196 222 255
196 222 255
196 222 255
196 222 255
196 222 255
196 222 255
196 222 255
196 222 255
196 222 255
196 222 255
196 222 255
196 222 255
196 222 255
196 222 255
196 222 255
196 222 255
196 222 255
196 222 255
196 222 255
196 222 255
196 222 255
196 222 255
196 222 255
196 222 255
196 222 255
196 222 255
196 222 255
197 222 255
197 222 255
197 222 255
197 222 255
197 222 255
197 222 255
197 222 255
197 222 255
197 222 255
197 222 255
197 222 255
197 222 255
197 222 255
197 222 255
197 222 255
197 222 255
197 222 255
197 222 255
197 222 255
197 222 255
197 223 255
198 223 255
198 223 255
198 223 255
198 223 255
198 223 255
198 223 255
198 223 255
198 223 255
198 223 255
198 223 255
198 223 255
198 223 255
198 223 255
198 223 255
198 223 255
198 223 255
198 223 255
198 223 255
199 223 255
199 223 255
199 223 255
199 223 255
199 223 255
199 223 255
199 223 255
199 223 255
199 223 255
199 223 255
199 223 255
199 223 255
199 223 255
199 223 255
199 224 255
199 224 255
199 224 255
200 224 255
200 224 255
200 224 255
200 224 255
200 224 255
200 224 255
200 224 255
200 224 255
200 224 255
200 224 255
200 224 255
200 224 255
200 224 255
200 224 255
200 224 255
200 224 255
201 224 255
201 224 255
201 224 255
201 224 255
201 224 255
201 224 255
201 224 255
201 224 255
201 224 255
201 224 255
201 224 255
201 224 255
201 224 255
201 224 255
201 224 255
201 224 255
201 224 255
200 224 255
200 224 255
200 224 255
200 224 255
200 224 255
200 224 255
200 224 255
200 224 255
200 224 255
200 224 255
200 224 255
200 224 255
200 224 255
200 224 255
200 224 255
200 224 255
200 224 255
199 224 255
199 224 255
199 223 255
199 223 255
199 223 255
199 223 255
199 223 255
199 223 255
199 223 255
199 223 255
199 223 255
199 223 255
199 223 255
199 223 255
199 223 255
199 223 255
198 223 255
198 223 255
198 223 255
198 223 255
198 223 255
198 223 255
198 223 255
198 223 255
198 223 255
198 223 255
198 223 255
198 223 255
198 223 255
198 223 255
198 223 255
198 223 255
198 223 255
198 223 255
198 223 255
197 222 255
197 222 255
197 222 255
197 222 255
197 222 255
197 222 255
197 222 255
197 222 255
197 222 255
197 222 255
197 222 255
197 222 255
197 222 255
197 222 255
197 222 255
197 222 255
197 222 255
197 222 255
197 222 255
197 222 255
197 222 255
197 222 255
196 222 255
196 222 255
196 222 255
196 222 255
196 222 255
196 222 255
196 222 255
196 222 255
196 222 255
196 222 255
196 222 255
196 222 255
196 222 255
196 222 255
196 222 255
196 222 255
196 222 255
196 222 255
196 222 255
196 222 255
196 222 255
196 222 255
196 222 255
196 222 255
196 222 255
196 222 255
196 222 255
196 222 255
196 222 255
196 222 255
196 222 255
196 222 255
196 222 255
196 222 255
196 222 255
196 222 255
196 222 255
196 222 255
196 222 255
196 222 255
196 222 255
196 221 255
196 221 255
196 222 255
196 221 255
196 221 255
196 222 255
196 221 255
196 222 255
196 222 255
196 222 255
196 222 255
196 222 255
196 222 255
196 222 255
196 222 255
196 222 255
196 222 255
196 222 255
196 222 255
196 222 255
196 222 255
196 222 255
196 222 255
196 222 255
196 222 255
196 222 255
196 222 255
196 222 255
196 222 255
196 222 255
196 222 255
196 222 255
196 222 255
196 222 255
196 222 255
196 222 255
196 222 255
196 222 255
196 222 255
196 222 255
196 222 255
196 222 255
196 222 255
196 222 255
196 222 255
196 222 255
196 222 255
196 222 255
197 222 255
197 222 255
197 222 255
197 222 255
197 222 255
197 222 255
197 222 255
197 222 255
197 222 255
197 222 255
197 222 255
197 222 255
197 222 255
197 222 255
197 222 255
197 222 255
197 222 255
197 222 255
197 222 255
197 222 255
197 222 255
197 222 255
198 223 255
198 223 255
198 223 255
198 223 255
198 223 255
198 223 255
198 223 255
198 223 255
198 223 255
198 223 255
198 223 255
198 223 255
198 223 255
198 223 255
198 223 255
198 223 255
198 223 255
198 223 255
198 223 255
199 223 255
199 223 255
199 223 255
199 223 255
199 223 255
199 223 255
199 223 255
199 223 255
199 223 255
199 223 255
199 223 255
199 223 255
199 223 255
199 223 255
199 224 255
199 224 255
199 224 255
200 224 255
200 224 255
200 224 255
200 224 255
200 224 255
200 224 255
200 224 255
200 224 255
200 224 255
200 224 255
200 224 255
200 224 255
200 224 255
200 224 255
200 224 255
200 224 255
201 224 255
201 224 255
201 224 255
201 224 255
201 224 255
201 224 255
201 224 255
201 224 255
201 224 255
201 224 255
201 224 255
201 224 255
201 224 255
201 224 255
201 224 255
201 224 255
201 224 255
201 224 255
201 224 255
201 224 255
201 224 255
200 224 255
200 224 255
200 224 255
200 224 255
200 224 255
200 224 255
200 224 255
200 224 255
200 224 255
200 224 255
200 224 255
200 224 255
200 224 255
200 224 255
200 224 255
200 224 255
200 224 255
199 224 255
199 224 255
199 223 255
199 223 255
199 223 255
199 223 255
199 223 255
199 223 255
199 223 255
199 223 255
199 223 255
199 223 255
199 223 255
199 223 255
199 223 255
199 223 255
199 223 255
198 223 255
198 223 255
198 223 255
198 223 255
198 223 255
198 223 255
198 223 255
198 223 255
198 223 255
198 223 255
198 223 255
198 223 255
198 223 255
198 223 255
198 223 255
198 223 255
198 223 255
198 223 255
197 223 255
197 222 255
197 222 255
197 222 255
197 222 255
197 222 255
197 222 255
197 222 255
197 222 255
197 222 255
197 222 255
197 222 255
197 222 255
197 222 255
197 222 255
197 222 255
197 222 255
197 222 255
197 222 255
197 222 255
197 222 255
197 222 255
197 222 255
197 222 255
196 222 255
196 222 255
196 222 255
196 222 255
196 222 255
196 222 255
196 222 255
196 222 255
196 222 255
196 222 255
196 222 255
196 222 255
196 222 255
196 222 255
196 222 255
196 222 255
196 222 255
196 222 255
196 222 255
196 222 255
196 222 255
196 222 255
196 222 255
196 222 255
196 222 255
196 222 255
196 222 255
196 222 255
196 222 255
196 222 255
196 222 255
196 222 255
196 222 255
196 222 255
196 222 255
196 222 255
196 222 255
196 222 255
196 222 255
196 222 255
196 222 255
196 222 255
196 222 255
196 222 255
196 222 255
196 222 255
196 222 255
196 222 255
196 222 255
196 222 255
196 222 255
196 222 255
196 222 255
196 222 255
196 222 255
196 222 255
196 222 255
196 222 255
196 222 255
196 222 255
196 222 255
196 222 255
196 222 255
196 222 255
196 222 255
196 222 255
196 222 255
196 222 255
196 222 255
196 222 255
196 222 255
196 222 255
196 222 255
196 222 255
196 222 255
196 222 255
196 222 255
196 222 255
196 222 255
196 222 255
196 222 255
197 222 255
197 222 255
197 222 255
197 222 255
197 222 255
197 222 255
197 222 255
197 222 255
197 222 255
197 222 255
197 222 255
197 222 255
197 222 255
197 222 255
197 222 255
197 222 255
197 222 255
197 222 255
197 222 255
197 222 255
197 222 255
197 222 255
197 222 255
197 223 255
198 223 255
198 223 255
198 223 255
198 223 255
198 223 255
198 223 255
198 223 255
198 223 255
198 223 255
198 223 255
198 223 255
198 223 255
198 223 255
198 223 255
198 223 255
198 223 255
198 223 255
198 223 255
199 223 255
199 223 255
199 223 255
199 223 255
199 223 255
199 223 255
199 223 255
199 223 255
199 223 255
199 223 255
199 223 255
199 223 255
199 223 255
199 223 255
199 223 255
199 224 255
199 224 255
200 224 255
200 224 255
200 224 255
200 224 255
200 224 255
200 224 255
200 224 255
200 224 255
200 224 255
200 224 255
200 224 255
200 224 255
200 224 255
200 224 255
200 224 255
200 224 255
200 224 255
201 224 255
201 224 255
201 224 255
201 224 255
201 224 255
201 224 255
201 224 255
201 224 255
201 224 255
201 224 255
201 224 255
201 225 255
201 225 255
201 225 255
201 224 255
201 224 255
201 224 255
201 224 255
201 224 255
201 224 255
201 224 255
201 224 255
201 224 255
201 224 255
201 224 255
201 224 255
200 224 255
200 224 255
200 224 255
200 224 255
200 224 255
200 224 255
200 224 255
200 224 255
200 224 255
200 224 255
200 224 255
200 224 255
200 224 255
200 224 255
200 224 255
200 224 255
199 224 255
199 224 255
199 224 255
199 223 255
199 223 255
199 223 255
199 223 255
199 223 255
199 223 255
199 223 255
199 223 255
199 223 255
199 223 255
199 223 255
199 223 255
199 223 255
199 223 255
198 223 255
198 223 255
198 223 255
198 223 255
198 223 255
198 223 255
198 223 255
198 223 255
198 223 255
198 223 255
198 223 255
198 223 255
198 223 255
198 223 255
198 223 255
198 223 255
198 223 255
198 223 255
198 223 255
198 223 255
197 222 255
197 222 255
197 222 255
197 222 255
197 222 255
197 222 255
197 222 255
197 222 255
197 222 255
197 222 255
197 222 255
197 222 255
197 222 255
197 222 255
197 222 255
197 222 255
197 222 255
197 222 255
197 222 255
197 222 255
197 222 255
197 222 255
197 222 255
197 222 255
196 222 255
196 222 255
196 222 255
196 222 255
196 222 255
196 222 255
196 222 255
196 222 255
196 222 255
196 222 255
196 222 255
196 222 255
196 222 255
196 222 255
196 222 255
196 222 255
196 222 255
196 222 255
196 222 255
196 222 255
196 222 255
196 222 255
196 222 255
196 222 255
196 222 255
196 222 255
196 222 255
196 222 255
196 222 255
196 222 255
196 222 255
196 222 255
196 222 255
196 222 255
196 222 255
196 222 255
196 222 255
196 222 255
196 222 255
196 222 255
196 222 255
196 222 255
196 222 255
196 222 255
196 222 255
196 222 255
196 222 255
196 222 255
196 222 255
196 222 255
196 222 255
196 222 255
196 222 255
196 222 255
196 222 255
196 222 255
196 222 255
196 222 255
196 222 255
196 222 255
196 222 255
196 222 255
196 222 255
196 222 255
196 222 255
196 222 255
196 222 255
196 222 255
196 222 255
196 222 255
196 222 255
196 222 255
196 222 255
197 222 255
197 222 255
197 222 255
197 222 255
197 222 255
197 222 255
197 222 255
197 222 255
197 222 255
197 222 255
197 222 255
197 222 255
197 222 255
197 222 255
197 222 255
197 222 255
197 222 255
197 222 255
197 222 255
197 222 255
197 222 255
197 222 255
197 222 255
197 222 255
197 223 255
198 223 255
198 223 255
198 223 255
198 223 255
198 223 255
198 223 255
198 223 255
198 223 255
198 223 255
198 223 255
198 223 255
198 223 255
198 223 255
198 223 255
198 223 255
198 223 255
198 223 255
198 223 255
199 223 255
199 223 255
199 223 255
199 223 255
199 223 255
199 223 255
199 223 255
199 223 255
199 223 255
199 223 255
199 223 255
199 223 255
199 223 255
199 223 255
199 223 255
199 224 255
199 224 255
199 224 255
200 224 255
200 224 255
200 224 255
200 224 255
200 224 255
200 224 255
200 224 255
200 224 255
200 224 255
200 224 255
200 224 255
200 224 255
200 224 255
200 224 255
200 224 255
200 224 255
201 224 255
201 224 255
201 224 255
201 224 255
201 224 255
201 224 255
201 224 255
201 224 255
201 224 255
201 224 255
201 224 255
201 224 255
201 225 255
201 225 255
201 225 255
201 225 255
201 225 255
201 225 255
201 225 255
201 224 255
201 224 255
201 224 255
201 224 255
201 224 255
201 224 255
201 224 255
201 224 255
201 224 255
201 224 255
201 224 255
201 224 255
200 224 255
200 224 255
200 224 255
200 224 255
200 224 255
200 224 255
200 224 255
200 224 255
200 224 255
200 224 255
200 224 255
200 224 255
200 224 255
200 224 255
200 224 255
200 224 255
200 224 255
199 224 255
199 224 255
199 223 255
199 223 255
199 223 255
199 223 255
199 223 255
199 223 255
199 223 255
199 223 255
199 223 255
199 223 255
199 223 255
199 223 255
199 223 255
199 223 255
199 223 255
198 223 255
198 223 255
198 223 255
198 223 255
198 223 255
198 223 255
198 223 255
198 223 255
198 223 255
198 223 255
198 223 255
198 223 255
198 223 255
198 223 255
198 223 255
198 223 255
198 223 255
198 223 255
198 223 255
198 223 255
197 222 255
197 222 255
197 222 255
197 222 255
197 222 255
197 222 255
197 222 255
197 222 255
197 222 255
197 222 255
197 222 255
197 222 255
197 222 255
197 222 255
197 222 255
197 222 255
197 222 255
197 222 255
197 222 255
197 222 255
197 222 255
197 222 255
197 222 255
197 222 255
197 222 255
197 222 255
196 222 255
196 222 255
196 222 255
196 222 255
196 222 255
196 222 255
196 222 255
196 222 255
196 222 255
196 222 255
196 222 255
196 222 255
196 222 255
196 222 255
196 222 255
196 222 255
196 222 255
196 222 255
196 222 255
196 222 255
196 222 255
196 222 255
196 222 255
196 222 255
196 222 255
196 222 255
196 222 255
196 222 255
196 222 255
196 222 255
196 222 255
196 222 255
196 222 255
196 222 255
196 222 255
196 222 255
196 222 255
196 222 255
196 222 255
196 222 255
196 222 255
196 222 255
196 222 255
196 222 255
196 222 255
196 222 255
196 222 255
196 222 255
196 222 255
196 222 255
196 222 255
196 222 255
196 222 255
196 222 255
196 222 255
196 222 255
196 222 255
196 222 255
196 222 255
196 222 255
196 222 255
196 222 255
196 222 255
197 222 255
197 222 255
197 222 255
197 222 255
197 222 255
197 222 255
197 222 255
197 222 255
197 222 255
197 222 255
197 222 255
197 222 255
197 222 255
197 222 255
197 222 255
197 222 255
197 222 255
197 222 255
197 222 255
197 222 255
197 222 255
197 222 255
197 222 255
197 222 255
197 222 255
197 223 255
198 223 255
198 223 255
198 223 255
198 223 255
198 223 255
198 223 255
198 223 255
198 223 255
198 223 255
198 223 255
198 223 255
198 223 255
198 223 255
198 223 255
198 223 255
198 223 255
198 223 255
198 223 255
198 223 255
198 223 255
199 223 255
199 223 255
199 223 255
199 223 255
199 223 255
199 223 255
199 223 255
199 223 255
199 223 255
199 223 255
199 223 255
199 223 255
199 223 255
199 223 255
199 223 255
199 224 255
199 224 255
200 224 255
200 224 255
200 224 255
200 224 255
200 224 255
200 224 255
200 224 255
200 224 255
200 224 255
200 224 255
200 224 255
200 224 255
200 224 255
200 224 255
200 224 255
200 224 255
200 224 255
201 224 255
201 224 255
201 224 255
201 224 255
201 224 255
201 224 255
201 224 255
201 224 255
201 224 255
201 224 255
201 224 255
201 224 255
201 225 255
201 225 255
201 225 255
201 225 255
202 225 255
202 225 255
202 225 255
201 225 255
201 225 255
201 225 255
201 225 255
201 224 255
201 224 255
201 224 255
201 224 255
201 224 255
201 224 255
201 224 255
201 224 255
201 224 255
201 224 255
201 224 255
201 224 255
201 224 255
200 224 255
200 224 255
200 224 255
200 224 255
200 224 255
200 224 255
200 224 255
200 224 255
200 224 255
200 224 255
200 224 255
200 224 255
200 224 255
200 224 255
200 224 255
200 224 255
199 224 255
199 224 255
199 224 255
199 223 255
199 223 255
199 223 255
199 223 255
199 223 255
199 223 255
199 223 255
199 223 255
199 223 255
199 223 255
199 223 255
199 223 255
199 223 255
199 223 255
199 223 255
198 223 255
198 223 255
198 223 255
198 223 255
198 223 255
198 223 255
198 223 255
198 223 255
198 223 255
198 223 255
198 223 255
198 223 255
198 223 255
198 223 255
198 223 255
198 223 255
198 223 255
198 223 255
198 223 255
198 223 255
197 223 255
197 222 255
197 222 255
197 222 255
197 222 255
197 222 255
197 222 255
197 222 255
197 222 255
197 222 255
197 222 255
197 222 255
197 222 255
197 222 255
197 222 255
197 222 255
197 222 255
197 222 255
197 222 255
197 222 255
197 222 255
197 222 255
197 222 255
197 222 255
197 222 255
197 222 255
197 222 255
197 222 255
196 222 255
196 222 255
196 222 255
196 222 255
196 222 255
196 222 255
196 222 255
196 222 255
196 222 255
196 222 255
196 222 255
196 222 255
196 222 255
196 222 255
196 222 255
196 222 255
196 222 255
196 222 255
196 222 255
196 222 255
196 222 255
196 222 255
196 222 255
196 222 255
196 222 255
196 222 255
196 222 255
196 222 255
196 222 255
196 222 255
196 222 255
196 222 255
196 222 255
196 222 255
196 222 255
196 222 255
196 222 255
196 222 255
196 222 255
196 222 255
196 222 255
196 222 255
196 222 255
196 222 255
196 222 255
196 222 255
196 222 255
196 222 255
196 222 255
196 222 255
196 222 255
196 222 255
197 222 255
197 222 255
197 222 255
197 222 255
197 222 255
197 222 255
197 222 255
197 222 255
197 222 255
197 222 255
197 222 255
197 222 255
197 222 255
197 222 255
197 222 255
197 222 255
197 222 255
197 222 255
197 222 255
197 222 255
197 222 255
197 222 255
197 222 255
197 222 255
197 222 255
197 222 255
197 222 255
197 222 255
197 223 255
198 223 255
198 223 255
198 223 255
198 223 255
198 223 255
198 223 255
198 223 255
198 223 255
198 223 255
198 223 255
198 223 255
198 223 255
198 223 255
198 223 255
198 223 255
198 223 255
198 223 255
198 223 255
198 223 255
198 223 255
199 223 255
199 223 255
199 223 255
199 223 255
199 223 255
199 223 255
199 223 255
199 223 255
199 223 255
199 223 255
199 223 255
199 223 255
199 223 255
199 223 255
199 223 255
199 224 255
199 224 255
199 224 255
200 224 255
200 224 255
200 224 255
200 224 255
200 224 255
200 224 255
200 224 255
200 224 255
200 224 255
200 224 255
200 224 255
200 224 255
200 224 255
200 224 255
200 224 255
200 224 255
201 224 255
201 224 255
201 224 255
201 224 255
201 224 255
201 224 255
201 224 255
201 224 255
201 224 255
201 224 255
201 224 255
201 224 255
201 225 255
201 225 255
201 225 255
201 225 255
201 225 255
202 225 255
202 225 255
202 225 255
202 225 255
202 225 255
202 225 255
202 225 255
201 225 255
201 225 255
201 225 255
201 225 255
201 225 255
201 224 255
201 224 255
201 224 255
201 224 255
201 224 255
201 224 255
201 224 255
201 224 255
201 224 255
201 224 255
201 224 255
201 224 255
200 224 255
200 224 255
200 224 255
200 224 255
200 224 255
200 224 255
200 224 255
200 224 255
200 224 255
200 224 255
200 224 255
200 224 255
200 224 255
200 224 255
200 224 255
200 224 255
200 224 255
199 224 255
199 224 255
199 224 255
199 223 255
199 223 255
199 223 255
199 223 255
199 223 255
199 223 255
199 223 255
199 223 255
199 223 255
199 223 255
199 223 255
199 223 255
199 223 255
199 223 255
199 223 255
198 223 255
198 223 255
198 223 255
198 223 255
198 223 255
198 223 255
198 223 255
198 223 255
198 223 255
198 223 255
198 223 255
198 223 255
198 223 255
198 223 255
198 223 255
198 223 255
198 223 255
198 223 255
198 223 255
198 223 255
197 223 255
197 222 255
197 222 255
197 222 255
197 222 255
197 222 255
197 222 255
197 222 255
197 222 255
197 222 255
197 222 255
197 222 255
197 222 255
197 222 255
197 222 255
197 222 255
197 222 255
197 222 255
197 222 255
197 222 255
197 222 255
197 222 255
197 222 255
197 222 255
197 222 255
197 222 255
197 222 255
197 222 255
197 222 255
197 222 255
197 222 255
197 222 255
196 222 255
196 222 255
196 222 255
196 222 255
196 222 255
196 222 255
196 222 255
196 222 255
196 222 255
196 222 255
196 222 255
196 222 255
196 222 255
196 222 255
196 222 255
196 222 255
196 222 255
196 222 255
196 222 255
196 222 255
196 222 255
196 222 255
196 222 255
196 222 255
196 222 255
196 222 255
196 222 255
196 222 255
196 222 255
196 222 255
196 222 255
196 222 255
196 222 255
196 222 255
196 222 255
196 222 255
196 222 255
196 222 255
196 222 255
196 222 255
197 222 255
197 222 255
197 222 255
197 222 255
197 222 255
197 222 255
197 222 255
197 222 255
197 222 255
197 222 255
197 222 255
197 222 255
197 222 255
197 222 255
197 222 255
197 222 255
197 222 255
197 222 255
197 222 255
197 222 255
197 222 255
197 222 255
197 222 255
197 222 255
197 222 255
197 222 255
197 222 255
197 222 255
197 222 255
197 222 255
197 223 255
198 223 255
198 223 255
198 223 255
198 223 255
198 223 255
198 223 255
198 223 255
198 223 255
198 223 255
198 223 255
198 223 255
198 223 255
198 223 255
198 223 255
198 223 255
198 223 255
198 223 255
198 223 255
198 223 255
198 223 255
199 223 255
199 223 255
199 223 255
199 223 255
199 223 255
199 223 255
199 223 255
199 223 255
199 223 255
199 223 255
199 223 255
199 223 255
199 223 255
199 223 255
199 223 255
199 224 255
199 224 255
199 224 255
200 224 255
200 224 255
200 224 255
200 224 255
200 224 255
200 224 255
200 224 255
200 224 255
200 224 255
200 224 255
200 224 255
200 224 255
200 224 255
200 224 255
200 224 255
200 224 255
200 224 255
201 224 255
201 224 255
201 224 255
201 224 255
201 224 255
201 224 255
201 224 255
201 224 255
201 224 255
201 224 255
201 224 255
201 224 255
201 225 255
201 225 255
201 225 255
201 225 255
201 225 255
202 225 255
202 225 255
202 225 255
202 225 255
202 225 255
202 225 255
202 225 255
202 225 255
202 225 255
202 225 255
202 225 255
202 225 255
201 225 255
201 225 255
201 225 255
201 225 255
201 225 255
201 224 255
201 224 255
201 224 255
201 224 255
201 224 255
201 224 255
201 224 255
201 224 255
201 224 255
201 224 255
201 224 255
200 224 255
200 224 255
200 224 255
200 224 255
200 224 255
200 224 255
200 224 255
200 224 255
200 224 255
200 224 255
200 224 255
200 224 255
200 224 255
200 224 255
200 224 255
200 224 255
200 224 255
199 224 255
199 224 255
199 224 255
199 223 255
199 223 255
199 223 255
199 223 255
199 223 255
199 223 255
199 223 255
199 223 255
199 223 255
199 223 255
199 223 255
199 223 255
199 223 255
199 223 255
199 223 255
198 223 255
198 223 255
198 223 255
198 223 255
198 223 255
198 223 255
198 223 255
198 223 255
198 223 255
198 223 255
198 223 255
198 223 255
198 223 255
198 223 255
198 223 255
198 223 255
198 223 255
198 223 255
198 223 255
198 223 255
198 223 255
198 223 255
197 223 255
197 222 255
197 222 255
197 222 255
197 222 255
197 222 255
197 222 255
197 222 255
197 222 255
197 222 255
197 222 255
197 222 255
197 222 255
197 222 255
197 222 255
197 222 255
197 222 255
197 222 255
197 222 255
197 222 255
197 222 255
197 222 255
197 222 255
197 222 255
197 222 255
197 222 255
197 222 255
197 222 255
197 222 255
197 222 255
197 222 255
197 222 255
197 222 255
197 222 255
197 222 255
197 222 255
197 222 255
197 222 255
197 222 255
196 222 255
196 222 255
196 222 255
196 222 255
196 222 255
196 222 255
196 222 255
196 222 255
196 222 255
196 222 255
196 222 255
196 222 255
196 222 255
196 222 255
196 222 255
196 222 255
196 222 255
197 222 255
197 222 255
197 222 255
197 222 255
197 222 255
197 222 255
197 222 255
197 222 255
197 222 255
197 222 255
197 222 255
197 222 255
197 222 255
197 222 255
197 222 255
197 222 255
197 222 255
197 222 255
197 222 255
197 222 255
197 222 255
197 222 255
197 222 255
197 222 255
197 222 255
197 222 255
197 222 255
197 222 255
197 222 255
197 222 255
197 222 255
197 222 255
197 222 255
197 222 255
197 222 255
197 222 255
197 222 255
197 222 255
197 223 255
198 223 255
198 223 255
198 223 255
198 223 255
198 223 255
198 223 255
198 223 255
198 223 255
198 223 255
198 223 255
198 223 255
198 223 255
198 223 255
198 223 255
198 223 255
198 223 255
198 223 255
198 223 255
198 223 255
198 223 255
198 223 255
199 223 255
199 223 255
199 223 255
199 223 255
199 223 255
199 223 255
199 223 255
199 223 255
199 223 255
199 223 255
199 223 255
199 223 255
199 223 255
199 223 255
199 223 255
199 223 255
199 224 255
199 224 255
199 224 255
200 224 255
200 224 255
200 224 255
200 224 255
200 224 255
200 224 255
200 224 255
200 224 255
200 224 255
200 224 255
200 224 255
200 224 255
200 224 255
200 224 255
200 224 255
200 224 255
201 224 255
201 224 255
201 224 255
201 224 255
201 224 255
201 224 255
201 224 255
201 224 255
201 224 255
201 224 255
201 224 255
201 224 255
201 225 255
201 225 255
201 225 255
201 225 255
201 225 255
202 225 255
202 225 255
202 225 255
202 225 255
202 225 255
202 225 255
202 225 255
202 225 255
202 225 255
202 225 255
202 225 255
202 225 255
202 225 255
202 225 255
202 225 255
202 225 255
202 225 255
201 225 255
201 225 255
201 225 255
201 225 255
201 225 255
201 224 255
201 224 255
201 224 255
201 224 255
201 224 255
201 224 255
201 224 255
201 224 255
201 224 255
201 224 255
201 224 255
201 224 255
200 224 255
200 224 255
200 224 255
200 224 255
200 224 255
200 224 255
200 224 255
200 224 255
200 224 255
200 224 255
200 224 255
200 224 255
200 224 255
200 224 255
200 224 255
200 224 255
200 224 255
199 224 255
199 224 255
199 224 255
199 223 255
199 223 255
199 223 255
199 223 255
199 223 255
199 223 255
199 223 255
199 223 255
199 223 255
199 223 255
199 223 255
199 223 255
199 223 255
199 223 255
199 223 255
199 223 255
198 223 255
198 223 255
198 223 255
198 223 255
198 223 255
198 223 255
198 223 255
198 223 255
198 223 255
198 223 255
198 223 255
198 223 255
198 223 255
198 223 255
198 223 255
198 223 255
198 223 255
198 223 255
198 223 255
198 223 255
198 223 255
198 223 255
197 222 255
197 222 255
197 222 255
197 222 255
197 222 255
197 222 255
197 222 255
197 222 255
197 222 255
197 222 255
197 222 255
197 222 255
197 222 255
197 222 255
197 222 255
197 222 255
197 222 255
197 222 255
197 222 255
197 222 255
197 222 255
197 222 255
197 222 255
197 222 255
197 222 255
197 222 255
197 222 255
197 222 255
197 222 255
197 222 255
197 222 255
197 222 255
197 222 255
197 222 255
197 222 255
197 222 255
197 222 255
197 222 255
197 222 255
197 222 255
197 222 255
197 222 255
197 222 255
197 222 255
197 222 255
197 222 255
197 222 255
197 222 255
197 222 255
197 222 255
197 222 255
197 222 255
197 222 255
197 222 255
197 222 255
197 222 255
197 222 255
197 222 255
197 222 255
197 222 255
197 222 255
197 222 255
197 222 255
197 222 255
197 222 255
197 222 255
197 222 255
197 222 255
197 222 255
197 222 255
197 222 255
197 222 255
197 222 255
197 222 255
197 222 255
197 222 255
197 222 255
197 222 255
197 222 255
197 222 255
197 222 255
197 222 255
197 222 255
197 222 255
197 222 255
197 222 255
197 223 255
198 223 255
198 223 255
198 223 255
198 223 255
198 223 255
198 223 255
198 223 255
198 223 255
198 223 255
198 223 255
198 223 255
198 223 255
198 223 255
198 223 255
198 223 255
198 223 255
198 223 255
198 223 255
198 223 255
198 223 255
198 223 255
198 223 255
199 223 255
199 223 255
199 223 255
199 223 255
199 223 255
199 223 255
199 223 255
199 223 255
199 223 255
199 223 255
199 223 255
199 223 255
199 223 255
199 223 255
199 223 255
199 223 255
199 224 255
199 224 255
199 224 255
200 224 255
200 224 255
200 224 255
200 224 255
200 224 255
200 224 255
200 224 255
200 224 255
200 224 255
200 224 255
200 224 255
200 224 255
200 224 255
200 224 255
200 224 255
200 224 255
200 224 255
201 224 255
201 224 255
201 224 255
201 224 255
201 224 255
201 224 255
201 224 255
201 224 255
201 224 255
201 224 255
201 224 255
201 224 255
201 225 255
201 225 255
201 225 255
201 225 255
201 225 255
202 225 255
202 225 255
202 225 255
202 225 255
202 225 255
202 225 255
202 225 255
202 225 255
202 225 255
202 225 255
202 225 255
202 225 255
202 225 255
202 225 255
202 225 255
202 225 255
202 225 255
202 225 255
202 225 255
202 225 255
202 225 255
202 225 255
201 225 255
201 225 255
201 225 255
201 225 255
201 225 255
201 224 255
201 224 255
201 224 255
201 224 255
201 224 255
201 224 255
201 224 255
201 224 255
201 224 255
201 224 255
201 224 255
201 224 255
200 224 255
200 224 255
200 224 255
200 224 255
200 224 255
200 224 255
200 224 255
200 224 255
200 224 255
200 224 255
200 224 255
200 224 255
200 224 255
200 224 255
200 224 255
200 224 255
200 224 255
199 224 255
199 224 255
199 223 255
199 223 255
199 223 255
199 223 255
199 223 255
199 223 255
199 223 255
199 223 255
199 223 255
199 223 255
199 223 255
199 223 255
199 223 255
199 223 255
199 223 255
199 223 255
199 223 255
198 223 255
198 223 255
198 223 255
198 223 255
198 223 255
198 223 255
198 223 255
198 223 255
198 223 255
198 223 255
198 223 255
198 223 255
198 223 255
198 223 255
198 223 255
198 223 255
198 223 255
198 223 255
198 223 255
198 223 255
198 223 255
198 223 255
198 223 255
197 223 255
197 222 255
197 222 255
197 222 255
197 222 255
197 222 255
197 222 255
197 222 255
197 222 255
197 222 255
197 222 255
197 222 255
197 222 255
197 222 255
197 222 255
197 222 255
197 222 255
197 222 255
197 222 255
197 222 255
197 222 255
197 222 255
197 222 255
197 222 255
197 222 255
197 222 255
197 222 255
197 222 255
197 222 255
197 222 255
197 222 255
197 222 255
197 222 255
197 222 255
197 222 255
197 222 255
197 222 255
197 222 255
197 222 255
197 222 255
197 222 255
197 222 255
197 222 255
197 222 255
197 222 255
197 222 255
197 222 255
197 222 255
197 222 255
197 222 255
197 222 255
197 222 255
197 222 255
197 222 255
197 222 255
197 222 255
197 222 255
197 222 255
197 222 255
197 222 255
197 222 255
197 222 255
197 222 255
197 222 255
197 222 255
197 222 255
197 222 255
197 222 255
197 222 255
197 222 255
197 222 255
197 222 255
197 222 255
197 222 255
197 222 255
197 222 255
197 222 255
197 222 255
197 223 255
198 223 255
198 223 255
198 223 255
198 223 255
198 223 255
198 223 255
198 223 255
198 223 255
198 223 255
198 223 255
198 223 255
198 223 255
198 223 255
198 223 255
198 223 255
198 223 255
198 223 255
198 223 255
198 223 255
198 223 255
198 223 255
198 223 255
198 223 255
199 223 255
199 223 255
199 223 255
199 223 255
199 223 255
199 223 255
199 223 255
199 223 255
199 223 255
199 223 255
199 223 255
199 223 255
199 223 255
199 223 255
199 223 255
199 223 255
199 223 255
199 224 255
199 224 255
200 224 255
200 224 255
200 224 255
200 224 255
200 224 255
200 224 255
200 224 255
200 224 255
200 224 255
200 224 255
200 224 255
200 224 255
200 224 255
200 224 255
200 224 255
200 224 255
200 224 255
201 224 255
201 224 255
201 224 255
201 224 255
201 224 255
201 224 255
201 224 255
201 224 255
201 224 255
201 224 255
201 224 255
201 224 255
201 224 255
201 225 255
201 225 255
201 225 255
201 225 255
202 225 255
202 225 255
202 225 255
202 225 255
202 225 255
202 225 255
202 225 255
202 225 255
202 225 255
202 225 255
202 225 255
202 225 255
202 225 255
202 225 255
202 225 255
202 225 255
202 225 255
202 225 255
202 225 255
202 225 255
202 225 255
202 225 255
202 225 255
202 225 255
202 225 255
202 225 255
202 225 255
201 225 255
201 225 255
201 225 255
201 225 255
201 225 255
201 224 255
201 224 255
201 224 255
201 224 255
201 224 255
201 224 255
201 224 255
201 224 255
201 224 255
201 224 255
201 224 255
201 224 255
200 224 255
200 224 255
200 224 255
200 224 255
200 224 255
200 224 255
200 224 255
200 224 255
200 224 255
200 224 255
200 224 255
200 224 255
200 224 255
200 224 255
200 224 255
200 224 255
200 224 255
200 224 255
199 224 255
199 224 255
199 224 255
199 223 255
199 223 255
199 223 255
199 223 255
199 223 255
199 223 255
199 223 255
199 223 255
199 223 255
199 223 255
199 223 255
199 223 255
199 223 255
199 223 255
199 223 255
199 223 255
198 223 255
198 223 255
198 223 255
198 223 255
198 223 255
198 223 255
198 223 255
198 223 255
198 223 255
198 223 255
198 223 255
198 223 255
198 223 255
198 223 255
198 223 255
198 223 255
198 223 255
198 223 255
198 223 255
198 223 255
198 223 255
198 223 255
198 223 255
198 223 255
198 223 255
197 223 255
197 222 255
197 222 255
197 222 255
197 222 255
197 222 255
197 222 255
197 222 255
197 222 255
197 222 255
197 222 255
197 222 255
197 222 255
197 222 255
197 222 255
197 222 255
197 222 255
197 222 255
197 222 255
197 222 255
197 222 255
197 222 255
197 222 255
197 222 255
197 222 255
197 222 255
197 222 255
197 222 255
197 222 255
197 222 255
197 222 255
197 222 255
197 222 255
197 222 255
197 222 255
197 222 255
197 222 255
197 222 255
197 222 255
197 222 255
197 222 255
197 222 255
197 222 255
197 222 255
197 222 255
197 222 255
197 222 255
197 222 255
197 222 255
197 222 255
197 222 255
197 222 255
197 222 255
197 222 255
197 222 255
197 222 255
197 222 255
197 222 255
197 222 255
197 222 255
197 222 255
197 222 255
197 222 255
197 222 255
197 222 255
197 222 255
197 222 255
197 222 255
197 223 255
198 223 255
198 223 255
198 223 255
198 223 255
198 223 255
198 223 255
198 223 255
198 223 255
198 223 255
198 223 255
198 223 255
198 223 255
198 223 255
198 223 255
198 223 255
198 223 255
198 223 255
198 223 255
198 223 255
198 223 255
198 223 255
198 223 255
198 223 255
198 223 255
198 223 255
199 223 255
199 223 255
199 223 255
199 223 255
199 223 255
199 223 255
199 223 255
199 223 255
199 223 255
199 223 255
199 223 255
199 223 255
199 223 255
199 223 255
199 223 255
199 223 255
199 224 255
199 224 255
199 224 255
200 224 255
200 224 255
200 224 255
200 224 255
200 224 255
200 224 255
200 224 255
200 224 255
200 224 255
200 224 255
200 224 255
200 224 255
200 224 255
200 224 255
200 224 255
200 224 255
200 224 255
200 224 255
201 224 255
201 224 255
201 224 255
201 224 255
201 224 255
201 224 255
201 224 255
201 224 255
201 224 255
201 224 255
201 224 255
201 224 255
201 225 255
201 225 255
201 225 255
201 225 255
201 225 255
202 225 255
202 225 255
202 225 255
202 225 255
202 225 255
202 225 255
202 225 255
202 225 255
202 225 255
202 225 255
202 225 255
202 225 255
202 225 255
202 225 255
202 225 255
202 225 255
202 225 255
202 225 255
202 225 255
202 225 255
202 225 255
202 225 255
202 225 255
202 225 255
202 225 255
202 225 255
202 225 255
202 225 255
202 225 255
202 225 255
202 225 255
202 225 255
201 225 255
201 225 255
201 225 255
201 225 255
201 225 255
201 224 255
201 224 255
201 224 255
201 224 255
201 224 255
201 224 255
201 224 255
201 224 255
201 224 255
201 224 255
201 224 255
201 224 255
200 224 255
200 224 255
200 224 255
200 224 255
200 224 255
200 224 255
200 224 255
200 224 255
200 224 255
200 224 255
200 224 255
200 224 255
200 224 255
200 224 255
200 224 255
200 224 255
200 224 255
199 224 255
199 224 255
199 224 255
199 223 255
199 223 255
199 223 255
199 223 255
199 223 255
199 223 255
199 223 255
199 223 255
199 223 255
199 223 255
199 223 255
199 223 255
199 223 255
199 223 255
199 223 255
199 223 255
199 223 255
198 223 255
198 223 255
198 223 255
198 223 255
198 223 255
198 223 255
198 223 255
198 223 255
198 223 255
198 223 255
198 223 255
198 223 255
198 223 255
198 223 255
198 223 255
198 223 255
198 223 255
198 223 255
198 223 255
198 223 255
198 223 255
198 223 255
198 223 255
198 223 255
198 223 255
198 223 255
198 223 255
197 223 255
197 222 255
197 222 255
197 222 255
197 222 255
197 222 255
197 222 255
197 222 255
197 222 255
197 222 255
197 222 255
197 222 255
197 222 255
197 222 255
197 222 255
197 222 255
197 222 255
197 222 255
197 222 255
197 222 255
197 222 255
197 222 255
197 222 255
197 222 255
197 222 255
197 222 255
197 222 255
197 222 255
197 222 255
197 222 255
197 222 255
197 222 255
197 222 255
197 222 255
197 222 255
197 222 255
197 222 255
197 222 255
197 222 255
197 222 255
197 222 255
197 222 255
197 222 255
197 222 255
197 222 255
197 222 255
197 222 255
197 222 255
197 222 255
197 222 255
197 222 255
197 222 255
197 222 255
197 222 255
197 222 255
197 222 255
197 222 255
197 222 255
197 223 255
198 223 255
198 223 255
198 223 255
198 223 255
198 223 255
198 223 255
198 223 255
198 223 255
198 223 255
198 223 255
198 223 255
198 223 255
198 223 255
198 223 255
198 223 255
198 223 255
198 223 255
198 223 255
198 223 255
198 223 255
198 223 255
198 223 255
198 223 255
198 223 255
198 223 255
198 223 255
198 223 255
199 223 255
199 223 255
199 223 255
199 223 255
199 223 255
199 223 255
199 223 255
199 223 255
199 223 255
199 223 255
199 223 255
199 223 255
199 223 255
199 223 255
199 223 255
199 223 255
199 223 255
199 224 255
199 224 255
199 224 255
200 224 255
200 224 255
200 224 255
200 224 255
200 224 255
200 224 255
200 224 255
200 224 255
200 224 255
200 224 255
200 224 255
200 224 255
200 224 255
200 224 255
200 224 255
200 224 255
200 224 255
201 224 255
201 224 255
201 224 255
201 224 255
201 224 255
201 224 255
201 224 255
201 224 255
201 224 255
201 224 255
201 224 255
201 224 255
201 225 255
201 225 255
201 225 255
201 225 255
201 225 255
202 225 255
202 225 255
202 225 255
202 225 255
202 225 255
202 225 255
202 225 255
202 225 255
202 225 255
202 225 255
202 225 255
202 225 255
202 225 255
202 225 255
202 225 255
202 225 255
202 225 255
203 225 255
203 225 255
203 225 255
202 225 255
202 225 255
202 225 255
202 225 255
202 225 255
202 225 255
202 225 255
202 225 255
202 225 255
202 225 255
202 225 255
202 225 255
202 225 255
202 225 255
202 225 255
202 225 255
202 225 255
201 225 255
201 225 255
201 225 255
201 225 255
201 225 255
201 225 255
201 224 255
201 224 255
201 224 255
201 224 255
201 224 255
201 224 255
201 224 255
201 224 255
201 224 255
201 224 255
201 224 255
200 224 255
200 224 255
200 224 255
200 224 255
200 224 255
200 224 255
200 224 255
200 224 255
200 224 255
200 224 255
200 224 255
200 224 255
200 224 255
200 224 255
200 224 255
200 224 255
200 224 255
200 224 255
199 224 255
199 224 255
199 224 255
199 223 255
199 223 255
199 223 255
199 223 255
199 223 255
199 223 255
199 223 255
199 223 255
199 223 255
199 223 255
199 223 255
199 223 255
199 223 255
199 223 255
199 223 255
199 223 255
199 223 255
199 223 255
198 223 255
198 223 255
198 223 255
198 223 255
198 223 255
198 223 255
198 223 255
198 223 255
198 223 255
198 223 255
198 223 255
198 223 255
198 223 255
198 223 255
198 223 255
198 223 255
198 223 255
198 223 255
198 223 255
198 223 255
198 223 255
198 223 255
198 223 255
198 223 255
198 223 255
198 223 255
198 223 255
198 223 255
198 223 255
198 223 255
197 223 255
197 222 255
197 222 255
197 222 255
197 222 255
197 222 255
197 222 255
197 222 255
197 222 255
197 222 255
197 222 255
197 222 255
197 222 255
197 222 255
197 222 255
197 222 255
197 222 255
197 222 255
197 222 255
197 222 255
197 222 255
197 222 255
197 222 255
197 222 255
197 222 255
197 222 255
197 222 255
197 222 255
197 222 255
197 222 255
197 222 255
197 222 255
197 222 255
197 222 255
197 222 255
197 222 255
197 222 255
197 222 255
197 222 255
197 222 255
197 222 255
197 222 255
197 222 255
197 222 255
197 223 255
198 223 255
198 223 255
198 223 255
198 223 255
198 223 255
198 223 255
198 223 255
198 223 255
198 223 255
198 223 255
198 223 255
198 223 255
198 223 255
198 223 255
198 223 255
198 223 255
198 223 255
198 223 255
198 223 255
198 223 255
198 223 255
198 223 255
198 223 255
198 223 255
198 223 255
198 223 255
198 223 255
198 223 255
198 223 255
198 223 255
199 223 255
199 223 255
199 223 255
199 223 255
199 223 255
199 223 255
199 223 255
199 223 255
199 223 255
199 223 255
199 223 255
199 223 255
199 223 255
199 223 255
199 223 255
199 223 255
199 223 255
199 224 255
199 224 255
199 224 255
199 224 255
200 224 255
200 224 255
200 224 255
200 224 255
200 224 255
200 224 255
200 224 255
200 224 255
200 224 255
200 224 255
200 224 255
200 224 255
200 224 255
200 224 255
200 224 255
200 224 255
200 224 255
200 224 255
201 224 255
201 224 255
201 224 255
201 224 255
201 224 255
201 224 255
201 224 255
201 224 255
201 224 255
201 224 255
201 224 255
201 224 255
201 225 255
201 225 255
201 225 255
201 225 255
201 225 255
202 225 255
202 225 255
202 225 255
202 225 255
202 225 255
202 225 255
202 225 255
202 225 255
202 225 255
202 225 255
202 225 255
202 225 255
202 225 255
202 225 255
202 225 255
202 225 255
203 225 255
203 225 255
203 225 255
203 225 255
203 225 255
203 225 255
203 225 255
203 225 255
203 225 255
202 225 255
202 225 255
202 225 255
202 225 255
202 225 255
202 225 255
202 225 255
202 225 255
202 225 255
202 225 255
202 225 255
202 225 255
202 225 255
202 225 255
202 225 255
202 225 255
202 225 255
201 225 255
201 225 255
201 225 255
201 225 255
201 225 255
201 224 255
201 224 255
201 224 255
201 224 255
201 224 255
201 224 255
201 224 255
201 224 255
201 224 255
201 224 255
201 224 255
201 224 255
200 224 255
200 224 255
200 224 255
200 224 255
200 224 255
200 224 255
200 224 255
200 224 255
200 224 255
200 224 255
200 224 255
200 224 255
200 224 255
200 224 255
200 224 255
200 224 255
200 224 255
200 224 255
199 224 255
199 224 255
199 224 255
199 224 255
199 223 255
199 223 255
199 223 255
199 223 255
199 223 255
199 223 255
199 223 255
199 223 255
199 223 255
199 223 255
199 223 255
199 223 255
199 223 255
199 223 255
199 223 255
199 223 255
199 223 255
198 223 255
198 223 255
198 223 255
198 223 255
198 223 255
198 223 255
198 223 255
198 223 255
198 223 255
198 223 255
198 223 255
198 223 255
198 223 255
198 223 255
198 223 255
198 223 255
198 223 255
198 223 255
198 223 255
198 223 255
198 223 255
198 223 255
198 223 255
198 223 255
198 223 255
198 223 255
198 223 255
198 223 255
198 223 255
198 223 255
198 223 255
198 223 255
198 223 255
198 223 255
198 223 255
198 223 255
197 223 255
197 223 255
197 223 255
197 222 255
197 222 255
197 222 255
197 222 255
197 222 255
197 222 255
197 222 255
197 222 255
197 222 255
197 222 255
197 222 255
197 222 255
197 222 255
197 222 255
197 222 255
197 222 255
197 222 255
197 222 255
197 222 255
197 222 255
197 222 255
197 223 255
197 223 255
197 223 255
197 223 255
198 223 255
198 223 255
198 223 255
198 223 255
198 223 255
198 223 255
198 223 255
198 223 255
198 223 255
198 223 255
198 223 255
198 223 255
198 223 255
198 223 255
198 223 255
198 223 255
198 223 255
198 223 255
198 223 255
198 223 255
198 223 255
198 223 255
198 223 255
198 223 255
198 223 255
198 223 255
198 223 255
198 223 255
198 223 255
198 223 255
198 223 255
198 223 255
198 223 255
198 223 255
199 223 255
199 223 255
199 223 255
199 223 255
199 223 255
199 223 255
199 223 255
199 223 255
199 223 255
199 223 255
199 223 255
199 223 255
199 223 255
199 223 255
199 223 255
199 223 255
199 223 255
199 223 255
199 224 255
199 224 255
199 224 255
199 224 255
200 224 255
200 224 255
200 224 255
200 224 255
200 224 255
200 224 255
200 224 255
200 224 255
200 224 255
200 224 255
200 224 255
200 224 255
200 224 255
200 224 255
200 224 255
200 224 255
200 224 255
200 224 255
201 224 255
201 224 255
201 224 255
201 224 255
201 224 255
201 224 255
201 224 255
201 224 255
201 224 255
201 224 255
201 224 255
201 224 255
201 225 255
201 225 255
201 225 255
201 225 255
201 225 255
202 225 255
202 225 255
202 225 255
202 225 255
202 225 255
202 225 255
202 225 255
202 225 255
202 225 255
202 225 255
202 225 255
202 225 255
202 225 255
202 225 255
202 225 255
202 225 255
202 225 255
203 225 255
203 225 255
203 225 255
203 225 255
203 225 255
203 225 255
203 225 255
203 225 255
203 225 255
203 225 255
203 225 255
203 225 255
203 225 255
203 225 255
202 225 255
202 225 255
202 225 255
202 225 255
202 225 255
202 225 255
202 225 255
202 225 255
202 225 255
202 225 255
202 225 255
202 225 255
202 225 255
202 225 255
202 225 255
202 225 255
201 225 255
201 225 255
201 225 255
201 225 255
201 225 255
201 225 255
201 224 255
201 224 255
201 224 255
201 224 255
201 224 255
201 224 255
201 224 255
201 224 255
201 224 255
201 224 255
201 224 255
201 224 255
200 224 255
200 224 255
200 224 255
200 224 255
200 224 255
200 224 255
200 224 255
200 224 255
200 224 255
200 224 255
200 224 255
200 224 255
200 224 255
200 224 255
200 224 255
200 224 255
200 224 255
200 224 255
200 224 255
199 224 255
199 224 255
199 224 255
199 223 255
199 223 255
199 223 255
199 223 255
199 223 255
199 223 255
199 223 255
199 223 255
199 223 255
199 223 255
199 223 255
199 223 255
199 223 255
199 223 255
199 223 255
199 223 255
199 223 255
199 223 255
198 223 255
198 223 255
198 223 255
198 223 255
198 223 255
198 223 255
198 223 255
198 223 255
198 223 255
198 223 255
198 223 255
198 223 255
198 223 255
198 223 255
198 223 255
198 223 255
198 223 255
198 223 255
198 223 255
198 223 255
198 223 255
198 223 255
198 223 255
198 223 255
198 223 255
198 223 255
198 223 255
198 223 255
198 223 255
198 223 255
198 223 255
198 223 255
198 223 255
198 223 255
198 223 255
198 223 255
198 223 255
198 223 255
198 223 255
198 223 255
198 223 255
198 223 255
198 223 255
198 223 255
198 223 255
198 223 255
198 223 255
198 223 255
198 223 255
198 223 255
198 223 255
198 223 255
198 223 255
198 223 255
198 223 255
198 223 255
198 223 255
198 223 255
198 223 255
198 223 255
198 223 255
198 223 255
198 223 255
198 223 255
198 223 255
198 223 255
198 223 255
198 223 255
198 223 255
198 223 255
198 223 255
198 223 255
198 223 255
198 223 255
198 223 255
198 223 255
198 223 255
198 223 255
198 223 255
198 223 255
198 223 255
198 223 255
198 223 255
198 223 255
198 223 255
198 223 255
198 223 255
198 223 255
198 223 255
198 223 255
199 223 255
199 223 255
199 223 255
199 223 255
199 223 255
199 223 255
199 223 255
199 223 255
199 223 255
199 223 255
199 223 255
199 223 255
199 223 255
199 223 255
199 223 255
199 223 255
199 223 255
199 223 255
199 223 255
199 224 255
199 224 255
199 224 255
200 224 255
200 224 255
200 224 255
200 224 255
200 224 255
200 224 255
200 224 255
200 224 255
200 224 255
200 224 255
200 224 255
200 224 255
200 224 255
200 224 255
200 224 255
200 224 255
200 224 255
200 224 255
200 224 255
201 224 255
201 224 255
201 224 255
201 224 255
201 224 255
201 224 255
201 224 255
201 224 255
201 224 255
201 224 255
201 224 255
201 224 255
201 225 255
201 225 255
201 225 255
201 225 255
201 225 255
202 225 255
202 225 255
202 225 255
202 225 255
202 225 255
202 225 255
202 225 255
202 225 255
202 225 255
202 225 255
202 225 255
202 225 255
202 225 255
202 225 255
202 225 255
202 225 255
202 225 255
203 225 255
203 225 255
203 225 255
203 225 255
203 225 255
203 225 255
203 225 255
203 225 255
203 225 255
203 226 255
203 225 255
203 225 255
203 225 255
203 225 255
203 225 255
203 225 255
203 225 255
203 225 255
203 225 255
202 225 255
202 225 255
202 225 255
202 225 255
202 225 255
202 225 255
202 225 255
202 225 255
202 225 255
202 225 255
202 225 255
202 225 255
202 225 255
202 225 255
202 225 255
202 225 255
202 225 255
201 225 255
201 225 255
201 225 255
201 225 255
201 225 255
201 224 255
201 224 255
201 224 255
201 224 255
201 224 255
201 224 255
201 224 255
201 224 255
201 224 255
201 224 255
201 224 255
201 224 255
201 224 255
200 224 255
200 224 255
200 224 255
200 224 255
200 224 255
200 224 255
200 224 255
200 224 255
200 224 255
200 224 255
200 224 255
200 224 255
200 224 255
200 224 255
200 224 255
200 224 255
200 224 255
200 224 255
200 224 255
199 224 255
199 224 255
199 224 255
199 223 255
199 223 255
199 223 255
199 223 255
199 223 255
199 223 255
199 223 255
199 223 255
199 223 255
199 223 255
199 223 255
199 223 255
199 223 255
199 223 255
199 223 255
199 223 255
199 223 255
199 223 255
199 223 255
199 223 255
198 223 255
198 223 255
198 223 255
198 223 255
198 223 255
198 223 255
198 223 255
198 223 255
198 223 255
198 223 255
198 223 255
198 223 255
198 223 255
198 223 255
198 223 255
198 223 255
198 223 255
198 223 255
198 223 255
198 223 255
198 223 255
198 223 255
198 223 255
198 223 255
198 223 255
198 223 255
198 223 255
198 223 255
198 223 255
198 223 255
198 223 255
198 223 255
198 223 255
198 223 255
198 223 255
198 223 255
198 223 255
198 223 255
198 223 255
198 223 255
198 223 255
198 223 255
198 223 255
198 223 255
198 223 255
198 223 255
198 223 255
198 223 255
198 223 255
198 223 255
198 223 255
198 223 255
198 223 255
198 223 255
198 223 255
198 223 255
198 223 255
198 223 255
198 223 255
198 223 255
198 223 255
198 223 255
198 223 255
198 223 255
198 223 255
198 223 255
198 223 255
198 223 255
198 223 255
198 223 255
198 223 255
198 223 255
198 223 255
198 223 255
198 223 255
198 223 255
198 223 255
198 223 255
198 223 255
198 223 255
198 223 255
199 223 255
199 223 255
199 223 255
199 223 255
199 223 255
199 223 255
199 223 255
199 223 255
199 223 255
199 223 255
199 223 255
199 223 255
199 223 255
199 223 255
199 223 255
199 223 255
199 223 255
199 223 255
199 223 255
199 223 255
199 224 255
199 224 255
199 224 255
200 224 255
200 224 255
200 224 255
200 224 255
200 224 255
200 224 255
200 224 255
200 224 255
200 224 255
200 224 255
200 224 255
200 224 255
200 224 255
200 224 255
200 224 255
200 224 255
200 224 255
200 224 255
200 224 255
201 224 255
201 224 255
201 224 255
201 224 255
201 224 255
201 224 255
201 224 255
201 224 255
201 224 255
201 224 255
201 224 255
201 224 255
201 224 255
201 225 255
201 225 255
201 225 255
201 225 255
201 225 255
202 225 255
202 225 255
202 225 255
202 225 255
202 225 255
202 225 255
202 225 255
202 225 255
202 225 255
202 225 255
202 225 255
202 225 255
202 225 255
202 225 255
202 225 255
202 225 255
202 225 255
203 225 255
203 225 255
203 225 255
203 225 255
203 225 255
203 225 255
203 225 255
203 225 255
203 225 255
203 226 255
203 226 255
203 226 255
203 226 255
203 226 255
203 225 255
203 225 255
203 225 255
203 225 255
203 225 255
203 225 255
203 225 255
203 225 255
203 225 255
203 225 255
202 225 255
202 225 255
202 225 255
202 225 255
202 225 255
202 225 255
202 225 255
202 225 255
202 225 255
202 225 255
202 225 255
202 225 255
202 225 255
202 225 255
202 225 255
202 225 255
202 225 255
201 225 255
201 225 255
201 225 255
201 225 255
201 225 255
201 224 255
201 224 255
201 224 255
201 224 255
201 224 255
201 224 255
201 224 255
201 224 255
201 224 255
201 224 255
201 224 255
201 224 255
201 224 255
200 224 255
200 224 255
200 224 255
200 224 255
200 224 255
200 224 255
200 224 255
200 224 255
200 224 255
200 224 255
200 224 255
200 224 255
200 224 255
200 224 255
200 224 255
200 224 255
200 224 255
200 224 255
200 224 255
199 224 255
199 224 255
199 224 255
199 224 255
199 223 255
199 223 255
199 223 255
199 223 255
199 223 255
199 223 255
199 223 255
199 223 255
199 223 255
199 223 255
199 223 255
199 223 255
199 223 255
199 223 255
199 223 255
199 223 255
199 223 255
199 223 255
199 223 255
199 223 255
198 223 255
198 223 255
198 223 255
198 223 255
198 223 255
198 223 255
198 223 255
198 223 255
198 223 255
198 223 255
198 223 255
198 223 255
198 223 255
198 223 255
198 223 255
198 223 255
198 223 255
198 223 255
198 223 255
198 223 255
198 223 255
198 223 255
198 223 255
198 223 255
198 223 255
198 223 255
198 223 255
198 223 255
198 223 255
198 223 255
198 223 255
198 223 255
198 223 255
198 223 255
198 223 255
198 223 255
198 223 255
198 223 255
198 223 255
198 223 255
198 223 255
198 223 255
198 223 255
198 223 255
198 223 255
198 223 255
198 223 255
198 223 255
198 223 255
198 223 255
198 223 255
198 223 255
198 223 255
198 223 255
198 223 255
198 223 255
198 223 255
198 223 255
198 223 255
198 223 255
198 223 255
198 223 255
198 223 255
198 223 255
198 223 255
198 223 255
198 223 255
198 223 255
198 223 255
198 223 255
198 223 255
198 223 255
199 223 255
199 223 255
199 223 255
199 223 255
199 223 255
199 223 255
199 223 255
199 223 255
199 223 255
199 223 255
199 223 255
199 223 255
199 223 255
199 223 255
199 223 255
199 223 255
199 223 255
199 223 255
199 223 255
199 223 255
199 223 255
199 224 255
199 224 255
199 224 255
199 224 255
200 224 255
200 224 255
200 224 255
200 224 255
200 224 255
200 224 255
200 224 255
200 224 255
200 224 255
200 224 255
200 224 255
200 224 255
200 224 255
200 224 255
200 224 255
200 224 255
200 224 255
200 224 255
200 224 255
201 224 255
201 224 255
201 224 255
201 224 255
201 224 255
201 224 255
201 224 255
201 224 255
201 224 255
201 224 255
201 224 255
201 224 255
201 224 255
201 225 255
201 225 255
201 225 255
201 225 255
201 225 255
202 225 255
202 225 255
202 225 255
202 225 255
202 225 255
202 225 255
202 225 255
202 225 255
202 225 255
202 225 255
202 225 255
202 225 255
202 225 255
202 225 255
202 225 255
202 225 255
202 225 255
203 225 255
203 225 255
203 225 255
203 225 255
203 225 255
203 225 255
203 225 255
203 225 255
203 225 255
203 225 255
203 226 255
203 226 255
203 226 255
203 226 255
203 226 255
203 226 255
203 226 255
203 226 255
203 226 255
203 226 255
203 225 255
203 225 255
203 225 255
203 225 255
203 225 255
203 225 255
203 225 255
203 225 255
203 225 255
203 225 255
202 225 255
202 225 255
202 225 255
202 225 255
202 225 255
202 225 255
202 225 255
202 225 255
202 225 255
202 225 255
202 225 255
202 225 255
202 225 255
202 225 255
202 225 255
202 225 255
202 225 255
201 225 255
201 225 255
201 225 255
201 225 255
201 225 255
201 224 255
201 224 255
201 224 255
201 224 255
201 224 255
201 224 255
201 224 255
201 224 255
201 224 255
201 224 255
201 224 255
201 224 255
201 224 255
200 224 255
200 224 255
200 224 255
200 224 255
200 224 255
200 224 255
200 224 255
200 224 255
200 224 255
200 224 255
200 224 255
200 224 255
200 224 255
200 224 255
200 224 255
200 224 255
200 224 255
200 224 255
200 224 255
200 224 255
199 224 255
199 224 255
199 224 255
199 223 255
199 223 255
199 223 255
199 223 255
199 223 255
199 223 255
199 223 255
199 223 255
199 223 255
199 223 255
199 223 255
199 223 255
199 223 255
199 223 255
199 223 255
199 223 255
199 223 255
199 223 255
199 223 255
199 223 255
199 223 255
199 223 255
199 223 255
198 223 255
198 223 255
198 223 255
198 223 255
198 223 255
198 223 255
198 223 255
198 223 255
198 223 255
198 223 255
198 223 255
198 223 255
198 223 255
198 223 255
198 223 255
198 223 255
198 223 255
198 223 255
198 223 255
198 223 255
198 223 255
198 223 255
198 223 255
198 223 255
198 223 255
198 223 255
198 223 255
198 223 255
198 223 255
198 223 255
198 223 255
198 223 255
198 223 255
198 223 255
198 223 255
198 223 255
198 223 255
198 223 255
198 223 255
198 223 255
198 223 255
198 223 255
198 223 255
198 223 255
198 223 255
198 223 255
198 223 255
198 223 255
198 223 255
198 223 255
198 223 255
198 223 255
198 223 255
198 223 255
198 223 255
198 223 255
198 223 255
198 223 255
198 223 255
198 223 255
198 223 255
199 223 255
199 223 255
199 223 255
199 223 255
199 223 255
199 223 255
199 223 255
199 223 255
199 223 255
199 223 255
199 223 255
199 223 255
199 223 255
199 223 255
199 223 255
199 223 255
199 223 255
199 223 255
199 223 255
199 223 255
199 223 255
199 223 255
199 224 255
199 224 255
199 224 255
199 224 255
200 224 255
200 224 255
200 224 255
200 224 255
200 224 255
200 224 255
200 224 255
200 224 255
200 224 255
200 224 255
200 224 255
200 224 255
200 224 255
200 224 255
200 224 255
200 224 255
200 224 255
200 224 255
200 224 255
200 224 255
201 224 255
201 224 255
201 224 255
201 224 255
201 224 255
201 224 255
201 224 255
201 224 255
201 224 255
201 224 255
201 224 255
201 224 255
201 224 255
201 225 255
201 225 255
201 225 255
201 225 255
201 225 255
202 225 255
202 225 255
202 225 255
202 225 255
202 225 255
202 225 255
202 225 255
202 225 255
202 225 255
202 225 255
202 225 255
202 225 255
202 225 255
202 225 255
202 225 255
202 225 255
202 225 255
203 225 255
203 225 255
203 225 255
203 225 255
203 225 255
203 225 255
203 225 255
203 225 255
203 225 255
203 225 255
203 226 255
203 226 255
203 226 255
203 226 255
203 226 255
203 226 255
203 226 255
204 226 255
203 226 255
203 226 255
203 226 255
203 226 255
203 226 255
203 226 255
203 226 255
203 226 255
203 225 255
203 225 255
203 225 255
203 225 255
203 225 255
203 225 255
203 225 255
203 225 255
203 225 255
203 225 255
202 225 255
202 225 255
202 225 255
202 225 255
202 225 255
202 225 255
202 225 255
202 225 255
202 225 255
202 225 255
202 225 255
202 225 255
202 225 255
202 225 255
202 225 255
202 225 255
202 225 255
201 225 255
201 225 255
201 225 255
201 225 255
201 225 255
201 224 255
201 224 255
201 224 255
201 224 255
201 224 255
201 224 255
201 224 255
201 224 255
201 224 255
201 224 255
201 224 255
201 224 255
201 224 255
200 224 255
200 224 255
200 224 255
200 224 255
200 224 255
200 224 255
200 224 255
200 224 255
200 224 255
200 224 255
200 224 255
200 224 255
200 224 255
200 224 255
200 224 255
200 224 255
200 224 255
200 224 255
200 224 255
200 224 255
199 224 255
199 224 255
199 224 255
199 224 255
199 223 255
199 223 255
199 223 255
199 223 255
199 223 255
199 223 255
199 223 255
199 223 255
199 223 255
199 223 255
199 223 255
199 223 255
199 223 255
199 223 255
199 223 255
199 223 255
199 223 255
199 223 255
199 223 255
199 223 255
199 223 255
199 223 255
199 223 255
199 223 255
199 223 255
199 223 255
198 223 255
198 223 255
198 223 255
198 223 255
198 223 255
198 223 255
198 223 255
198 223 255
198 223 255
198 223 255
198 223 255
198 223 255
198 223 255
198 223 255
198 223 255
198 223 255
198 223 255
198 223 255
198 223 255
198 223 255
198 223 255
198 223 255
198 223 255
198 223 255
198 223 255
198 223 255
198 223 255
198 223 255
198 223 255
198 223 255
198 223 255
198 223 255
198 223 255
198 223 255
198 223 255
198 223 255
198 223 255
198 223 255
198 223 255
198 223 255
198 223 255
198 223 255
198 223 255
198 223 255
198 223 255
198 223 255
199 223 255
199 223 255
199 223 255
199 223 255
199 223 255
199 223 255
199 223 255
199 223 255
199 223 255
199 223 255
199 223 255
199 223 255
199 223 255
199 223 255
199 223 255
199 223 255
199 223 255
199 223 255
199 223 255
199 223 255
199 223 255
199 223 255
199 223 255
199 223 255
199 223 255
199 223 255
199 224 255
199 224 255
199 224 255
199 224 255
200 224 255
200 224 255
200 224 255
200 224 255
200 224 255
200 224 255
200 224 255
200 224 255
200 224 255
200 224 255
200 224 255
200 224 255
200 224 255
200 224 255
200 224 255
200 224 255
200 224 255
200 224 255
200 224 255
200 224 255
200 224 255
201 224 255
201 224 255
201 224 255
201 224 255
201 224 255
201 224 255
201 224 255
201 224 255
201 224 255
201 224 255
201 224 255
201 224 255
201 224 255
201 225 255
201 225 255
201 225 255
201 225 255
201 225 255
202 225 255
202 225 255
202 225 255
202 225 255
202 225 255
202 225 255
202 225 255
202 225 255
202 225 255
202 225 255
202 225 255
202 225 255
202 225 255
202 225 255
202 225 255
202 225 255
202 225 255
203 225 255
203 225 255
203 225 255
203 225 255
203 225 255
203 225 255
203 225 255
203 225 255
203 225 255
203 225 255
203 226 255
203 226 255
203 226 255
203 226 255
203 226 255
203 226 255
203 226 255
203 226 255
204 226 255
204 226 255
204 226 255
204 226 255
204 226 255
204 226 255
203 226 255
203 226 255
203 226 255
203 226 255
203 226 255
203 226 255
203 226 255
203 226 255
203 225 255
203 225 255
203 225 255
203 225 255
203 225 255
203 225 255
203 225 255
203 225 255
203 225 255
202 225 255
202 225 255
202 225 255
202 225 255
202 225 255
202 225 255
202 225 255
202 225 255
202 225 255
202 225 255
202 225 255
202 225 255
202 225 255
202 225 255
202 225 255
202 225 255
202 225 255
201 225 255
201 225 255
201 225 255
201 225 255
201 225 255
201 225 255
201 224 255
201 224 255
201 224 255
201 224 255
201 224 255
201 224 255
201 224 255
201 224 255
201 224 255
201 224 255
201 224 255
201 224 255
201 224 255
200 224 255
200 224 255
200 224 255
200 224 255
200 224 255
200 224 255
200 224 255
200 224 255
200 224 255
200 224 255
200 224 255
200 224 255
200 224 255
200 224 255
200 224 255
200 224 255
200 224 255
200 224 255
200 224 255
200 224 255
200 224 255
199 224 255
199 224 255
199 224 255
199 224 255
199 223 255
199 223 255
199 223 255
199 223 255
199 223 255
199 223 255
199 223 255
199 223 255
199 223 255
199 223 255
199 223 255
199 223 255
199 223 255
199 223 255
199 223 255
199 223 255
199 223 255
199 223 255
199 223 255
199 223 255
199 223 255
199 223 255
199 223 255
199 223 255
199 223 255
199 223 255
199 223 255
199 223 255
199 223 255
199 223 255
199 223 255
198 223 255
199 223 255
198 223 255
198 223 255
198 223 255
198 223 255
198 223 255
198 223 255
198 223 255
198 223 255
198 223 255
198 223 255
198 223 255
198 223 255
198 223 255
198 223 255
198 223 255
198 223 255
198 223 255
198 223 255
198 223 255
198 223 255
198 223 255
198 223 255
198 223 255
198 223 255
198 223 255
198 223 255
198 223 255
199 223 255
199 223 255
199 223 255
199 223 255
199 223 255
199 223 255
199 223 255
199 223 255
199 223 255
199 223 255
199 223 255
199 223 255
199 223 255
199 223 255
199 223 255
199 223 255
199 223 255
199 223 255
199 223 255
199 223 255
199 223 255
199 223 255
199 223 255
199 223 255
199 223 255
199 223 255
199 223 255
199 223 255
199 223 255
199 223 255
199 223 255
199 224 255
199 224 255
199 224 255
199 224 255
200 224 255
200 224 255
200 224 255
200 224 255
200 224 255
200 224 255
200 224 255
200 224 255
200 224 255
200 224 255
200 224 255
200 224 255
200 224 255
200 224 255
200 224 255
200 224 255
200 224 255
200 224 255
200 224 255
200 224 255
200 224 255
201 224 255
201 224 255
201 224 255
201 224 255
201 224 255
201 224 255
201 224 255
201 224 255
201 224 255
201 224 255
201 224 255
201 224 255
201 224 255
201 225 255
201 225 255
201 225 255
201 225 255
201 225 255
202 225 255
202 225 255
202 225 255
202 225 255
202 225 255
202 225 255
202 225 255
202 225 255
202 225 255
202 225 255
202 225 255
202 225 255
202 225 255
202 225 255
202 225 255
202 225 255
202 225 255
203 225 255
203 225 255
203 225 255
203 225 255
203 225 255
203 225 255
203 225 255
203 225 255
203 225 255
203 225 255
203 225 255
203 226 255
203 226 255
203 226 255
203 226 255
203 226 255
203 226 255
203 226 255
204 226 255
204 226 255
204 226 255
204 226 255
204 226 255
204 226 255
204 226 255
204 226 255
204 226 255
204 226 255
204 226 255
204 226 255
203 226 255
203 226 255
203 226 255
203 226 255
203 226 255
203 226 255
203 226 255
203 225 255
203 225 255
203 225 255
203 225 255
203 225 255
203 225 255
203 225 255
203 225 255
203 225 255
203 225 255
202 225 255
202 225 255
202 225 255
202 225 255
202 225 255
202 225 255
202 225 255
202 225 255
202 225 255
202 225 255
202 225 255
202 225 255
202 225 255
202 225 255
202 225 255
202 225 255
202 225 255
202 225 255
201 225 255
201 225 255
201 225 255
201 225 255
201 225 255
201 224 255
201 224 255
201 224 255
201 224 255
201 224 255
201 224 255
201 224 255
201 224 255
201 224 255
201 224 255
201 224 255
201 224 255
201 224 255
201 224 255
200 224 255
200 224 255
200 224 255
200 224 255
200 224 255
200 224 255
200 224 255
200 224 255
200 224 255
200 224 255
200 224 255
200 224 255
200 224 255
200 224 255
200 224 255
200 224 255
200 224 255
200 224 255
200 224 255
200 224 255
200 224 255
200 224 255
199 224 255
199 224 255
199 224 255
199 224 255
199 223 255
199 223 255
199 223 255
199 223 255
199 223 255
199 223 255
199 223 255
199 223 255
199 223 255
199 223 255
199 223 255
199 223 255
199 223 255
199 223 255
199 223 255
199 223 255
199 223 255
199 223 255
199 223 255
199 223 255
199 223 255
199 223 255
199 223 255
199 223 255
199 223 255
199 223 255
199 223 255
199 223 255
199 223 255
199 223 255
199 223 255
199 223 255
199 223 255
199 223 255
199 223 255
199 223 255
199 223 255
199 223 255
199 223 255
199 223 255
199 223 255
199 223 255
199 223 255
199 223 255
199 223 255
199 223 255
199 223 255
199 223 255
199 223 255
199 223 255
199 223 255
199 223 255
199 223 255
199 223 255
199 223 255
199 223 255
199 223 255
199 223 255
199 223 255
199 223 255
199 223 255
199 223 255
199 223 255
199 223 255
199 223 255
199 223 255
199 223 255
199 223 255
199 223 255
199 223 255
199 223 255
199 223 255
199 223 255
199 223 255
199 223 255
199 223 255
199 223 255
199 223 255
199 223 255
199 223 255
199 223 255
199 224 255
199 224 255
199 224 255
199 224 255
200 224 255
200 224 255
200 224 255
200 224 255
200 224 255
200 224 255
200 224 255
200 224 255
200 224 255
200 224 255
200 224 255
200 224 255
200 224 255
200 224 255
200 224 255
200 224 255
200 224 255
200 224 255
200 224 255
200 224 255
200 224 255
200 224 255
200 224 255
201 224 255
201 224 255
201 224 255
201 224 255
201 224 255
201 224 255
201 224 255
201 224 255
201 224 255
201 224 255
201 224 255
201 224 255
201 224 255
201 225 255
201 225 255
201 225 255
201 225 255
201 225 255
202 225 255
202 225 255
202 225 255
202 225 255
202 225 255
202 225 255
202 225 255
202 225 255
202 225 255
202 225 255
202 225 255
202 225 255
202 225 255
202 225 255
202 225 255
202 225 255
202 225 255
202 225 255
203 225 255
203 225 255
203 225 255
203 225 255
203 225 255
203 225 255
203 225 255
203 225 255
203 225 255
203 225 255
203 226 255
203 226 255
203 226 255
203 226 255
203 226 255
203 226 255
203 226 255
203 226 255
204 226 255
204 226 255
204 226 255
204 226 255
204 226 255
204 226 255
204 226 255
204 226 255
204 226 255
204 226 255
204 226 255
204 226 255
204 226 255
204 226 255
204 226 255
204 226 255
203 226 255
203 226 255
203 226 255
203 226 255
203 226 255
203 226 255
203 226 255
203 226 255
203 225 255
203 225 255
203 225 255
203 225 255
203 225 255
203 225 255
203 225 255
203 225 255
203 225 255
203 225 255
202 225 255
202 225 255
202 225 255
202 225 255
202 225 255
202 225 255
202 225 255
202 225 255
202 225 255
202 225 255
202 225 255
202 225 255
202 225 255
202 225 255
202 225 255
202 225 255
202 225 255
202 225 255
201 225 255
201 225 255
201 225 255
201 225 255
201 225 255
201 224 255
201 224 255
201 224 255
201 224 255
201 224 255
201 224 255
201 224 255
201 224 255
201 224 255
201 224 255
201 224 255
201 224 255
201 224 255
201 224 255
200 224 255
200 224 255
200 224 255
200 224 255
200 224 255
200 224 255
200 224 255
200 224 255
200 224 255
200 224 255
200 224 255
200 224 255
200 224 255
200 224 255
200 224 255
200 224 255
200 224 255
200 224 255
200 224 255
200 224 255
200 224 255
200 224 255
200 224 255
199 224 255
199 224 255
199 224 255
199 224 255
199 224 255
199 223 255
199 223 255
199 223 255
199 223 255
199 223 255
199 223 255
199 223 255
199 223 255
199 223 255
199 223 255
199 223 255
199 223 255
199 223 255
199 223 255
199 223 255
199 223 255
199 223 255
199 223 255
199 223 255
199 223 255
199 223 255
199 223 255
199 223 255
199 223 255
199 223 255
199 223 255
199 223 255
199 223 255
199 223 255
199 223 255
199 223 255
199 223 255
199 223 255
199 223 255
199 223 255
199 223 255
199 223 255
199 223 255
199 223 255
199 223 255
199 223 255
199 223 255
199 223 255
199 223 255
199 223 255
199 223 255
199 223 255
199 223 255
199 223 255
199 223 255
199 223 255
199 223 255
199 223 255
199 223 255
199 223 255
199 223 255
199 223 255
199 223 255
199 223 255
199 223 255
199 223 255
199 223 255
199 223 255
199 223 255
199 223 255
199 223 255
199 223 255
199 223 255
199 223 255
199 223 255
199 224 255
199 224 255
199 224 255
199 224 255
199 224 255
199 224 255
200 224 255
200 224 255
200 224 255
200 224 255
200 224 255
200 224 255
200 224 255
200 224 255
200 224 255
200 224 255
200 224 255
200 224 255
200 224 255
200 224 255
200 224 255
200 224 255
200 224 255
200 224 255
200 224 255
200 224 255
200 224 255
200 224 255
200 224 255
201 224 255
201 224 255
201 224 255
201 224 255
201 224 255
201 224 255
201 224 255
201 224 255
201 224 255
201 224 255
201 224 255
201 224 255
201 224 255
201 224 255
201 225 255
201 225 255
201 225 255
201 225 255
201 225 255
202 225 255
202 225 255
202 225 255
202 225 255
202 225 255
202 225 255
202 225 255
202 225 255
202 225 255
202 225 255
202 225 255
202 225 255
202 225 255
202 225 255
202 225 255
202 225 255
202 225 255
202 225 255
203 225 255
203 225 255
203 225 255
203 225 255
203 225 255
203 225 255
203 225 255
203 225 255
203 225 255
203 225 255
203 226 255
203 226 255
203 226 255
203 226 255
203 226 255
203 226 255
203 226 255
203 226 255
204 226 255
204 226 255
204 226 255
204 226 255
204 226 255
204 226 255
204 226 255
204 226 255
204 226 255
204 226 255
204 226 255
204 226 255
204 226 255
204 226 255
204 226 255
204 226 255
204 226 255
204 226 255
204 226 255
204 226 255
204 226 255
204 226 255
203 226 255
203 226 255
203 226 255
203 226 255
203 226 255
203 226 255
203 226 255
203 226 255
203 225 255
203 225 255
203 225 255
203 225 255
203 225 255
203 225 255
203 225 255
203 225 255
203 225 255
203 225 255
202 225 255
202 225 255
202 225 255
202 225 255
202 225 255
202 225 255
202 225 255
202 225 255
202 225 255
202 225 255
202 225 255
202 225 255
202 225 255
202 225 255
202 225 255
202 225 255
202 225 255
202 225 255
201 225 255
201 225 255
201 225 255
201 225 255
201 225 255
201 224 255
201 224 255
201 224 255
201 224 255
201 224 255
201 224 255
201 224 255
201 224 255
201 224 255
201 224 255
201 224 255
201 224 255
201 224 255
201 224 255
200 224 255
200 224 255
200 224 255
200 224 255
200 224 255
200 224 255
200 224 255
200 224 255
200 224 255
200 224 255
200 224 255
200 224 255
200 224 255
200 224 255
200 224 255
200 224 255
200 224 255
200 224 255
200 224 255
200 224 255
200 224 255
200 224 255
200 224 255
200 224 255
200 224 255
200 224 255
199 224 255
199 224 255
199 224 255
199 224 255
199 224 255
199 223 255
199 223 255
199 223 255
199 223 255
199 223 255
199 223 255
199 223 255
199 223 255
199 223 255
199 223 255
199 223 255
199 223 255
199 223 255
199 223 255
199 223 255
199 223 255
199 223 255
199 223 255
199 223 255
199 223 255
199 223 255
199 223 255
199 223 255
199 223 255
199 223 255
199 223 255
199 223 255
199 223 255
199 223 255
199 223 255
199 223 255
199 223 255
199 223 255
199 223 255
199 223 255
199 223 255
199 223 255
199 223 255
199 223 255
199 223 255
199 223 255
199 223 255
199 223 255
199 223 255
199 223 255
199 223 255
199 223 255
199 223 255
199 223 255
199 223 255
199 223 255
199 223 255
199 223 255
199 223 255
199 223 255
199 223 255
199 223 255
199 223 255
199 223 255
199 224 255
199 224 255
199 224 255
199 224 255
199 224 255
200 224 255
200 224 255
200 224 255
200 224 255
200 224 255
200 224 255
200 224 255
200 224 255
200 224 255
200 224 255
200 224 255
200 224 255
200 224 255
200 224 255
200 224 255
200 224 255
200 224 255
200 224 255
200 224 255
200 224 255
200 224 255
200 224 255
200 224 255
200 224 255
200 224 255
201 224 255
201 224 255
201 224 255
201 224 255
201 224 255
201 224 255
201 224 255
201 224 255
201 224 255
201 224 255
201 224 255
201 224 255
201 224 255
201 224 255
201 225 255
201 225 255
201 225 255
201 225 255
201 225 255
201 225 255
202 225 255
202 225 255
202 225 255
202 225 255
202 225 255
202 225 255
202 225 255
202 225 255
202 225 255
202 225 255
202 225 255
202 225 255
202 225 255
202 225 255
202 225 255
202 225 255
202 225 255
202 225 255
203 225 255
203 225 255
203 225 255
203 225 255
203 225 255
203 225 255
203 225 255
203 225 255
203 225 255
203 225 255
203 226 255
203 226 255
203 226 255
203 226 255
203 226 255
203 226 255
203 226 255
203 226 255
204 226 255
204 226 255
204 226 255
204 226 255
204 226 255
204 226 255
204 226 255
204 226 255
204 226 255
204 226 255
204 226 255
204 226 255
204 226 255
204 226 255
204 226 255
204 226 255
204 226 255
204 226 255
204 226 255
204 226 255
204 226 255
204 226 255
204 226 255
204 226 255
204 226 255
204 226 255
204 226 255
204 226 255
203 226 255
203 226 255
203 226 255
203 226 255
203 226 255
203 226 255
203 226 255
203 226 255
203 225 255
203 225 255
203 225 255
203 225 255
203 225 255
203 225 255
203 225 255
203 225 255
203 225 255
203 225 255
202 225 255
202 225 255
202 225 255
202 225 255
202 225 255
202 225 255
202 225 255
202 225 255
202 225 255
202 225 255
202 225 255
202 225 255
202 225 255
202 225 255
202 225 255
202 225 255
202 225 255
202 225 255
201 225 255
201 225 255
201 225 255
201 225 255
201 225 255
201 225 255
201 224 255
201 224 255
201 224 255
201 224 255
201 224 255
201 224 255
201 224 255
201 224 255
201 224 255
201 224 255
201 224 255
201 224 255
201 224 255
201 224 255
200 224 255
200 224 255
200 224 255
200 224 255
200 224 255
200 224 255
200 224 255
200 224 255
200 224 255
200 224 255
200 224 255
200 224 255
200 224 255
200 224 255
200 224 255
200 224 255
200 224 255
200 224 255
200 224 255
200 224 255
200 224 255
200 224 255
200 224 255
200 224 255
200 224 255
200 224 255
200 224 255
200 224 255
199 224 255
199 224 255
199 224 255
199 224 255
199 224 255
199 224 255
199 224 255
199 223 255
199 223 255
199 223 255
199 223 255
199 223 255
199 223 255
199 223 255
199 223 255
199 223 255
199 223 255
199 223 255
199 223 255
199 223 255
199 223 255
199 223 255
199 223 255
199 223 255
199 223 255
199 223 255
199 223 255
199 223 255
199 223 255
199 223 255
199 223 255
199 223 255
199 223 255
199 223 255
199 223 255
199 223 255
199 223 255
199 223 255
199 223 255
199 223 255
199 223 255
199 223 255
199 223 255
199 223 255
199 223 255
199 223 255
199 223 255
199 223 255
199 223 255
199 223 255
199 224 255
199 224 255
199 224 255
199 224 255
199 224 255
199 224 255
199 224 255
200 224 255
200 224 255
200 224 255
200 224 255
200 224 255
200 224 255
200 224 255
200 224 255
200 224 255
200 224 255
200 224 255
200 224 255
200 224 255
200 224 255
200 224 255
200 224 255
200 224 255
200 224 255
200 224 255
200 224 255
200 224 255
200 224 255
200 224 255
200 224 255
200 224 255
200 224 255
200 224 255
200 224 255
201 224 255
201 224 255
201 224 255
201 224 255
201 224 255
201 224 255
201 224 255
201 224 255
201 224 255
201 224 255
201 224 255
201 224 255
201 224 255
201 224 255
201 225 255
201 225 255
201 225 255
201 225 255
201 225 255
201 225 255
202 225 255
202 225 255
202 225 255
202 225 255
202 225 255
202 225 255
202 225 255
202 225 255
202 225 255
202 225 255
202 225 255
202 225 255
202 225 255
202 225 255
202 225 255
202 225 255
202 225 255
202 225 255
203 225 255
203 225 255
203 225 255
203 225 255
203 225 255
203 225 255
203 225 255
203 225 255
203 225 255
203 225 255
203 226 255
203 226 255
203 226 255
203 226 255
203 226 255
203 226 255
203 226 255
203 226 255
204 226 255
204 226 255
204 226 255
204 226 255
204 226 255
204 226 255
204 226 255
204 226 255
204 226 255
204 226 255
204 226 255
204 226 255
204 226 255
204 226 255
204 226 255
204 226 255
204 226 255
204 226 255
204 226 255
204 226 255
204 226 255
204 226 255
204 226 255
204 226 255
204 226 255
204 226 255
204 226 255
204 226 255
204 226 255
204 226 255
204 226 255
204 226 255
204 226 255
204 226 255
203 226 255
203 226 255
203 226 255
203 226 255
203 226 255
203 226 255
203 226 255
203 226 255
203 225 255
203 225 255
203 225 255
203 225 255
203 225 255
203 225 255
203 225 255
203 225 255
203 225 255
203 225 255
202 225 255
202 225 255
202 225 255
202 225 255
202 225 255
202 225 255
202 225 255
202 225 255
202 225 255
202 225 255
202 225 255
202 225 255
202 225 255
202 225 255
202 225 255
202 225 255
202 225 255
202 225 255
202 225 255
201 225 255
201 225 255
201 225 255
201 225 255
201 225 255
201 224 255
201 224 255
201 224 255
201 224 255
201 224 255
201 224 255
201 224 255
201 224 255
201 224 255
201 224 255
201 224 255
201 224 255
201 224 255
201 224 255
201 224 255
200 224 255
200 224 255
200 224 255
200 224 255
200 224 255
200 224 255
200 224 255
200 224 255
200 224 255
200 224 255
200 224 255
200 224 255
200 224 255
200 224 255
200 224 255
200 224 255
200 224 255
200 224 255
200 224 255
200 224 255
200 224 255
200 224 255
200 224 255
200 224 255
200 224 255
200 224 255
200 224 255
200 224 255
200 224 255
200 224 255
200 224 255
199 224 255
199 224 255
199 224 255
199 224 255
199 224 255
199 224 255
199 224 255
199 224 255
199 224 255
199 224 255
199 223 255
199 223 255
199 223 255
199 223 255
199 223 255
199 223 255
199 223 255
199 223 255
199 223 255
199 223 255
199 223 255
199 223 255
199 223 255
199 223 255
199 223 255
199 223 255
199 223 255
199 223 255
199 223 255
199 223 255
199 223 255
199 224 255
199 223 255
199 224 255
199 224 255
199 224 255
199 224 255
199 224 255
199 224 255
199 224 255
199 224 255
199 224 255
200 224 255
200 224 255
200 224 255
200 224 255
200 224 255
200 224 255
200 224 255
200 224 255
200 224 255
200 224 255
200 224 255
200 224 255
200 224 255
200 224 255
200 224 255
200 224 255
200 224 255
200 224 255
200 224 255
200 224 255
200 224 255
200 224 255
200 224 255
200 224 255
200 224 255
200 224 255
200 224 255
200 224 255
200 224 255
200 224 255
200 224 255
201 224 255
201 224 255
201 224 255
201 224 255
201 224 255
201 224 255
201 224 255
201 224 255
201 224 255
201 224 255
201 224 255
201 224 255
201 224 255
201 224 255
201 224 255
201 224 255
201 225 255
201 225 255
201 225 255
201 225 255
201 225 255
201 225 255
202 225 255
202 225 255
202 225 255
202 225 255
202 225 255
202 225 255
202 225 255
202 225 255
202 225 255
202 225 255
202 225 255
202 225 255
202 225 255
202 225 255
202 225 255
202 225 255
202 225 255
202 225 255
203 225 255
203 225 255
203 225 255
203 225 255
203 225 255
203 225 255
203 225 255
203 225 255
203 225 255
203 225 255
203 226 255
203 226 255
203 226 255
203 226 255
203 226 255
203 226 255
203 226 255
203 226 255
204 226 255
204 226 255
204 226 255
204 226 255
204 226 255
204 226 255
204 226 255
204 226 255
204 226 255
204 226 255
204 226 255
204 226 255
204 226 255
204 226 255
204 226 255
204 226 255
204 226 255
204 226 255
205 226 255
205 226 255
205 226 255
205 226 255
204 226 255
204 226 255
204 226 255
204 226 255
204 226 255
204 226 255
204 226 255
204 226 255
204 226 255
204 226 255
204 226 255
204 226 255
204 226 255
204 226 255
204 226 255
204 226 255
204 226 255
204 226 255
203 226 255
203 226 255
203 226 255
203 226 255
203 226 255
203 226 255
203 226 255
203 226 255
203 225 255
203 225 255
203 225 255
203 225 255
203 225 255
203 225 255
203 225 255
203 225 255
203 225 255
203 225 255
202 225 255
202 225 255
202 225 255
202 225 255
202 225 255
202 225 255
202 225 255
202 225 255
202 225 255
202 225 255
202 225 255
202 225 255
202 225 255
202 225 255
202 225 255
202 225 255
202 225 255
202 225 255
202 225 255
201 225 255
201 225 255
201 225 255
201 225 255
201 225 255
201 225 255
201 224 255
201 224 255
201 224 255
201 224 255
201 224 255
201 224 255
201 224 255
201 224 255
201 224 255
201 224 255
201 224 255
201 224 255
201 224 255
201 224 255
201 224 255
201 224 255
200 224 255
200 224 255
200 224 255
200 224 255
200 224 255
200 224 255
200 224 255
200 224 255
200 224 255
200 224 255
200 224 255
200 224 255
200 224 255
200 224 255
200 224 255
200 224 255
200 224 255
200 224 255
200 224 255
200 224 255
200 224 255
200 224 255
200 224 255
200 224 255
200 224 255
200 224 255
200 224 255
200 224 255
200 224 255
200 224 255
200 224 255
200 224 255
200 224 255
200 224 255
200 224 255
200 224 255
200 224 255
200 224 255
200 224 255
200 224 255
199 224 255
200 224 255
199 224 255
199 224 255
199 224 255
199 224 255
199 224 255
199 224 255
199 224 255
199 224 255
199 224 255
199 224 255
199 224 255
199 224 255
199 224 255
200 224 255
200 224 255
200 224 255
200 224 255
200 224 255
200 224 255
200 224 255
200 224 255
200 224 255
200 224 255
200 224 255
200 224 255
200 224 255
200 224 255
200 224 255
200 224 255
200 224 255
200 224 255
200 224 255
200 224 255
200 224 255
200 224 255
200 224 255
200 224 255
200 224 255
200 224 255
200 224 255
200 224 255
200 224 255
200 224 255
200 224 255
200 224 255
200 224 255
200 224 255
200 224 255
200 224 255
200 224 255
200 224 255
200 224 255
200 224 255
201 224 255
201 224 255
201 224 255
201 224 255
201 224 255
201 224 255
201 224 255
201 224 255
201 224 255
201 224 255
201 224 255
201 224 255
201 224 255
201 224 255
201 224 255
201 224 255
201 225 255
201 225 255
201 225 255
201 225 255
201 225 255
201 225 255
202 225 255
202 225 255
202 225 255
202 225 255
202 225 255
202 225 255
202 225 255
202 225 255
202 225 255
202 225 255
202 225 255
202 225 255
202 225 255
202 225 255
202 225 255
202 225 255
202 225 255
202 225 255
202 225 255
203 225 255
203 225 255
203 225 255
203 225 255
203 225 255
203 225 255
203 225 255
203 225 255
203 225 255
203 225 255
203 226 255
203 226 255
203 226 255
203 226 255
203 226 255
203 226 255
203 226 255
203 226 255
204 226 255
204 226 255
204 226 255
204 226 255
204 226 255
204 226 255
204 226 255
204 226 255
204 226 255
204 226 255
204 226 255
204 226 255
204 226 255
204 226 255
204 226 255
204 226 255
204 226 255
204 226 255
205 226 255
205 226 255
205 226 255
205 226 255
205 226 255
205 226 255
205 226 255
205 226 255
205 226 255
205 226 255
204 226 255
204 226 255
204 226 255
204 226 255
204 226 255
204 226 255
204 226 255
204 226 255
204 226 255
204 226 255
204 226 255
204 226 255
204 226 255
204 226 255
204 226 255
204 226 255
204 226 255
204 226 255
203 226 255
203 226 255
203 226 255
203 226 255
203 226 255
203 226 255
203 226 255
203 226 255
203 225 255
203 225 255
203 225 255
203 225 255
203 225 255
203 225 255
203 225 255
203 225 255
203 225 255
203 225 255
202 225 255
202 225 255
202 225 255
202 225 255
202 225 255
202 225 255
202 225 255
202 225 255
202 225 255
202 225 255
202 225 255
202 225 255
202 225 255
202 225 255
202 225 255
202 225 255
202 225 255
202 225 255
202 225 255
202 225 255
201 225 255
201 225 255
201 225 255
201 225 255
201 225 255
201 225 255
201 224 255
201 224 255
201 224 255
201 224 255
201 224 255
201 224 255
201 224 255
201 224 255
201 224 255
201 224 255
201 224 255
201 224 255
201 224 255
201 224 255
201 224 255
201 224 255
201 224 255
200 224 255
200 224 255
200 224 255
200 224 255
200 224 255
200 224 255
200 224 255
200 224 255
200 224 255
200 224 255
200 224 255
200 224 255
200 224 255
200 224 255
200 224 255
200 224 255
200 224 255
200 224 255
200 224 255
200 224 255
200 224 255
200 224 255
200 224 255
200 224 255
200 224 255
200 224 255
200 224 255
200 224 255
200 224 255
200 224 255
200 224 255
200 224 255
200 224 255
200 224 255
200 224 255
200 224 255
200 224 255
200 224 255
200 224 255
200 224 255
200 224 255
200 224 255
200 224 255
200 224 255
200 224 255
200 224 255
200 224 255
200 224 255
200 224 255
200 224 255
200 224 255
200 224 255
200 224 255
200 224 255
200 224 255
200 224 255
200 224 255
200 224 255
200 224 255
200 224 255
200 224 255
200 224 255
200 224 255
200 224 255
200 224 255
200 224 255
200 224 255
200 224 255
200 224 255
200 224 255
200 224 255
200 224 255
200 224 255
200 224 255
200 224 255
200 224 255
200 224 255
200 224 255
200 224 255
200 224 255
200 224 255
200 224 255
200 224 255
200 224 255
200 224 255
201 224 255
201 224 255
201 224 255
201 224 255
201 224 255
201 224 255
201 224 255
201 224 255
201 224 255
201 224 255
201 224 255
201 224 255
201 224 255
201 224 255
201 224 255
201 224 255
201 224 255
201 225 255
201 225 255
201 225 255
201 225 255
201 225 255
201 225 255
202 225 255
202 225 255
202 225 255
202 225 255
202 225 255
202 225 255
202 225 255
202 225 255
202 225 255
202 225 255
202 225 255
202 225 255
202 225 255
202 225 255
202 225 255
202 225 255
202 225 255
202 225 255
202 225 255
202 225 255
203 225 255
203 225 255
203 225 255
203 225 255
203 225 255
203 225 255
203 225 255
203 225 255
203 225 255
203 225 255
203 226 255
203 226 255
203 226 255
203 226 255
203 226 255
203 226 255
203 226 255
203 226 255
204 226 255
204 226 255
204 226 255
204 226 255
204 226 255
204 226 255
204 226 255
204 226 255
204 226 255
204 226 255
204 226 255
204 226 255
204 226 255
204 226 255
204 226 255
204 226 255
204 226 255
204 226 255
205 226 255
205 226 255
205 226 255
205 226 255
205 226 255
205 226 255
205 226 255
205 227 255
205 227 255
205 226 255
205 226 255
205 226 255
205 226 255
205 226 255
205 226 255
205 226 255
205 226 255
204 226 255
204 226 255
204 226 255
204 226 255
204 226 255
204 226 255
204 226 255
204 226 255
204 226 255
204 226 255
204 226 255
204 226 255
204 226 255
204 226 255
204 226 255
204 226 255
204 226 255
203 226 255
203 226 255
203 226 255
203 226 255
203 226 255
203 226 255
203 226 255
203 226 255
203 225 255
203 225 255
203 225 255
203 225 255
203 225 255
203 225 255
203 225 255
203 225 255
203 225 255
203 225 255
202 225 255
202 225 255
202 225 255
202 225 255
202 225 255
202 225 255
202 225 255
202 225 255
202 225 255
202 225 255
202 225 255
202 225 255
202 225 255
202 225 255
202 225 255
202 225 255
202 225 255
202 225 255
202 225 255
202 225 255
202 225 255
201 225 255
201 225 255
201 225 255
201 225 255
201 225 255
201 225 255
201 224 255
201 224 255
201 224 255
201 224 255
201 224 255
201 224 255
201 224 255
201 224 255
201 224 255
201 224 255
201 224 255
201 224 255
201 224 255
201 224 255
201 224 255
201 224 255
201 224 255
201 224 255
200 224 255
200 224 255
200 224 255
200 224 255
200 224 255
200 224 255
200 224 255
200 224 255
200 224 255
200 224 255
200 224 255
200 224 255
200 224 255
200 224 255
200 224 255
200 224 255
200 224 255
200 224 255
200 224 255
200 224 255
200 224 255
200 224 255
200 224 255
200 224 255
200 224 255
200 224 255
200 224 255
200 224 255
200 224 255
200 224 255
200 224 255
200 224 255
200 224 255
200 224 255
200 224 255
200 224 255
200 224 255
200 224 255
200 224 255
200 224 255
200 224 255
200 224 255
200 224 255
200 224 255
200 224 255
200 224 255
200 224 255
200 224 255
200 224 255
200 224 255
200 224 255
200 224 255
200 224 255
200 224 255
200 224 255
200 224 255
200 224 255
200 224 255
200 224 255
200 224 255
200 224 255
200 224 255
200 224 255
200 224 255
200 224 255
200 224 255
200 224 255
200 224 255
200 224 255
200 224 255
200 224 255
200 224 255
200 224 255
200 224 255
200 224 255
201 224 255
201 224 255
201 224 255
201 224 255
201 224 255
201 224 255
201 224 255
201 224 255
201 224 255
201 224 255
201 224 255
201 224 255
201 224 255
201 224 255
201 224 255
201 224 255
201 224 255
201 224 255
201 225 255
201 225 255
201 225 255
201 225 255
201 225 255
201 225 255
201 225 255
202 225 255
202 225 255
202 225 255
202 225 255
202 225 255
202 225 255
202 225 255
202 225 255
202 225 255
202 225 255
202 225 255
202 225 255
202 225 255
202 225 255
202 225 255
202 225 255
202 225 255
202 225 255
202 225 255
203 225 255
203 225 255
203 225 255
203 225 255
203 225 255
203 225 255
203 225 255
203 225 255
203 225 255
203 225 255
203 225 255
203 226 255
203 226 255
203 226 255
203 226 255
203 226 255
203 226 255
203 226 255
203 226 255
204 226 255
204 226 255
204 226 255
204 226 255
204 226 255
204 226 255
204 226 255
204 226 255
204 226 255
204 226 255
204 226 255
204 226 255
204 226 255
204 226 255
204 226 255
204 226 255
204 226 255
204 226 255
205 226 255
205 226 255
205 226 255
205 226 255
205 226 255
205 226 255
205 226 255
205 227 255
205 227 255
205 227 255
205 227 255
205 227 255
205 227 255
205 227 255
205 227 255
205 226 255
205 226 255
205 226 255
205 226 255
205 226 255
205 226 255
205 226 255
204 226 255
204 226 255
204 226 255
204 226 255
204 226 255
204 226 255
204 226 255
204 226 255
204 226 255
204 226 255
204 226 255
204 226 255
204 226 255
204 226 255
204 226 255
204 226 255
204 226 255
204 226 255
203 226 255
203 226 255
203 226 255
203 226 255
203 226 255
203 226 255
203 226 255
203 226 255
203 225 255
203 225 255
203 225 255
203 225 255
203 225 255
203 225 255
203 225 255
203 225 255
203 225 255
203 225 255
203 225 255
202 225 255
202 225 255
202 225 255
202 225 255
202 225 255
202 225 255
202 225 255
202 225 255
202 225 255
202 225 255
202 225 255
202 225 255
202 225 255
202 225 255
202 225 255
202 225 255
202 225 255
202 225 255
202 225 255
202 225 255
201 225 255
201 225 255
201 225 255
201 225 255
201 225 255
201 225 255
201 225 255
201 224 255
201 224 255
201 224 255
201 224 255
201 224 255
201 224 255
201 224 255
201 224 255
201 224 255
201 224 255
201 224 255
201 224 255
201 224 255
201 224 255
201 224 255
201 224 255
201 224 255
201 224 255
201 224 255
201 224 255
200 224 255
200 224 255
200 224 255
200 224 255
200 224 255
200 224 255
200 224 255
200 224 255
200 224 255
200 224 255
200 224 255
200 224 255
200 224 255
200 224 255
200 224 255
200 224 255
200 224 255
200 224 255
200 224 255
200 224 255
200 224 255
200 224 255
200 224 255
200 224 255
200 224 255
200 224 255
200 224 255
200 224 255
200 224 255
200 224 255
200 224 255
200 224 255
200 224 255
200 224 255
200 224 255
200 224 255
200 224 255
200 224 255
200 224 255
200 224 255
200 224 255
200 224 255
200 224 255
200 224 255
200 224 255
200 224 255
200 224 255
200 224 255
200 224 255
200 224 255
200 224 255
200 224 255
200 224 255
200 224 255
200 224 255
200 224 255
200 224 255
200 224 255
200 224 255
200 224 255
200 224 255
200 224 255
200 224 255
201 224 255
201 224 255
201 224 255
201 224 255
201 224 255
201 224 255
201 224 255
201 224 255
201 224 255
201 224 255
201 224 255
201 224 255
201 224 255
201 224 255
201 224 255
201 224 255
201 224 255
201 224 255
201 224 255
201 224 255
201 225 255
201 225 255
201 225 255
201 225 255
201 225 255
201 225 255
201 225 255
202 225 255
202 225 255
202 225 255
202 225 255
202 225 255
202 225 255
202 225 255
202 225 255
202 225 255
202 225 255
202 225 255
202 225 255
202 225 255
202 225 255
202 225 255
202 225 255
202 225 255
202 225 255
202 225 255
202 225 255
203 225 255
203 225 255
203 225 255
203 225 255
203 225 255
203 225 255
203 225 255
203 225 255
203 225 255
203 225 255
203 226 255
203 226 255
203 226 255
203 226 255
203 226 255
203 226 255
203 226 255
203 226 255
203 226 255
204 226 255
204 226 255
204 226 255
204 226 255
204 226 255
204 226 255
204 226 255
204 226 255
204 226 255
204 226 255
204 226 255
204 226 255
204 226 255
204 226 255
204 226 255
204 226 255
204 226 255
204 226 255
205 226 255
205 226 255
205 226 255
205 226 255
205 226 255
205 226 255
205 226 255
205 227 255
205 227 255
205 227 255
205 227 255
205 227 255
205 227 255
205 227 255
205 227 255
205 227 255
205 227 255
205 227 255
205 227 255
205 227 255
205 227 255
205 226 255
205 226 255
205 226 255
205 226 255
205 226 255
205 226 255
205 226 255
205 226 255
204 226 255
204 226 255
204 226 255
204 226 255
204 226 255
204 226 255
204 226 255
204 226 255
204 226 255
204 226 255
204 226 255
204 226 255
204 226 255
204 226 255
204 226 255
204 226 255
204 226 255
204 226 255
203 226 255
203 226 255
203 226 255
203 226 255
203 226 255
203 226 255
203 226 255
203 226 255
203 225 255
203 225 255
203 225 255
203 225 255
203 225 255
203 225 255
203 225 255
203 225 255
203 225 255
203 225 255
202 225 255
202 225 255
202 225 255
202 225 255
202 225 255
202 225 255
202 225 255
202 225 255
202 225 255
202 225 255
202 225 255
202 225 255
202 225 255
202 225 255
202 225 255
202 225 255
202 225 255
202 225 255
202 225 255
202 225 255
202 225 255
202 225 255
201 225 255
201 225 255
201 225 255
201 225 255
201 225 255
201 225 255
201 224 255
201 224 255
201 224 255
201 224 255
201 224 255
201 224 255
201 224 255
201 224 255
201 224 255
201 224 255
201 224 255
201 224 255
201 224 255
201 224 255
201 224 255
201 224 255
201 224 255
201 224 255
201 224 255
201 224 255
201 224 255
201 224 255
201 224 255
200 224 255
200 224 255
200 224 255
200 224 255
200 224 255
200 224 255
200 224 255
200 224 255
200 224 255
200 224 255
200 224 255
200 224 255
200 224 255
200 224 255
200 224 255
200 224 255
200 224 255
200 224 255
200 224 255
200 224 255
200 224 255
200 224 255
200 224 255
200 224 255
200 224 255
200 224 255
200 224 255
200 224 255
200 224 255
200 224 255
200 224 255
200 224 255
200 224 255
200 224 255
200 224 255
200 224 255
200 224 255
200 224 255
200 224 255
200 224 255
200 224 255
200 224 255
200 224 255
200 224 255
200 224 255
200 224 255
200 224 255
200 224 255
200 224 255
201 224 255
201 224 255
201 224 255
201 224 255
201 224 255
201 224 255
201 224 255
201 224 255
201 224 255
201 224 255
201 224 255
201 224 255
201 224 255
201 224 255
201 224 255
201 224 255
201 224 255
201 224 255
201 224 255
201 224 255
201 224 255
201 224 255
201 225 255
201 225 255
201 225 255
201 225 255
201 225 255
201 225 255
201 225 255
202 225 255
202 225 255
202 225 255
202 225 255
202 225 255
202 225 255
202 225 255
202 225 255
202 225 255
202 225 255
202 225 255
202 225 255
202 225 255
202 225 255
202 225 255
202 225 255
202 225 255
202 225 255
202 225 255
202 225 255
202 225 255
202 225 255
203 225 255
203 225 255
203 225 255
203 225 255
203 225 255
203 225 255
203 225 255
203 225 255
203 225 255
203 225 255
203 226 255
203 226 255
203 226 255
203 226 255
203 226 255
203 226 255
203 226 255
203 226 255
204 226 255
204 226 255
204 226 255
204 226 255
204 226 255
204 226 255
204 226 255
204 226 255
204 226 255
204 226 255
204 226 255
204 226 255
204 226 255
204 226 255
204 226 255
204 226 255
204 226 255
204 226 255
204 226 255
205 226 255
205 226 255
205 226 255
205 226 255
205 226 255
205 226 255
205 226 255
205 227 255
205 227 255
205 227 255
205 227 255
205 227 255
205 227 255
205 227 255
205 227 255
205 227 255
205 227 255
205 227 255
205 227 255
205 227 255
205 227 255
205 227 255
205 227 255
205 227 255
205 227 255
205 227 255
205 227 255
205 226 255
205 226 255
205 226 255
205 226 255
205 226 255
205 226 255
205 226 255
205 226 255
204 226 255
204 226 255
204 226 255
204 226 255
204 226 255
204 226 255
204 226 255
204 226 255
204 226 255
204 226 255
204 226 255
204 226 255
204 226 255
204 226 255
204 226 255
204 226 255
204 226 255
204 226 255
203 226 255
203 226 255
203 226 255
203 226 255
203 226 255
203 226 255
203 226 255
203 226 255
203 225 255
203 225 255
203 225 255
203 225 255
203 225 255
203 225 255
203 225 255
203 225 255
203 225 255
203 225 255
203 225 255
202 225 255
202 225 255
202 225 255
202 225 255
202 225 255
202 225 255
202 225 255
202 225 255
202 225 255
202 225 255
202 225 255
202 225 255
202 225 255
202 225 255
202 225 255
202 225 255
202 225 255
202 225 255
202 225 255
202 225 255
202 225 255
202 225 255
201 225 255
201 225 255
201 225 255
201 225 255
201 225 255
201 225 255
201 225 255
201 225 255
201 224 255
201 224 255
201 224 255
201 224 255
201 224 255
201 224 255
201 224 255
201 224 255
201 224 255
201 224 255
201 224 255
201 224 255
201 224 255
201 224 255
201 224 255
201 224 255
201 224 255
201 224 255
201 224 255
201 224 255
201 224 255
201 224 255
201 224 255
201 224 255
201 224 255
201 224 255
201 224 255
201 224 255
201 224 255
200 224 255
200 224 255
200 224 255
200 224 255
200 224 255
200 224 255
200 224 255
200 224 255
200 224 255
200 224 255
200 224 255
200 224 255
200 224 255
200 224 255
200 224 255
200 224 255
200 224 255
200 224 255
200 224 255
200 224 255
200 224 255
200 224 255
200 224 255
200 224 255
200 224 255
200 224 255
201 224 255
201 224 255
201 224 255
201 224 255
201 224 255
201 224 255
201 224 255
201 224 255
201 224 255
201 224 255
201 224 255
201 224 255
201 224 255
201 224 255
201 224 255
201 224 255
201 224 255
201 224 255
201 224 255
201 224 255
201 224 255
201 224 255
201 224 255
201 224 255
201 224 255
201 224 255
201 224 255
201 224 255
201 225 255
201 225 255
201 225 255
201 225 255
201 225 255
201 225 255
201 225 255
201 225 255
202 225 255
202 225 255
202 225 255
202 225 255
202 225 255
202 225 255
202 225 255
202 225 255
202 225 255
202 225 255
202 225 255
202 225 255
202 225 255
202 225 255
202 225 255
202 225 255
202 225 255
202 225 255
202 225 255
202 225 255
202 225 255
202 225 255
203 225 255
203 225 255
203 225 255
203 225 255
203 225 255
203 225 255
203 225 255
203 225 255
203 225 255
203 225 255
203 225 255
203 226 255
203 226 255
203 226 255
203 226 255
203 226 255
203 226 255
203 226 255
203 226 255
204 226 255
204 226 255
204 226 255
204 226 255
204 226 255
204 226 255
204 226 255
204 226 255
204 226 255
204 226 255
204 226 255
204 226 255
204 226 255
204 226 255
204 226 255
204 226 255
204 226 255
204 226 255
205 226 255
205 226 255
205 226 255
205 226 255
205 226 255
205 226 255
205 226 255
205 226 255
205 227 255
205 227 255
205 227 255
205 227 255
205 227 255
205 227 255
205 227 255
205 227 255
205 227 255
205 227 255
205 227 255
206 227 255
206 227 255
206 227 255
206 227 255
205 227 255
205 227 255
205 227 255
205 227 255
205 227 255
205 227 255
205 227 255
205 227 255
205 227 255
205 227 255
205 227 255
205 227 255
205 226 255
205 226 255
205 226 255
205 226 255
205 226 255
205 226 255
205 226 255
204 226 255
204 226 255
204 226 255
204 226 255
204 226 255
204 226 255
204 226 255
204 226 255
204 226 255
204 226 255
204 226 255
204 226 255
204 226 255
204 226 255
204 226 255
204 226 255
204 226 255
204 226 255
203 226 255
203 226 255
203 226 255
203 226 255
203 226 255
203 226 255
203 226 255
203 226 255
203 226 255
203 225 255
203 225 255
203 225 255
203 225 255
203 225 255
203 225 255
203 225 255
203 225 255
203 225 255
203 225 255
203 225 255
202 225 255
202 225 255
202 225 255
202 225 255
202 225 255
202 225 255
202 225 255
202 225 255
202 225 255
202 225 255
202 225 255
202 225 255
202 225 255
202 225 255
202 225 255
202 225 255
202 225 255
202 225 255
202 225 255
202 225 255
202 225 255
202 225 255
202 225 255
201 225 255
201 225 255
201 225 255
201 225 255
201 225 255
201 225 255
201 225 255
201 225 255
201 224 255
201 224 255
201 224 255
201 224 255
201 224 255
201 224 255
201 224 255
201 224 255
201 224 255
201 224 255
201 224 255
201 224 255
201 224 255
201 224 255
201 224 255
201 224 255
201 224 255
201 224 255
201 224 255
201 224 255
201 224 255
201 224 255
201 224 255
201 224 255
201 224 255
201 224 255
201 224 255
201 224 255
201 224 255
201 224 255
201 224 255
201 224 255
201 224 255
201 224 255
201 224 255
201 224 255
201 224 255
201 224 255
201 224 255
201 224 255
201 224 255
201 224 255
201 224 255
201 224 255
201 224 255
201 224 255
201 224 255
201 224 255
201 224 255
201 224 255
201 224 255
201 224 255
201 224 255
201 224 255
201 224 255
201 224 255
201 224 255
201 224 255
201 224 255
201 224 255
201 224 255
201 224 255
201 224 255
201 224 255
201 224 255
201 224 255
201 224 255
201 224 255
201 224 255
201 224 255
201 224 255
201 224 255
201 225 255
201 225 255
201 225 255
201 225 255
201 225 255
201 225 255
201 225 255
201 225 255
201 225 255
202 225 255
202 225 255
202 225 255
202 225 255
202 225 255
202 225 255
202 225 255
202 225 255
202 225 255
202 225 255
202 225 255
202 225 255
202 225 255
202 225 255
202 225 255
202 225 255
202 225 255
202 225 255
202 225 255
202 225 255
202 225 255
202 225 255
202 225 255
203 225 255
203 225 255
203 225 255
203 225 255
203 225 255
203 225 255
203 225 255
203 225 255
203 225 255
203 225 255
203 225 255
203 226 255
203 226 255
203 226 255
203 226 255
203 226 255
203 226 255
203 226 255
203 226 255
203 226 255
204 226 255
204 226 255
204 226 255
204 226 255
204 226 255
204 226 255
204 226 255
204 226 255
204 226 255
204 226 255
204 226 255
204 226 255
204 226 255
204 226 255
204 226 255
204 226 255
204 226 255
204 226 255
205 226 255
205 226 255
205 226 255
205 226 255
205 226 255
205 226 255
205 226 255
205 226 255
205 227 255
205 227 255
205 227 255
205 227 255
205 227 255
205 227 255
205 227 255
205 227 255
205 227 255
205 227 255
205 227 255
206 227 255
206 227 255
206 227 255
206 227 255
206 227 255
206 227 255
206 227 255
206 227 255
206 227 255
206 227 255
206 227 255
205 227 255
205 227 255
205 227 255
205 227 255
205 227 255
205 227 255
205 227 255
205 227 255
205 227 255
205 227 255
205 226 255
205 226 255
205 226 255
205 226 255
205 226 255
205 226 255
205 226 255
205 226 255
204 226 255
204 226 255
204 226 255
204 226 255
204 226 255
204 226 255
204 226 255
204 226 255
204 226 255
204 226 255
204 226 255
204 226 255
204 226 255
204 226 255
204 226 255
204 226 255
204 226 255
204 226 255
204 226 255
203 226 255
203 226 255
203 226 255
203 226 255
203 226 255
203 226 255
203 226 255
203 226 255
203 225 255
203 225 255
203 225 255
203 225 255
203 225 255
203 225 255
203 225 255
203 225 255
203 225 255
203 225 255
203 225 255
203 225 255
202 225 255
202 225 255
202 225 255
202 225 255
202 225 255
202 225 255
202 225 255
202 225 255
202 225 255
202 225 255
202 225 255
202 225 255
202 225 255
202 225 255
202 225 255
202 225 255
202 225 255
202 225 255
202 225 255
202 225 255
202 225 255
202 225 255
202 225 255
202 225 255
201 225 255
201 225 255
201 225 255
201 225 255
201 225 255
201 225 255
201 225 255
201 225 255
201 225 255
201 225 255
201 224 255
201 224 255
201 224 255
201 224 255
201 224 255
201 224 255
201 224 255
201 224 255
201 224 255
201 224 255
201 224 255
201 224 255
201 224 255
201 224 255
201 224 255
201 224 255
201 224 255
201 224 255
201 224 255
201 224 255
201 224 255
201 224 255
201 224 255
201 224 255
201 224 255
201 224 255
201 224 255
201 224 255
201 224 255
201 224 255
201 224 255
201 224 255
201 224 255
201 224 255
201 224 255
201 224 255
201 224 255
201 224 255
201 224 255
201 224 255
201 224 255
201 224 255
201 224 255
201 224 255
201 224 255
201 224 255
201 224 255
201 224 255
201 224 255
201 224 255
201 224 255
201 224 255
201 224 255
201 224 255
201 224 255
201 224 255
201 224 255
201 224 255
201 224 255
201 225 255
201 225 255
201 225 255
201 225 255
201 225 255
201 225 255
201 225 255
201 225 255
201 225 255
201 225 255
202 225 255
202 225 255
202 225 255
202 225 255
202 225 255
202 225 255
202 225 255
202 225 255
202 225 255
202 225 255
202 225 255
202 225 255
202 225 255
202 225 255
202 225 255
202 225 255
202 225 255
202 225 255
202 225 255
202 225 255
202 225 255
202 225 255
202 225 255
202 225 255
203 225 255
203 225 255
203 225 255
203 225 255
203 225 255
203 225 255
203 225 255
203 225 255
203 225 255
203 225 255
203 225 255
203 225 255
203 226 255
203 226 255
203 226 255
203 226 255
203 226 255
203 226 255
203 226 255
203 226 255
204 226 255
204 226 255
204 226 255
204 226 255
204 226 255
204 226 255
204 226 255
204 226 255
204 226 255
204 226 255
204 226 255
204 226 255
204 226 255
204 226 255
204 226 255
204 226 255
204 226 255
204 226 255
204 226 255
205 226 255
205 226 255
205 226 255
205 226 255
205 226 255
205 226 255
205 226 255
205 227 255
205 227 255
205 227 255
205 227 255
205 227 255
205 227 255
205 227 255
205 227 255
205 227 255
205 227 255
205 227 255
205 227 255
206 227 255
206 227 255
206 227 255
206 227 255
206 227 255
206 227 255
206 227 255
206 227 255
206 227 255
206 227 255
206 227 255
206 227 255
206 227 255
206 227 255
206 227 255
206 227 255
206 227 255
205 227 255
205 227 255
205 227 255
205 227 255
205 227 255
205 227 255
205 227 255
205 227 255
205 227 255
205 227 255
205 227 255
205 226 255
205 226 255
205 226 255
205 226 255
205 226 255
205 226 255
205 226 255
204 226 255
204 226 255
204 226 255
204 226 255
204 226 255
204 226 255
204 226 255
204 226 255
204 226 255
204 226 255
204 226 255
204 226 255
204 226 255
204 226 255
204 226 255
204 226 255
204 226 255
204 226 255
204 226 255
204 226 255
203 226 255
203 226 255
203 226 255
203 226 255
203 226 255
203 226 255
203 226 255
203 226 255
203 225 255
203 225 255
203 225 255
203 225 255
203 225 255
203 225 255
203 225 255
203 225 255
203 225 255
203 225 255
203 225 255
203 225 255
202 225 255
202 225 255
202 225 255
202 225 255
202 225 255
202 225 255
202 225 255
202 225 255
202 225 255
202 225 255
202 225 255
202 225 255
202 225 255
202 225 255
202 225 255
202 225 255
202 225 255
202 225 255
202 225 255
202 225 255
202 225 255
202 225 255
202 225 255
202 225 255
202 225 255
202 225 255
201 225 255
201 225 255
201 225 255
201 225 255
201 225 255
201 225 255
201 225 255
201 225 255
201 225 255
201 225 255
201 225 255
201 225 255
201 225 255
201 224 255
201 224 255
201 224 255
201 224 255
201 224 255
201 224 255
201 224 255
201 224 255
201 224 255
201 224 255
201 224 255
201 224 255
201 224 255
201 224 255
201 224 255
201 224 255
201 224 255
201 224 255
201 224 255
201 224 255
201 224 255
201 224 255
201 224 255
201 224 255
201 224 255
201 224 255
201 224 255
201 224 255
201 224 255
201 224 255
201 224 255
201 224 255
201 224 255
201 224 255
201 224 255
201 224 255
201 224 255
201 224 255
201 224 255
201 224 255
201 224 255
201 224 255
201 225 255
201 225 255
201 225 255
201 225 255
201 225 255
201 225 255
201 225 255
201 225 255
201 225 255
201 225 255
201 225 255
202 225 255
202 225 255
202 225 255
202 225 255
202 225 255
202 225 255
202 225 255
202 225 255
202 225 255
202 225 255
202 225 255
202 225 255
202 225 255
202 225 255
202 225 255
202 225 255
202 225 255
202 225 255
202 225 255
202 225 255
202 225 255
202 225 255
202 225 255
202 225 255
202 225 255
202 225 255
202 225 255
203 225 255
203 225 255
203 225 255
203 225 255
203 225 255
203 225 255
203 225 255
203 225 255
203 225 255
203 225 255
203 225 255
203 225 255
203 226 255
203 226 255
203 226 255
203 226 255
203 226 255
203 226 255
203 226 255
203 226 255
203 226 255
204 226 255
204 226 255
204 226 255
204 226 255
204 226 255
204 226 255
204 226 255
204 226 255
204 226 255
204 226 255
204 226 255
204 226 255
204 226 255
204 226 255
204 226 255
204 226 255
204 226 255
204 226 255
205 226 255
205 226 255
205 226 255
205 226 255
205 226 255
205 226 255
205 226 255
205 226 255
205 227 255
205 227 255
205 227 255
205 227 255
205 227 255
205 227 255
205 227 255
205 227 255
205 227 255
205 227 255
205 227 255
206 227 255
206 227 255
206 227 255
206 227 255
206 227 255
206 227 255
206 227 255
206 227 255
206 227 255
206 227 255
206 227 255
206 227 255
206 227 255
206 227 255
206 227 255
206 227 255
206 227 255
206 227 255
206 227 255
206 227 255
206 227 255
206 227 255
206 227 255
206 227 255
205 227 255
205 227 255
205 227 255
205 227 255
205 227 255
205 227 255
205 227 255
205 227 255
205 227 255
205 227 255
205 227 255
205 226 255
205 226 255
205 226 255
205 226 255
205 226 255
205 226 255
205 226 255
205 226 255
204 226 255
204 226 255
204 226 255
204 226 255
204 226 255
204 226 255
204 226 255
204 226 255
204 226 255
204 226 255
204 226 255
204 226 255
204 226 255
204 226 255
204 226 255
204 226 255
204 226 255
204 226 255
204 226 255
203 226 255
203 226 255
203 226 255
203 226 255
203 226 255
203 226 255
203 226 255
203 226 255
203 226 255
203 225 255
203 225 255
203 225 255
203 225 255
203 225 255
203 225 255
203 225 255
203 225 255
203 225 255
203 225 255
203 225 255
203 225 255
202 225 255
202 225 255
202 225 255
202 225 255
202 225 255
202 225 255
202 225 255
202 225 255
202 225 255
202 225 255
202 225 255
202 225 255
202 225 255
202 225 255
202 225 255
202 225 255
202 225 255
202 225 255
202 225 255
202 225 255
202 225 255
202 225 255
202 225 255
202 225 255
202 225 255
202 225 255
202 225 255
202 225 255
202 225 255
202 225 255
201 225 255
201 225 255
201 225 255
201 225 255
201 225 255
201 225 255
201 225 255
201 225 255
201 225 255
201 225 255
201 225 255
201 225 255
201 225 255
201 225 255
201 225 255
201 225 255
201 225 255
201 225 255
201 225 255
201 224 255
201 225 255
201 225 255
201 224 255
201 225 255
201 224 255
201 225 255
201 224 255
201 224 255
201 224 255
201 224 255
201 225 255
201 225 255
201 225 255
201 225 255
201 225 255
201 225 255
201 225 255
201 225 255
201 225 255
201 225 255
201 225 255
201 225 255
201 225 255
201 225 255
201 225 255
201 225 255
201 225 255
201 225 255
201 225 255
201 225 255
201 225 255
202 225 255
202 225 255
202 225 255
202 225 255
202 225 255
202 225 255
202 225 255
202 225 255
202 225 255
202 225 255
202 225 255
202 225 255
202 225 255
202 225 255
202 225 255
202 225 255
202 225 255
202 225 255
202 225 255
202 225 255
202 225 255
202 225 255
202 225 255
202 225 255
202 225 255
202 225 255
202 225 255
202 225 255
202 225 255
202 225 255
203 225 255
203 225 255
203 225 255
203 225 255
203 225 255
203 225 255
203 225 255
203 225 255
203 225 255
203 225 255
203 225 255
203 225 255
203 226 255
203 226 255
203 226 255
203 226 255
203 226 255
203 226 255
203 226 255
203 226 255
203 226 255
204 226 255
204 226 255
204 226 255
204 226 255
204 226 255
204 226 255
204 226 255
204 226 255
204 226 255
204 226 255
204 226 255
204 226 255
204 226 255
204 226 255
204 226 255
204 226 255
204 226 255
204 226 255
204 226 255
205 226 255
205 226 255
205 226 255
205 226 255
205 226 255
205 226 255
205 226 255
205 226 255
205 227 255
205 227 255
205 227 255
205 227 255
205 227 255
205 227 255
205 227 255
205 227 255
205 227 255
205 227 255
205 227 255
206 227 255
206 227 255
206 227 255
206 227 255
206 227 255
206 227 255
206 227 255
206 227 255
206 227 255
206 227 255
206 227 255
206 227 255
206 227 255
206 227 255
206 227 255
206 227 255
206 227 255
206 227 255
206 227 255
206 227 255
206 227 255
206 227 255
206 227 255
206 227 255
206 227 255
206 227 255
206 227 255
206 227 255
206 227 255
206 227 255
205 227 255
205 227 255
205 227 255
205 227 255
205 227 255
205 227 255
205 227 255
205 227 255
205 227 255
205 227 255
205 227 255
205 226 255
205 226 255
205 226 255
205 226 255
205 226 255
205 226 255
205 226 255
205 226 255
204 226 255
204 226 255
204 226 255
204 226 255
204 226 255
204 226 255
204 226 255
204 226 255
204 226 255
204 226 255
204 226 255
204 226 255
204 226 255
204 226 255
204 226 255
204 226 255
204 226 255
204 226 255
204 226 255
204 226 255
203 226 255
203 226 255
203 226 255
203 226 255
203 226 255
203 226 255
203 226 255
203 226 255
203 226 255
203 225 255
203 225 255
203 225 255
203 225 255
203 225 255
203 225 255
203 225 255
203 225 255
203 225 255
203 225 255
203 225 255
203 225 255
203 225 255
202 225 255
202 225 255
202 225 255
202 225 255
202 225 255
202 225 255
202 225 255
202 225 255
202 225 255
202 225 255
202 225 255
202 225 255
202 225 255
202 225 255
202 225 255
202 225 255
202 225 255
202 225 255
202 225 255
202 225 255
202 225 255
202 225 255
202 225 255
202 225 255
202 225 255
202 225 255
202 225 255
202 225 255
202 225 255
202 225 255
202 225 255
202 225 255
202 225 255
202 225 255
202 225 255
202 225 255
202 225 255
201 225 255
201 225 255
201 225 255
201 225 255
201 225 255
201 225 255
201 225 255
201 225 255
201 225 255
201 225 255
201 225 255
201 225 255
201 225 255
201 225 255
201 225 255
201 225 255
201 225 255
201 225 255
201 225 255
201 225 255
201 225 255
201 225 255
201 225 255
201 225 255
201 225 255
201 225 255
201 225 255
202 225 255
202 225 255
202 225 255
202 225 255
202 225 255
202 225 255
202 225 255
202 225 255
202 225 255
202 225 255
202 225 255
202 225 255
202 225 255
202 225 255
202 225 255
202 225 255
202 225 255
202 225 255
202 225 255
202 225 255
202 225 255
202 225 255
202 225 255
202 225 255
202 225 255
202 225 255
202 225 255
202 225 255
202 225 255
202 225 255
202 225 255
202 225 255
202 225 255
202 225 255
202 225 255
202 225 255
202 225 255
203 225 255
203 225 255
203 225 255
203 225 255
203 225 255
203 225 255
203 225 255
203 225 255
203 225 255
203 225 255
203 225 255
203 225 255
203 225 255
203 226 255
203 226 255
203 226 255
203 226 255
203 226 255
203 226 255
203 226 255
203 226 255
203 226 255
204 226 255
204 226 255
204 226 255
204 226 255
204 226 255
204 226 255
204 226 255
204 226 255
204 226 255
204 226 255
204 226 255
204 226 255
204 226 255
204 226 255
204 226 255
204 226 255
204 226 255
204 226 255
204 226 255
204 226 255
205 226 255
205 226 255
205 226 255
205 226 255
205 226 255
205 226 255
205 226 255
205 227 255
205 227 255
205 227 255
205 227 255
205 227 255
205 227 255
205 227 255
205 227 255
205 227 255
205 227 255
205 227 255
206 227 255
206 227 255
206 227 255
206 227 255
206 227 255
206 227 255
206 227 255
206 227 255
206 227 255
206 227 255
206 227 255
206 227 255
206 227 255
206 227 255
206 227 255
206 227 255
206 227 255
206 227 255
207 227 255
206 227 255
206 227 255
206 227 255
206 227 255
206 227 255
206 227 255
206 227 255
206 227 255
206 227 255
206 227 255
206 227 255
206 227 255
206 227 255
206 227 255
206 227 255
206 227 255
206 227 255
206 227 255
206 227 255
205 227 255
205 227 255
205 227 255
205 227 255
205 227 255
205 227 255
205 227 255
205 227 255
205 227 255
205 227 255
205 227 255
205 226 255
205 226 255
205 226 255
205 226 255
205 226 255
205 226 255
205 226 255
205 226 255
204 226 255
204 226 255
204 226 255
204 226 255
204 226 255
204 226 255
204 226 255
204 226 255
204 226 255
204 226 255
204 226 255
204 226 255
204 226 255
204 226 255
204 226 255
204 226 255
204 226 255
204 226 255
204 226 255
204 226 255
203 226 255
203 226 255
203 226 255
203 226 255
203 226 255
203 226 255
203 226 255
203 226 255
203 226 255
203 226 255
203 225 255
203 225 255
203 225 255
203 225 255
203 225 255
203 225 255
203 225 255
203 225 255
203 225 255
203 225 255
203 225 255
203 225 255
203 225 255
203 225 255
202 225 255
202 225 255
202 225 255
202 225 255
202 225 255
202 225 255
202 225 255
202 225 255
202 225 255
202 225 255
202 225 255
202 225 255
202 225 255
202 225 255
202 225 255
202 225 255
202 225 255
202 225 255
202 225 255
202 225 255
202 225 255
202 225 255
202 225 255
202 225 255
202 225 255
202 225 255
202 225 255
202 225 255
202 225 255
202 225 255
202 225 255
202 225 255
202 225 255
202 225 255
202 225 255
202 225 255
202 225 255
202 225 255
202 225 255
202 225 255
202 225 255
202 225 255
202 225 255
202 225 255
202 225 255
202 225 255
202 225 255
202 225 255
202 225 255
202 225 255
202 225 255
202 225 255
202 225 255
202 225 255
202 225 255
202 225 255
202 225 255
202 225 255
202 225 255
202 225 255
202 225 255
202 225 255
202 225 255
202 225 255
202 225 255
202 225 255
202 225 255
202 225 255
202 225 255
202 225 255
202 225 255
202 225 255
202 225 255
202 225 255
202 225 255
202 225 255
202 225 255
202 225 255
202 225 255
202 225 255
202 225 255
202 225 255
202 225 255
202 225 255
202 225 255
202 225 255
202 225 255
202 225 255
202 225 255
202 225 255
203 225 255
203 225 255
203 225 255
203 225 255
203 225 255
203 225 255
203 225 255
203 225 255
203 225 255
203 225 255
203 225 255
203 225 255
203 225 255
203 225 255
203 226 255
203 226 255
203 226 255
203 226 255
203 226 255
203 226 255
203 226 255
203 226 255
203 226 255
204 226 255
204 226 255
204 226 255
204 226 255
204 226 255
204 226 255
204 226 255
204 226 255
204 226 255
204 226 255
204 226 255
204 226 255
204 226 255
204 226 255
204 226 255
204 226 255
204 226 255
204 226 255
204 226 255
204 226 255
205 226 255
205 226 255
205 226 255
205 226 255
205 226 255
205 226 255
205 226 255
205 226 255
205 227 255
205 227 255
205 227 255
205 227 255
205 227 255
205 227 255
205 227 255
205 227 255
205 227 255
205 227 255
205 227 255
206 227 255
206 227 255
206 227 255
206 227 255
206 227 255
206 227 255
206 227 255
206 227 255
206 227 255
206 227 255
206 227 255
206 227 255
206 227 255
206 227 255
206 227 255
206 227 255
206 227 255
206 227 255
206 227 255
206 227 255
207 227 255
207 227 255
207 227 255
207 227 255
207 227 255
206 227 255
206 227 255
206 227 255
206 227 255
206 227 255
206 227 255
206 227 255
206 227 255
206 227 255
206 227 255
206 227 255
206 227 255
206 227 255
206 227 255
206 227 255
206 227 255
206 227 255
206 227 255
206 227 255
205 227 255
205 227 255
205 227 255
205 227 255
205 227 255
205 227 255
205 227 255
205 227 255
205 227 255
205 227 255
205 227 255
205 227 255
205 226 255
205 226 255
205 226 255
205 226 255
205 226 255
205 226 255
205 226 255
205 226 255
204 226 255
204 226 255
204 226 255
204 226 255
204 226 255
204 226 255
204 226 255
204 226 255
204 226 255
204 226 255
204 226 255
204 226 255
204 226 255
204 226 255
204 226 255
204 226 255
204 226 255
204 226 255
204 226 255
204 226 255
203 226 255
203 226 255
203 226 255
203 226 255
203 226 255
203 226 255
203 226 255
203 226 255
203 226 255
203 226 255
203 225 255
203 225 255
203 225 255
203 225 255
203 225 255
203 225 255
203 225 255
203 225 255
203 225 255
203 225 255
203 225 255
203 225 255
203 225 255
203 225 255
203 225 255
202 225 255
202 225 255
202 225 255
202 225 255
202 225 255
202 225 255
202 225 255
202 225 255
202 225 255
202 225 255
202 225 255
202 225 255
202 225 255
202 225 255
202 225 255
202 225 255
202 225 255
202 225 255
202 225 255
202 225 255
202 225 255
202 225 255
202 225 255
202 225 255
202 225 255
202 225 255
202 225 255
202 225 255
202 225 255
202 225 255
202 225 255
202 225 255
202 225 255
202 225 255
202 225 255
200 222 252
199 217 246
198 218 247
200 222 252
199 218 248
199 218 248
199 218 248
199 217 246
201 223 254
202 225 255
202 225 255
202 225 255
202 225 255
202 225 255
202 225 255
202 225 255
202 225 255
202 225 255
202 225 255
202 225 255
202 225 255
202 225 255
202 225 255
202 225 255
202 225 255
202 225 255
202 225 255
202 225 255
202 225 255
202 225 255
202 225 255
202 225 255
202 225 255
202 225 255
202 225 255
202 225 255
202 225 255
202 225 255
202 225 255
202 225 255
202 225 255
202 225 255
202 225 255
202 225 255
202 225 255
203 225 255
203 225 255
203 225 255
203 225 255
203 225 255
203 225 255
203 225 255
203 225 255
203 225 255
203 225 255
203 225 255
203 225 255
203 225 255
203 225 255
203 226 255
203 226 255
203 226 255
203 226 255
203 226 255
203 226 255
203 226 255
203 226 255
203 226 255
203 226 255
204 226 255
204 226 255
204 226 255
204 226 255
204 226 255
204 226 255
204 226 255
204 226 255
204 226 255
204 226 255
204 226 255
204 226 255
204 226 255
204 226 255
204 226 255
204 226 255
204 226 255
204 226 255
204 226 255
204 226 255
205 226 255
205 226 255
205 226 255
205 226 255
205 226 255
205 226 255
205 226 255
205 226 255
205 227 255
205 227 255
205 227 255
205 227 255
205 227 255
205 227 255
205 227 255
205 227 255
205 227 255
205 227 255
205 227 255
205 227 255
206 227 255
206 227 255
206 227 255
206 227 255
206 227 255
206 227 255
206 227 255
206 227 255
206 227 255
206 227 255
206 227 255
206 227 255
206 227 255
206 227 255
206 227 255
206 227 255
206 227 255
206 227 255
206 227 255
207 227 255
207 227 255
207 227 255
207 227 255
207 227 255
207 228 255
207 228 255
207 228 255
207 227 255
207 227 255
207 227 255
207 227 255
206 227 255
206 227 255
206 227 255
206 227 255
206 227 255
206 227 255
206 227 255
206 227 255
206 227 255
206 227 255
206 227 255
206 227 255
206 227 255
206 227 255
206 227 255
206 227 255
206 227 255
206 227 255
206 227 255
206 227 255
205 227 255
205 227 255
205 227 255
205 227 255
205 227 255
205 227 255
205 227 255
205 227 255
205 227 255
205 227 255
205 227 255
205 226 255
205 226 255
205 226 255
205 226 255
205 226 255
205 226 255
205 226 255
205 226 255
205 226 255
204 226 255
204 226 255
204 226 255
204 226 255
204 226 255
204 226 255
204 226 255
204 226 255
204 226 255
204 226 255
204 226 255
204 226 255
204 226 255
204 226 255
204 226 255
204 226 255
204 226 255
204 226 255
204 226 255
204 226 255
204 226 255
203 226 255
203 226 255
203 226 255
203 226 255
203 226 255
203 226 255
203 226 255
203 226 255
203 226 255
203 226 255
203 225 255
203 225 255
203 225 255
203 225 255
203 225 255
203 225 255
203 225 255
203 225 255
203 225 255
203 225 255
203 225 255
203 225 255
203 225 255
203 225 255
203 225 255
203 225 255
202 225 255
202 225 255
202 225 255
202 225 255
202 225 255
202 225 255
202 225 255
202 225 255
202 225 255
202 225 255
202 225 255
202 225 255
202 225 255
202 225 255
202 225 255
202 225 255
202 225 255
202 225 255
202 225 255
202 225 255
201 223 254
196 213 243
189 192 219
190 194 221
183 179 203
180 168 190
172 145 162
170 136 154
166 132 148
165 121 135
162 120 133
165 121 134
164 121 135
166 121 135
163 121 135
166 122 137
165 121 137
168 125 140
167 130 149
169 138 156
172 148 167
175 151 171
183 177 200
188 190 216
191 195 221
198 217 246
202 225 255
202 225 255
202 225 255
202 225 255
202 225 255
202 225 255
202 225 255
202 225 255
202 225 255
202 225 255
202 225 255
202 225 255
202 225 255
202 225 255
202 225 255
202 225 255
202 225 255
202 225 255
202 225 255
202 225 255
202 225 255
203 225 255
203 225 255
203 225 255
203 225 255
203 225 255
203 225 255
203 225 255
203 225 255
203 225 255
203 225 255
203 225 255
203 225 255
203 225 255
203 225 255
203 225 255
203 225 255
203 226 255
203 226 255
203 226 255
203 226 255
203 226 255
203 226 255
203 226 255
203 226 255
203 226 255
203 226 255
204 226 255
204 226 255
204 226 255
204 226 255
204 226 255
204 226 255
204 226 255
204 226 255
204 226 255
204 226 255
204 226 255
204 226 255
204 226 255
204 226 255
204 226 255
204 226 255
204 226 255
204 226 255
204 226 255
204 226 255
204 226 255
204 226 255
205 226 255
205 226 255
205 226 255
205 226 255
205 226 255
205 226 255
205 226 255
205 227 255
205 227 255
205 227 255
205 227 255
205 227 255
205 227 255
205 227 255
205 227 255
205 227 255
205 227 255
205 227 255
205 227 255
206 227 255
206 227 255
206 227 255
206 227 255
206 227 255
206 227 255
206 227 255
206 227 255
206 227 255
206 227 255
206 227 255
206 227 255
206 227 255
206 227 255
206 227 255
206 227 255
206 227 255
206 227 255
206 227 255
206 227 255
207 227 255
207 227 255
207 227 255
207 227 255
207 227 255
207 228 255
207 228 255
207 228 255
207 228 255
207 228 255
207 228 255
207 228 255
207 228 255
207 228 255
207 227 255
207 227 255
207 227 255
207 227 255
207 227 255
206 227 255
206 227 255
206 227 255
206 227 255
206 227 255
206 227 255
206 227 255
206 227 255
206 227 255
206 227 255
206 227 255
206 227 255
206 227 255
206 227 255
206 227 255
206 227 255
206 227 255
206 227 255
206 227 255
205 227 255
205 227 255
205 227 255
205 227 255
205 227 255
205 227 255
205 227 255
205 227 255
205 227 255
205 227 255
205 227 255
205 227 255
205 226 255
205 226 255
205 226 255
205 226 255
205 226 255
205 226 255
205 226 255
205 226 255
204 226 255
204 226 255
204 226 255
204 226 255
204 226 255
204 226 255
204 226 255
204 226 255
204 226 255
204 226 255
204 226 255
204 226 255
204 226 255
204 226 255
204 226 255
204 226 255
204 226 255
204 226 255
204 226 255
204 226 255
204 226 255
204 226 255
203 226 255
203 226 255
203 226 255
203 226 255
203 226 255
203 226 255
203 226 255
203 226 255
203 226 255
203 226 255
203 226 255
203 226 255
203 225 255
203 225 255
203 225 255
203 225 255
203 225 255
203 225 255
203 225 255
203 225 255
203 225 255
203 225 255
203 225 255
203 225 255
203 225 255
203 225 255
203 225 255
203 225 255
203 225 255
203 225 255
203 225 255
202 225 255
202 225 255
202 225 255
202 225 255
202 225 255
202 225 255
202 225 255
201 222 252
190 196 222
181 170 192
177 158 179
165 129 148
168 122 137
164 121 134
163 121 137
169 123 137
166 122 135
164 120 130
164 121 138
164 121 134
169 123 138
166 122 138
164 121 133
168 122 135
164 121 135
164 121 138
168 122 134
164 121 137
162 120 128
164 121 133
165 121 137
164 121 137
166 121 133
167 122 138
164 121 133
165 121 135
164 121 135
165 121 135
174 152 171
182 175 199
187 188 213
197 214 243
202 225 255
202 225 255
202 225 255
202 225 255
202 225 255
202 225 255
202 225 255
203 225 255
203 225 255
203 225 255
203 225 255
203 225 255
203 225 255
203 225 255
203 225 255
203 225 255
203 225 255
203 225 255
203 225 255
203 225 255
203 225 255
203 225 255
203 225 255
203 225 255
203 225 255
203 225 255
203 225 255
203 226 255
203 226 255
203 226 255
203 226 255
203 226 255
203 226 255
203 226 255
203 226 255
203 226 255
203 226 255
203 226 255
204 226 255
204 226 255
204 226 255
204 226 255
204 226 255
204 226 255
204 226 255
204 226 255
204 226 255
204 226 255
204 226 255
204 226 255
204 226 255
204 226 255
204 226 255
204 226 255
204 226 255
204 226 255
204 226 255
204 226 255
204 226 255
204 226 255
205 226 255
205 226 255
205 226 255
205 226 255
205 226 255
205 226 255
205 226 255
205 226 255
205 227 255
205 227 255
205 227 255
205 227 255
205 227 255
205 227 255
205 227 255
205 227 255
205 227 255
205 227 255
205 227 255
205 227 255
206 227 255
206 227 255
206 227 255
206 227 255
206 227 255
206 227 255
206 227 255
206 227 255
206 227 255
206 227 255
206 227 255
206 227 255
206 227 255
206 227 255
206 227 255
206 227 255
206 227 255
206 227 255
206 227 255
207 227 255
207 227 255
207 227 255
207 227 255
207 227 255
207 228 255
207 228 255
207 228 255
207 228 255
207 228 255
207 228 255
207 228 255
207 228 255
207 228 255
207 228 255
207 228 255
207 228 255
207 228 255
207 228 255
207 228 255
207 228 255
207 228 255
207 227 255
207 227 255
207 227 255
207 227 255
207 227 255
206 227 255
206 227 255
206 227 255
206 227 255
206 227 255
206 227 255
206 227 255
206 227 255
206 227 255
206 227 255
206 227 255
206 227 255
206 227 255
206 227 255
206 227 255
206 227 255
206 227 255
206 227 255
206 227 255
205 227 255
205 227 255
205 227 255
205 227 255
205 227 255
205 227 255
205 227 255
205 227 255
205 227 255
205 227 255
205 227 255
205 227 255
205 226 255
205 226 255
205 226 255
205 226 255
205 226 255
205 226 255
205 226 255
205 226 255
204 226 255
204 226 255
204 226 255
204 226 255
204 226 255
204 226 255
204 226 255
204 226 255
204 226 255
204 226 255
204 226 255
204 226 255
204 226 255
204 226 255
204 226 255
204 226 255
204 226 255
204 226 255
204 226 255
204 226 255
204 226 255
204 226 255
204 226 255
203 226 255
203 226 255
203 226 255
203 226 255
203 226 255
203 226 255
203 226 255
203 226 255
203 226 255
203 226 255
203 226 255
203 226 255
203 225 255
203 225 255
203 225 255
203 225 255
203 225 255
203 225 255
203 225 255
203 225 255
203 225 255
203 225 255
203 225 255
203 225 255
203 225 255
203 225 255
203 225 255
203 225 255
203 225 255
200 220 250
192 200 227
183 173 193
168 132 148
167 122 138
162 119 130
166 122 135
167 122 137
165 121 137
166 122 138
169 123 137
166 122 135
166 121 135
166 121 133
169 122 133
168 122 137
165 121 138
165 121 133
167 122 137
168 122 137
165 121 137
165 121 135
162 120 133
165 121 137
163 120 133
165 121 134
165 122 138
166 122 138
169 123 135
166 121 133
168 122 134
164 121 135
161 119 126
165 121 134
166 122 138
164 121 134
167 122 137
165 121 135
167 122 135
170 131 145
180 166 184
193 202 229
200 220 250
203 225 255
203 225 255
203 225 255
203 225 255
203 225 255
203 225 255
203 225 255
203 225 255
203 225 255
203 225 255
203 225 255
203 225 255
203 225 255
203 225 255
203 225 255
203 225 255
203 225 255
203 226 255
203 226 255
203 226 255
203 226 255
203 226 255
203 226 255
203 226 255
203 226 255
203 226 255
203 226 255
203 226 255
203 226 255
204 226 255
204 226 255
204 226 255
204 226 255
204 226 255
204 226 255
204 226 255
204 226 255
204 226 255
204 226 255
204 226 255
204 226 255
204 226 255
204 226 255
204 226 255
204 226 255
204 226 255
204 226 255
204 226 255
204 226 255
204 226 255
204 226 255
204 226 255
205 226 255
205 226 255
205 226 255
205 226 255
205 226 255
205 226 255
205 226 255
205 226 255
205 227 255
205 227 255
205 227 255
205 227 255
205 227 255
205 227 255
205 227 255
205 227 255
205 227 255
205 227 255
205 227 255
205 227 255
206 227 255
206 227 255
206 227 255
206 227 255
206 227 255
206 227 255
206 227 255
206 227 255
206 227 255
206 227 255
206 227 255
206 227 255
206 227 255
206 227 255
206 227 255
206 227 255
206 227 255
206 227 255
206 227 255
206 227 255
207 227 255
207 227 255
207 227 255
207 227 255
207 228 255
207 228 255
207 228 255
207 228 255
207 228 255
207 228 255
207 228 255
207 228 255
207 228 255
207 228 255
207 228 255
207 228 255
207 228 255
207 228 255
207 228 255
207 228 255
207 228 255
207 228 255
207 228 255
207 228 255
207 228 255
207 228 255
207 228 255
207 228 255
207 227 255
207 227 255
207 227 255
207 227 255
207 227 255
206 227 255
206 227 255
206 227 255
206 227 255
206 227 255
206 227 255
206 227 255
206 227 255
206 227 255
206 227 255
206 227 255
206 227 255
206 227 255
206 227 255
206 227 255
206 227 255
206 227 255
206 227 255
206 227 255
206 227 255
205 227 255
205 227 255
205 227 255
205 227 255
205 227 255
205 227 255
205 227 255
205 227 255
205 227 255
205 227 255
205 227 255
205 227 255
205 226 255
205 226 255
205 226 255
205 226 255
205 226 255
205 226 255
205 226 255
205 226 255
205 226 255
204 226 255
204 226 255
204 226 255
204 226 255
204 226 255
204 226 255
204 226 255
204 226 255
204 226 255
204 226 255
204 226 255
204 226 255
204 226 255
204 226 255
204 226 255
204 226 255
204 226 255
204 226 255
204 226 255
204 226 255
204 226 255
204 226 255
204 226 255
204 226 255
203 226 255
203 226 255
203 226 255
203 226 255
203 226 255
203 226 255
203 226 255
203 226 255
203 226 255
203 226 255
203 226 255
203 226 255
203 226 255
203 226 255
203 225 255
203 225 255
203 225 255
203 225 255
203 225 255
203 225 255
200 219 248
189 187 212
179 164 186
164 126 142
166 122 137
164 121 137
167 121 131
166 121 134
163 120 130
169 123 140
163 120 134
168 122 138
164 120 130
165 121 137
168 123 137
163 120 133
169 122 134
168 122 131
168 122 135
167 122 134
168 122 133
165 121 133
164 119 128
165 121 133
165 121 133
166 121 131
166 121 134
168 122 134
162 120 130
165 121 130
166 121 134
165 121 133
165 121 134
161 119 130
164 121 134
164 121 134
166 121 134
166 122 135
163 120 131
167 121 131
164 120 128
166 122 137
165 121 137
168 123 138
165 121 131
168 123 140
176 159 178
188 189 212
200 217 246
203 225 255
203 225 255
203 225 255
203 225 255
203 225 255
203 225 255
203 226 255
203 226 255
203 226 255
203 226 255
203 226 255
203 226 255
203 226 255
203 226 255
203 226 255
203 226 255
203 226 255
203 226 255
203 226 255
203 226 255
204 226 255
204 226 255
204 226 255
204 226 255
204 226 255
204 226 255
204 226 255
204 226 255
204 226 255
204 226 255
204 226 255
204 226 255
204 226 255
204 226 255
204 226 255
204 226 255
204 226 255
204 226 255
204 226 255
204 226 255
204 226 255
204 226 255
204 226 255
204 226 255
204 226 255
205 226 255
205 226 255
205 226 255
205 226 255
205 226 255
205 226 255
205 226 255
205 226 255
205 227 255
205 227 255
205 227 255
205 227 255
205 227 255
205 227 255
205 227 255
205 227 255
205 227 255
205 227 255
205 227 255
205 227 255
206 227 255
206 227 255
206 227 255
206 227 255
206 227 255
206 227 255
206 227 255
206 227 255
206 227 255
206 227 255
206 227 255
206 227 255
206 227 255
206 227 255
206 227 255
206 227 255
206 227 255
206 227 255
206 227 255
206 227 255
207 227 255
207 227 255
207 227 255
207 227 255
207 227 255
207 228 255
207 228 255
207 228 255
207 228 255
207 228 255
207 228 255
207 228 255
207 228 255
207 228 255
207 228 255
207 228 255
207 228 255
207 228 255
207 228 255
208 228 255
208 228 255
207 228 255
207 228 255
207 228 255
207 228 255
207 228 255
207 228 255
207 228 255
207 228 255
207 228 255
207 228 255
207 228 255
207 228 255
207 228 255
207 228 255
207 228 255
207 228 255
207 227 255
207 227 255
207 227 255
207 227 255
206 227 255
206 227 255
206 227 255
206 227 255
206 227 255
206 227 255
206 227 255
206 227 255
206 227 255
206 227 255
206 227 255
206 227 255
206 227 255
206 227 255
206 227 255
206 227 255
206 227 255
206 227 255
206 227 255
206 227 255
205 227 255
205 227 255
205 227 255
205 227 255
205 227 255
205 227 255
205 227 255
205 227 255
205 227 255
205 227 255
205 227 255
205 227 255
205 226 255
205 226 255
205 226 255
205 226 255
205 226 255
205 226 255
205 226 255
205 226 255
205 226 255
204 226 255
204 226 255
204 226 255
204 226 255
204 226 255
204 226 255
204 226 255
204 226 255
204 226 255
204 226 255
204 226 255
204 226 255
204 226 255
204 226 255
204 226 255
204 226 255
204 226 255
204 226 255
204 226 255
204 226 255
204 226 255
204 226 255
204 226 255
204 226 255
204 226 255
204 226 255
203 226 255
203 226 255
203 226 255
203 226 255
203 226 255
203 226 255
203 226 255
203 226 255
203 226 255
203 226 255
203 226 255
202 222 252
191 198 225
171 143 161
166 122 140
161 119 130
166 121 128
166 122 134
163 120 131
167 122 137
165 121 137
165 121 134
165 121 133
165 121 135
164 120 131
167 122 134
166 121 135
169 122 134
162 120 128
165 121 131
165 121 133
164 120 133
163 120 130
165 121 131
167 122 137
165 121 138
164 120 128
167 122 135
163 120 133
163 120 131
167 122 135
164 120 128
165 121 135
165 121 130
164 120 126
165 120 128
167 122 131
166 121 131
163 121 135
165 121 134
166 122 137
165 121 133
169 123 135
165 122 138
165 121 134
167 122 137
165 122 138
164 120 131
166 121 134
165 121 137
165 121 131
164 121 135
165 121 137
180 160 180
192 198 225
202 222 252
203 226 255
203 226 255
203 226 255
203 226 255
203 226 255
203 226 255
203 226 255
203 226 255
203 226 255
203 226 255
203 226 255
204 226 255
204 226 255
204 226 255
204 226 255
204 226 255
204 226 255
204 226 255
204 226 255
204 226 255
204 226 255
204 226 255
204 226 255
204 226 255
204 226 255
204 226 255
204 226 255
204 226 255
204 226 255
204 226 255
204 226 255
204 226 255
204 226 255
204 226 255
204 226 255
204 226 255
204 226 255
205 226 255
205 226 255
205 226 255
205 226 255
205 226 255
205 226 255
205 226 255
205 226 255
205 226 255
205 227 255
205 227 255
205 227 255
205 227 255
205 227 255
205 227 255
205 227 255
205 227 255
205 227 255
205 227 255
205 227 255
205 227 255
206 227 255
206 227 255
206 227 255
206 227 255
206 227 255
206 227 255
206 227 255
206 227 255
206 227 255
206 227 255
206 227 255
206 227 255
206 227 255
206 227 255
206 227 255
206 227 255
206 227 255
206 227 255
206 227 255
206 227 255
207 227 255
207 227 255
207 227 255
207 227 255
207 227 255
207 228 255
207 228 255
207 228 255
207 228 255
207 228 255
207 228 255
207 228 255
207 228 255
207 228 255
207 228 255
207 228 255
207 228 255
207 228 255
207 228 255
207 228 255
208 228 255
208 228 255
208 228 255
208 228 255
208 228 255
208 228 255
208 228 255
208 228 255
208 228 255
207 228 255
207 228 255
207 228 255
207 228 255
207 228 255
207 228 255
207 228 255
207 228 255
207 228 255
207 228 255
207 228 255
207 228 255
207 228 255
207 228 255
207 228 255
207 227 255
207 227 255
207 227 255
207 227 255
207 227 255
206 227 255
206 227 255
206 227 255
206 227 255
206 227 255
206 227 255
206 227 255
206 227 255
206 227 255
206 227 255
206 227 255
206 227 255
206 227 255
206 227 255
206 227 255
206 227 255
206 227 255
206 227 255
206 227 255
206 227 255
205 227 255
205 227 255
205 227 255
205 227 255
205 227 255
205 227 255
205 227 255
205 227 255
205 227 255
205 227 255
205 227 255
205 227 255
205 227 255
205 226 255
205 226 255
205 226 255
205 226 255
205 226 255
205 226 255
205 226 255
205 226 255
205 226 255
204 226 255
204 226 255
204 226 255
204 226 255
204 226 255
204 226 255
204 226 255
204 226 255
204 226 255
204 226 255
204 226 255
204 226 255
204 226 255
204 226 255
204 226 255
204 226 255
204 226 255
204 226 255
204 226 255
204 226 255
204 226 255
204 226 255
204 226 255
204 226 255
204 226 255
204 226 255
204 226 255
204 226 255
203 226 255
203 226 255
200 219 248
182 173 196
167 127 141
165 121 131
163 120 133
169 123 135
167 121 128
166 121 131
167 122 134
165 121 135
165 121 135
164 120 130
165 121 135
166 121 131
164 121 133
164 121 133
164 121 131
163 120 130
165 121 135
164 120 130
168 122 134
169 123 137
166 121 133
166 121 130
164 120 131
167 122 134
162 119 128
166 121 130
161 119 130
166 121 126
167 122 138
164 120 128
167 122 137
166 122 137
163 120 126
165 120 128
166 121 134
166 121 133
165 121 133
165 121 138
166 121 133
165 121 131
163 120 128
163 120 133
166 122 134
165 121 130
166 121 134
165 121 133
166 122 134
165 121 134
164 120 128
165 121 134
166 122 134
166 122 137
163 120 126
169 123 137
167 130 144
185 179 203
200 219 248
203 226 255
203 226 255
204 226 255
204 226 255
204 226 255
204 226 255
204 226 255
204 226 255
204 226 255
204 226 255
204 226 255
204 226 255
204 226 255
204 226 255
204 226 255
204 226 255
204 226 255
204 226 255
204 226 255
204 226 255
204 226 255
204 226 255
204 226 255
204 226 255
204 226 255
204 226 255
204 226 255
204 226 255
204 226 255
204 226 255
205 226 255
205 226 255
205 226 255
205 226 255
205 226 255
205 226 255
205 226 255
205 226 255
205 226 255
205 227 255
205 227 255
205 227 255
205 227 255
205 227 255
205 227 255
205 227 255
205 227 255
205 227 255
205 227 255
205 227 255
205 227 255
205 227 255
206 227 255
206 227 255
206 227 255
206 227 255
206 227 255
206 227 255
206 227 255
206 227 255
206 227 255
206 227 255
206 227 255
206 227 255
206 227 255
206 227 255
206 227 255
206 227 255
206 227 255
206 227 255
206 227 255
206 227 255
206 227 255
207 227 255
207 227 255
207 227 255
207 227 255
207 228 255
207 228 255
207 228 255
207 228 255
207 228 255
207 228 255
207 228 255
207 228 255
207 228 255
207 228 255
207 228 255
207 228 255
207 228 255
207 228 255
207 228 255
207 228 255
208 228 255
208 228 255
208 228 255
208 228 255
208 228 255
208 228 255
208 228 255
208 228 255
208 228 255
208 228 255
208 228 255
208 228 255
208 228 255
208 228 255
208 228 255
207 228 255
207 228 255
207 228 255
207 228 255
207 228 255
207 228 255
207 228 255
207 228 255
207 228 255
207 228 255
207 228 255
207 228 255
207 228 255
207 228 255
207 228 255
207 228 255
207 227 255
207 227 255
207 227 255
207 227 255
207 227 255
206 227 255
206 227 255
206 227 255
206 227 255
206 227 255
206 227 255
206 227 255
206 227 255
206 227 255
206 227 255
206 227 255
206 227 255
206 227 255
206 227 255
206 227 255
206 227 255
206 227 255
206 227 255
206 227 255
206 227 255
205 227 255
205 227 255
205 227 255
205 227 255
205 227 255
205 227 255
205 227 255
205 227 255
205 227 255
205 227 255
205 227 255
205 227 255
205 227 255
205 227 255
205 226 255
205 226 255
205 226 255
205 226 255
205 226 255
205 226 255
205 226 255
205 226 255
205 226 255
204 226 255
204 226 255
204 226 255
204 226 255
204 226 255
204 226 255
204 226 255
204 226 255
204 226 255
204 226 255
204 226 255
204 226 255
204 226 255
204 226 255
204 226 255
204 226 255
204 226 255
204 226 255
204 226 255
204 226 255
204 226 255
204 226 255
204 226 255
193 200 227
177 155 174
164 120 130
164 121 134
165 121 133
167 122 134
165 121 131
166 122 137
168 122 130
168 122 137
165 121 135
166 121 134
166 121 134
168 122 134
165 121 128
167 122 137
166 122 135
163 120 131
165 121 131
164 120 131
163 120 128
167 122 133
166 121 133
166 121 131
163 120 130
169 122 133
164 120 130
167 122 134
164 121 134
165 121 130
165 120 125
165 121 134
167 122 137
168 122 134
165 121 134
166 121 133
162 120 131
164 121 134
165 121 130
165 121 131
169 123 134
166 121 134
166 121 131
168 122 134
167 122 135
165 120 134
164 121 134
165 121 133
168 122 135
166 121 131
166 121 134
165 121 134
164 121 134
165 121 134
169 123 135
164 120 130
163 120 133
166 121 131
166 121 126
166 122 135
165 121 135
174 150 165
196 207 233
204 226 255
204 226 255
204 226 255
204 226 255
204 226 255
204 226 255
204 226 255
204 226 255
204 226 255
204 226 255
204 226 255
204 226 255
204 226 255
204 226 255
204 226 255
204 226 255
204 226 255
204 226 255
204 226 255
204 226 255
204 226 255
204 226 255
204 226 255
205 226 255
205 226 255
205 226 255
205 226 255
205 226 255
205 226 255
205 226 255
205 226 255
205 226 255
205 226 255
205 227 255
205 227 255
205 227 255
205 227 255
205 227 255
205 227 255
205 227 255
205 227 255
205 227 255
205 227 255
205 227 255
205 227 255
205 227 255
206 227 255
206 227 255
206 227 255
206 227 255
206 227 255
206 227 255
206 227 255
206 227 255
206 227 255
206 227 255
206 227 255
206 227 255
206 227 255
206 227 255
206 227 255
206 227 255
206 227 255
206 227 255
206 227 255
206 227 255
207 227 255
207 227 255
207 227 255
207 227 255
207 227 255
207 228 255
207 228 255
207 228 255
207 228 255
207 228 255
207 228 255
207 228 255
207 228 255
207 228 255
207 228 255
207 228 255
207 228 255
207 228 255
207 228 255
207 228 255
207 228 255
208 228 255
208 228 255
208 228 255
208 228 255
208 228 255
208 228 255
208 228 255
208 228 255
208 228 255
208 228 255
208 228 255
208 228 255
208 228 255
208 228 255
208 228 255
208 228 255
208 228 255
208 228 255
208 228 255
208 228 255
208 228 255
208 228 255
208 228 255
207 228 255
207 228 255
207 228 255
207 228 255
207 228 255
207 228 255
207 228 255
207 228 255
207 228 255
207 228 255
207 228 255
207 228 255
207 228 255
207 228 255
207 228 255
207 228 255
207 227 255
207 227 255
207 227 255
207 227 255
207 227 255
206 227 255
206 227 255
206 227 255
206 227 255
206 227 255
206 227 255
206 227 255
206 227 255
206 227 255
206 227 255
206 227 255
206 227 255
206 227 255
206 227 255
206 227 255
206 227 255
206 227 255
206 227 255
206 227 255
206 227 255
205 227 255
205 227 255
205 227 255
205 227 255
205 227 255
205 227 255
205 227 255
205 227 255
205 227 255
205 227 255
205 227 255
205 227 255
205 227 255
205 227 255
205 226 255
205 226 255
205 226 255
205 226 255
205 226 255
205 226 255
205 226 255
205 226 255
205 226 255
205 226 255
204 226 255
204 226 255
204 226 255
204 226 255
204 226 255
204 226 255
204 226 255
204 226 255
204 226 255
204 226 255
204 226 255
204 226 255
204 226 255
204 226 255
204 226 255
204 226 255
191 193 219
172 139 156
167 122 131
164 120 126
165 121 133
165 121 137
163 120 131
171 123 135
164 121 131
163 120 135
168 122 137
166 121 131
165 121 133
164 120 133
165 121 128
167 122 134
164 120 130
165 120 123
167 122 137
163 119 123
167 122 134
166 121 128
166 121 134
169 122 133
165 121 130
161 118 123
165 121 130
163 120 130
164 120 125
164 120 126
164 120 131
166 121 133
166 121 130
167 122 135
165 120 131
164 120 128
165 121 135
164 121 133
166 121 133
164 120 123
165 121 133
163 119 123
165 120 131
162 120 130
163 120 133
162 120 131
168 122 135
168 123 138
169 123 135
164 121 134
165 121 134
165 121 135
166 122 134
165 120 128
167 122 133
168 122 135
162 120 130
165 121 134
164 120 133
165 121 133
165 121 134
167 122 133
163 120 133
166 122 137
166 122 137
169 138 153
194 202 228
204 226 255
204 226 255
204 226 255
204 226 255
204 226 255
204 226 255
204 226 255
204 226 255
204 226 255
204 226 255
204 226 255
204 226 255
204 226 255
204 226 255
204 226 255
204 226 255
205 226 255
205 226 255
205 226 255
205 226 255
205 226 255
205 226 255
205 226 255
205 226 255
205 226 255
205 226 255
205 227 255
205 227 255
205 227 255
205 227 255
205 227 255
205 227 255
205 227 255
205 227 255
205 227 255
205 227 255
205 227 255
205 227 255
205 227 255
206 227 255
206 227 255
206 227 255
206 227 255
206 227 255
206 227 255
206 227 255
206 227 255
206 227 255
206 227 255
206 227 255
206 227 255
206 227 255
206 227 255
206 227 255
206 227 255
206 227 255
206 227 255
206 227 255
206 227 255
206 227 255
206 227 255
207 227 255
207 227 255
207 227 255
207 227 255
207 228 255
207 228 255
207 228 255
207 228 255
207 228 255
207 228 255
207 228 255
207 228 255
207 228 255
207 228 255
207 228 255
207 228 255
207 228 255
207 228 255
207 228 255
207 228 255
208 228 255
208 228 255
208 228 255
208 228 255
208 228 255
208 228 255
208 228 255
208 228 255
208 228 255
208 228 255
208 228 255
208 228 255
208 228 255
208 228 255
208 228 255
208 228 255
208 228 255
208 228 255
208 228 255
208 228 255
208 228 255
208 228 255
208 228 255
208 228 255
208 228 255
208 228 255
208 228 255
208 228 255
208 228 255
208 228 255
208 228 255
207 228 255
207 228 255
207 228 255
207 228 255
207 228 255
207 228 255
207 228 255
207 228 255
207 228 255
207 228 255
207 228 255
207 228 255
207 228 255
207 228 255
207 228 255
207 228 255
207 227 255
207 227 255
207 227 255
207 227 255
207 227 255
206 227 255
206 227 255
206 227 255
206 227 255
206 227 255
206 227 255
206 227 255
206 227 255
206 227 255
206 227 255
206 227 255
206 227 255
206 227 255
206 227 255
206 227 255
206 227 255
206 227 255
206 227 255
206 227 255
206 227 255
206 227 255
205 227 255
205 227 255
205 227 255
205 227 255
205 227 255
205 227 255
205 227 255
205 227 255
205 227 255
205 227 255
205 227 255
205 227 255
205 227 255
205 227 255
205 227 255
205 226 255
205 226 255
205 226 255
205 226 255
205 226 255
205 226 255
205 226 255
205 226 255
205 226 255
205 226 255
204 226 255
204 226 255
204 226 255
204 226 255
204 226 255
204 226 255
204 226 255
204 226 255
192 199 224
177 156 173
165 121 131
162 120 134
165 121 137
164 120 134
163 120 133
166 121 133
163 120 128
168 122 135
166 121 131
165 121 130
168 122 130
164 120 131
164 120 128
166 121 131
164 120 126
166 121 131
166 121 126
166 121 128
166 121 133
166 121 128
167 122 130
166 121 134
168 122 131
167 122 133
163 120 128
164 120 128
162 119 122
162 119 125
168 122 130
162 119 123
168 122 131
166 121 131
168 122 131
162 119 123
165 121 128
165 121 130
166 122 135
166 121 126
164 120 134
162 119 126
167 121 125
163 120 128
167 121 128
165 120 123
167 122 131
166 121 134
166 121 130
164 121 131
168 122 134
162 120 133
163 120 128
162 120 128
168 122 134
162 120 126
163 120 131
168 122 128
168 122 134
167 122 135
165 121 130
164 120 130
166 121 133
167 122 131
167 122 133
163 120 133
166 122 138
165 121 135
167 122 137
177 153 168
198 211 238
204 226 255
204 226 255
204 226 255
204 226 255
204 226 255
204 226 255
204 226 255
204 226 255
205 226 255
205 226 255
205 226 255
205 226 255
205 226 255
205 226 255
205 226 255
205 226 255
205 226 255
205 226 255
205 227 255
205 227 255
205 227 255
205 227 255
205 227 255
205 227 255
205 227 255
205 227 255
205 227 255
205 227 255
205 227 255
205 227 255
205 227 255
205 227 255
205 227 255
206 227 255
206 227 255
206 227 255
206 227 255
206 227 255
206 227 255
206 227 255
206 227 255
206 227 255
206 227 255
206 227 255
206 227 255
206 227 255
206 227 255
206 227 255
206 227 255
206 227 255
206 227 255
206 227 255
206 227 255
206 227 255
206 227 255
207 227 255
207 227 255
207 227 255
207 227 255
207 228 255
207 228 255
207 228 255
207 228 255
207 228 255
207 228 255
207 228 255
207 228 255
207 228 255
207 228 255
207 228 255
207 228 255
207 228 255
207 228 255
207 228 255
207 228 255
208 228 255
208 228 255
208 228 255
208 228 255
208 228 255
208 228 255
208 228 255
208 228 255
208 228 255
208 228 255
208 228 255
208 228 255
208 228 255
208 228 255
208 228 255
208 228 255
208 228 255
208 228 255
208 228 255
208 228 255
208 228 255
208 228 255
208 228 255
208 228 255
208 228 255
208 228 255
208 228 255
208 228 255
208 228 255
208 228 255
208 228 255
208 228 255
208 228 255
208 228 255
208 228 255
208 228 255
208 228 255
208 228 255
208 228 255
207 228 255
207 228 255
207 228 255
207 228 255
207 228 255
207 228 255
207 228 255
207 228 255
207 228 255
207 228 255
207 228 255
207 228 255
207 228 255
207 228 255
207 228 255
207 228 255
207 227 255
207 227 255
207 227 255
207 227 255
207 227 255
206 227 255
206 227 255
206 227 255
206 227 255
206 227 255
206 227 255
206 227 255
206 227 255
206 227 255
206 227 255
206 227 255
206 227 255
206 227 255
206 227 255
206 227 255
206 227 255
206 227 255
206 227 255
206 227 255
206 227 255
206 227 255
206 227 255
205 227 255
205 227 255
205 227 255
205 227 255
205 227 255
205 227 255
205 227 255
205 227 255
205 227 255
205 227 255
205 227 255
205 227 255
205 227 255
205 227 255
205 227 255
205 226 255
205 226 255
205 226 255
205 226 255
205 226 255
205 226 255
205 226 255
205 226 255
205 226 255
205 226 255
205 226 255
198 211 238
177 154 171
163 120 130
167 121 131
167 122 137
164 121 133
167 122 135
165 121 135
168 122 133
163 120 126
163 120 126
169 122 135
163 120 134
163 120 126
164 121 133
165 120 128
167 122 134
169 123 135
165 121 134
166 121 133
163 120 128
166 121 128
166 120 123
166 121 134
165 121 133
167 122 137
164 120 130
165 121 137
165 121 133
165 121 133
165 120 126
167 121 131
165 121 133
167 122 134
164 120 128
166 121 131
162 119 123
165 121 134
165 121 133
170 122 130
165 121 130
165 121 128
166 121 131
166 121 131
165 121 131
163 119 128
166 121 133
167 122 133
166 121 134
165 121 133
163 120 130
168 122 134
163 119 128
164 120 130
165 120 125
162 119 128
164 120 126
164 120 130
165 120 125
166 122 135
166 121 133
162 120 131
165 121 133
163 119 125
164 120 128
166 121 130
166 121 135
164 121 133
165 121 134
170 123 135
164 120 131
165 121 137
166 122 137
176 157 176
200 216 245
205 226 255
205 226 255
205 226 255
205 226 255
205 226 255
205 226 255
205 226 255
205 226 255
205 226 255
205 226 255
205 227 255
205 227 255
205 227 255
205 227 255
205 227 255
205 227 255
205 227 255
205 227 255
205 227 255
205 227 255
205 227 255
205 227 255
205 227 255
205 227 255
205 227 255
205 227 255
206 227 255
206 227 255
206 227 255
206 227 255
206 227 255
206 227 255
206 227 255
206 227 255
206 227 255
206 227 255
206 227 255
206 227 255
206 227 255
206 227 255
206 227 255
206 227 255
206 227 255
206 227 255
206 227 255
206 227 255
206 227 255
206 227 255
207 227 255
207 227 255
207 227 255
207 227 255
207 227 255
207 228 255
207 228 255
207 228 255
207 228 255
207 228 255
207 228 255
207 228 255
207 228 255
207 228 255
207 228 255
207 228 255
207 228 255
207 228 255
207 228 255
207 228 255
207 228 255
208 228 255
208 228 255
208 228 255
208 228 255
208 228 255
208 228 255
208 228 255
208 228 255
208 228 255
208 228 255
208 228 255
208 228 255
208 228 255
208 228 255
208 228 255
208 228 255
208 228 255
208 228 255
208 228 255
208 228 255
208 228 255
208 228 255
209 229 255
209 229 255
209 228 255
209 228 255
208 228 255
208 228 255
208 228 255
208 228 255
208 228 255
208 228 255
208 228 255
208 228 255
208 228 255
208 228 255
208 228 255
208 228 255
208 228 255
208 228 255
208 228 255
208 228 255
208 228 255
208 228 255
208 228 255
208 228 255
208 228 255
207 228 255
207 228 255
207 228 255
207 228 255
207 228 255
207 228 255
207 228 255
207 228 255
207 228 255
207 228 255
207 228 255
207 228 255
207 228 255
207 228 255
207 228 255
207 228 255
207 227 255
207 227 255
207 227 255
207 227 255
207 227 255
206 227 255
206 227 255
206 227 255
206 227 255
206 227 255
206 227 255
206 227 255
206 227 255
206 227 255
206 227 255
206 227 255
206 227 255
206 227 255
206 227 255
206 227 255
206 227 255
206 227 255
206 227 255
206 227 255
206 227 255
206 227 255
206 227 255
206 227 255
205 227 255
205 227 255
205 227 255
205 227 255
205 227 255
205 227 255
205 227 255
205 227 255
205 227 255
205 227 255
205 227 255
205 227 255
205 227 255
205 227 255
205 227 255
205 227 255
205 227 255
205 226 255
205 226 255
204 225 253
181 171 193
167 125 139
166 122 140
164 121 133
164 120 131
163 120 128
167 121 131
166 122 140
167 122 134
167 122 134
167 121 133
171 123 134
167 122 135
163 120 130
168 123 137
166 121 130
167 122 130
168 122 134
164 120 123
161 119 125
166 122 135
161 119 120
166 121 133
164 120 122
167 122 130
166 121 134
164 120 126
169 123 134
165 120 126
164 120 125
162 119 126
166 121 128
166 121 133
165 121 131
166 121 130
162 119 126
165 120 126
165 120 125
166 121 128
168 122 131
165 121 130
164 120 130
169 122 130
167 121 126
163 120 133
167 122 131
164 120 125
162 119 120
168 122 133
163 119 123
165 120 128
166 121 126
164 120 126
166 121 125
165 121 130
167 121 130
166 121 131
167 121 130
166 121 128
164 121 130
164 120 128
164 120 125
169 122 135
167 121 131
166 121 133
166 121 131
168 122 135
166 121 131
166 121 128
164 120 126
166 122 137
166 121 130
166 121 131
166 121 126
166 121 134
169 130 142
187 185 209
204 225 254
205 226 255
205 226 255
205 227 255
205 227 255
205 227 255
205 227 255
205 227 255
205 227 255
205 227 255
205 227 255
205 227 255
205 227 255
205 227 255
205 227 255
205 227 255
205 227 255
205 227 255
205 227 255
205 227 255
206 227 255
206 227 255
206 227 255
206 227 255
206 227 255
206 227 255
206 227 255
206 227 255
206 227 255
206 227 255
206 227 255
206 227 255
206 227 255
206 227 255
206 227 255
206 227 255
206 227 255
206 227 255
206 227 255
206 227 255
206 227 255
206 227 255
206 227 255
207 227 255
207 227 255
207 227 255
207 227 255
207 227 255
207 228 255
207 228 255
207 228 255
207 228 255
207 228 255
207 228 255
207 228 255
207 228 255
207 228 255
207 228 255
207 228 255
207 228 255
207 228 255
207 228 255
207 228 255
207 228 255
208 228 255
208 228 255
208 228 255
208 228 255
208 228 255
208 228 255
208 228 255
208 228 255
208 228 255
208 228 255
208 228 255
208 228 255
208 228 255
208 228 255
208 228 255
208 228 255
208 228 255
208 228 255
208 228 255
208 228 255
208 228 255
208 228 255
209 228 255
209 229 255
209 229 255
209 229 255
209 229 255
209 229 255
209 229 255
209 229 255
209 229 255
209 229 255
209 228 255
209 228 255
208 228 255
208 228 255
208 228 255
208 228 255
208 228 255
208 228 255
208 228 255
208 228 255
208 228 255
208 228 255
208 228 255
208 228 255
208 228 255
208 228 255
208 228 255
208 228 255
208 228 255
208 228 255
208 228 255
208 228 255
208 228 255
207 228 255
207 228 255
207 228 255
207 228 255
207 228 255
207 228 255
207 228 255
207 228 255
207 228 255
207 228 255
207 228 255
207 228 255
207 228 255
207 228 255
207 228 255
207 228 255
207 228 255
207 227 255
207 227 255
207 227 255
207 227 255
207 227 255
206 227 255
206 227 255
206 227 255
206 227 255
206 227 255
206 227 255
206 227 255
206 227 255
206 227 255
206 227 255
206 227 255
206 227 255
206 227 255
206 227 255
206 227 255
206 227 255
206 227 255
206 227 255
206 227 255
206 227 255
206 227 255
206 227 255
206 227 255
206 227 255
205 227 255
205 227 255
205 227 255
205 227 255
205 227 255
205 227 255
205 227 255
205 227 255
205 227 255
205 227 255
205 227 255
205 227 255
192 195 220
171 143 161
165 121 131
163 120 123
166 121 128
166 121 133
162 120 130
166 121 130
167 121 128
164 120 126
168 122 133
166 120 126
166 121 131
165 121 131
167 121 131
163 120 128
165 120 122
164 120 126
165 121 128
166 121 126
167 121 133
168 122 131
164 120 130
161 119 130
167 122 133
166 121 130
164 120 123
165 120 125
163 120 128
168 122 131
165 120 130
164 120 130
166 121 133
164 120 130
166 121 128
168 122 135
164 120 126
167 121 133
164 120 128
167 122 131
166 121 131
164 120 131
166 121 128
169 122 131
162 119 120
167 121 130
163 120 125
163 120 134
167 121 130
164 120 128
165 120 133
166 121 133
165 121 134
163 120 126
168 122 131
163 120 128
165 121 133
163 120 122
162 119 125
163 120 131
168 122 135
167 121 128
166 121 134
165 121 133
165 121 131
165 121 131
165 121 134
169 123 134
163 120 133
168 122 135
168 122 134
166 121 131
165 121 133
165 121 131
163 120 126
164 120 130
165 121 131
163 120 133
167 122 133
170 133 152
195 203 227
205 227 255
205 227 255
205 227 255
205 227 255
205 227 255
205 227 255
205 227 255
205 227 255
205 227 255
205 227 255
205 227 255
205 227 255
206 227 255
206 227 255
206 227 255
206 227 255
206 227 255
206 227 255
206 227 255
206 227 255
206 227 255
206 227 255
206 227 255
206 227 255
206 227 255
206 227 255
206 227 255
206 227 255
206 227 255
206 227 255
206 227 255
206 227 255
206 227 255
206 227 255
206 227 255
206 227 255
207 227 255
207 227 255
207 227 255
207 227 255
207 227 255
207 228 255
207 228 255
207 228 255
207 228 255
207 228 255
207 228 255
207 228 255
207 228 255
207 228 255
207 228 255
207 228 255
207 228 255
207 228 255
207 228 255
207 228 255
207 228 255
207 228 255
208 228 255
208 228 255
208 228 255
208 228 255
208 228 255
208 228 255
208 228 255
208 228 255
208 228 255
208 228 255
208 228 255
208 228 255
208 228 255
208 228 255
208 228 255
208 228 255
208 228 255
208 228 255
208 228 255
208 228 255
208 228 255
209 228 255
209 228 255
209 229 255
209 229 255
209 229 255
209 229 255
209 229 255
209 229 255
209 229 255
209 229 255
209 229 255
209 229 255
209 229 255
209 229 255
209 229 255
209 229 255
209 229 255
209 229 255
209 229 255
209 228 255
209 228 255
208 228 255
208 228 255
208 228 255
208 228 255
208 228 255
208 228 255
208 228 255
208 228 255
208 228 255
208 228 255
208 228 255
208 228 255
208 228 255
208 228 255
208 228 255
208 228 255
208 228 255
208 228 255
208 228 255
208 228 255
208 228 255
208 228 255
207 228 255
207 228 255
207 228 255
207 228 255
207 228 255
207 228 255
207 228 255
207 228 255
207 228 255
207 228 255
207 228 255
207 228 255
207 228 255
207 228 255
207 228 255
207 228 255
207 227 255
207 227 255
207 227 255
207 227 255
207 227 255
207 227 255
206 227 255
206 227 255
206 227 255
206 227 255
206 227 255
206 227 255
206 227 255
206 227 255
206 227 255
206 227 255
206 227 255
206 227 255
206 227 255
206 227 255
206 227 255
206 227 255
206 227 255
206 227 255
206 227 255
206 227 255
206 227 255
206 227 255
206 227 255
206 227 255
206 227 255
205 227 255
205 227 255
205 227 255
205 227 255
204 224 252
184 172 191
166 121 134
161 119 122
165 121 131
165 122 138
163 120 125
164 120 130
163 119 130
167 122 134
164 120 130
166 121 135
167 122 134
164 120 128
161 119 128
165 121 130
167 122 133
162 118 118
164 120 122
166 121 131
166 121 130
166 121 131
170 122 130
166 121 123
163 119 120
167 121 128
167 122 133
166 122 135
164 120 125
166 121 128
165 121 134
167 121 125
167 122 134
164 120 123
167 121 130
166 121 130
165 120 130
164 120 131
167 122 134
166 121 131
161 118 118
163 120 126
166 121 130
163 120 130
167 121 128
163 119 126
165 120 128
163 120 126
165 121 130
163 120 128
165 121 128
161 118 125
164 120 125
164 121 133
164 120 126
163 119 118
167 121 126
166 121 131
165 120 126
160 118 125
163 120 125
163 120 125
163 120 125
164 120 126
163 120 126
164 120 130
165 120 130
166 121 130
170 123 134
163 120 126
164 120 123
167 122 131
165 121 131
166 121 131
166 121 130
162 120 126
168 122 131
164 120 131
167 121 131
163 119 128
166 122 137
165 121 128
166 121 134
176 158 175
203 222 250
205 227 255
205 227 255
205 227 255
205 227 255
206 227 255
206 227 255
206 227 255
206 227 255
206 227 255
206 227 255
206 227 255
206 227 255
206 227 255
206 227 255
206 227 255
206 227 255
206 227 255
206 227 255
206 227 255
206 227 255
206 227 255
206 227 255
206 227 255
206 227 255
206 227 255
206 227 255
206 227 255
206 227 255
206 227 255
207 227 255
207 227 255
207 227 255
207 227 255
207 227 255
207 227 255
207 228 255
207 228 255
207 228 255
207 228 255
207 228 255
207 228 255
207 228 255
207 228 255
207 228 255
207 228 255
207 228 255
207 228 255
207 228 255
207 228 255
207 228 255
207 228 255
207 228 255
208 228 255
208 228 255
208 228 255
208 228 255
208 228 255
208 228 255
208 228 255
208 228 255
208 228 255
208 228 255
208 228 255
208 228 255
208 228 255
208 228 255
208 228 255
208 228 255
208 228 255
208 228 255
208 228 255
208 228 255
208 228 255
209 228 255
209 228 255
209 229 255
209 229 255
209 229 255
209 229 255
209 229 255
209 229 255
209 229 255
209 229 255
209 229 255
209 229 255
209 229 255
209 229 255
209 229 255
209 229 255
209 229 255
209 229 255
209 229 255
209 229 255
209 229 255
209 229 255
209 229 255
209 229 255
209 229 255
209 229 255
209 229 255
209 228 255
209 228 255
208 228 255
208 228 255
208 228 255
208 228 255
208 228 255
208 228 255
208 228 255
208 228 255
208 228 255
208 228 255
208 228 255
208 228 255
208 228 255
208 228 255
208 228 255
208 228 255
208 228 255
208 228 255
208 228 255
208 228 255
208 228 255
208 228 255
207 228 255
207 228 255
207 228 255
207 228 255
207 228 255
207 228 255
207 228 255
207 228 255
207 228 255
207 228 255
207 228 255
207 228 255
207 228 255
207 228 255
207 228 255
207 228 255
207 228 255
207 227 255
207 227 255
207 227 255
207 227 255
207 227 255
207 227 255
206 227 255
206 227 255
206 227 255
206 227 255
206 227 255
206 227 255
206 227 255
206 227 255
206 227 255
206 227 255
206 227 255
206 227 255
206 227 255
206 227 255
206 227 255
206 227 255
206 227 255
206 227 255
206 227 255
206 227 255
206 227 255
206 227 255
206 227 255
196 206 232
171 138 157
164 120 128
163 120 125
166 121 130
164 120 130
165 121 130
165 121 135
167 122 130
167 121 131
162 119 122
166 121 130
167 121 131
164 120 126
165 121 128
165 121 130
164 120 128
166 121 133
168 122 134
165 120 126
165 120 126
164 120 126
164 120 126
168 122 130
163 119 122
166 121 133
167 122 137
166 121 134
169 122 134
165 121 133
166 122 135
163 120 131
168 122 134
162 119 125
162 119 128
164 120 125
166 121 134
165 120 133
166 121 128
165 121 133
166 121 123
164 120 128
164 120 131
163 120 126
165 120 125
162 119 131
163 120 130
164 120 123
164 119 120
165 121 130
167 121 131
164 120 123
167 122 134
171 123 138
165 121 130
166 121 131
164 119 122
167 122 133
163 120 125
163 120 126
165 120 126
165 121 130
163 119 117
168 122 134
163 120 123
169 123 135
165 120 123
167 122 133
164 120 125
165 120 123
164 120 125
167 121 128
164 121 130
166 121 134
167 121 131
164 121 134
165 121 130
165 121 133
165 121 131
163 120 128
166 121 131
164 121 134
163 120 133
165 121 135
165 120 128
174 149 168
195 203 227
206 227 255
206 227 255
206 227 255
206 227 255
206 227 255
206 227 255
206 227 255
206 227 255
206 227 255
206 227 255
206 227 255
206 227 255
206 227 255
206 227 255
206 227 255
206 227 255
206 227 255
206 227 255
206 227 255
206 227 255
206 227 255
206 227 255
206 227 255
207 227 255
207 227 255
207 227 255
207 227 255
207 227 255
207 227 255
207 228 255
207 228 255
207 228 255
207 228 255
207 228 255
207 228 255
207 228 255
207 228 255
207 228 255
207 228 255
207 228 255
207 228 255
207 228 255
207 228 255
207 228 255
207 228 255
207 228 255
208 228 255
208 228 255
208 228 255
208 228 255
208 228 255
208 228 255
208 228 255
208 228 255
208 228 255
208 228 255
208 228 255
208 228 255
208 228 255
208 228 255
208 228 255
208 228 255
208 228 255
208 228 255
208 228 255
208 228 255
208 228 255
208 228 255
209 228 255
209 228 255
209 229 255
209 229 255
209 229 255
209 229 255
209 229 255
209 229 255
209 229 255
209 229 255
209 229 255
209 229 255
209 229 255
209 229 255
209 229 255
209 229 255
209 229 255
209 229 255
209 229 255
209 229 255
209 229 255
209 229 255
209 229 255
209 229 255
209 229 255
209 229 255
209 229 255
209 229 255
209 229 255
209 229 255
209 229 255
209 229 255
209 229 255
209 229 255
209 229 255
209 229 255
209 228 255
208 228 255
208 228 255
208 228 255
208 228 255
208 228 255
208 228 255
208 228 255
208 228 255
208 228 255
208 228 255
208 228 255
208 228 255
208 228 255
208 228 255
208 228 255
208 228 255
208 228 255
208 228 255
208 228 255
208 228 255
208 228 255
208 228 255
208 228 255
207 228 255
207 228 255
207 228 255
207 228 255
207 228 255
207 228 255
207 228 255
207 228 255
207 228 255
207 228 255
207 228 255
207 228 255
207 228 255
207 228 255
207 228 255
207 228 255
207 228 255
207 227 255
207 227 255
207 227 255
207 227 255
207 227 255
207 227 255
206 227 255
206 227 255
206 227 255
206 227 255
206 227 255
206 227 255
206 227 255
206 227 255
206 227 255
206 227 255
206 227 255
206 227 255
206 227 255
206 227 255
206 227 255
206 227 255
205 225 254
186 182 204
165 120 133
162 119 122
165 121 130
161 118 117
165 121 134
166 121 131
164 120 126
166 122 138
165 121 130
165 121 131
166 121 133
161 118 120
166 121 133
167 121 128
164 120 123
166 121 130
171 123 135
162 119 125
167 121 128
167 121 126
164 120 125
165 121 126
167 122 133
168 122 130
167 121 126
165 120 133
164 120 125
166 121 128
166 121 128
164 120 130
160 118 117
164 120 120
164 120 130
170 123 133
165 120 128
165 121 133
164 120 123
161 119 128
163 120 126
162 119 125
165 120 130
164 120 125
168 122 131
165 120 123
167 122 135
165 120 128
164 120 123
167 121 128
167 121 126
166 121 131
165 120 123
168 122 130
168 122 131
163 120 123
167 122 134
164 120 128
165 120 126
167 121 131
167 121 128
167 121 128
166 120 130
163 119 123
163 119 125
165 120 126
163 119 128
164 120 122
165 121 130
162 119 123
165 121 128
165 121 130
166 121 128
163 120 125
164 120 126
164 120 125
164 120 126
163 120 123
165 121 131
167 122 131
165 120 128
165 120 128
167 121 130
166 121 130
164 120 130
163 120 126
163 120 128
164 121 135
164 121 134
186 184 207
206 227 255
206 227 255
206 227 255
206 227 255
206 227 255
206 227 255
206 227 255
206 227 255
206 227 255
206 227 255
206 227 255
206 227 255
206 227 255
206 227 255
206 227 255
206 227 255
206 227 255
207 227 255
207 227 255
207 227 255
207 227 255
207 227 255
207 227 255
207 228 255
207 228 255
207 228 255
207 228 255
207 228 255
207 228 255
207 228 255
207 228 255
207 228 255
207 228 255
207 228 255
207 228 255
207 228 255
207 228 255
207 228 255
207 228 255
207 228 255
208 228 255
208 228 255
208 228 255
208 228 255
208 228 255
208 228 255
208 228 255
208 228 255
208 228 255
208 228 255
208 228 255
208 228 255
208 228 255
208 228 255
208 228 255
208 228 255
208 228 255
208 228 255
208 228 255
208 228 255
208 228 255
208 228 255
209 228 255
209 228 255
209 229 255
209 229 255
209 229 255
209 229 255
209 229 255
209 229 255
209 229 255
209 229 255
209 229 255
209 229 255
209 229 255
209 229 255
209 229 255
209 229 255
209 229 255
209 229 255
209 229 255
209 229 255
209 229 255
209 229 255
210 229 255
210 229 255
209 229 255
209 229 255
209 229 255
209 229 255
209 229 255
209 229 255
209 229 255
209 229 255
209 229 255
209 229 255
209 229 255
209 229 255
209 229 255
209 229 255
209 229 255
209 229 255
209 229 255
209 229 255
209 229 255
209 229 255
209 229 255
209 228 255
209 228 255
208 228 255
208 228 255
208 228 255
208 228 255
208 228 255
208 228 255
208 228 255
208 228 255
208 228 255
208 228 255
208 228 255
208 228 255
208 228 255
208 228 255
208 228 255
208 228 255
208 228 255
208 228 255
208 228 255
208 228 255
208 228 255
208 228 255
207 228 255
207 228 255
207 228 255
207 228 255
207 228 255
207 228 255
207 228 255
207 228 255
207 228 255
207 228 255
207 228 255
207 228 255
207 228 255
207 228 255
207 228 255
207 228 255
207 228 255
207 228 255
207 227 255
207 227 255
207 227 255
207 227 255
207 227 255
207 227 255
207 227 255
206 227 255
206 227 255
206 227 255
206 227 255
206 227 255
206 227 255
206 227 255
206 227 255
206 227 255
203 219 246
179 159 175
165 121 131
164 120 128
165 120 128
168 122 134
160 118 123
166 121 131
164 120 125
168 122 131
166 121 131
166 121 134
167 121 128
163 120 125
164 120 128
164 120 131
167 122 137
165 121 128
166 121 131
163 119 120
164 120 128
162 118 122
167 121 123
166 121 130
165 121 128
164 120 123
165 120 125
167 121 134
164 120 128
164 120 126
163 119 123
165 120 122
166 121 130
164 120 130
165 120 125
162 118 115
164 120 125
165 120 126
162 119 123
164 120 131
161 118 120
166 121 128
166 121 123
160 118 113
170 123 134
169 122 131
167 121 130
166 120 128
163 120 126
163 120 126
167 121 131
164 120 125
165 121 131
166 121 133
164 120 131
161 118 118
165 120 122
167 121 130
166 121 134
162 119 122
161 118 123
167 121 126
164 120 122
165 120 126
166 121 134
166 121 133
164 120 125
168 122 128
170 123 133
165 121 130
165 120 125
169 122 133
167 121 131
164 120 125
165 121 131
165 121 126
163 120 128
167 122 131
163 120 130
166 121 134
161 119 122
167 121 123
168 122 133
165 121 130
167 121 131
166 121 134
167 121 128
164 120 130
166 121 128
166 121 135
165 121 131
174 149 166
205 226 254
206 227 255
206 227 255
206 227 255
206 227 255
206 227 255
206 227 255
206 227 255
206 227 255
206 227 255
207 227 255
207 227 255
207 227 255
207 227 255
207 227 255
207 227 255
207 228 255
207 228 255
207 228 255
207 228 255
207 228 255
207 228 255
207 228 255
207 228 255
207 228 255
207 228 255
207 228 255
207 228 255
207 228 255
207 228 255
207 228 255
207 228 255
207 228 255
207 228 255
207 228 255
208 228 255
208 228 255
208 228 255
208 228 255
208 228 255
208 228 255
208 228 255
208 228 255
208 228 255
208 228 255
208 228 255
208 228 255
208 228 255
208 228 255
208 228 255
208 228 255
208 228 255
208 228 255
208 228 255
208 228 255
208 228 255
208 228 255
209 228 255
209 228 255
209 229 255
209 229 255
209 229 255
209 229 255
209 229 255
209 229 255
209 229 255
209 229 255
209 229 255
209 229 255
209 229 255
209 229 255
209 229 255
209 229 255
209 229 255
209 229 255
209 229 255
209 229 255
209 229 255
209 229 255
209 229 255
210 229 255
210 229 255
210 229 255
210 229 255
210 229 255
210 229 255
210 229 255
210 229 255
210 229 255
209 229 255
209 229 255
209 229 255
209 229 255
209 229 255
209 229 255
209 229 255
209 229 255
209 229 255
209 229 255
209 229 255
209 229 255
209 229 255
209 229 255
209 229 255
209 229 255
209 229 255
209 229 255
209 229 255
209 229 255
209 229 255
209 229 255
209 228 255
208 228 255
208 228 255
208 228 255
208 228 255
208 228 255
208 228 255
208 228 255
208 228 255
208 228 255
208 228 255
208 228 255
208 228 255
208 228 255
208 228 255
208 228 255
208 228 255
208 228 255
208 228 255
208 228 255
208 228 255
208 228 255
208 228 255
208 228 255
207 228 255
207 228 255
207 228 255
207 228 255
207 228 255
207 228 255
207 228 255
207 228 255
207 228 255
207 228 255
207 228 255
207 228 255
207 228 255
207 228 255
207 228 255
207 228 255
207 228 255
207 228 255
207 228 255
207 227 255
207 227 255
207 227 255
207 227 255
207 227 255
207 227 255
207 227 255
206 227 255
206 227 255
201 214 239
169 142 153
165 121 130
164 120 122
161 118 122
166 121 130
163 119 118
165 120 126
168 122 133
166 121 133
166 121 130
163 120 126
165 120 125
167 121 131
167 121 130
164 120 125
165 121 126
163 120 125
164 120 126
161 119 125
168 122 131
166 121 131
164 120 126
166 121 126
164 120 125
166 121 133
168 122 128
168 121 126
163 120 128
167 121 128
166 121 133
164 120 122
166 120 125
162 119 126
165 121 134
163 120 125
163 120 131
167 121 128
164 120 130
162 119 125
165 120 125
165 121 133
163 119 122
166 121 126
163 119 128
167 121 128
163 120 126
165 120 130
164 120 120
162 119 120
165 121 126
166 120 125
163 119 122
162 119 115
162 119 123
165 120 126
165 120 126
164 120 123
167 121 130
166 121 126
165 120 122
167 122 135
164 120 128
169 122 133
167 122 133
164 120 125
169 123 133
164 120 128
164 120 123
166 121 126
166 121 128
165 121 130
166 121 133
168 122 131
165 120 123
165 120 126
167 121 133
165 121 126
166 121 128
165 120 126
163 119 122
165 121 137
162 119 125
165 120 128
168 121 125
168 122 134
165 121 133
164 120 133
163 120 131
167 122 133
166 121 133
162 120 128
162 120 130
172 147 159
200 214 240
206 227 255
206 227 255
207 227 255
207 227 255
207 227 255
207 227 255
207 227 255
207 227 255
207 227 255
207 228 255
207 228 255
207 228 255
207 228 255
207 228 255
207 228 255
207 228 255
207 228 255
207 228 255
207 228 255
207 228 255
207 228 255
207 228 255
207 228 255
207 228 255
207 228 255
207 228 255
207 228 255
208 228 255
208 228 255
208 228 255
208 228 255
208 228 255
208 228 255
208 228 255
208 228 255
208 228 255
208 228 255
208 228 255
208 228 255
208 228 255
208 228 255
208 228 255
208 228 255
208 228 255
208 228 255
208 228 255
208 228 255
208 228 255
208 228 255
208 228 255
208 228 255
209 228 255
209 229 255
209 229 255
209 229 255
209 229 255
209 229 255
209 229 255
209 229 255
209 229 255
209 229 255
209 229 255
209 229 255
209 229 255
209 229 255
209 229 255
209 229 255
209 229 255
209 229 255
209 229 255
209 229 255
209 229 255
209 229 255
210 229 255
210 229 255
210 229 255
210 229 255
210 229 255
210 229 255
210 229 255
210 229 255
210 229 255
210 229 255
210 229 255
210 229 255
210 229 255
210 229 255
210 229 255
210 229 255
210 229 255
210 229 255
210 229 255
209 229 255
209 229 255
209 229 255
209 229 255
209 229 255
209 229 255
209 229 255
209 229 255
209 229 255
209 229 255
209 229 255
209 229 255
209 229 255
209 229 255
209 229 255
209 229 255
209 229 255
209 229 255
209 229 255
209 229 255
209 229 255
209 229 255
209 228 255
208 228 255
208 228 255
208 228 255
208 228 255
208 228 255
208 228 255
208 228 255
208 228 255
208 228 255
208 228 255
208 228 255
208 228 255
208 228 255
208 228 255
208 228 255
208 228 255
208 228 255
208 228 255
208 228 255
208 228 255
208 228 255
208 228 255
208 228 255
208 228 255
207 228 255
207 228 255
207 228 255
207 228 255
207 228 255
207 228 255
207 228 255
207 228 255
207 228 255
207 228 255
207 228 255
207 228 255
207 228 255
207 228 255
207 228 255
207 228 255
207 228 255
207 228 255
207 228 255
207 227 255
207 227 255
195 201 223
168 127 136
163 120 134
167 120 125
161 119 130
167 121 128
169 122 133
168 122 130
168 122 135
168 122 133
164 120 125
165 120 123
166 121 131
160 118 120
168 121 126
170 123 135
168 122 133
164 120 130
165 120 118
165 120 123
167 121 123
163 120 126
164 120 123
167 121 128
168 121 130
165 120 123
166 120 123
166 121 133
165 119 120
166 121 126
166 121 128
164 120 126
160 118 115
167 122 133
168 122 131
166 121 133
166 121 125
166 121 126
166 120 123
166 121 126
166 120 126
167 121 131
163 119 120
166 121 128
164 119 123
166 121 130
169 122 133
165 120 125
167 122 134
166 121 130
164 120 128
167 121 126
164 120 122
168 122 131
165 120 123
165 121 128
167 121 130
162 119 123
166 122 134
162 119 123
164 120 125
167 122 131
167 122 133
164 119 120
166 121 130
165 120 125
165 120 128
165 120 125
165 121 126
165 120 120
165 120 130
169 122 130
166 121 126
168 122 128
165 120 123
163 120 128
164 120 122
165 121 130
163 120 128
163 119 122
164 120 126
164 120 130
167 121 128
161 118 120
165 120 126
167 121 125
164 120 126
165 120 125
164 120 128
164 120 128
169 122 131
163 120 125
167 121 126
168 122 134
170 123 134
169 128 141
193 197 220
207 227 255
207 228 255
207 228 255
207 228 255
207 228 255
207 228 255
207 228 255
207 228 255
207 228 255
207 228 255
207 228 255
207 228 255
207 228 255
207 228 255
207 228 255
207 228 255
207 228 255
207 228 255
207 228 255
207 228 255
207 228 255
208 228 255
208 228 255
208 228 255
208 228 255
208 228 255
208 228 255
208 228 255
208 228 255
208 228 255
208 228 255
208 228 255
208 228 255
208 228 255
208 228 255
208 228 255
208 228 255
208 228 255
208 228 255
208 228 255
208 228 255
208 228 255
208 228 255
208 228 255
208 228 255
209 228 255
209 228 255
209 229 255
209 229 255
209 229 255
209 229 255
209 229 255
209 229 255
209 229 255
209 229 255
209 229 255
209 229 255
209 229 255
209 229 255
209 229 255
209 229 255
209 229 255
209 229 255
209 229 255
209 229 255
209 229 255
209 229 255
209 229 255
210 229 255
210 229 255
210 229 255
210 229 255
210 229 255
210 229 255
210 229 255
210 229 255
210 229 255
210 229 255
210 229 255
210 229 255
210 229 255
210 229 255
210 229 255
210 229 255
210 229 255
210 229 255
210 229 255
210 229 255
210 229 255
210 229 255
210 229 255
210 229 255
210 229 255
210 229 255
210 229 255
209 229 255
209 229 255
209 229 255
209 229 255
209 229 255
209 229 255
209 229 255
209 229 255
209 229 255
209 229 255
209 229 255
209 229 255
209 229 255
209 229 255
209 229 255
209 229 255
209 229 255
209 229 255
209 229 255
209 229 255
209 229 255
209 229 255
209 229 255
209 228 255
208 228 255
208 228 255
208 228 255
208 228 255
208 228 255
208 228 255
208 228 255
208 228 255
208 228 255
208 228 255
208 228 255
208 228 255
208 228 255
208 228 255
208 228 255
208 228 255
208 228 255
208 228 255
208 228 255
208 228 255
208 228 255
208 228 255
208 228 255
208 228 255
207 228 255
207 228 255
207 228 255
207 228 255
207 228 255
207 228 255
207 228 255
207 228 255
207 228 255
207 228 255
207 228 255
207 228 255
207 228 255
207 228 255
207 228 255
188 185 208
164 119 125
166 121 131
166 121 134
164 120 126
167 121 126
166 121 131
164 120 131
162 119 122
168 122 131
164 121 130
163 120 133
164 120 126
166 121 126
164 120 125
167 121 128
164 120 130
167 121 125
164 120 126
163 119 122
164 120 125
167 121 125
163 119 123
165 121 126
165 120 125
162 118 118
166 121 131
161 119 120
163 119 118
165 121 128
165 120 126
167 121 131
166 121 123
167 121 125
163 119 122
166 121 130
168 122 131
163 119 122
164 119 118
164 119 120
160 118 115
163 119 122
164 120 130
163 119 123
161 118 118
167 121 131
166 121 130
167 121 126
167 121 126
165 121 128
165 120 123
163 120 123
165 120 126
167 122 130
167 122 131
164 120 131
166 121 128
166 120 126
167 122 133
165 121 131
166 121 126
162 119 123
167 121 131
166 121 126
165 120 128
167 121 131
160 118 118
165 121 128
171 123 135
164 120 125
165 120 125
168 122 134
163 120 126
164 120 125
163 119 122
166 121 133
164 120 130
164 120 130
168 122 134
164 120 123
169 122 130
166 121 131
166 121 131
166 121 135
164 120 128
162 119 122
165 120 128
169 123 135
164 120 130
164 120 125
166 122 135
163 120 126
163 120 126
164 120 126
167 122 133
168 122 131
166 121 128
168 122 133
188 186 207
207 228 255
207 228 255
207 228 255
207 228 255
207 228 255
207 228 255
207 228 255
207 228 255
207 228 255
207 228 255
207 228 255
207 228 255
207 228 255
207 228 255
207 228 255
208 228 255
208 228 255
208 228 255
208 228 255
208 228 255
208 228 255
208 228 255
208 228 255
208 228 255
208 228 255
208 228 255
208 228 255
208 228 255
208 228 255
208 228 255
208 228 255
208 228 255
208 228 255
208 228 255
208 228 255
208 228 255
208 228 255
208 228 255
208 228 255
209 228 255
209 228 255
209 229 255
209 229 255
209 229 255
209 229 255
209 229 255
209 229 255
209 229 255
209 229 255
209 229 255
209 229 255
209 229 255
209 229 255
209 229 255
209 229 255
209 229 255
209 229 255
209 229 255
209 229 255
209 229 255
209 229 255
209 229 255
210 229 255
210 229 255
210 229 255
210 229 255
210 229 255
210 229 255
210 229 255
210 229 255
210 229 255
210 229 255
210 229 255
210 229 255
210 229 255
210 229 255
210 229 255
210 229 255
210 229 255
210 229 255
210 229 255
210 229 255
210 229 255
210 229 255
210 229 255
210 229 255
210 229 255
210 229 255
210 229 255
210 229 255
210 229 255
210 229 255
210 229 255
210 229 255
210 229 255
210 229 255
210 229 255
210 229 255
210 229 255
209 229 255
209 229 255
209 229 255
209 229 255
209 229 255
209 229 255
209 229 255
209 229 255
209 229 255
209 229 255
209 229 255
209 229 255
209 229 255
209 229 255
209 229 255
209 229 255
209 229 255
209 229 255
209 229 255
209 229 255
209 229 255
209 229 255
209 228 255
209 228 255
208 228 255
208 228 255
208 228 255
208 228 255
208 228 255
208 228 255
208 228 255
208 228 255
208 228 255
208 228 255
208 228 255
208 228 255
208 228 255
208 228 255
208 228 255
208 228 255
208 228 255
208 228 255
208 228 255
208 228 255
208 228 255
208 228 255
208 228 255
208 228 255
208 228 255
207 228 255
207 228 255
207 228 255
207 228 255
207 228 255
207 228 255
207 228 255
207 228 255
183 174 194
164 120 130
167 122 133
164 120 123
165 120 126
164 120 123
165 121 128
164 120 126
162 118 120
164 120 123
164 120 126
168 122 131
166 121 125
165 120 123
166 121 128
164 120 128
164 120 130
164 120 118
165 120 120
167 121 134
164 120 125
166 121 130
165 121 135
165 120 126
165 120 125
167 121 128
165 121 128
168 122 131
169 123 137
166 121 130
166 121 126
168 122 134
165 120 126
164 120 125
163 119 120
167 121 130
165 120 126
166 120 118
162 119 120
163 120 126
169 122 131
165 120 126
164 120 125
166 121 128
166 121 125
163 120 128
164 120 122
167 121 128
167 121 120
167 121 130
166 120 126
165 120 126
164 120 125
163 119 130
168 121 125
167 122 133
169 122 131
169 122 134
167 120 126
164 120 122
165 120 126
169 123 134
166 121 133
164 119 117
165 120 123
165 121 126
166 121 130
168 121 125
165 120 125
164 119 125
165 120 123
166 121 128
167 122 134
163 119 125
166 121 126
166 120 122
169 122 133
166 121 126
163 120 130
163 119 123
165 121 128
168 122 130
165 120 123
164 120 125
166 121 130
166 121 128
165 121 128
162 119 123
165 120 126
161 118 117
167 122 131
166 121 126
168 122 130
167 122 134
164 120 126
164 121 133
165 121 128
163 120 128
166 121 131
165 120 123
185 176 194
207 228 255
207 228 255
207 228 255
207 228 255
207 228 255
207 228 255
207 228 255
207 228 255
208 228 255
208 228 255
208 228 255
208 228 255
208 228 255
208 228 255
208 228 255
208 228 255
208 228 255
208 228 255
208 228 255
208 228 255
208 228 255
208 228 255
208 228 255
208 228 255
208 228 255
208 228 255
208 228 255
208 228 255
208 228 255
208 228 255
208 228 255
208 228 255
208 228 255
209 228 255
209 228 255
209 229 255
209 229 255
209 229 255
209 229 255
209 229 255
209 229 255
209 229 255
209 229 255
209 229 255
209 229 255
209 229 255
209 229 255
209 229 255
209 229 255
209 229 255
209 229 255
209 229 255
209 229 255
209 229 255
209 229 255
209 229 255
209 229 255
210 229 255
210 229 255
210 229 255
210 229 255
210 229 255
210 229 255
210 229 255
210 229 255
210 229 255
210 229 255
210 229 255
210 229 255
210 229 255
210 229 255
210 229 255
210 229 255
210 229 255
210 229 255
210 229 255
210 229 255
210 229 255
211 230 255
210 230 255
210 230 255
210 229 255
210 229 255
210 229 255
210 229 255
210 229 255
210 229 255
210 229 255
210 229 255
210 229 255
210 229 255
210 229 255
210 229 255
210 229 255
210 229 255
210 229 255
210 229 255
210 229 255
210 229 255
210 229 255
210 229 255
210 229 255
210 229 255
209 229 255
209 229 255
209 229 255
209 229 255
209 229 255
209 229 255
209 229 255
209 229 255
209 229 255
209 229 255
209 229 255
209 229 255
209 229 255
209 229 255
209 229 255
209 229 255
209 229 255
209 229 255
209 229 255
209 229 255
209 229 255
209 229 255
209 228 255
209 228 255
208 228 255
208 228 255
208 228 255
208 228 255
208 228 255
208 228 255
208 228 255
208 228 255
208 228 255
208 228 255
208 228 255
208 228 255
208 228 255
208 228 255
208 228 255
208 228 255
208 228 255
208 228 255
208 228 255
208 228 255
208 228 255
208 228 255
208 228 255
208 228 255
208 228 255
208 228 255
207 226 254
185 169 188
167 122 131
165 120 126
167 122 134
166 121 126
168 122 131
165 121 130
166 121 131
165 120 123
165 121 126
164 120 126
167 121 126
168 122 130
167 121 130
163 119 115
161 118 118
167 121 126
166 120 123
167 121 126
164 120 126
165 121 128
163 120 123
165 121 130
165 120 126
164 120 126
161 119 122
162 119 120
168 122 133
166 121 131
167 121 125
165 121 126
165 120 128
164 120 123
164 120 125
168 122 128
164 120 123
168 121 128
164 120 126
162 118 112
165 120 120
163 119 122
165 120 128
167 121 130
165 121 131
166 121 125
167 121 126
163 119 122
165 121 126
163 119 118
163 119 118
165 121 130
161 118 120
164 120 125
161 119 130
164 119 125
165 121 128
167 121 126
165 120 122
161 118 117
167 121 130
164 120 123
166 121 126
161 118 113
164 120 126
166 121 125
166 121 131
165 120 125
167 122 130
164 120 126
163 120 123
165 120 125
166 120 123
165 121 131
166 121 130
163 120 126
165 120 123
166 120 120
165 120 126
163 119 123
165 120 126
166 120 126
163 120 123
165 120 125
163 120 126
167 121 130
166 121 126
167 121 126
167 120 125
165 120 126
168 121 128
163 119 118
166 121 125
168 121 126
162 119 126
163 119 122
166 121 133
164 120 125
164 121 133
164 121 133
163 120 125
165 121 130
164 121 130
181 163 181
207 228 255
208 228 255
208 228 255
208 228 255
208 228 255
208 228 255
208 228 255
208 228 255
208 228 255
208 228 255
208 228 255
208 228 255
208 228 255
208 228 255
208 228 255
208 228 255
208 228 255
208 228 255
208 228 255
208 228 255
208 228 255
208 228 255
208 228 255
208 228 255
208 228 255
208 228 255
208 228 255
209 228 255
209 228 255
209 229 255
209 229 255
209 229 255
209 229 255
209 229 255
209 229 255
209 229 255
209 229 255
209 229 255
209 229 255
209 229 255
209 229 255
209 229 255
209 229 255
209 229 255
209 229 255
209 229 255
209 229 255
209 229 255
209 229 255
209 229 255
209 229 255
210 229 255
210 229 255
210 229 255
210 229 255
210 229 255
210 229 255
210 229 255
210 229 255
210 229 255
210 229 255
210 229 255
210 229 255
210 229 255
210 229 255
210 229 255
210 229 255
210 229 255
210 229 255
210 229 255
210 229 255
210 229 255
210 229 255
210 230 255
210 230 255
211 230 255
211 230 255
211 230 255
211 230 255
211 230 255
211 230 255
211 230 255
210 230 255
210 230 255
210 230 255
210 229 255
210 229 255
210 229 255
210 229 255
210 229 255
210 229 255
210 229 255
210 229 255
210 229 255
210 229 255
210 229 255
210 229 255
210 229 255
210 229 255
210 229 255
210 229 255
210 229 255
210 229 255
210 229 255
210 229 255
210 229 255
210 229 255
209 229 255
209 229 255
209 229 255
209 229 255
209 229 255
209 229 255
209 229 255
209 229 255
209 229 255
209 229 255
209 229 255
209 229 255
209 229 255
209 229 255
209 229 255
209 229 255
209 229 255
209 229 255
209 229 255
209 229 255
209 229 255
209 229 255
209 229 255
209 228 255
209 228 255
208 228 255
208 228 255
208 228 255
208 228 255
208 228 255
208 228 255
208 228 255
208 228 255
208 228 255
208 228 255
208 228 255
208 228 255
208 228 255
208 228 255
208 228 255
208 228 255
208 228 255
208 228 255
208 228 255
208 228 255
183 173 190
164 120 125
164 120 125
166 121 130
167 121 128
165 120 126
165 120 123
162 119 122
164 119 123
163 120 126
170 123 133
162 119 123
166 121 130
164 119 128
167 121 125
163 119 122
168 122 133
167 122 134
167 122 131
164 120 126
163 119 122
166 121 131
166 120 122
162 118 120
165 120 125
167 121 130
164 120 128
165 120 123
164 120 122
163 119 120
162 119 117
163 119 118
164 120 122
164 119 117
167 122 134
165 120 126
163 119 120
165 120 122
161 119 122
164 119 120
165 120 122
165 120 118
165 120 126
165 120 128
162 119 117
164 120 123
163 120 130
166 121 130
166 121 130
167 121 125
163 119 118
164 120 128
164 119 120
164 120 125
166 121 126
161 118 117
160 118 117
162 119 122
166 120 120
163 119 125
165 120 122
163 120 126
167 121 130
167 121 126
167 121 128
163 120 128
164 119 118
162 119 125
166 121 130
164 120 128
166 121 126
166 121 126
169 122 131
167 121 126
167 121 126
165 120 125
164 120 126
164 120 125
168 122 131
164 120 125
166 121 128
161 118 122
165 120 128
166 121 126
169 122 130
167 120 125
168 122 128
164 120 130
168 122 134
168 121 123
166 120 122
165 120 120
162 119 120
162 119 123
164 120 123
164 119 118
167 121 130
167 121 126
165 121 126
168 122 128
164 120 130
163 119 122
166 121 131
166 120 130
187 181 202
208 228 255
208 228 255
208 228 255
208 228 255
208 228 255
208 228 255
208 228 255
208 228 255
208 228 255
208 228 255
208 228 255
208 228 255
208 228 255
208 228 255
208 228 255
208 228 255
208 228 255
208 228 255
208 228 255
208 228 255
209 228 255
209 228 255
209 229 255
209 229 255
209 229 255
209 229 255
209 229 255
209 229 255
209 229 255
209 229 255
209 229 255
209 229 255
209 229 255
209 229 255
209 229 255
209 229 255
209 229 255
209 229 255
209 229 255
209 229 255
209 229 255
209 229 255
209 229 255
209 229 255
209 229 255
210 229 255
210 229 255
210 229 255
210 229 255
210 229 255
210 229 255
210 229 255
210 229 255
210 229 255
210 229 255
210 229 255
210 229 255
210 229 255
210 229 255
210 229 255
210 229 255
210 229 255
210 229 255
210 229 255
210 229 255
210 229 255
210 229 255
210 230 255
210 230 255
210 230 255
211 230 255
211 230 255
211 230 255
211 230 255
211 230 255
211 230 255
211 230 255
211 230 255
211 230 255
211 230 255
211 230 255
211 230 255
211 230 255
211 230 255
211 230 255
211 230 255
210 230 255
210 230 255
210 230 255
210 229 255
210 229 255
210 229 255
210 229 255
210 229 255
210 229 255
210 229 255
210 229 255
210 229 255
210 229 255
210 229 255
210 229 255
210 229 255
210 229 255
210 229 255
210 229 255
210 229 255
210 229 255
210 229 255
210 229 255
210 229 255
210 229 255
209 229 255
209 229 255
209 229 255
209 229 255
209 229 255
209 229 255
209 229 255
209 229 255
209 229 255
209 229 255
209 229 255
209 229 255
209 229 255
209 229 255
209 229 255
209 229 255
209 229 255
209 229 255
209 229 255
209 229 255
209 229 255
209 229 255
209 229 255
209 229 255
209 228 255
209 228 255
208 228 255
208 228 255
208 228 255
208 228 255
208 228 255
208 228 255
208 228 255
208 228 255
208 228 255
208 228 255
208 228 255
208 228 255
208 228 255
183 173 188
161 118 117
164 120 126
166 121 128
164 120 123
164 119 123
168 122 130
167 121 131
163 120 126
164 120 120
162 119 120
167 121 125
165 120 126
164 120 126
166 121 126
165 120 125
164 120 130
168 122 126
162 118 115
169 122 128
163 119 123
164 119 125
168 121 126
165 120 123
164 120 123
164 120 126
164 120 123
162 118 117
162 118 120
167 121 126
160 118 117
168 122 130
168 122 126
168 122 130
163 120 126
162 119 118
165 120 126
167 121 131
163 119 122
166 120 125
167 121 125
166 121 130
165 120 125
165 120 122
167 120 126
166 121 131
163 118 120
165 120 122
160 117 112
164 120 123
167 122 133
168 122 130
164 120 126
167 122 133
165 120 122
171 123 135
164 120 122
163 119 123
164 120 122
166 121 130
166 121 128
164 120 125
165 120 122
162 119 123
166 120 122
167 121 131
162 119 117
157 116 106
164 119 118
164 119 117
169 122 128
165 120 126
164 119 123
165 120 122
165 120 123
164 120 125
168 121 125
166 121 128
163 120 123
165 120 128
164 120 122
165 121 126
165 119 122
163 119 115
161 118 113
169 122 133
163 119 123
164 120 125
163 118 113
161 118 118
166 121 128
166 121 125
164 119 120
165 121 133
163 119 123
166 120 125
164 120 128
163 120 125
163 120 125
163 119 117
164 120 130
164 121 131
164 120 122
163 119 125
164 120 120
166 120 125
186 178 194
208 228 255
208 228 255
208 228 255
208 228 255
208 228 255
208 228 255
208 228 255
208 228 255
208 228 255
208 228 255
208 228 255
208 228 255
208 228 255
209 228 255
209 228 255
209 229 255
209 229 255
209 229 255
209 229 255
209 229 255
209 229 255
209 229 255
209 229 255
209 229 255
209 229 255
209 229 255
209 229 255
209 229 255
209 229 255
209 229 255
209 229 255
209 229 255
209 229 255
209 229 255
209 229 255
209 229 255
209 229 255
209 229 255
209 229 255
210 229 255
210 229 255
210 229 255
210 229 255
210 229 255
210 229 255
210 229 255
210 229 255
210 229 255
210 229 255
210 229 255
210 229 255
210 229 255
210 229 255
210 229 255
210 229 255
210 229 255
210 229 255
210 229 255
210 229 255
210 229 255
210 229 255
210 230 255
210 230 255
210 230 255
211 230 255
211 230 255
211 230 255
211 230 255
211 230 255
211 230 255
211 230 255
211 230 255
211 230 255
211 230 255
211 230 255
211 230 255
211 230 255
211 230 255
211 230 255
211 230 255
211 230 255
211 230 255
211 230 255
211 230 255
211 230 255
211 230 255
211 230 255
211 230 255
211 230 255
211 230 255
210 230 255
210 230 255
210 230 255
210 229 255
210 229 255
210 229 255
210 229 255
210 229 255
210 229 255
210 229 255
210 229 255
210 229 255
210 229 255
210 229 255
210 229 255
210 229 255
210 229 255
210 229 255
210 229 255
210 229 255
210 229 255
210 229 255
210 229 255
210 229 255
210 229 255
210 229 255
209 229 255
209 229 255
209 229 255
209 229 255
209 229 255
209 229 255
209 229 255
209 229 255
209 229 255
209 229 255
209 229 255
209 229 255
209 229 255
209 229 255
209 229 255
209 229 255
209 229 255
209 229 255
209 229 255
209 229 255
209 229 255
209 229 255
209 229 255
209 229 255
209 228 255
209 228 255
208 228 255
208 228 255
208 228 255
208 228 255
208 228 255
208 228 255
190 187 206
165 120 126
166 121 125
168 122 130
167 121 126
164 120 120
163 119 123
165 121 130
166 121 126
165 121 126
165 120 128
164 120 126
166 121 125
166 121 131
169 123 135
164 120 125
167 120 126
164 119 118
164 120 122
163 119 118
168 122 133
163 119 122
167 121 128
161 119 125
166 120 128
163 119 120
162 119 128
163 119 117
164 120 123
164 120 120
165 120 120
164 120 120
164 120 123
164 118 118
165 120 122
164 119 120
163 119 120
165 120 122
164 119 115
163 120 125
164 119 118
164 120 126
164 119 120
162 119 118
165 120 123
164 120 125
167 121 125
167 121 122
164 120 126
166 120 122
163 119 117
168 122 131
164 119 118
164 119 122
165 121 128
164 120 122
164 120 123
166 120 120
162 119 118
164 120 128
163 119 118
167 122 131
162 119 122
165 121 126
165 120 125
163 119 122
166 120 125
168 122 128
162 119 126
166 121 125
164 119 115
170 122 131
164 120 126
168 121 128
164 120 123
165 120 126
167 121 126
164 120 120
164 119 120
164 121 131
163 120 131
164 120 125
163 120 126
164 120 122
164 120 123
166 120 118
165 120 120
162 118 117
166 121 125
165 120 123
167 122 133
164 119 117
162 119 120
165 120 122
167 121 128
163 119 120
162 118 123
167 121 125
166 121 126
165 120 125
166 121 128
164 119 118
166 121 125
163 119 122
161 119 122
166 121 126
163 119 120
164 120 126
189 183 201
208 228 255
208 228 255
208 228 255
208 228 255
208 228 255
208 228 255
209 228 255
209 228 255
209 229 255
209 229 255
209 229 255
209 229 255
209 229 255
209 229 255
209 229 255
209 229 255
209 229 255
209 229 255
209 229 255
209 229 255
209 229 255
209 229 255
209 229 255
209 229 255
209 229 255
209 229 255
209 229 255
209 229 255
209 229 255
209 229 255
209 229 255
209 229 255
210 229 255
210 229 255
210 229 255
210 229 255
210 229 255
210 229 255
210 229 255
210 229 255
210 229 255
210 229 255
210 229 255
210 229 255
210 229 255
210 229 255
210 229 255
210 229 255
210 229 255
210 229 255
210 229 255
210 229 255
210 229 255
210 229 255
210 229 255
210 230 255
210 230 255
211 230 255
211 230 255
211 230 255
211 230 255
211 230 255
211 230 255
211 230 255
211 230 255
211 230 255
211 230 255
211 230 255
211 230 255
211 230 255
211 230 255
211 230 255
211 230 255
211 230 255
211 230 255
211 230 255
211 230 255
211 230 255
211 230 255
211 230 255
211 230 255
211 230 255
211 230 255
211 230 255
211 230 255
211 230 255
211 230 255
211 230 255
211 230 255
211 230 255
211 230 255
211 230 255
211 230 255
211 230 255
211 230 255
210 230 255
210 230 255
210 230 255
210 229 255
210 229 255
210 229 255
210 229 255
210 229 255
210 229 255
210 229 255
210 229 255
210 229 255
210 229 255
210 229 255
210 229 255
210 229 255
210 229 255
210 229 255
210 229 255
210 229 255
210 229 255
210 229 255
210 229 255
210 229 255
210 229 255
210 229 255
209 229 255
209 229 255
209 229 255
209 229 255
209 229 255
209 229 255
209 229 255
209 229 255
209 229 255
209 229 255
209 229 255
209 229 255
209 229 255
209 229 255
209 229 255
209 229 255
209 229 255
209 229 255
209 229 255
209 229 255
209 229 255
209 229 255
209 229 255
209 229 255
209 229 255
185 178 197
163 120 126
162 119 122
166 121 126
169 122 133
167 121 131
163 119 120
164 120 122
165 121 131
163 119 123
163 119 118
166 121 133
165 120 123
164 120 123
166 121 130
162 118 118
165 120 123
164 120 126
167 121 131
167 122 131
162 119 122
164 120 122
162 119 115
164 120 120
164 119 118
166 121 123
162 119 120
164 120 126
164 119 120
164 120 125
166 121 128
167 121 123
163 119 118
165 120 123
166 121 125
161 118 113
164 120 126
162 119 117
164 119 118
164 120 123
162 119 123
164 120 125
161 118 118
163 119 118
167 122 130
160 118 118
163 120 125
165 119 122
164 120 125
167 121 125
162 118 115
164 119 117
164 120 122
168 122 130
166 120 123
163 119 122
161 118 113
163 119 122
165 120 123
165 120 123
167 121 130
168 122 131
168 122 130
168 122 131
166 121 128
162 119 123
163 119 122
164 120 128
164 119 120
167 121 126
167 121 126
163 119 120
164 120 128
166 121 130
164 119 120
168 122 133
165 121 130
160 119 123
166 121 126
165 120 122
165 120 123
161 118 117
164 118 120
164 120 123
165 120 123
165 120 125
163 119 120
164 119 125
165 120 122
168 122 131
163 119 122
166 120 126
161 118 112
163 120 130
166 121 126
162 119 122
167 121 130
166 121 123
164 120 125
163 120 131
166 120 128
164 120 123
163 119 120
167 121 130
162 119 123
167 121 128
164 120 122
166 121 130
167 122 131
165 121 131
191 190 211
209 228 255
209 229 255
209 229 255
209 229 255
209 229 255
209 229 255
209 229 255
209 229 255
209 229 255
209 229 255
209 229 255
209 229 255
209 229 255
209 229 255
209 229 255
209 229 255
209 229 255
209 229 255
209 229 255
209 229 255
209 229 255
209 229 255
209 229 255
209 229 255
209 229 255
210 229 255
210 229 255
210 229 255
210 229 255
210 229 255
210 229 255
210 229 255
210 229 255
210 229 255
210 229 255
210 229 255
210 229 255
210 229 255
210 229 255
210 229 255
210 229 255
210 229 255
210 229 255
210 229 255
210 229 255
210 229 255
210 229 255
210 229 255
210 229 255
210 230 255
210 230 255
211 230 255
211 230 255
211 230 255
211 230 255
211 230 255
211 230 255
211 230 255
211 230 255
211 230 255
211 230 255
211 230 255
211 230 255
211 230 255
211 230 255
211 230 255
211 230 255
211 230 255
211 230 255
211 230 255
211 230 255
211 230 255
211 230 255
211 230 255
211 230 255
211 230 255
211 230 255
211 230 255
211 230 255
211 230 255
211 230 255
211 230 255
211 230 255
211 230 255
211 230 255
211 230 255
211 230 255
211 230 255
211 230 255
211 230 255
211 230 255
211 230 255
211 230 255
211 230 255
211 230 255
211 230 255
211 230 255
211 230 255
211 230 255
210 230 255
210 230 255
210 229 255
210 229 255
210 229 255
210 229 255
210 229 255
210 229 255
210 229 255
210 229 255
210 229 255
210 229 255
210 229 255
210 229 255
210 229 255
210 229 255
210 229 255
210 229 255
210 229 255
210 229 255
210 229 255
210 229 255
210 229 255
210 229 255
210 229 255
210 229 255
209 229 255
209 229 255
209 229 255
209 229 255
209 229 255
209 229 255
209 229 255
209 229 255
209 229 255
209 229 255
209 229 255
209 229 255
209 229 255
209 229 255
209 229 255
209 229 255
209 229 255
209 229 255
209 229 255
198 204 228
165 122 125
162 120 128
164 120 126
163 118 117
165 120 126
165 119 122
162 119 122
166 121 126
171 123 128
160 118 115
167 121 126
166 120 130
165 121 128
163 119 122
165 119 118
163 119 118
167 121 125
164 119 120
168 122 130
163 119 125
162 119 118
164 120 125
163 119 118
163 119 122
164 119 117
164 120 126
169 122 131
159 117 115
165 120 126
161 117 115
165 119 122
163 119 112
164 120 120
164 120 120
169 122 130
164 119 122
169 122 131
163 119 117
163 120 123
164 119 118
162 119 123
169 122 130
164 119 118
165 121 126
167 121 125
164 120 125
165 120 123
164 119 120
164 119 123
163 120 125
162 118 118
163 119 120
165 120 120
167 121 128
161 118 115
166 121 128
166 121 133
165 121 128
160 117 112
165 120 125
163 118 118
165 121 126
165 120 118
164 120 123
169 122 128
164 120 122
165 120 126
166 121 122
167 121 123
165 119 123
168 122 131
163 118 115
164 120 125
161 119 120
167 121 130
166 121 125
162 119 120
166 121 126
167 122 133
167 121 125
168 122 128
163 119 118
161 118 118
165 121 130
164 120 125
165 120 125
163 119 120
163 120 125
162 119 118
165 120 123
166 121 133
167 121 128
163 120 123
160 118 110
165 121 133
167 121 126
165 121 128
165 120 122
168 122 125
165 120 128
164 120 126
166 121 125
164 120 126
164 119 118
162 119 117
163 119 122
165 120 123
167 122 131
164 120 122
162 119 123
165 120 128
195 197 218
209 229 255
209 229 255
209 229 255
209 229 255
209 229 255
209 229 255
209 229 255
209 229 255
209 229 255
209 229 255
209 229 255
209 229 255
209 229 255
209 229 255
209 229 255
209 229 255
209 229 255
209 229 255
209 229 255
210 229 255
210 229 255
210 229 255
210 229 255
210 229 255
210 229 255
210 229 255
210 229 255
210 229 255
210 229 255
210 229 255
210 229 255
210 229 255
210 229 255
210 229 255
210 229 255
210 229 255
210 229 255
210 229 255
210 229 255
210 229 255
210 229 255
210 229 255
210 230 255
210 230 255
210 230 255
211 230 255
211 230 255
211 230 255
211 230 255
211 230 255
211 230 255
211 230 255
211 230 255
211 230 255
211 230 255
211 230 255
211 230 255
211 230 255
211 230 255
211 230 255
211 230 255
211 230 255
211 230 255
211 230 255
211 230 255
211 230 255
211 230 255
211 230 255
211 230 255
211 230 255
211 230 255
211 230 255
212 230 255
212 230 255
212 230 255
212 230 255
212 230 255
211 230 255
211 230 255
211 230 255
211 230 255
211 230 255
211 230 255
211 230 255
211 230 255
211 230 255
211 230 255
211 230 255
211 230 255
211 230 255
211 230 255
211 230 255
211 230 255
211 230 255
211 230 255
211 230 255
211 230 255
211 230 255
211 230 255
211 230 255
211 230 255
211 230 255
211 230 255
211 230 255
210 230 255
210 230 255
210 229 255
210 229 255
210 229 255
210 229 255
210 229 255
210 229 255
210 229 255
210 229 255
210 229 255
210 229 255
210 229 255
210 229 255
210 229 255
210 229 255
210 229 255
210 229 255
210 229 255
210 229 255
210 229 255
210 229 255
210 229 255
210 229 255
210 229 255
210 229 255
209 229 255
209 229 255
209 229 255
209 229 255
209 229 255
209 229 255
209 229 255
209 229 255
209 229 255
209 229 255
209 229 255
209 229 255
202 210 234
167 127 136
164 120 126
167 121 128
170 123 134
163 118 122
165 121 130
165 121 128
162 119 115
161 118 117
164 119 120
167 121 126
164 119 122
167 121 130
164 120 125
166 121 130
159 118 118
165 120 122
164 119 120
162 118 122
165 121 130
163 120 125
157 117 115
162 119 118
165 121 131
164 119 120
166 121 126
165 120 122
164 119 118
165 120 122
164 119 113
165 121 126
164 120 123
163 120 126
164 120 123
162 119 118
166 121 126
164 119 120
164 120 126
166 120 122
168 122 128
165 120 125
166 120 122
165 120 126
164 120 120
165 119 118
164 120 123
165 120 122
162 118 117
163 119 122
166 121 128
167 122 134
165 120 126
163 119 118
164 119 123
164 120 123
168 122 128
167 121 125
166 121 126
163 120 128
163 119 120
166 120 118
165 121 126
163 119 117
164 120 120
164 119 115
164 120 130
166 120 122
164 119 118
167 121 130
164 119 122
161 117 113
166 120 123
165 120 122
166 121 126
169 122 130
163 119 122
166 120 117
161 119 120
165 120 125
163 119 122
160 118 120
162 119 123
165 121 131
168 121 126
164 120 128
164 119 123
166 120 120
163 119 120
164 120 126
167 121 126
162 119 117
167 121 125
162 118 118
166 120 122
165 120 123
165 120 125
165 120 125
162 119 118
164 119 118
167 122 131
167 121 126
165 120 120
164 120 125
165 121 128
165 121 130
166 121 130
167 121 123
166 121 130
163 119 122
169 122 126
167 122 131
168 122 130
170 133 147
203 217 243
209 229 255
209 229 255
209 229 255
209 229 255
209 229 255
209 229 255
209 229 255
209 229 255
209 229 255
209 229 255
209 229 255
210 229 255
210 229 255
210 229 255
210 229 255
210 229 255
210 229 255
210 229 255
210 229 255
210 229 255
210 229 255
210 229 255
210 229 255
210 229 255
210 229 255
210 229 255
210 229 255
210 229 255
210 229 255
210 229 255
210 229 255
210 229 255
210 229 255
210 229 255
210 229 255
210 229 255
210 230 255
210 230 255
211 230 255
211 230 255
211 230 255
211 230 255
211 230 255
211 230 255
211 230 255
211 230 255
211 230 255
211 230 255
211 230 255
211 230 255
211 230 255
211 230 255
211 230 255
211 230 255
211 230 255
211 230 255
211 230 255
211 230 255
211 230 255
211 230 255
211 230 255
211 230 255
211 230 255
211 230 255
211 230 255
212 230 255
212 230 255
212 230 255
212 230 255
212 230 255
212 230 255
212 230 255
212 230 255
212 230 255
212 230 255
212 230 255
212 230 255
212 230 255
212 230 255
212 230 255
212 230 255
212 230 255
211 230 255
211 230 255
211 230 255
211 230 255
211 230 255
211 230 255
211 230 255
211 230 255
211 230 255
211 230 255
211 230 255
211 230 255
211 230 255
211 230 255
211 230 255
211 230 255
211 230 255
211 230 255
211 230 255
211 230 255
211 230 255
211 230 255
211 230 255
211 230 255
211 230 255
211 230 255
210 230 255
210 230 255
210 230 255
210 229 255
210 229 255
210 229 255
210 229 255
210 229 255
210 229 255
210 229 255
210 229 255
210 229 255
210 229 255
210 229 255
210 229 255
210 229 255
210 229 255
210 229 255
210 229 255
210 229 255
210 229 255
210 229 255
210 229 255
210 229 255
210 229 255
210 229 255
210 229 255
209 229 255
209 229 255
209 229 255
209 229 255
209 229 255
205 217 243
172 143 153
162 119 122
166 121 125
169 122 128
163 119 120
168 122 134
164 120 125
164 119 125
164 120 126
163 119 120
166 120 123
168 122 134
166 121 126
167 121 125
163 120 125
163 119 122
163 119 120
162 119 118
167 121 128
167 121 125
167 121 122
164 120 125
162 119 117
164 120 123
161 119 118
164 120 126
165 120 125
160 117 120
164 120 125
163 118 122
161 118 113
164 119 118
168 122 131
165 120 125
162 119 117
164 119 117
166 121 128
165 120 126
162 119 125
158 115 106
163 119 118
165 120 120
165 120 126
160 117 110
165 119 123
165 120 126
162 118 122
163 119 117
166 120 125
166 120 120
161 119 122
168 121 125
163 119 120
162 118 115
162 118 118
165 120 125
161 118 108
164 120 122
164 120 123
167 120 125
160 118 117
163 119 118
165 119 122
163 120 126
163 119 122
163 119 118
169 122 128
164 120 120
162 119 122
165 120 123
165 119 122
167 121 125
160 117 112
165 120 125
165 120 123
165 120 118
166 121 123
166 120 122
162 119 118
163 119 113
159 116 113
164 120 126
164 120 120
167 121 130
166 120 123
166 121 128
167 121 126
167 121 126
164 120 120
173 124 134
166 121 126
167 121 128
162 118 117
161 119 123
164 120 123
165 120 125
169 122 126
164 120 118
167 121 125
164 120 125
161 118 118
167 121 123
167 121 125
163 118 117
164 120 126
165 120 123
165 121 128
165 120 125
164 120 126
163 119 118
163 119 123
167 121 126
163 120 130
166 121 126
173 141 151
202 214 238
209 229 255
209 229 255
209 229 255
210 229 255
210 229 255
210 229 255
210 229 255
210 229 255
210 229 255
210 229 255
210 229 255
210 229 255
210 229 255
210 229 255
210 229 255
210 229 255
210 229 255
210 229 255
210 229 255
210 229 255
210 229 255
210 229 255
210 229 255
210 229 255
210 229 255
210 229 255
210 229 255
210 229 255
210 229 255
210 230 255
210 230 255
211 230 255
211 230 255
211 230 255
211 230 255
211 230 255
211 230 255
211 230 255
211 230 255
211 230 255
211 230 255
211 230 255
211 230 255
211 230 255
211 230 255
211 230 255
211 230 255
211 230 255
211 230 255
211 230 255
211 230 255
211 230 255
211 230 255
211 230 255
211 230 255
211 230 255
211 230 255
211 230 255
211 230 255
212 230 255
212 230 255
212 230 255
212 230 255
212 230 255
212 230 255
212 230 255
212 230 255
212 230 255
212 230 255
212 230 255
212 230 255
212 230 255
212 230 255
212 230 255
212 230 255
212 230 255
212 230 255
212 230 255
212 230 255
212 230 255
212 230 255
212 230 255
212 230 255
212 230 255
212 230 255
212 230 255
211 230 255
211 230 255
211 230 255
211 230 255
211 230 255
211 230 255
211 230 255
211 230 255
211 230 255
211 230 255
211 230 255
211 230 255
211 230 255
211 230 255
211 230 255
211 230 255
211 230 255
211 230 255
211 230 255
211 230 255
211 230 255
211 230 255
211 230 255
211 230 255
211 230 255
211 230 255
211 230 255
210 230 255
210 230 255
210 230 255
210 229 255
210 229 255
210 229 255
210 229 255
210 229 255
210 229 255
210 229 255
210 229 255
210 229 255
210 229 255
210 229 255
210 229 255
210 229 255
210 229 255
210 229 255
210 229 255
210 229 255
210 229 255
210 229 255
210 229 255
210 229 255
210 229 255
210 229 255
180 155 169
161 119 123
164 120 122
161 118 110
163 120 126
167 121 128
165 121 131
165 120 123
166 121 128
166 121 123
167 121 126
167 121 125
166 120 122
167 121 126
160 117 110
165 119 123
166 121 123
166 120 122
164 119 120
167 121 126
164 120 128
165 120 123
168 121 125
165 121 126
164 120 122
167 121 125
165 120 125
163 120 123
161 119 118
162 119 122
162 119 117
161 118 115
163 119 118
166 121 126
163 119 117
165 120 128
163 119 118
164 119 120
163 120 125
164 120 125
166 120 120
167 121 123
165 120 122
166 120 122
164 119 117
161 118 117
164 119 123
163 119 117
165 120 122
167 122 133
159 118 115
167 121 130
164 120 126
165 120 123
161 118 118
162 119 115
164 120 122
161 118 120
163 119 113
163 118 113
166 120 123
161 118 115
165 120 120
164 119 117
166 121 125
162 119 117
162 118 117
165 120 123
167 120 123
161 117 120
165 120 120
164 120 123
162 119 115
166 119 122
163 119 117
164 118 122
163 119 120
170 123 133
164 120 123
165 120 122
163 119 115
168 122 134
166 121 130
166 121 123
166 120 120
164 120 126
165 120 123
165 120 118
159 117 113
166 120 126
160 117 115
166 121 128
164 119 108
166 120 122
167 121 130
161 118 118
166 121 128
161 118 115
168 122 130
165 121 126
163 118 117
165 120 123
161 118 118
164 120 122
161 119 120
164 119 117
167 121 123
164 120 125
166 121 126
161 119 118
165 120 126
162 120 128
160 118 117
163 119 130
165 120 128
165 120 123
177 152 165
210 229 255
210 229 255
210 229 255
210 229 255
210 229 255
210 229 255
210 229 255
210 229 255
210 229 255
210 229 255
210 229 255
210 229 255
210 229 255
210 229 255
210 229 255
210 229 255
210 229 255
210 229 255
210 229 255
210 229 255
210 229 255
210 229 255
210 230 255
210 230 255
210 230 255
210 230 255
211 230 255
211 230 255
211 230 255
211 230 255
211 230 255
211 230 255
211 230 255
211 230 255
211 230 255
211 230 255
211 230 255
211 230 255
211 230 255
211 230 255
211 230 255
211 230 255
211 230 255
211 230 255
211 230 255
211 230 255
211 230 255
211 230 255
211 230 255
211 230 255
211 230 255
211 230 255
211 230 255
212 230 255
212 230 255
212 230 255
212 230 255
212 230 255
212 230 255
212 230 255
212 230 255
212 230 255
212 230 255
212 230 255
212 230 255
212 230 255
212 230 255
212 230 255
212 230 255
212 230 255
212 231 255
212 231 255
212 230 255
212 230 255
212 230 255
212 230 255
212 230 255
212 230 255
212 230 255
212 230 255
212 230 255
212 230 255
212 230 255
212 230 255
212 230 255
212 230 255
212 230 255
212 230 255
212 230 255
212 230 255
212 230 255
212 230 255
211 230 255
211 230 255
211 230 255
211 230 255
211 230 255
211 230 255
211 230 255
211 230 255
211 230 255
211 230 255
211 230 255
211 230 255
211 230 255
211 230 255
211 230 255
211 230 255
211 230 255
211 230 255
211 230 255
211 230 255
211 230 255
211 230 255
211 230 255
211 230 255
211 230 255
211 230 255
211 230 255
211 230 255
210 230 255
210 230 255
210 229 255
210 229 255
210 229 255
210 229 255
210 229 255
210 229 255
210 229 255
210 229 255
210 229 255
210 229 255
210 229 255
210 229 255
210 229 255
210 229 255
210 229 255
210 229 255
188 177 195
163 120 123
167 121 123
165 121 130
163 120 125
167 121 128
166 120 122
165 120 133
166 121 126
167 120 125
163 120 123
166 120 123
166 121 128
165 120 118
163 119 123
162 118 115
162 119 120
162 118 115
161 117 113
168 121 131
162 118 117
164 120 122
160 118 115
163 119 120
166 120 115
165 120 122
168 122 130
163 119 123
166 121 126
166 121 128
166 120 123
161 118 110
164 119 117
165 119 120
166 120 122
160 118 120
165 120 125
163 119 122
165 120 125
162 119 122
160 117 113
166 120 120
163 120 123
163 119 123
162 119 117
162 119 123
164 119 120
164 120 125
165 120 123
161 119 120
164 120 122
166 121 126
163 119 122
164 120 120
164 120 122
161 118 115
165 120 122
168 121 128
164 120 120
164 120 123
163 119 115
166 121 126
165 119 120
163 119 118
166 120 120
162 118 117
164 119 117
164 120 122
163 119 123
161 118 115
167 121 123
163 119 113
164 119 118
164 118 117
163 119 117
162 118 112
164 119 122
166 120 122
163 120 125
166 120 128
167 121 122
161 117 112
164 120 122
165 120 123
166 121 125
165 120 125
165 120 125
166 121 122
164 120 125
164 118 115
164 119 120
165 119 120
166 121 125
164 119 120
161 118 120
164 119 117
165 120 118
165 120 122
163 119 120
162 118 117
164 120 128
163 119 118
166 120 128
162 119 125
164 119 123
164 119 115
163 119 123
167 121 126
160 118 115
166 121 125
167 120 125
165 120 122
165 120 133
164 120 126
164 119 125
168 121 126
167 122 131
164 120 120
188 181 202
210 229 255
210 229 255
210 229 255
210 229 255
210 229 255
210 229 255
210 229 255
210 229 255
210 229 255
210 229 255
210 229 255
210 229 255
210 229 255
210 229 255
210 229 255
210 230 255
210 230 255
210 230 255
211 230 255
211 230 255
211 230 255
211 230 255
211 230 255
211 230 255
211 230 255
211 230 255
211 230 255
211 230 255
211 230 255
211 230 255
211 230 255
211 230 255
211 230 255
211 230 255
211 230 255
211 230 255
211 230 255
211 230 255
211 230 255
211 230 255
211 230 255
211 230 255
211 230 255
211 230 255
211 230 255
211 230 255
212 230 255
212 230 255
212 230 255
212 230 255
212 230 255
212 230 255
212 230 255
212 230 255
212 230 255
212 230 255
212 230 255
212 230 255
212 230 255
212 230 255
212 230 255
212 230 255
212 230 255
212 230 255
212 230 255
212 230 255
212 230 255
212 231 255
212 231 255
212 231 255
212 231 255
212 231 255
212 231 255
212 231 255
212 231 255
212 231 255
212 231 255
212 230 255
212 230 255
212 230 255
212 230 255
212 230 255
212 230 255
212 230 255
212 230 255
212 230 255
212 230 255
212 230 255
212 230 255
212 230 255
212 230 255
212 230 255
212 230 255
212 230 255
212 230 255
212 230 255
212 230 255
211 230 255
211 230 255
211 230 255
211 230 255
211 230 255
211 230 255
211 230 255
211 230 255
211 230 255
211 230 255
211 230 255
211 230 255
211 230 255
211 230 255
211 230 255
211 230 255
211 230 255
211 230 255
211 230 255
211 230 255
211 230 255
211 230 255
211 230 255
211 230 255
211 230 255
211 230 255
211 230 255
211 230 255
210 230 255
210 230 255
210 230 255
210 230 255
210 229 255
210 229 255
210 229 255
210 229 255
210 229 255
210 229 255
210 229 255
202 211 235
164 122 129
169 122 133
165 121 130
166 121 126
164 120 122
160 117 110
163 119 123
162 119 117
166 120 126
164 120 120
166 121 125
161 119 120
166 120 122
161 117 113
163 119 120
167 121 123
161 118 117
162 119 122
162 119 123
164 119 120
164 119 118
168 122 126
166 121 130
164 119 117
169 122 130
163 118 120
168 122 130
167 121 122
166 120 122
164 120 122
167 121 130
166 120 130
162 118 123
163 119 122
162 118 113
164 119 115
165 120 120
165 120 120
165 120 118
166 120 118
165 120 122
165 120 120
163 119 115
167 121 128
166 120 120
169 122 123
165 121 130
163 119 122
165 120 123
161 118 118
162 119 120
168 122 128
169 121 125
163 119 120
164 119 122
162 118 113
161 118 117
167 121 123
162 119 117
161 118 117
167 121 120
166 121 125
163 119 118
164 119 110
162 117 110
167 121 123
161 118 115
164 119 117
164 119 117
163 119 113
167 121 126
169 122 130
165 120 122
162 119 120
167 121 126
166 120 122
165 120 118
166 121 130
161 118 115
163 119 118
162 119 115
162 119 120
163 119 120
165 120 120
165 120 123
164 120 122
165 119 120
166 121 126
162 119 118
165 120 117
163 119 118
165 121 126
165 121 126
167 121 128
163 119 122
165 120 123
166 121 128
164 120 126
165 120 128
164 120 122
168 121 123
165 119 118
163 119 122
163 119 120
165 120 125
163 119 115
165 119 118
165 120 123
162 119 118
161 118 115
167 121 123
167 121 126
167 121 123
163 120 126
167 121 126
167 121 125
166 120 125
167 121 131
167 123 124
195 197 220
210 229 255
210 229 255
210 229 255
210 229 255
210 229 255
210 229 255
210 229 255
210 230 255
210 230 255
210 230 255
210 230 255
211 230 255
211 230 255
211 230 255
211 230 255
211 230 255
211 230 255
211 230 255
211 230 255
211 230 255
211 230 255
211 230 255
211 230 255
211 230 255
211 230 255
211 230 255
211 230 255
211 230 255
211 230 255
211 230 255
211 230 255
211 230 255
211 230 255
211 230 255
211 230 255
211 230 255
211 230 255
211 230 255
211 230 255
212 230 255
212 230 255
212 230 255
212 230 255
212 230 255
212 230 255
212 230 255
212 230 255
212 230 255
212 230 255
212 230 255
212 230 255
212 230 255
212 230 255
212 230 255
212 230 255
212 230 255
212 230 255
212 230 255
212 230 255
212 231 255
212 231 255
212 231 255
212 231 255
212 231 255
212 231 255
212 231 255
212 231 255
212 231 255
213 231 255
213 231 255
213 231 255
213 231 255
213 231 255
212 231 255
212 231 255
212 231 255
212 231 255
212 231 255
212 231 255
212 231 255
212 231 255
212 230 255
212 230 255
212 230 255
212 230 255
212 230 255
212 230 255
212 230 255
212 230 255
212 230 255
212 230 255
212 230 255
212 230 255
212 230 255
212 230 255
212 230 255
212 230 255
212 230 255
212 230 255
212 230 255
212 230 255
212 230 255
211 230 255
211 230 255
211 230 255
211 230 255
211 230 255
211 230 255
211 230 255
211 230 255
211 230 255
211 230 255
211 230 255
211 230 255
211 230 255
211 230 255
211 230 255
211 230 255
211 230 255
211 230 255
211 230 255
211 230 255
211 230 255
211 230 255
211 230 255
211 230 255
211 230 255
211 230 255
211 230 255
211 230 255
211 230 255
211 230 255
210 230 255
210 230 255
208 225 249
166 131 140
167 121 130
162 119 117
166 121 125
167 121 125
165 118 115
162 118 113
162 119 118
162 118 115
168 121 126
167 121 128
165 120 122
164 119 118
159 117 112
167 121 126
167 121 122
164 120 126
165 120 120
162 118 112
165 120 120
164 119 117
165 119 123
165 120 123
164 120 125
168 121 123
165 120 123
162 118 122
163 119 113
162 118 112
164 120 122
166 121 125
169 122 128
164 120 123
168 120 123
165 120 118
163 119 120
160 117 112
167 121 123
164 120 126
166 120 125
162 119 126
164 119 115
164 119 120
165 120 123
160 118 118
163 119 122
166 120 122
166 120 122
165 120 117
163 118 112
161 118 117
163 119 118
165 120 123
164 119 123
168 122 131
163 119 117
166 120 120
167 121 128
163 118 118
165 119 122
159 117 110
164 120 123
165 120 122
163 119 117
163 118 115
163 120 125
164 119 117
168 121 125
161 117 113
164 119 122
161 117 112
162 118 118
164 119 120
169 121 120
164 118 120
161 118 115
167 121 122
161 118 118
164 119 118
165 119 117
164 120 125
165 120 118
160 118 113
163 119 118
166 120 118
166 121 126
165 120 122
160 117 110
164 119 120
164 119 120
169 122 130
167 120 118
168 122 126
168 121 126
162 119 117
167 122 130
167 121 125
159 117 104
162 119 122
165 121 126
165 121 128
164 120 122
166 121 123
164 120 122
161 118 118
164 119 122
164 119 120
169 122 125
165 120 120
167 121 125
162 117 113
165 120 118
161 118 120
164 119 118
164 119 118
165 120 120
164 119 117
165 120 128
163 119 118
164 118 123
170 133 142
210 228 254
210 230 255
210 230 255
211 230 255
211 230 255
211 230 255
211 230 255
211 230 255
211 230 255
211 230 255
211 230 255
211 230 255
211 230 255
211 230 255
211 230 255
211 230 255
211 230 255
211 230 255
211 230 255
211 230 255
211 230 255
211 230 255
211 230 255
211 230 255
211 230 255
211 230 255
211 230 255
211 230 255
211 230 255
211 230 255
211 230 255
211 230 255
211 230 255
212 230 255
212 230 255
212 230 255
212 230 255
212 230 255
212 230 255
212 230 255
212 230 255
212 230 255
212 230 255
212 230 255
212 230 255
212 230 255
212 230 255
212 230 255
212 230 255
212 230 255
212 230 255
212 230 255
212 230 255
212 231 255
212 231 255
212 231 255
212 231 255
212 231 255
212 231 255
212 231 255
212 231 255
212 231 255
213 231 255
213 231 255
213 231 255
213 231 255
213 231 255
213 231 255
213 231 255
213 231 255
213 231 255
213 231 255
213 231 255
213 231 255
213 231 255
213 231 255
213 231 255
213 231 255
213 231 255
212 231 255
212 231 255
212 231 255
212 231 255
212 231 255
212 231 255
212 231 255
212 231 255
212 231 255
212 230 255
212 230 255
212 230 255
212 230 255
212 230 255
212 230 255
212 230 255
212 230 255
212 230 255
212 230 255
212 230 255
212 230 255
212 230 255
212 230 255
212 230 255
212 230 255
212 230 255
212 230 255
212 230 255
212 230 255
212 230 255
211 230 255
211 230 255
211 230 255
211 230 255
211 230 255
211 230 255
211 230 255
211 230 255
211 230 255
211 230 255
211 230 255
211 230 255
211 230 255
211 230 255
211 230 255
211 230 255
211 230 255
211 230 255
211 230 255
211 230 255
211 230 255
211 230 255
211 230 255
211 230 255
211 230 255
184 176 192
166 120 117
166 120 126
163 119 120
165 120 123
164 119 118
162 119 123
166 120 125
165 120 120
166 121 128
169 121 120
167 121 126
167 122 131
164 119 115
163 119 112
164 119 118
165 120 118
166 120 125
164 120 120
164 119 120
165 120 120
166 121 128
167 121 122
161 118 113
167 121 125
164 119 117
164 119 115
162 119 118
164 119 113
163 119 122
158 116 110
164 120 120
167 121 130
166 120 125
160 117 112
167 121 126
163 119 117
166 120 122
166 121 126
163 119 120
164 119 120
165 120 123
166 120 115
167 121 126
165 119 115
162 119 120
165 120 122
166 121 128
163 119 117
156 115 104
169 121 123
169 122 125
164 119 117
163 119 117
164 119 118
166 120 120
169 122 128
166 121 125
164 119 113
165 119 115
165 120 118
160 117 115
163 120 126
169 121 123
166 121 123
161 119 122
165 119 122
163 119 118
161 118 115
161 116 118
165 120 120
165 119 113
165 119 123
168 121 123
162 117 110
164 120 122
162 119 120
162 119 117
163 119 122
166 120 113
164 119 115
162 119 115
163 119 115
165 120 122
165 120 122
162 119 117
166 120 118
162 119 123
166 121 128
165 119 122
165 120 122
167 121 122
163 119 120
170 122 128
161 118 117
162 118 112
163 119 120
166 121 123
162 117 113
165 121 126
167 121 125
166 120 122
167 121 122
164 119 123
164 120 123
165 119 118
165 120 115
163 118 122
162 119 123
165 120 123
167 121 125
168 121 125
168 122 126
164 120 122
166 121 125
167 121 128
164 120 126
165 119 117
163 120 123
165 120 123
161 118 117
162 119 125
186 173 191
211 230 255
211 230 255
211 230 255
211 230 255
211 230 255
211 230 255
211 230 255
211 230 255
211 230 255
211 230 255
211 230 255
211 230 255
211 230 255
211 230 255
211 230 255
211 230 255
211 230 255
211 230 255
211 230 255
211 230 255
211 230 255
211 230 255
211 230 255
211 230 255
211 230 255
212 230 255
212 230 255
212 230 255
212 230 255
212 230 255
212 230 255
212 230 255
212 230 255
212 230 255
212 230 255
212 230 255
212 230 255
212 230 255
212 230 255
212 230 255
212 230 255
212 230 255
212 230 255
212 230 255
212 230 255
212 230 255
212 230 255
212 231 255
212 231 255
212 231 255
212 231 255
212 231 255
212 231 255
212 231 255
212 231 255
213 231 255
213 231 255
213 231 255
213 231 255
213 231 255
213 231 255
213 231 255
213 231 255
213 231 255
213 231 255
213 231 255
213 231 255
213 231 255
213 231 255
213 231 255
213 231 255
213 231 255
213 231 255
213 231 255
213 231 255
213 231 255
213 231 255
213 231 255
213 231 255
213 231 255
213 231 255
213 231 255
213 231 255
213 231 255
212 231 255
212 231 255
212 231 255
212 231 255
212 231 255
212 231 255
212 231 255
212 231 255
212 231 255
212 230 255
212 230 255
212 230 255
212 230 255
212 230 255
212 230 255
212 230 255
212 230 255
212 230 255
212 230 255
212 230 255
212 230 255
212 230 255
212 230 255
212 230 255
212 230 255
212 230 255
212 230 255
212 230 255
212 230 255
212 230 255
212 230 255
211 230 255
211 230 255
211 230 255
211 230 255
211 230 255
211 230 255
211 230 255
211 230 255
211 230 255
211 230 255
211 230 255
211 230 255
211 230 255
211 230 255
211 230 255
211 230 255
211 230 255
202 209 231
162 119 123
167 121 126
164 119 117
162 119 125
163 118 118
162 119 117
163 119 122
164 119 120
166 121 123
171 123 134
167 121 122
167 121 120
165 120 118
168 121 130
163 119 115
163 119 120
166 121 125
165 120 122
164 119 120
162 119 122
163 119 122
159 115 112
163 119 120
165 119 117
167 121 131
164 119 118
166 120 117
164 119 117
165 119 125
165 120 122
165 120 125
165 120 123
163 119 122
169 122 128
162 118 110
165 120 122
164 120 122
166 120 123
165 120 125
163 119 122
160 117 113
168 122 128
166 120 123
169 122 123
162 118 112
163 118 122
163 119 125
165 120 125
163 119 120
165 120 123
167 121 120
164 119 120
164 119 120
164 120 123
165 119 117
167 121 128
162 119 117
167 121 125
167 121 128
165 119 112
165 119 122
165 119 115
166 120 122
165 120 123
160 117 112
165 119 120
162 118 123
163 119 117
166 120 120
165 120 125
163 119 113
165 120 123
161 118 115
163 120 125
165 120 122
161 118 117
166 121 123
162 118 115
168 122 126
167 121 125
165 120 123
164 120 125
166 121 125
165 120 125
163 119 118
162 118 115
166 121 128
164 119 112
162 119 117
161 118 112
165 119 120
162 118 117
164 120 123
163 119 118
166 121 123
161 117 113
164 119 117
161 118 118
162 118 112
164 119 117
165 120 123
166 120 122
160 118 115
161 118 113
164 120 122
165 120 125
162 119 118
167 120 123
164 120 120
168 122 128
165 121 126
165 119 115
159 117 104
165 120 122
164 120 122
165 120 120
161 119 122
162 119 118
160 117 104
164 120 123
164 119 122
166 120 120
165 120 125
196 199 219
211 230 255
211 230 255
211 230 255
211 230 255
211 230 255
211 230 255
211 230 255
211 230 255
211 230 255
211 230 255
211 230 255
211 230 255
211 230 255
211 230 255
211 230 255
211 230 255
211 230 255
211 230 255
212 230 255
212 230 255
212 230 255
212 230 255
212 230 255
212 230 255
212 230 255
212 230 255
212 230 255
212 230 255
212 230 255
212 230 255
212 230 255
212 230 255
212 230 255
212 230 255
212 230 255
212 230 255
212 230 255
212 230 255
212 230 255
212 231 255
212 231 255
212 231 255
212 231 255
212 231 255
212 231 255
212 231 255
212 231 255
212 231 255
213 231 255
213 231 255
213 231 255
213 231 255
213 231 255
213 231 255
213 231 255
213 231 255
213 231 255
213 231 255
213 231 255
213 231 255
213 231 255
213 231 255
213 231 255
213 231 255
213 231 255
213 231 255
213 231 255
213 231 255
213 231 255
213 231 255
213 231 255
213 231 255
213 231 255
213 231 255
213 231 255
213 231 255
213 231 255
213 231 255
213 231 255
213 231 255
213 231 255
213 231 255
213 231 255
213 231 255
213 231 255
213 231 255
213 231 255
213 231 255
213 231 255
213 231 255
212 231 255
212 231 255
212 231 255
212 231 255
212 231 255
212 231 255
212 231 255
212 231 255
212 231 255
212 230 255
212 230 255
212 230 255
212 230 255
212 230 255
212 230 255
212 230 255
212 230 255
212 230 255
212 230 255
212 230 255
212 230 255
212 230 255
212 230 255
212 230 255
212 230 255
212 230 255
212 230 255
212 230 255
212 230 255
212 230 255
212 230 255
211 230 255
211 230 255
211 230 255
211 230 255
211 230 255
211 230 255
211 230 255
211 230 255
211 230 255
209 225 250
176 154 164
165 121 130
168 122 131
166 120 120
167 121 122
165 119 120
165 120 126
163 119 118
164 120 123
167 121 128
162 119 115
165 119 123
166 121 125
165 120 118
162 118 120
167 121 118
168 121 120
167 121 128
169 122 122
164 119 115
162 118 115
165 120 126
164 119 122
164 120 126
165 120 120
165 120 117
165 120 126
169 122 126
169 122 128
165 120 122
164 119 122
164 119 117
165 119 118
166 120 120
165 120 122
162 117 115
164 120 123
160 117 110
163 119 120
166 119 117
165 119 113
162 118 110
167 121 126
163 118 115
165 119 112
162 118 113
169 122 130
166 121 125
164 120 128
166 121 128
163 119 117
165 120 128
162 118 110
163 119 120
164 119 118
160 117 104
165 120 123
163 119 117
163 119 117
165 120 120
165 120 125
166 120 118
164 119 117
165 119 125
166 120 120
165 120 122
169 122 122
168 121 125
164 119 117
163 119 123
163 120 126
165 120 123
164 119 118
165 120 120
166 121 128
167 121 130
163 119 118
163 119 115
166 120 126
161 118 113
165 120 118
166 120 118
165 120 123
164 120 123
167 121 122
163 119 115
166 121 131
165 120 120
165 120 122
163 118 112
164 120 122
164 119 123
167 121 123
163 117 113
169 122 130
164 119 117
164 120 122
167 121 123
162 118 113
163 119 115
164 119 117
166 120 117
165 120 122
161 118 112
164 120 123
162 118 113
163 119 122
166 121 123
163 119 117
165 120 123
165 121 126
162 118 112
163 118 113
163 120 126
162 118 108
165 120 125
165 120 125
164 120 120
166 120 123
168 121 123
166 121 123
169 122 128
167 121 125
167 121 131
175 142 152
208 223 248
211 230 255
211 230 255
211 230 255
211 230 255
211 230 255
211 230 255
211 230 255
211 230 255
211 230 255
212 230 255
212 230 255
212 230 255
212 230 255
212 230 255
212 230 255
212 230 255
212 230 255
212 230 255
212 230 255
212 230 255
212 230 255
212 230 255
212 230 255
212 230 255
212 230 255
212 230 255
212 230 255
212 230 255
212 230 255
212 230 255
212 230 255
212 231 255
212 231 255
212 231 255
212 231 255
212 231 255
212 231 255
212 231 255
212 231 255
212 231 255
213 231 255
213 231 255
213 231 255
213 231 255
213 231 255
213 231 255
213 231 255
213 231 255
213 231 255
213 231 255
213 231 255
213 231 255
213 231 255
213 231 255
213 231 255
213 231 255
213 231 255
213 231 255
213 231 255
213 231 255
213 231 255
213 231 255
213 231 255
213 231 255
213 231 255
213 231 255
213 231 255
213 231 255
213 231 255
213 231 255
213 231 255
213 231 255
213 231 255
213 231 255
213 231 255
213 231 255
213 231 255
213 231 255
213 231 255
213 231 255
213 231 255
213 231 255
213 231 255
213 231 255
213 231 255
213 231 255
213 231 255
213 231 255
213 231 255
213 231 255
213 231 255
213 231 255
213 231 255
213 231 255
213 231 255
212 231 255
212 231 255
212 231 255
212 231 255
212 231 255
212 231 255
212 231 255
212 231 255
212 231 255
212 231 255
212 230 255
212 230 255
212 230 255
212 230 255
212 230 255
212 230 255
212 230 255
212 230 255
212 230 255
212 230 255
212 230 255
212 230 255
212 230 255
212 230 255
212 230 255
212 230 255
212 230 255
212 230 255
212 230 255
212 230 255
212 230 255
212 230 255
212 230 255
211 230 255
187 175 190
166 121 123
164 119 122
163 119 120
162 118 112
165 120 125
165 120 125
163 119 112
161 117 115
167 122 131
164 120 123
165 120 123
167 121 126
164 119 118
168 121 126
163 118 115
163 119 118
164 120 123
165 119 122
167 121 128
162 118 123
164 119 113
164 120 120
165 120 118
165 120 122
161 118 115
164 120 120
166 121 125
164 119 122
167 121 126
161 117 113
164 119 112
166 120 122
163 118 117
163 119 115
164 119 115
164 118 113
166 120 125
167 121 125
166 121 123
165 120 122
167 121 123
162 118 112
162 118 112
164 120 122
161 118 113
164 120 123
165 120 120
164 119 118
161 118 112
157 114 108
163 118 123
165 120 117
165 120 122
162 118 115
165 120 123
168 121 126
164 119 117
166 121 126
165 120 125
164 120 123
165 120 125
166 121 123
163 118 117
164 119 122
164 120 120
167 120 122
163 119 120
164 119 113
161 117 99
167 121 125
165 120 126
168 122 130
167 121 120
163 118 117
164 119 117
169 122 130
163 119 117
166 120 118
166 120 125
164 119 113
164 120 120
164 119 122
165 120 123
161 118 117
165 120 125
160 118 112
163 119 118
162 118 117
167 121 125
166 121 126
164 118 112
167 121 125
163 119 113
165 120 130
168 121 122
171 123 131
165 120 122
165 120 123
165 119 112
166 120 122
168 121 130
166 119 118
165 120 118
162 118 117
163 119 120
164 120 123
164 119 122
166 120 118
164 120 120
165 120 123
163 119 118
167 121 125
165 120 122
163 119 122
165 120 125
163 119 115
167 122 131
169 120 122
167 121 122
160 117 110
167 121 126
163 119 120
161 118 112
161 119 122
163 119 118
186 177 193
211 230 255
211 230 255
212 230 255
212 230 255
212 230 255
212 230 255
212 230 255
212 230 255
212 230 255
212 230 255
212 230 255
212 230 255
212 230 255
212 230 255
212 230 255
212 230 255
212 230 255
212 230 255
212 230 255
212 230 255
212 230 255
212 230 255
212 230 255
212 230 255
212 230 255
212 231 255
212 231 255
212 231 255
212 231 255
212 231 255
212 231 255
212 231 255
212 231 255
213 231 255
213 231 255
213 231 255
213 231 255
213 231 255
213 231 255
213 231 255
213 231 255
213 231 255
213 231 255
213 231 255
213 231 255
213 231 255
213 231 255
213 231 255
213 231 255
213 231 255
213 231 255
213 231 255
213 231 255
213 231 255
213 231 255
213 231 255
213 231 255
213 231 255
213 231 255
213 231 255
213 231 255
213 231 255
213 231 255
213 231 255
213 231 255
214 231 255
214 231 255
214 231 255
214 231 255
214 231 255
213 231 255
213 231 255
213 231 255
213 231 255
213 231 255
213 231 255
213 231 255
213 231 255
213 231 255
213 231 255
213 231 255
213 231 255
213 231 255
213 231 255
213 231 255
213 231 255
213 231 255
213 231 255
213 231 255
213 231 255
213 231 255
213 231 255
213 231 255
213 231 255
213 231 255
213 231 255
213 231 255
213 231 255
213 231 255
213 231 255
213 231 255
213 231 255
213 231 255
212 231 255
212 231 255
212 231 255
212 231 255
212 231 255
212 231 255
212 231 255
212 231 255
212 231 255
212 230 255
212 230 255
212 230 255
212 230 255
212 230 255
212 230 255
212 230 255
212 230 255
212 230 255
212 230 255
212 230 255
212 230 255
212 230 255
212 230 255
212 230 255
212 230 255
207 220 245
165 120 122
164 120 122
161 117 117
163 120 125
168 121 126
163 119 115
164 119 120
168 121 125
160 118 113
163 119 117
161 118 118
164 119 123
167 121 126
163 120 123
162 117 115
165 120 118
166 121 126
165 120 117
164 118 118
159 117 108
165 120 117
164 119 113
168 121 123
165 120 120
165 120 125
166 120 128
166 120 120
163 119 117
162 118 115
164 119 120
165 120 118
166 121 126
165 120 120
164 119 123
165 119 122
169 122 126
167 121 120
167 121 125
165 120 118
164 120 120
164 119 115
161 118 115
164 119 120
166 120 120
165 119 117
163 118 112
161 118 113
163 119 115
163 118 115
165 120 120
160 117 117
164 119 120
164 119 120
164 120 118
167 121 123
161 117 112
165 120 120
168 121 130
167 120 117
162 118 117
167 120 125
167 121 123
159 115 103
163 119 115
165 120 126
164 119 118
159 117 113
166 121 125
166 120 118
165 120 118
163 119 120
167 120 120
164 118 110
168 121 125
163 119 120
162 118 118
162 118 118
167 121 120
160 117 106
163 119 120
165 120 125
164 119 112
163 119 117
163 119 120
163 119 118
166 120 123
162 118 113
165 119 115
162 118 118
165 119 118
161 117 108
166 120 123
161 117 112
164 120 123
164 120 122
165 119 122
164 119 117
164 119 118
164 120 126
167 121 125
161 118 106
162 118 108
167 121 123
164 119 115
162 119 117
161 118 112
165 120 122
163 119 120
164 119 117
164 119 120
162 119 117
164 119 112
165 120 120
163 119 118
164 120 120
165 120 122
164 119 117
163 119 117
160 117 106
163 118 118
164 119 118
162 119 115
164 119 123
167 121 126
165 120 122
168 121 125
164 122 119
208 223 247
212 230 255
212 230 255
212 230 255
212 230 255
212 230 255
212 230 255
212 230 255
212 230 255
212 230 255
212 230 255
212 230 255
212 230 255
212 230 255
212 230 255
212 230 255
212 231 255
212 231 255
212 231 255
212 231 255
212 231 255
212 231 255
212 231 255
212 231 255
212 231 255
212 231 255
213 231 255
213 231 255
213 231 255
213 231 255
213 231 255
213 231 255
213 231 255
213 231 255
213 231 255
213 231 255
213 231 255
213 231 255
213 231 255
213 231 255
213 231 255
213 231 255
213 231 255
213 231 255
213 231 255
213 231 255
213 231 255
213 231 255
213 231 255
213 231 255
213 231 255
213 231 255
213 231 255
213 231 255
213 231 255
213 231 255
213 231 255
213 231 255
213 231 255
214 231 255
214 231 255
214 231 255
214 231 255
214 231 255
214 231 255
214 231 255
214 231 255
214 231 255
214 231 255
214 231 255
214 231 255
214 231 255
214 231 255
214 231 255
214 231 255
214 231 255
214 231 255
213 231 255
213 231 255
213 231 255
213 231 255
213 231 255
213 231 255
213 231 255
213 231 255
213 231 255
213 231 255
213 231 255
213 231 255
213 231 255
213 231 255
213 231 255
213 231 255
213 231 255
213 231 255
213 231 255
213 231 255
213 231 255
213 231 255
213 231 255
213 231 255
213 231 255
213 231 255
213 231 255
213 231 255
213 231 255
213 231 255
213 231 255
213 231 255
213 231 255
212 231 255
212 231 255
212 231 255
212 231 255
212 231 255
212 231 255
212 231 255
212 231 255
212 231 255
212 231 255
212 230 255
212 230 255
212 230 255
212 230 255
212 230 255
212 230 255
212 230 255
212 230 255
179 161 172
166 121 128
167 121 130
167 121 125
161 118 113
167 121 126
162 119 123
164 119 118
163 119 122
160 118 115
165 120 115
163 119 122
164 118 113
162 119 123
165 120 122
165 120 123
166 121 126
165 120 117
164 119 117
164 120 122
164 119 117
166 121 126
163 119 120
158 116 110
167 121 125
165 120 122
166 121 123
158 116 112
164 119 115
166 120 123
165 119 120
167 121 123
165 120 122
165 119 120
166 120 120
164 119 118
163 119 122
165 120 120
164 119 117
166 120 120
162 118 120
162 118 110
163 118 110
163 118 110
168 122 126
162 118 112
164 119 118
160 118 112
163 119 115
165 119 118
164 119 118
161 118 110
166 120 123
165 120 123
164 119 117
161 117 104
165 120 122
163 118 118
170 122 126
164 120 120
165 120 122
164 120 120
161 117 110
161 117 112
162 119 118
166 120 118
165 119 120
164 119 115
161 118 112
172 123 131
168 121 123
164 120 122
164 119 115
163 119 117
167 121 126
161 118 112
159 116 106
164 119 120
167 121 122
160 116 108
165 120 118
162 118 113
160 117 108
165 119 120
165 120 118
167 121 128
164 119 115
164 119 117
164 119 118
160 117 118
166 120 117
167 121 128
168 122 126
166 120 117
163 119 113
165 120 118
163 119 113
162 118 110
163 118 117
162 119 117
164 119 115
165 119 123
164 119 117
164 119 113
165 119 120
166 120 120
166 120 122
169 121 123
164 120 122
163 118 115
163 119 117
164 120 118
165 120 123
167 121 128
164 119 120
168 122 131
163 118 112
161 118 115
166 121 123
165 119 122
159 117 108
166 120 120
165 120 122
167 121 126
163 118 110
166 121 123
166 121 123
162 119 122
181 161 174
212 230 255
212 230 255
212 230 255
212 230 255
212 230 255
212 230 255
212 230 255
212 230 255
212 231 255
212 231 255
212 231 255
212 231 255
212 231 255
212 231 255
212 231 255
212 231 255
212 231 255
212 231 255
213 231 255
213 231 255
213 231 255
213 231 255
213 231 255
213 231 255
213 231 255
213 231 255
213 231 255
213 231 255
213 231 255
213 231 255
213 231 255
213 231 255
213 231 255
213 231 255
213 231 255
213 231 255
213 231 255
213 231 255
213 231 255
213 231 255
213 231 255
213 231 255
213 231 255
213 231 255
213 231 255
213 231 255
213 231 255
213 231 255
213 231 255
213 231 255
213 231 255
214 231 255
214 231 255
214 231 255
214 231 255
214 231 255
214 231 255
214 231 255
214 231 255
214 231 255
214 231 255
214 231 255
214 231 255
214 231 255
214 232 255
214 231 255
214 231 255
214 231 255
214 231 255
214 231 255
214 231 255
214 231 255
214 231 255
214 231 255
214 231 255
214 231 255
214 231 255
214 231 255
214 231 255
214 231 255
214 231 255
214 231 255
214 231 255
213 231 255
213 231 255
213 231 255
213 231 255
213 231 255
213 231 255
213 231 255
213 231 255
213 231 255
213 231 255
213 231 255
213 231 255
213 231 255
213 231 255
213 231 255
213 231 255
213 231 255
213 231 255
213 231 255
213 231 255
213 231 255
213 231 255
213 231 255
213 231 255
213 231 255
213 231 255
213 231 255
213 231 255
213 231 255
213 231 255
213 231 255
213 231 255
213 231 255
213 231 255
212 231 255
212 231 255
212 231 255
212 231 255
212 231 255
212 231 255
212 231 255
212 231 255
212 231 255
202 210 232
168 122 126
164 120 123
165 119 117
164 120 126
167 120 123
168 121 131
166 121 128
164 119 118
165 120 123
164 119 122
161 117 113
162 119 115
164 119 122
165 120 123
167 121 122
163 119 118
162 118 113
166 121 122
165 120 117
164 120 123
166 120 120
165 119 115
162 119 120
166 121 125
168 122 130
164 119 118
164 119 112
163 118 117
164 120 123
163 119 117
164 120 118
166 120 120
165 120 122
166 120 122
164 119 118
161 117 112
164 120 118
166 120 120
166 119 118
161 118 112
165 119 115
163 118 118
165 119 113
160 117 115
164 119 123
168 121 123
165 119 115
159 117 104
164 120 125
164 119 118
165 120 122
162 118 110
164 119 118
166 120 118
165 120 120
163 119 115
163 119 117
160 118 120
164 119 117
166 121 123
162 118 112
164 119 120
163 118 112
164 119 117
164 120 122
164 119 118
167 121 120
161 117 113
162 117 110
162 119 122
165 120 120
163 119 115
165 119 118
166 120 118
167 121 125
163 119 117
162 117 112
167 121 126
164 119 118
163 119 118
166 120 125
164 120 120
163 119 117
165 119 117
158 116 113
161 117 113
166 121 125
161 118 108
163 119 113
163 119 118
161 117 110
167 121 130
163 119 120
161 117 110
162 118 112
161 118 113
165 120 122
166 121 125
165 120 120
163 118 113
163 119 118
163 118 112
164 119 115
164 119 122
164 120 123
163 119 120
166 121 125
163 119 115
166 121 123
166 121 122
165 120 123
166 121 125
165 119 118
166 120 122
164 120 122
163 119 120
161 118 115
161 119 118
165 120 118
163 119 118
164 119 118
165 120 125
165 120 126
163 119 120
165 120 117
161 118 118
162 118 117
164 120 118
165 120 126
204 216 237
212 231 255
212 231 255
212 231 255
212 231 255
212 231 255
212 231 255
212 231 255
212 231 255
212 231 255
213 231 255
213 231 255
213 231 255
213 231 255
213 231 255
213 231 255
213 231 255
213 231 255
213 231 255
213 231 255
213 231 255
213 231 255
213 231 255
213 231 255
213 231 255
213 231 255
213 231 255
213 231 255
213 231 255
213 231 255
213 231 255
213 231 255
213 231 255
213 231 255
213 231 255
213 231 255
213 231 255
213 231 255
213 231 255
213 231 255
213 231 255
213 231 255
213 231 255
213 231 255
214 231 255
214 231 255
214 231 255
214 231 255
214 231 255
214 231 255
214 231 255
214 231 255
214 231 255
214 231 255
214 231 255
214 231 255
214 231 255
214 231 255
214 231 255
214 231 255
214 231 255
214 232 255
214 232 255
214 232 255
214 232 255
214 232 255
214 232 255
214 232 255
214 232 255
214 232 255
214 232 255
214 232 255
214 231 255
214 231 255
214 231 255
214 231 255
214 231 255
214 231 255
214 231 255
214 231 255
214 231 255
214 231 255
214 231 255
214 231 255
214 231 255
214 231 255
214 231 255
214 231 255
214 231 255
214 231 255
214 231 255
213 231 255
213 231 255
213 231 255
213 231 255
213 231 255
213 231 255
213 231 255
213 231 255
213 231 255
213 231 255
213 231 255
213 231 255
213 231 255
213 231 255
213 231 255
213 231 255
213 231 255
213 231 255
213 231 255
213 231 255
213 231 255
213 231 255
213 231 255
213 231 255
213 231 255
213 231 255
213 231 255
213 231 255
213 231 255
213 231 255
213 231 255
213 231 255
213 231 255
213 231 255
213 231 255
172 142 147
164 120 122
164 120 123
169 121 122
165 120 120
165 119 117
163 119 113
163 120 123
162 119 123
164 119 120
165 120 122
165 120 123
157 116 104
163 118 115
162 119 125
165 120 120
163 119 118
164 118 113
164 120 122
161 117 112
163 119 118
163 118 117
167 121 125
165 120 118
160 117 103
167 121 126
162 118 115
162 119 115
164 120 120
163 119 118
162 118 120
164 118 115
166 120 118
167 121 123
165 120 120
164 120 120
164 120 123
165 119 126
165 120 118
164 120 120
162 119 118
162 118 113
162 119 115
165 120 122
165 120 122
160 117 117
166 121 128
167 120 120
166 121 122
167 121 122
166 120 115
166 120 123
164 120 120
162 118 115
166 120 115
164 119 115
163 118 120
161 118 110
166 120 120
163 119 115
162 119 115
166 120 122
164 119 118
163 119 112
161 117 112
167 121 123
162 119 117
167 121 123
164 120 125
161 117 120
164 119 113
163 119 115
164 120 123
163 119 120
166 120 118
164 118 120
167 121 126
162 118 113
163 117 113
163 119 117
163 119 115
169 121 122
161 118 112
165 120 113
164 120 120
164 119 113
158 116 113
163 120 125
166 121 125
165 120 117
163 119 118
160 117 112
163 119 120
159 117 108
165 119 125
168 121 123
166 120 118
167 121 123
164 119 118
168 122 130
159 114 112
162 118 115
163 119 117
163 118 115
164 120 122
164 119 115
163 119 118
165 119 120
164 120 122
164 119 118
167 120 117
162 119 117
165 120 123
166 121 125
163 119 118
161 118 113
168 121 122
166 119 117
162 118 115
161 117 112
164 118 115
165 120 122
164 119 113
164 120 123
165 120 118
164 119 118
166 121 122
163 119 122
165 120 125
164 120 123
177 149 157
213 231 255
213 231 255
213 231 255
213 231 255
213 231 255
213 231 255
213 231 255
213 231 255
213 231 255
213 231 255
213 231 255
213 231 255
213 231 255
213 231 255
213 231 255
213 231 255
213 231 255
213 231 255
213 231 255
213 231 255
213 231 255
213 231 255
213 231 255
213 231 255
213 231 255
213 231 255
213 231 255
213 231 255
213 231 255
213 231 255
213 231 255
213 231 255
213 231 255
213 231 255
213 231 255
214 231 255
214 231 255
214 231 255
214 231 255
214 231 255
214 231 255
214 231 255
214 231 255
214 231 255
214 231 255
214 231 255
214 231 255
214 231 255
214 231 255
214 231 255
214 231 255
214 231 255
214 231 255
214 232 255
214 232 255
214 232 255
214 232 255
214 232 255
214 232 255
214 232 255
214 232 255
214 232 255
214 232 255
214 232 255
214 232 255
214 232 255
214 232 255
214 232 255
214 232 255
214 232 255
214 232 255
214 232 255
214 232 255
214 232 255
214 232 255
214 232 255
214 232 255
214 232 255
214 232 255
214 231 255
214 231 255
214 231 255
214 231 255
214 231 255
214 231 255
214 231 255
214 231 255
214 231 255
214 231 255
214 231 255
214 231 255
214 231 255
214 231 255
214 231 255
214 231 255
214 231 255
214 231 255
213 231 255
213 231 255
213 231 255
213 231 255
213 231 255
213 231 255
213 231 255
213 231 255
213 231 255
213 231 255
213 231 255
213 231 255
213 231 255
213 231 255
213 231 255
213 231 255
213 231 255
213 231 255
213 231 255
213 231 255
213 231 255
213 231 255
213 231 255
213 231 255
213 231 255
213 231 255
213 231 255
201 209 230
164 120 122
168 122 131
164 120 120
162 119 120
167 121 122
160 117 117
166 121 126
165 119 118
163 118 115
163 119 118
162 117 115
164 119 118
164 119 117
165 119 118
164 119 118
163 119 113
165 120 120
162 118 110
162 118 115
165 120 120
161 118 120
162 118 118
166 121 125
164 119 117
162 118 115
162 118 106
163 118 115
161 117 106
164 119 112
167 120 123
165 119 115
164 120 120
162 118 117
161 118 118
165 119 115
163 119 117
162 118 106
164 120 122
165 119 123
163 117 112
165 119 118
160 117 112
163 119 122
162 119 118
165 120 120
162 118 118
162 119 123
158 116 106
162 118 115
166 120 120
166 121 125
164 119 118
167 120 118
165 120 118
161 118 113
163 119 112
162 118 115
167 121 126
163 118 117
164 119 123
157 115 106
165 120 120
163 118 113
163 118 110
160 117 112
163 120 123
165 119 113
164 120 120
166 120 122
163 119 112
169 121 122
164 119 113
162 117 117
161 118 115
162 118 108
159 116 101
163 119 120
165 120 125
162 118 115
164 119 113
163 119 115
162 118 112
166 120 117
163 118 112
165 120 120
161 118 115
167 120 118
162 117 112
165 121 128
161 118 106
164 120 122
164 119 113
167 121 125
163 119 120
162 118 115
158 115 106
166 120 128
163 119 117
165 120 123
164 118 112
166 121 123
166 120 123
165 120 115
162 118 115
162 118 108
166 120 122
165 120 117
163 119 120
164 119 117
162 118 118
162 119 115
166 120 122
164 119 115
165 120 123
166 120 123
165 120 120
167 121 125
168 121 126
167 121 125
163 119 120
161 118 113
161 117 108
164 119 120
162 118 108
168 121 125
165 120 120
161 117 113
164 119 122
166 120 123
164 120 120
162 119 118
200 206 225
213 231 255
213 231 255
213 231 255
213 231 255
213 231 255
213 231 255
213 231 255
213 231 255
213 231 255
213 231 255
213 231 255
213 231 255
213 231 255
213 231 255
213 231 255
213 231 255
213 231 255
213 231 255
213 231 255
213 231 255
213 231 255
213 231 255
213 231 255
213 231 255
213 231 255
213 231 255
214 231 255
214 231 255
214 231 255
214 231 255
214 231 255
214 231 255
214 231 255
214 231 255
214 231 255
214 231 255
214 231 255
214 231 255
214 231 255
214 231 255
214 231 255
214 231 255
214 231 255
214 231 255
214 231 255
214 232 255
214 232 255
214 232 255
214 232 255
214 232 255
214 232 255
214 232 255
214 232 255
214 232 255
214 232 255
214 232 255
214 232 255
214 232 255
214 232 255
214 232 255
214 232 255
214 232 255
215 232 255
215 232 255
215 232 255
215 232 255
215 232 255
215 232 255
214 232 255
214 232 255
214 232 255
214 232 255
214 232 255
214 232 255
214 232 255
214 232 255
214 232 255
214 232 255
214 232 255
214 232 255
214 232 255
214 232 255
214 232 255
214 232 255
214 232 255
214 232 255
214 231 255
214 231 255
214 231 255
214 231 255
214 231 255
214 231 255
214 231 255
214 231 255
214 231 255
214 231 255
214 231 255
214 231 255
214 231 255
214 231 255
214 231 255
214 231 255
214 231 255
214 231 255
214 231 255
213 231 255
213 231 255
213 231 255
213 231 255
213 231 255
213 231 255
213 231 255
213 231 255
213 231 255
213 231 255
213 231 255
213 231 255
213 231 255
213 231 255
213 231 255
213 231 255
213 231 255
213 231 255
177 154 163
163 119 120
165 120 123
162 119 120
162 118 108
165 119 122
164 120 125
165 120 122
164 119 117
162 118 113
170 122 122
162 118 115
162 118 113
163 118 110
161 117 108
165 120 126
163 118 117
165 120 123
162 118 112
164 119 118
165 119 118
164 120 122
164 119 118
161 117 112
161 118 108
160 118 113
162 118 115
167 121 120
162 118 110
164 119 115
161 118 112
160 117 110
165 120 120
166 120 117
163 120 126
164 119 115
165 119 117
168 121 123
162 118 113
165 120 120
161 118 113
163 118 106
164 119 118
162 118 112
166 120 120
162 118 112
165 119 113
161 118 118
166 120 126
162 118 118
165 120 123
166 120 118
163 118 113
165 119 112
165 120 120
163 118 108
161 118 112
164 119 118
164 119 115
161 118 108
166 120 120
163 119 115
164 118 115
161 117 115
166 120 118
163 118 108
166 120 115
165 120 122
162 118 117
161 118 115
162 118 110
163 119 112
163 118 104
165 120 125
165 120 117
162 118 112
162 119 117
166 121 128
160 117 113
168 121 130
165 119 117
165 120 115
159 116 106
162 118 117
163 118 117
168 121 126
160 116 112
162 118 113
168 121 122
168 121 120
165 120 122
162 119 123
165 120 123
164 119 113
161 117 108
161 117 110
161 117 118
164 119 117
162 118 117
161 118 117
163 119 117
160 117 110
164 119 118
158 115 108
165 120 118
159 117 113
162 118 110
163 119 117
163 119 120
166 120 118
164 120 120
161 118 112
164 119 118
162 119 120
169 121 125
163 118 112
163 119 122
164 119 118
165 120 123
165 120 120
165 120 117
165 120 117
166 120 122
167 121 123
164 119 117
166 121 123
164 119 118
166 120 120
168 121 128
165 119 113
161 117 108
164 120 122
167 129 134
213 231 255
213 231 255
213 231 255
213 231 255
213 231 255
213 231 255
213 231 255
213 231 255
213 231 255
213 231 255
213 231 255
213 231 255
213 231 255
213 231 255
213 231 255
213 231 255
213 231 255
213 231 255
213 231 255
214 231 255
214 231 255
214 231 255
214 231 255
214 231 255
214 231 255
214 231 255
214 231 255
214 231 255
214 231 255
214 231 255
214 231 255
214 231 255
214 231 255
214 231 255
214 231 255
214 231 255
214 231 255
214 232 255
214 232 255
214 232 255
214 232 255
214 232 255
214 232 255
214 232 255
214 232 255
214 232 255
214 232 255
214 232 255
214 232 255
214 232 255
214 232 255
214 232 255
214 232 255
214 232 255
214 232 255
215 232 255
215 232 255
215 232 255
215 232 255
215 232 255
215 232 255
215 232 255
215 232 255
215 232 255
215 232 255
215 232 255
215 232 255
215 232 255
215 232 255
215 232 255
215 232 255
215 232 255
215 232 255
215 232 255
215 232 255
215 232 255
214 232 255
214 232 255
214 232 255
214 232 255
214 232 255
214 232 255
214 232 255
214 232 255
214 232 255
214 232 255
214 232 255
214 232 255
214 232 255
214 232 255
214 232 255
214 232 255
214 232 255
214 232 255
214 232 255
214 231 255
214 231 255
214 231 255
214 231 255
214 231 255
214 231 255
214 231 255
214 231 255
214 231 255
214 231 255
214 231 255
214 231 255
214 231 255
214 231 255
214 231 255
214 231 255
214 231 255
214 231 255
214 231 255
213 231 255
213 231 255
213 231 255
213 231 255
213 231 255
213 231 255
213 231 255
213 231 255
200 201 220
165 120 125
168 121 125
167 121 128
163 119 118
163 120 125
164 120 120
160 117 115
163 119 115
159 115 106
163 119 120
164 118 122
163 119 122
161 117 110
164 119 113
163 119 118
162 117 117
166 121 126
162 118 117
162 117 106
168 121 122
166 120 117
165 120 118
163 119 115
163 118 115
167 121 123
167 121 125
164 118 112
170 123 133
165 119 125
164 120 118
163 119 118
163 119 115
169 121 126
161 118 117
167 121 128
164 119 117
165 118 117
164 120 123
164 119 113
161 117 110
169 121 123
164 119 117
160 116 97
160 116 99
164 120 122
164 119 115
170 122 123
167 121 118
165 119 118
164 119 117
163 118 113
168 121 126
165 120 120
165 120 120
166 120 118
166 120 115
163 118 115
169 122 123
165 120 115
166 121 126
161 117 115
164 120 118
161 117 118
164 118 115
164 119 117
163 119 113
163 119 117
164 120 120
166 121 126
165 119 110
164 119 117
166 120 118
164 118 113
165 120 117
165 120 117
166 120 120
163 119 115
163 118 112
164 118 118
161 118 113
162 118 112
165 120 122
167 121 125
162 117 106
164 118 113
162 118 110
166 120 123
161 118 108
164 119 117
161 116 110
166 120 122
163 119 115
161 118 118
165 119 113
161 118 115
165 119 118
162 118 120
166 121 123
169 122 130
163 119 123
166 120 118
165 119 110
163 118 112
161 117 112
159 117 104
162 118 113
164 119 115
169 122 130
166 120 122
167 121 125
163 119 117
165 120 120
166 121 125
164 120 122
168 121 123
165 119 123
161 118 112
166 121 125
166 120 118
165 119 118
166 121 122
165 119 113
165 119 122
165 120 125
164 119 118
165 120 118
166 120 120
168 121 125
161 117 104
164 120 118
165 120 123
164 119 123
168 121 125
198 203 220
213 231 255
213 231 255
213 231 255
213 231 255
213 231 255
213 231 255
213 231 255
213 231 255
214 231 255
214 231 255
214 231 255
214 231 255
214 231 255
214 231 255
214 231 255
214 231 255
214 231 255
214 231 255
214 231 255
214 231 255
214 231 255
214 231 255
214 231 255
214 231 255
214 231 255
214 231 255
214 231 255
214 232 255
214 232 255
214 232 255
214 232 255
214 232 255
214 232 255
214 232 255
214 232 255
214 232 255
214 232 255
214 232 255
214 232 255
214 232 255
214 232 255
214 232 255
214 232 255
214 232 255
214 232 255
215 232 255
215 232 255
215 232 255
215 232 255
215 232 255
215 232 255
215 232 255
215 232 255
215 232 255
215 232 255
215 232 255
215 232 255
215 232 255
215 232 255
215 232 255
215 232 255
215 232 255
215 232 255
215 232 255
215 232 255
215 232 255
215 232 255
215 232 255
215 232 255
215 232 255
215 232 255
215 232 255
215 232 255
215 232 255
215 232 255
215 232 255
215 232 255
215 232 255
215 232 255
215 232 255
215 232 255
215 232 255
215 232 255
215 232 255
214 232 255
214 232 255
214 232 255
214 232 255
214 232 255
214 232 255
214 232 255
214 232 255
214 232 255
214 232 255
214 232 255
214 232 255
214 232 255
214 232 255
214 232 255
214 232 255
214 232 255
214 232 255
214 231 255
214 231 255
214 231 255
214 231 255
214 231 255
214 231 255
214 231 255
214 231 255
214 231 255
214 231 255
214 231 255
214 231 255
214 231 255
214 231 255
214 231 255
214 231 255
214 231 255
214 231 255
214 231 255
184 170 181
166 120 122
162 119 118
167 121 125
162 117 106
166 120 118
166 120 126
168 121 126
163 119 118
162 118 122
165 119 123
165 120 115
164 119 115
159 116 113
165 119 117
162 118 110
163 119 115
165 119 115
162 119 118
165 120 123
161 117 106
163 119 122
163 118 112
165 120 122
164 120 118
163 119 113
164 119 120
165 120 122
164 119 120
162 118 112
165 120 120
167 121 128
163 119 115
164 119 120
168 121 123
159 116 103
163 119 113
161 118 117
166 120 120
163 119 117
164 119 120
163 119 117
163 118 117
162 118 113
161 118 112
165 119 115
163 119 117
162 119 117
161 117 106
164 119 113
164 119 115
163 119 120
165 120 117
166 120 120
164 119 113
162 118 113
163 119 120
162 119 117
163 119 115
162 118 113
167 121 125
165 120 122
163 119 117
162 118 115
163 118 110
167 121 123
159 116 110
163 118 113
164 119 123
167 121 125
164 119 118
162 119 120
163 119 120
163 119 115
162 118 117
167 121 126
161 118 112
164 119 110
159 117 104
165 120 118
164 118 120
161 118 122
163 118 117
163 118 113
165 120 123
165 120 122
161 117 104
162 118 113
163 118 113
162 117 118
166 119 120
166 121 125
160 117 108
166 121 123
161 118 115
166 120 120
161 118 115
160 118 113
164 119 113
168 121 122
166 119 117
161 117 113
166 120 125
159 116 113
159 117 113
165 120 120
168 122 128
166 120 118
166 120 120
163 120 125
164 119 117
162 118 108
165 120 118
161 117 112
163 119 115
163 118 112
165 120 120
164 119 117
166 120 122
167 121 131
165 120 122
164 118 113
165 120 118
168 122 128
163 119 113
163 119 118
165 120 120
162 119 117
162 117 108
164 120 126
160 117 110
166 120 126
164 120 123
161 118 112
181 165 179
214 231 255
214 231 255
214 231 255
214 231 255
214 231 255
214 231 255
214 231 255
214 231 255
214 231 255
214 231 255
214 231 255
214 231 255
214 231 255
214 231 255
214 231 255
214 231 255
214 231 255
214 231 255
214 232 255
214 232 255
214 232 255
214 232 255
214 232 255
214 232 255
214 232 255
214 232 255
214 232 255
214 232 255
214 232 255
214 232 255
214 232 255
214 232 255
214 232 255
214 232 255
214 232 255
214 232 255
214 232 255
215 232 255
215 232 255
215 232 255
215 232 255
215 232 255
215 232 255
215 232 255
215 232 255
215 232 255
215 232 255
215 232 255
215 232 255
215 232 255
215 232 255
215 232 255
215 232 255
215 232 255
215 232 255
215 232 255
215 232 255
215 232 255
215 232 255
215 232 255
215 232 255
215 232 255
215 232 255
215 232 255
215 232 255
215 232 255
215 232 255
215 232 255
215 232 255
215 232 255
215 232 255
215 232 255
215 232 255
215 232 255
215 232 255
215 232 255
215 232 255
215 232 255
215 232 255
215 232 255
215 232 255
215 232 255
215 232 255
215 232 255
215 232 255
215 232 255
215 232 255
215 232 255
215 232 255
215 232 255
215 232 255
215 232 255
214 232 255
214 232 255
214 232 255
214 232 255
214 232 255
214 232 255
214 232 255
214 232 255
214 232 255
214 232 255
214 232 255
214 232 255
214 232 255
214 232 255
214 232 255
214 232 255
214 232 255
214 232 255
214 232 255
214 232 255
214 231 255
214 231 255
214 231 255
214 231 255
214 231 255
214 231 255
214 231 255
214 231 255
211 225 247
167 121 118
162 118 108
164 119 117
166 121 123
166 120 123
166 120 122
163 119 115
165 120 126
164 120 120
167 120 123
165 119 125
166 120 123
160 117 113
163 118 112
162 119 118
167 121 125
157 116 106
162 118 113
164 120 120
163 119 117
166 120 122
168 122 126
165 120 118
164 119 120
163 119 113
164 119 117
162 116 110
165 119 115
163 119 117
166 120 120
158 116 104
163 119 118
167 120 118
167 121 123
164 119 122
164 118 113
162 117 112
163 119 115
164 118 118
162 119 115
163 119 115
163 118 108
164 119 113
161 117 112
160 117 112
163 118 113
160 117 110
162 118 110
165 119 115
164 119 118
165 120 118
165 120 122
164 118 106
163 118 110
165 120 117
167 120 120
165 120 123
165 119 117
166 120 117
162 118 112
163 119 118
163 119 118
169 122 122
167 121 126
166 121 123
164 119 113
166 120 123
161 117 110
163 119 115
165 120 115
161 117 112
165 119 115
162 118 112
164 119 112
161 118 112
165 120 120
166 120 122
160 116 106
161 116 112
160 117 118
164 118 117
161 116 112
168 121 128
166 120 118
162 118 112
163 120 123
163 118 112
168 121 123
161 117 112
167 121 125
161 118 113
157 115 95
161 118 110
164 119 115
163 119 115
164 119 118
165 119 115
167 121 122
168 122 131
161 118 115
159 116 104
165 120 125
161 117 106
163 118 115
166 120 122
165 120 117
163 119 118
164 119 117
164 119 122
164 118 118
161 118 122
165 120 117
163 119 122
164 119 117
167 120 117
160 117 115
163 118 110
160 117 112
165 120 120
166 121 123
162 119 117
164 119 122
162 119 115
163 119 115
162 118 112
165 118 113
166 120 120
164 119 123
166 120 120
165 120 117
164 119 120
164 119 118
165 120 125
167 121 123
164 119 118
206 216 237
214 231 255
214 231 255
214 231 255
214 231 255
214 231 255
214 231 255
214 231 255
214 231 255
214 232 255
214 232 255
214 232 255
214 232 255
214 232 255
214 232 255
214 232 255
214 232 255
214 232 255
214 232 255
214 232 255
214 232 255
214 232 255
214 232 255
214 232 255
214 232 255
214 232 255
214 232 255
214 232 255
214 232 255
215 232 255
215 232 255
215 232 255
215 232 255
215 232 255
215 232 255
215 232 255
215 232 255
215 232 255
215 232 255
215 232 255
215 232 255
215 232 255
215 232 255
215 232 255
215 232 255
215 232 255
215 232 255
215 232 255
215 232 255
215 232 255
215 232 255
215 232 255
215 232 255
215 232 255
215 232 255
215 232 255
215 232 255
215 232 255
215 232 255
215 232 255
215 232 255
215 232 255
215 232 255
215 232 255
215 232 255
215 232 255
215 232 255
215 232 255
215 232 255
215 232 255
215 232 255
215 232 255
215 232 255
215 232 255
215 232 255
215 232 255
215 232 255
215 232 255
215 232 255
215 232 255
215 232 255
215 232 255
215 232 255
215 232 255
215 232 255
215 232 255
215 232 255
215 232 255
215 232 255
215 232 255
215 232 255
215 232 255
215 232 255
215 232 255
215 232 255
215 232 255
215 232 255
215 232 255
215 232 255
215 232 255
215 232 255
214 232 255
214 232 255
214 232 255
214 232 255
214 232 255
214 232 255
214 232 255
214 232 255
214 232 255
214 232 255
214 232 255
214 232 255
214 232 255
214 232 255
214 232 255
214 232 255
214 232 255
214 232 255
214 232 255
191 186 203
165 119 120
165 120 120
165 120 117
163 118 113
166 120 118
163 119 115
161 118 113
165 120 120
166 121 125
163 119 118
164 119 118
165 119 118
164 119 118
165 120 120
165 120 120
162 118 117
163 119 118
164 119 117
164 119 113
165 120 123
166 121 125
164 120 123
160 117 112
166 120 123
166 120 120
166 120 120
165 120 125
162 118 112
161 118 110
161 118 117
166 120 122
161 119 118
164 119 120
163 119 117
161 118 112
162 118 113
166 120 120
163 119 112
162 117 108
163 118 117
167 121 125
169 121 125
168 121 118
158 116 108
166 120 117
161 118 112
161 117 108
169 121 130
165 120 115
161 117 101
166 120 120
167 121 128
160 117 106
166 120 118
164 118 113
163 120 123
162 117 110
165 119 120
163 119 117
159 117 104
165 120 115
164 119 117
162 118 112
164 119 117
166 120 122
166 119 123
162 118 113
163 119 122
164 119 115
165 120 118
161 117 112
163 118 115
169 121 122
159 116 104
164 118 113
164 118 118
165 120 118
164 118 106
164 119 117
166 121 125
162 119 115
164 119 115
162 118 117
165 119 118
162 119 117
165 119 113
164 119 112
162 118 113
162 118 110
160 117 110
164 119 110
164 119 120
165 120 120
166 120 120
158 116 104
164 119 120
161 117 110
165 120 115
166 121 125
163 119 115
166 120 122
162 118 117
166 120 122
164 119 120
164 119 115
164 119 112
164 119 115
169 121 122
165 119 115
162 118 112
160 118 122
167 121 125
162 117 112
163 119 117
162 118 112
163 118 112
164 119 118
164 118 118
166 120 117
162 118 118
166 120 112
168 121 122
165 119 118
163 119 112
166 120 117
164 119 117
163 119 120
166 120 117
164 117 115
162 118 115
163 118 112
165 120 122
166 120 120
164 119 118
161 118 117
186 175 189
214 232 255
214 232 255
214 232 255
214 232 255
214 232 255
214 232 255
214 232 255
214 232 255
214 232 255
214 232 255
214 232 255
214 232 255
214 232 255
214 232 255
214 232 255
214 232 255
214 232 255
214 232 255
215 232 255
215 232 255
215 232 255
215 232 255
215 232 255
215 232 255
215 232 255
215 232 255
215 232 255
215 232 255
215 232 255
215 232 255
215 232 255
215 232 255
215 232 255
215 232 255
215 232 255
215 232 255
215 232 255
215 232 255
215 232 255
215 232 255
215 232 255
215 232 255
215 232 255
215 232 255
215 232 255
215 232 255
215 232 255
215 232 255
215 232 255
215 232 255
215 232 255
215 232 255
215 232 255
215 232 255
215 232 255
215 232 255
215 232 255
215 232 255
215 232 255
215 232 255
216 232 255
216 232 255
216 232 255
216 232 255
216 232 255
216 232 255
216 232 255
215 232 255
215 232 255
215 232 255
215 232 255
215 232 255
215 232 255
215 232 255
215 232 255
215 232 255
215 232 255
215 232 255
215 232 255
215 232 255
215 232 255
215 232 255
215 232 255
215 232 255
215 232 255
215 232 255
215 232 255
215 232 255
215 232 255
215 232 255
215 232 255
215 232 255
215 232 255
215 232 255
215 232 255
215 232 255
215 232 255
215 232 255
215 232 255
215 232 255
215 232 255
215 232 255
215 232 255
215 232 255
215 232 255
215 232 255
215 232 255
215 232 255
215 232 255
215 232 255
214 232 255
215 232 255
214 232 255
214 232 255
214 232 255
214 232 255
214 232 255
214 232 255
212 228 252
167 129 135
162 118 113
163 118 113
164 119 118
162 118 110
163 119 117
164 119 118
163 119 118
166 120 125
163 119 115
163 119 115
165 120 125
164 119 115
168 122 130
169 122 130
161 118 118
163 118 113
164 119 118
166 121 128
165 119 122
163 119 120
163 119 112
163 118 106
164 118 110
163 118 118
161 116 108
164 120 122
165 120 117
160 118 117
164 119 112
162 119 118
163 119 113
162 118 117
162 118 113
161 117 106
168 121 126
166 120 115
164 119 115
163 117 115
163 119 115
163 119 118
164 119 117
163 119 120
159 115 103
167 121 122
167 120 113
162 117 110
164 119 117
164 119 117
165 118 112
163 118 110
163 119 115
166 120 126
165 119 118
163 117 113
165 120 117
163 118 106
162 118 113
166 119 118
162 118 113
164 118 112
161 117 108
161 117 112
163 118 108
164 118 113
161 118 112
163 119 117
163 118 115
159 117 104
163 119 113
167 121 125
164 119 118
162 118 117
164 119 113
162 118 118
165 120 122
162 117 110
161 118 112
162 118 113
162 118 115
158 115 103
165 120 117
168 121 126
166 119 115
165 119 117
164 118 113
163 119 117
161 118 117
166 119 122
165 119 113
165 119 120
164 119 120
162 117 108
163 118 110
162 118 113
164 120 118
161 117 115
164 119 113
164 119 117
163 119 113
164 119 117
165 119 115
163 119 112
161 117 110
165 120 120
163 119 113
163 119 118
162 118 106
167 121 123
160 117 106
166 120 120
165 119 122
161 117 106
165 119 120
163 119 120
164 119 117
163 117 117
162 118 117
166 120 123
168 121 125
163 119 115
167 121 128
168 121 123
164 120 126
160 115 106
163 119 122
164 119 117
163 118 112
161 118 110
165 119 118
164 119 120
160 118 117
166 120 122
166 119 117
161 117 113
166 121 126
167 126 129
213 228 252
214 232 255
214 232 255
214 232 255
214 232 255
214 232 255
214 232 255
214 232 255
215 232 255
215 232 255
215 232 255
215 232 255
215 232 255
215 232 255
215 232 255
215 232 255
215 232 255
215 232 255
215 232 255
215 232 255
215 232 255
215 232 255
215 232 255
215 232 255
215 232 255
215 232 255
215 232 255
215 232 255
215 232 255
215 232 255
215 232 255
215 232 255
215 232 255
215 232 255
215 232 255
215 232 255
215 232 255
215 232 255
215 232 255
215 232 255
215 232 255
215 232 255
215 232 255
215 232 255
215 232 255
215 232 255
215 232 255
215 232 255
215 232 255
215 232 255
215 232 255
215 232 255
216 232 255
216 232 255
216 232 255
216 232 255
216 232 255
216 232 255
216 232 255
216 232 255
216 233 255
216 233 255
216 233 255
216 232 255
216 232 255
216 232 255
216 232 255
216 232 255
216 232 255
216 232 255
216 232 255
216 232 255
216 232 255
216 232 255
216 232 255
216 232 255
216 232 255
215 232 255
215 232 255
215 232 255
215 232 255
215 232 255
215 232 255
215 232 255
215 232 255
215 232 255
215 232 255
215 232 255
215 232 255
215 232 255
215 232 255
215 232 255
215 232 255
215 232 255
215 232 255
215 232 255
215 232 255
215 232 255
215 232 255
215 232 255
215 232 255
215 232 255
215 232 255
215 232 255
215 232 255
215 232 255
215 232 255
215 232 255
215 232 255
215 232 255
215 232 255
215 232 255
215 232 255
215 232 255
215 232 255
215 232 255
215 232 255
215 232 255
195 193 209
162 117 112
164 120 122
160 117 110
162 118 112
164 120 125
164 119 115
163 118 108
163 118 120
161 118 115
165 119 112
162 118 115
167 120 123
164 119 118
163 118 117
165 119 118
166 120 120
166 119 123
161 117 106
160 116 104
168 121 122
167 121 128
160 118 113
163 118 118
162 118 112
162 118 117
162 119 118
159 116 104
164 120 120
163 118 113
161 117 112
165 119 113
162 118 112
162 119 115
166 120 126
165 119 117
162 117 108
162 118 110
163 117 115
163 119 117
164 119 117
165 120 115
163 118 112
166 120 115
164 119 118
160 118 113
163 119 115
162 118 120
160 117 104
166 121 123
163 119 112
164 118 120
160 117 108
161 117 110
161 117 110
160 117 106
165 119 115
164 119 118
160 116 106
165 120 122
162 119 117
168 121 123
162 118 112
159 116 108
164 119 118
163 119 115
160 117 112
166 120 118
165 120 123
164 119 108
162 118 112
165 119 118
167 121 126
164 119 115
162 119 117
164 119 117
160 116 104
160 116 103
163 118 110
165 119 120
162 118 112
161 117 115
164 119 113
162 119 118
160 117 113
163 118 117
163 119 113
166 120 122
161 118 117
167 121 125
164 119 115
168 121 122
164 120 120
165 120 118
166 121 123
163 119 120
160 117 104
164 119 117
162 117 108
164 119 113
164 120 122
163 118 117
165 120 117
162 118 115
163 119 112
164 118 112
163 118 110
162 118 112
163 118 112
165 120 123
161 117 112
162 118 112
161 118 117
164 119 118
164 119 115
161 117 112
169 121 120
163 118 110
165 120 120
165 120 125
163 119 113
163 118 115
168 121 123
163 119 120
164 118 113
162 118 106
162 118 115
169 121 120
166 120 118
164 120 120
164 120 118
162 118 110
166 120 115
167 120 125
165 120 117
162 118 113
166 120 122
164 119 118
201 208 226
215 232 255
215 232 255
215 232 255
215 232 255
215 232 255
215 232 255
215 232 255
215 232 255
215 232 255
215 232 255
215 232 255
215 232 255
215 232 255
215 232 255
215 232 255
215 232 255
215 232 255
215 232 255
215 232 255
215 232 255
215 232 255
215 232 255
215 232 255
215 232 255
215 232 255
215 232 255
215 232 255
215 232 255
215 232 255
215 232 255
215 232 255
215 232 255
215 232 255
215 232 255
215 232 255
215 232 255
215 232 255
215 232 255
215 232 255
215 232 255
215 232 255
216 232 255
216 232 255
216 232 255
216 232 255
216 232 255
216 232 255
216 232 255
216 232 255
216 232 255
216 232 255
216 232 255
216 232 255
216 232 255
216 232 255
216 233 255
216 233 255
216 233 255
216 233 255
216 233 255
216 233 255
216 233 255
216 233 255
216 233 255
216 233 255
216 233 255
216 233 255
216 233 255
216 233 255
216 233 255
216 233 255
216 232 255
216 232 255
216 232 255
216 232 255
216 232 255
216 232 255
216 232 255
216 232 255
216 232 255
216 232 255
216 232 255
216 232 255
216 232 255
216 232 255
216 232 255
215 232 255
215 232 255
215 232 255
215 232 255
215 232 255
215 232 255
215 232 255
215 232 255
215 232 255
215 232 255
215 232 255
215 232 255
215 232 255
215 232 255
215 232 255
215 232 255
215 232 255
215 232 255
215 232 255
215 232 255
215 232 255
215 232 255
215 232 255
215 232 255
215 232 255
215 232 255
215 232 255
215 232 255
215 232 255
215 232 255
215 232 255
176 153 157
167 121 125
163 119 117
164 119 125
163 118 112
160 117 106
162 118 108
166 120 118
159 117 110
162 118 113
165 118 115
167 121 125
163 119 113
165 119 122
163 119 120
161 117 108
165 119 115
164 119 117
167 120 117
165 121 128
163 119 120
161 118 112
162 118 110
162 118 110
161 117 112
164 119 117
163 119 117
164 119 118
165 120 117
165 120 118
164 119 112
165 120 117
163 118 108
164 118 108
164 119 113
160 118 112
163 118 108
163 118 113
161 117 104
162 118 110
164 119 115
164 119 120
162 118 108
166 120 118
167 121 122
162 118 115
160 117 112
162 118 118
164 118 113
162 117 108
164 119 118
163 118 112
159 117 106
162 118 110
160 117 110
162 118 110
170 123 131
162 118 110
163 119 118
161 116 104
160 116 103
164 119 120
163 118 112
162 117 117
164 119 117
163 118 115
161 117 104
162 118 113
163 118 108
167 120 118
160 116 108
165 120 113
165 119 112
164 119 115
163 119 112
164 119 113
164 117 113
160 116 103
161 118 108
162 118 110
164 119 117
162 118 112
163 119 118
163 119 118
164 119 110
164 118 110
163 119 118
164 118 115
164 119 117
163 119 113
166 120 118
165 120 117
167 120 117
165 119 115
160 117 113
160 116 110
161 117 112
164 119 112
166 120 115
163 119 120
164 118 112
163 119 117
164 119 120
163 119 118
169 122 125
164 119 115
160 117 113
163 118 113
164 120 120
165 120 117
159 117 115
167 121 125
161 118 110
164 119 118
160 116 104
165 120 115
166 120 120
163 119 113
168 121 122
161 118 113
160 116 108
162 117 112
160 116 112
165 120 117
166 120 117
166 120 122
164 120 122
159 117 115
165 120 118
164 118 110
161 117 101
162 118 113
164 119 120
165 120 123
167 121 120
162 118 115
162 118 113
164 118 120
183 166 176
215 232 255
215 232 255
215 232 255
215 232 255
215 232 255
215 232 255
215 232 255
215 232 255
215 232 255
215 232 255
215 232 255
215 232 255
215 232 255
215 232 255
215 232 255
215 232 255
215 232 255
215 232 255
215 232 255
215 232 255
215 232 255
215 232 255
215 232 255
215 232 255
215 232 255
215 232 255
215 232 255
215 232 255
215 232 255
215 232 255
215 232 255
216 232 255
216 232 255
216 232 255
216 232 255
216 232 255
216 232 255
216 232 255
216 232 255
216 232 255
216 232 255
216 232 255
216 232 255
216 232 255
216 232 255
216 232 255
216 233 255
216 233 255
216 233 255
216 233 255
216 233 255
216 233 255
216 233 255
216 233 255
216 233 255
216 233 255
216 233 255
216 233 255
216 233 255
216 233 255
216 233 255
216 233 255
216 233 255
216 233 255
216 233 255
216 233 255
216 233 255
216 233 255
216 233 255
216 233 255
216 233 255
216 233 255
216 233 255
216 233 255
216 233 255
216 233 255
216 233 255
216 233 255
216 233 255
216 233 255
216 233 255
216 233 255
216 232 255
216 232 255
216 232 255
216 232 255
216 232 255
216 232 255
216 232 255
216 232 255
216 232 255
216 232 255
216 232 255
216 232 255
216 232 255
216 232 255
216 232 255
215 232 255
215 232 255
215 232 255
215 232 255
215 232 255
215 232 255
215 232 255
215 232 255
215 232 255
215 232 255
215 232 255
215 232 255
215 232 255
215 232 255
215 232 255
215 232 255
215 232 255
215 232 255
215 232 255
208 218 240
163 119 113
164 118 115
162 118 104
164 119 118
165 120 123
166 120 122
165 119 115
166 120 118
164 119 115
163 118 117
161 116 108
163 119 118
163 119 118
158 116 101
164 119 115
164 119 117
163 119 118
160 117 106
161 118 113
164 119 113
164 119 112
164 119 117
166 120 120
166 120 115
159 116 103
162 118 108
159 116 99
161 117 108
162 117 112
163 118 110
164 119 117
159 117 106
157 114 103
162 118 115
163 119 113
164 118 117
161 117 110
165 119 113
161 117 110
163 118 117
167 120 126
161 117 103
167 120 117
160 115 99
165 119 113
168 121 122
161 117 108
166 120 118
164 119 115
163 119 115
168 122 128
163 118 113
163 119 110
164 119 113
165 119 122
162 118 113
165 119 112
166 120 120
159 117 110
159 116 103
165 120 122
163 118 112
163 119 120
166 120 113
164 118 120
162 118 108
162 117 110
164 119 118
161 117 115
165 119 113
165 119 112
163 119 118
163 118 113
161 117 108
164 120 118
164 119 117
162 118 117
162 118 110
162 118 112
160 117 104
163 119 120
165 119 120
167 121 123
164 118 120
165 120 115
165 120 117
161 118 113
164 119 115
164 118 118
160 117 113
163 119 110
162 117 112
160 117 104
163 119 113
163 118 108
161 117 106
166 121 123
160 117 112
162 118 113
161 117 117
162 118 110
160 117 106
164 118 117
162 119 117
161 118 112
163 117 112
164 119 117
163 118 118
162 118 113
160 117 108
165 119 118
164 118 113
163 119 115
167 120 120
165 119 120
162 118 112
159 117 103
162 118 117
163 118 110
161 116 108
164 119 115
162 118 108
162 118 117
163 118 104
161 118 113
165 119 117
159 116 106
167 121 122
164 119 113
165 120 122
165 120 120
164 118 112
165 120 123
162 118 115
167 121 122
162 118 108
164 119 118
162 118 106
162 118 117
210 222 244
215 232 255
215 232 255
215 232 255
215 232 255
215 232 255
215 232 255
215 232 255
215 232 255
215 232 255
215 232 255
215 232 255
215 232 255
215 232 255
215 232 255
215 232 255
215 232 255
215 232 255
215 232 255
215 232 255
216 232 255
216 232 255
216 232 255
216 232 255
216 232 255
216 232 255
216 232 255
216 232 255
216 232 255
216 232 255
216 232 255
216 232 255
216 232 255
216 232 255
216 232 255
216 233 255
216 233 255
216 233 255
216 233 255
216 233 255
216 233 255
216 233 255
216 233 255
216 233 255
216 233 255
216 233 255
216 233 255
216 233 255
216 233 255
216 233 255
216 233 255
216 233 255
216 233 255
216 233 255
216 233 255
216 233 255
216 233 255
216 233 255
216 233 255
216 233 255
216 233 255
216 233 255
216 233 255
216 233 255
216 233 255
216 233 255
216 233 255
216 233 255
216 233 255
216 233 255
216 233 255
216 233 255
216 233 255
216 233 255
216 233 255
216 233 255
216 233 255
216 233 255
216 233 255
216 233 255
216 233 255
216 233 255
216 233 255
216 233 255
216 233 255
216 233 255
216 233 255
216 233 255
216 233 255
216 233 255
216 233 255
216 233 255
216 233 255
216 232 255
216 232 255
216 232 255
216 232 255
216 232 255
216 232 255
216 232 255
216 232 255
216 232 255
216 232 255
216 232 255
216 232 255
216 232 255
216 232 255
216 232 255
216 232 255
215 232 255
215 232 255
215 232 255
215 232 255
215 232 255
215 232 255
215 232 255
200 202 220
164 120 120
165 119 110
160 117 112
163 118 113
165 120 122
162 118 113
163 119 115
166 120 120
161 117 117
163 119 120
163 118 115
159 116 106
164 119 118
164 119 113
165 120 117
167 121 125
164 119 118
165 119 112
161 118 112
166 119 118
163 118 115
163 119 115
162 118 112
168 121 123
165 120 115
162 119 117
164 118 112
166 120 120
164 119 117
159 116 99
158 116 108
164 119 113
165 120 118
162 117 112
164 119 117
164 119 110
165 119 117
164 119 117
161 116 106
165 119 112
161 117 104
165 120 118
164 119 120
160 116 104
166 120 115
164 119 115
163 118 112
161 118 108
163 119 117
166 121 122
162 118 112
164 119 115
160 117 104
163 118 117
164 118 113
158 115 101
161 118 112
167 120 120
164 119 115
167 121 120
163 118 117
161 117 106
163 118 117
166 120 118
159 116 103
165 119 115
163 119 118
160 115 108
161 117 115
164 119 113
167 121 125
163 119 115
162 118 113
163 118 115
163 119 118
160 116 103
162 118 108
160 116 104
167 120 118
162 118 115
158 115 103
158 115 101
164 119 117
160 116 106
164 119 115
164 118 113
164 119 118
163 118 115
164 119 108
163 119 113
164 119 120
164 119 115
163 119 112
159 116 106
167 121 128
164 117 110
163 118 110
161 116 110
161 117 106
160 116 99
164 119 110
165 119 122
163 118 113
165 119 122
160 116 112
161 117 112
162 118 110
165 120 118
163 118 112
162 118 110
162 117 115
164 120 120
164 119 115
161 118 110
162 118 115
163 118 110
162 119 117
163 119 113
159 116 110
163 119 117
164 119 117
164 119 118
165 120 118
164 119 117
162 118 113
158 114 103
165 119 118
165 119 118
158 115 103
164 119 118
163 119 113
163 118 113
165 120 123
167 121 128
163 119 117
159 116 106
165 120 118
167 121 125
160 116 108
193 185 200
215 232 255
215 232 255
215 232 255
215 232 255
215 232 255
215 232 255
215 232 255
216 232 255
216 232 255
216 232 255
216 232 255
216 232 255
216 232 255
216 232 255
216 232 255
216 232 255
216 232 255
216 232 255
216 232 255
216 232 255
216 232 255
216 232 255
216 232 255
216 233 255
216 233 255
216 233 255
216 233 255
216 233 255
216 233 255
216 233 255
216 233 255
216 233 255
216 233 255
216 233 255
216 233 255
216 233 255
216 233 255
216 233 255
216 233 255
216 233 255
216 233 255
216 233 255
216 233 255
216 233 255
216 233 255
216 233 255
216 233 255
216 233 255
216 233 255
216 233 255
216 233 255
216 233 255
216 233 255
216 233 255
216 233 255
216 233 255
216 233 255
216 233 255
217 233 255
217 233 255
217 233 255
217 233 255
217 233 255
217 233 255
217 233 255
217 233 255
217 233 255
217 233 255
216 233 255
216 233 255
216 233 255
216 233 255
216 233 255
216 233 255
216 233 255
216 233 255
216 233 255
216 233 255
216 233 255
216 233 255
216 233 255
216 233 255
216 233 255
216 233 255
216 233 255
216 233 255
216 233 255
216 233 255
216 233 255
216 233 255
216 233 255
216 233 255
216 233 255
216 233 255
216 233 255
216 233 255
216 233 255
216 233 255
216 233 255
216 233 255
216 233 255
216 233 255
216 233 255
216 233 255
216 232 255
216 232 255
216 232 255
216 232 255
216 232 255
216 232 255
216 232 255
216 232 255
216 232 255
216 232 255
216 232 255
176 147 156
168 121 123
166 121 123
164 118 113
163 119 115
164 119 115
163 119 113
161 118 108
163 119 120
167 121 128
164 119 115
167 120 118
164 119 118
162 118 108
165 120 115
163 118 110
164 119 117
162 118 112
161 117 104
166 120 120
163 118 118
166 121 126
160 117 106
162 118 108
164 119 115
164 119 115
161 117 106
160 117 108
164 119 117
166 120 118
165 119 117
163 119 115
161 116 104
162 117 108
165 119 113
158 116 101
159 116 103
164 120 122
163 117 108
167 121 123
164 118 120
163 118 117
162 118 112
163 118 117
162 118 113
165 119 118
160 117 110
161 117 112
163 118 110
164 118 113
163 118 117
163 118 110
162 118 112
167 121 122
166 121 123
166 120 122
160 116 106
162 118 118
165 119 120
166 120 120
165 120 125
162 116 110
165 119 112
164 119 113
163 119 115
162 118 106
161 118 112
164 119 117
161 117 110
159 116 106
165 120 117
157 116 103
164 117 110
163 117 108
166 120 117
163 118 112
163 118 108
158 114 103
161 117 108
167 120 117
165 120 118
165 120 122
165 120 117
162 118 112
162 117 112
163 118 117
166 120 117
163 119 120
164 119 112
164 119 112
158 117 110
165 119 118
165 120 122
163 118 113
161 117 108
162 117 103
165 119 110
164 119 113
163 119 118
160 117 110
164 119 117
163 118 110
165 120 118
162 118 108
163 119 115
165 120 125
162 117 112
165 119 115
161 117 112
165 118 120
163 118 117
163 119 115
162 118 110
163 118 110
161 118 110
166 120 113
166 120 120
162 118 118
162 116 108
164 119 115
164 119 118
163 118 112
163 118 112
163 119 120
165 119 120
163 118 112
160 117 106
159 117 104
161 118 108
165 119 117
164 120 118
159 116 112
164 119 112
164 119 113
163 119 113
163 119 113
163 119 118
160 117 110
164 119 118
165 120 118
180 163 170
216 232 255
216 232 255
216 232 255
216 232 255
216 232 255
216 232 255
216 232 255
216 232 255
216 232 255
216 232 255
216 232 255
216 233 255
216 233 255
216 233 255
216 233 255
216 233 255
216 233 255
216 233 255
216 233 255
216 233 255
216 233 255
216 233 255
216 233 255
216 233 255
216 233 255
216 233 255
216 233 255
216 233 255
216 233 255
216 233 255
216 233 255
216 233 255
216 233 255
216 233 255
216 233 255
216 233 255
216 233 255
216 233 255
216 233 255
216 233 255
216 233 255
216 233 255
216 233 255
216 233 255
216 233 255
216 233 255
216 233 255
217 233 255
217 233 255
217 233 255
217 233 255
217 233 255
217 233 255
217 233 255
217 233 255
217 233 255
217 233 255
217 233 255
217 233 255
217 233 255
217 233 255
217 233 255
217 233 255
217 233 255
217 233 255
217 233 255
217 233 255
217 233 255
217 233 255
217 233 255
217 233 255
217 233 255
217 233 255
217 233 255
217 233 255
217 233 255
217 233 255
217 233 255
217 233 255
217 233 255
217 233 255
216 233 255
216 233 255
216 233 255
216 233 255
216 233 255
216 233 255
216 233 255
216 233 255
216 233 255
216 233 255
216 233 255
216 233 255
216 233 255
216 233 255
216 233 255
216 233 255
216 233 255
216 233 255
216 233 255
216 233 255
216 233 255
216 233 255
216 233 255
216 233 255
216 233 255
216 233 255
216 233 255
216 233 255
216 233 255
216 233 255
216 233 255
216 233 255
216 233 255
213 226 247
163 122 121
165 119 117
166 120 118
163 119 117
162 119 118
160 117 101
163 118 112
167 121 120
163 118 110
164 119 115
164 120 120
161 118 113
167 120 118
162 118 113
165 119 113
164 120 120
167 120 113
165 119 120
162 118 113
163 119 112
164 118 110
161 118 112
165 119 120
162 117 117
160 116 101
165 120 117
166 120 122
166 120 118
162 118 117
162 118 113
164 119 117
167 121 123
162 118 106
167 121 122
162 118 113
165 119 117
160 115 108
164 118 112
161 117 108
166 120 120
164 119 117
161 117 110
165 120 117
162 118 108
164 119 112
165 119 115
164 119 115
162 118 112
161 117 104
160 116 104
164 119 115
162 118 112
163 118 104
161 116 101
163 118 112
161 117 106
163 117 106
163 118 113
161 118 112
166 120 120
163 118 115
167 121 123
166 120 117
164 118 117
166 120 120
164 119 117
166 120 122
161 118 106
162 118 110
160 117 110
159 117 104
163 118 113
164 119 112
160 117 110
164 118 106
158 116 103
162 119 120
155 114 93
161 118 110
164 119 120
162 118 110
164 120 122
165 120 118
164 119 117
165 119 115
164 118 112
159 116 108
164 119 113
162 117 106
164 119 113
164 119 112
161 117 108
164 119 118
162 118 108
164 119 113
163 119 117
164 119 113
163 118 115
163 118 113
164 119 115
163 118 110
159 117 112
165 118 115
163 118 113
162 117 115
162 117 106
162 117 108
163 119 112
158 116 99
163 118 113
164 119 115
163 118 112
166 119 117
164 119 117
161 117 110
163 118 113
165 120 120
162 118 112
167 120 122
162 118 113
166 120 122
160 117 110
165 119 117
162 118 110
163 118 113
163 119 113
160 116 103
164 118 117
165 120 118
165 119 118
161 116 103
165 120 120
161 118 110
167 120 118
164 118 110
164 119 115
165 120 115
163 118 115
166 120 118
158 116 101
163 119 112
215 229 252
216 233 255
216 233 255
216 233 255
216 233 255
216 233 255
216 233 255
216 233 255
216 233 255
216 233 255
216 233 255
216 233 255
216 233 255
216 233 255
216 233 255
216 233 255
216 233 255
216 233 255
216 233 255
216 233 255
216 233 255
216 233 255
216 233 255
216 233 255
216 233 255
216 233 255
216 233 255
216 233 255
216 233 255
216 233 255
216 233 255
216 233 255
216 233 255
216 233 255
217 233 255
217 233 255
217 233 255
217 233 255
217 233 255
217 233 255
217 233 255
217 233 255
217 233 255
217 233 255
217 233 255
217 233 255
217 233 255
217 233 255
217 233 255
217 233 255
217 233 255
217 233 255
217 233 255
217 233 255
217 233 255
217 233 255
217 233 255
217 233 255
217 233 255
217 233 255
217 233 255
217 233 255
217 233 255
217 233 255
217 233 255
217 233 255
217 233 255
217 233 255
217 233 255
217 233 255
217 233 255
217 233 255
217 233 255
217 233 255
217 233 255
217 233 255
217 233 255
217 233 255
217 233 255
217 233 255
217 233 255
217 233 255
217 233 255
217 233 255
217 233 255
217 233 255
217 233 255
217 233 255
217 233 255
217 233 255
217 233 255
217 233 255
217 233 255
216 233 255
216 233 255
216 233 255
216 233 255
216 233 255
216 233 255
216 233 255
216 233 255
216 233 255
216 233 255
216 233 255
216 233 255
216 233 255
216 233 255
216 233 255
216 233 255
216 233 255
216 233 255
216 233 255
216 233 255
216 233 255
200 200 217
160 116 103
165 120 120
163 119 113
162 118 117
162 119 118
160 117 103
161 117 110
164 119 117
165 120 122
163 118 115
160 117 110
164 119 118
162 118 108
162 118 117
163 119 113
161 117 104
161 118 110
165 120 115
163 119 113
163 119 112
162 117 110
162 118 108
164 119 110
165 119 113
161 117 108
164 119 115
158 116 104
161 117 112
159 117 108
163 119 122
163 118 108
165 119 115
164 119 108
166 120 123
158 115 104
160 117 106
161 117 103
163 119 113
166 120 115
162 117 110
162 118 110
165 119 108
162 118 113
166 120 120
165 119 118
162 117 110
162 117 112
165 120 117
159 116 108
162 118 113
162 118 112
161 117 112
160 117 108
164 119 112
164 118 108
159 115 97
166 120 117
163 118 104
165 118 115
162 117 108
162 118 106
162 118 112
163 118 110
159 117 104
164 120 122
163 118 110
159 115 101
166 120 120
162 117 110
163 118 115
165 119 112
162 118 118
160 117 108
162 118 110
163 119 115
163 118 113
164 119 112
166 119 115
162 118 113
161 118 110
164 118 115
163 118 113
162 118 113
161 118 115
162 117 106
166 121 125
161 117 108
162 118 112
162 117 112
164 119 113
167 121 122
162 117 108
162 118 117
161 117 106
161 118 115
162 118 110
159 116 103
159 116 106
164 117 108
160 115 99
164 118 112
161 117 113
160 116 108
162 118 110
162 118 115
161 117 110
163 117 113
161 118 108
164 119 115
166 119 120
165 120 118
165 120 122
165 119 120
160 117 110
163 118 113
164 119 113
158 114 106
164 118 115
166 120 122
164 119 122
164 118 112
164 119 113
168 121 126
161 118 110
159 116 106
160 116 108
162 118 110
160 117 112
162 118 108
162 118 108
162 118 108
166 121 125
167 120 118
163 119 120
162 118 110
165 119 117
162 118 113
168 121 122
160 117 110
161 118 118
164 119 115
198 197 213
216 233 255
216 233 255
216 233 255
216 233 255
216 233 255
216 233 255
216 233 255
216 233 255
216 233 255
216 233 255
216 233 255
216 233 255
216 233 255
216 233 255
216 233 255
216 233 255
216 233 255
216 233 255
216 233 255
216 233 255
216 233 255
217 233 255
217 233 255
217 233 255
217 233 255
217 233 255
217 233 255
217 233 255
217 233 255
217 233 255
217 233 255
217 233 255
217 233 255
217 233 255
217 233 255
217 233 255
217 233 255
217 233 255
217 233 255
217 233 255
217 233 255
217 233 255
217 233 255
217 233 255
217 233 255
217 233 255
217 233 255
217 233 255
217 233 255
217 233 255
217 233 255
217 233 255
217 233 255
217 233 255
217 233 255
217 233 255
217 233 255
217 233 255
217 233 255
217 233 255
217 233 255
217 233 255
217 233 255
217 233 255
217 233 255
217 233 255
217 233 255
217 233 255
217 233 255
217 233 255
217 233 255
217 233 255
217 233 255
217 233 255
217 233 255
217 233 255
217 233 255
217 233 255
217 233 255
217 233 255
217 233 255
217 233 255
217 233 255
217 233 255
217 233 255
217 233 255
217 233 255
217 233 255
217 233 255
217 233 255
217 233 255
217 233 255
217 233 255
217 233 255
217 233 255
217 233 255
217 233 255
217 233 255
217 233 255
217 233 255
217 233 255
217 233 255
217 233 255
217 233 255
217 233 255
217 233 255
216 233 255
216 233 255
216 233 255
216 233 255
216 233 255
216 233 255
216 233 255
182 162 168
160 117 101
165 119 118
160 117 101
164 118 108
162 117 110
162 118 112
163 118 113
162 117 108
164 119 117
166 120 123
161 117 113
166 120 122
166 120 115
162 117 112
162 118 108
165 120 120
162 118 112
167 120 118
164 118 108
161 118 113
161 117 104
163 117 108
162 118 112
161 117 104
166 120 118
157 115 101
164 118 115
166 119 110
159 116 99
160 117 106
158 115 103
163 118 104
165 118 117
163 118 117
164 118 115
163 119 117
163 118 117
164 119 117
161 117 108
163 118 108
163 119 115
162 118 106
160 117 112
163 118 112
164 118 113
166 120 117
164 119 117
162 117 113
160 116 108
161 118 108
159 117 108
166 121 125
164 118 120
161 117 106
165 120 123
163 119 115
157 115 97
164 118 113
163 117 104
164 119 117
168 121 123
162 117 106
164 119 112
168 121 122
162 118 104
161 116 108
165 119 118
166 120 118
163 118 115
162 117 112
163 118 113
164 118 120
168 121 122
163 118 113
163 118 115
162 117 101
164 119 110
164 119 115
164 119 117
162 118 110
167 121 125
163 118 110
163 118 108
162 118 106
164 119 117
165 120 117
165 119 115
164 119 113
164 119 115
162 118 108
167 121 120
166 120 117
159 115 103
162 118 122
164 118 115
163 118 112
165 119 115
166 119 118
160 117 106
163 119 117
164 119 117
162 117 112
163 118 118
163 118 106
163 118 112
164 119 113
164 119 117
164 118 108
160 116 106
158 114 101
163 118 110
164 118 110
160 117 108
162 119 117
163 119 120
165 119 117
160 117 103
161 118 110
162 117 110
159 116 103
164 119 113
160 117 104
165 120 115
162 117 106
163 118 106
163 118 112
160 117 108
165 120 126
161 117 106
165 120 118
164 119 118
165 119 115
167 120 117
165 120 118
162 118 115
163 118 117
166 120 117
164 119 117
160 117 108
162 118 110
162 118 115
183 168 177
216 233 255
216 233 255
216 233 255
216 233 255
216 233 255
216 233 255
216 233 255
217 233 255
217 233 255
217 233 255
217 233 255
217 233 255
217 233 255
217 233 255
217 233 255
217 233 255
217 233 255
217 233 255
217 233 255
217 233 255
217 233 255
217 233 255
217 233 255
217 233 255
217 233 255
217 233 255
217 233 255
217 233 255
217 233 255
217 233 255
217 233 255
217 233 255
217 233 255
217 233 255
217 233 255
217 233 255
217 233 255
217 233 255
217 233 255
217 233 255
217 233 255
217 233 255
217 233 255
217 233 255
217 233 255
217 233 255
217 233 255
217 233 255
217 233 255
217 233 255
217 233 255
217 233 255
217 233 255
217 233 255
217 233 255
217 233 255
217 233 255
217 233 255
217 233 255
217 233 255
217 233 255
217 233 255
217 233 255
217 233 255
217 233 255
217 233 255
217 233 255
217 233 255
217 233 255
217 233 255
217 233 255
217 233 255
217 233 255
217 233 255
217 233 255
217 233 255
217 233 255
217 233 255
217 233 255
217 233 255
217 233 255
217 233 255
217 233 255
217 233 255
217 233 255
217 233 255
217 233 255
217 233 255
217 233 255
217 233 255
217 233 255
217 233 255
217 233 255
217 233 255
217 233 255
217 233 255
217 233 255
217 233 255
217 233 255
217 233 255
217 233 255
217 233 255
217 233 255
217 233 255
217 233 255
217 233 255
217 233 255
217 233 255
217 233 255
217 233 255
217 233 255
217 233 255
217 233 255
168 136 140
166 120 118
164 118 117
163 119 115
161 117 112
159 116 104
163 119 113
166 120 118
166 120 122
165 120 115
164 119 112
165 120 120
164 120 118
163 118 108
162 118 104
163 118 112
164 118 110
161 117 110
160 117 103
164 119 113
163 118 110
166 119 120
161 116 106
163 118 110
166 120 118
160 117 110
162 117 110
163 117 112
164 119 117
162 119 118
165 120 117
165 119 115
167 121 122
163 118 117
160 115 99
167 121 123
165 118 113
166 120 120
161 118 106
166 120 118
160 116 103
167 120 122
164 118 112
164 118 113
166 119 115
165 119 115
163 118 108
154 112 101
161 117 104
165 120 122
161 117 106
162 116 113
161 117 106
162 119 117
163 117 103
163 118 108
166 120 118
160 117 110
164 119 120
162 117 110
163 119 117
161 117 112
162 118 113
159 116 106
165 120 122
163 118 117
163 118 110
165 119 117
159 117 108
161 118 110
164 119 117
166 120 122
166 120 117
160 116 104
162 116 112
161 118 108
165 119 112
163 118 110
164 119 122
160 117 106
162 117 110
161 117 103
162 118 112
162 117 108
165 119 110
161 116 112
163 119 113
163 118 108
165 119 117
163 119 113
163 118 110
163 118 108
160 116 103
162 118 115
159 115 104
161 117 104
162 117 115
165 119 115
162 117 112
168 121 125
159 116 108
162 118 112
162 117 108
165 119 108
163 118 108
164 118 113
161 118 108
163 119 113
165 119 117
159 115 103
163 118 104
159 116 101
164 119 115
163 118 108
164 119 117
164 118 118
163 119 117
163 118 113
167 120 125
167 121 118
164 119 122
165 119 118
163 119 117
161 117 110
162 117 99
157 115 103
161 117 108
163 119 112
168 122 128
165 119 112
165 119 117
163 118 117
163 119 112
163 119 117
164 120 122
167 121 120
160 117 104
162 118 112
165 119 113
162 117 110
165 120 118
158 115 106
171 139 137
217 233 255
217 233 255
217 233 255
217 233 255
217 233 255
217 233 255
217 233 255
217 233 255
217 233 255
217 233 255
217 233 255
217 233 255
217 233 255
217 233 255
217 233 255
217 233 255
217 233 255
217 233 255
217 233 255
217 233 255
217 233 255
217 233 255
217 233 255
217 233 255
217 233 255
217 233 255
217 233 255
217 233 255
217 233 255
217 233 255
217 233 255
217 233 255
217 233 255
217 233 255
217 233 255
217 233 255
217 233 255
217 233 255
217 233 255
217 233 255
217 233 255
217 233 255
217 233 255
217 233 255
217 233 255
217 233 255
217 233 255
217 233 255
217 233 255
217 233 255
217 233 255
217 233 255
217 233 255
217 233 255
217 233 255
218 233 255
218 233 255
218 234 255
218 234 255
218 234 255
218 234 255
218 234 255
218 234 255
218 234 255
218 233 255
218 233 255
218 233 255
218 233 255
218 233 255
218 233 255
218 233 255
218 233 255
217 233 255
217 233 255
217 233 255
217 233 255
217 233 255
217 233 255
217 233 255
217 233 255
217 233 255
217 233 255
217 233 255
217 233 255
217 233 255
217 233 255
217 233 255
217 233 255
217 233 255
217 233 255
217 233 255
217 233 255
217 233 255
217 233 255
217 233 255
217 233 255
217 233 255
217 233 255
217 233 255
217 233 255
217 233 255
217 233 255
217 233 255
217 233 255
217 233 255
217 233 255
217 233 255
217 233 255
217 233 255
217 233 255
217 233 255
217 233 255
209 219 239
161 117 106
166 120 122
166 119 120
160 116 113
159 116 106
164 120 120
164 119 115
161 118 112
166 119 113
159 116 104
166 120 123
159 116 108
168 122 126
167 121 120
162 118 113
163 119 118
161 117 106
162 118 117
168 121 123
165 119 117
164 119 113
165 120 118
161 117 104
166 119 112
161 117 108
168 121 120
166 119 117
160 116 95
161 117 106
158 115 103
163 119 110
165 119 118
163 119 113
161 118 112
163 118 113
162 118 113
163 118 117
161 117 110
163 119 113
163 118 108
160 116 108
161 118 112
160 117 104
165 120 118
166 119 122
161 117 106
161 116 108
160 117 106
166 119 117
163 118 115
163 118 113
165 119 112
162 118 113
164 117 112
162 117 108
164 118 108
160 115 106
163 117 104
159 115 97
160 117 104
163 118 106
161 117 106
162 117 110
161 116 101
162 117 110
163 118 112
164 119 110
162 117 120
164 119 113
162 117 110
166 120 120
165 120 122
162 117 115
162 118 110
162 117 106
158 115 97
158 115 108
163 119 112
161 118 113
159 116 101
161 117 113
161 117 110
163 118 117
158 116 97
160 116 103
165 120 118
158 115 106
164 118 113
161 116 106
160 117 112
166 119 117
162 118 112
164 119 117
159 116 108
164 119 108
162 117 110
161 118 108
160 116 103
165 119 118
161 116 106
166 120 113
161 118 112
163 119 110
163 118 108
163 119 113
161 117 108
160 116 103
163 118 112
163 118 108
166 120 118
162 117 104
161 118 108
164 118 112
160 116 104
162 118 112
167 120 113
159 115 93
164 120 118
164 119 113
163 118 106
162 118 112
162 118 110
164 118 113
160 117 108
164 119 110
164 119 112
162 118 113
165 120 115
166 120 122
162 117 104
163 119 113
163 118 112
163 119 115
165 120 117
164 119 112
166 119 118
168 120 118
161 117 106
166 121 122
163 118 110
160 116 104
161 117 106
162 117 106
214 226 247
217 233 255
217 233 255
217 233 255
217 233 255
217 233 255
217 233 255
217 233 255
217 233 255
217 233 255
217 233 255
217 233 255
217 233 255
217 233 255
217 233 255
217 233 255
217 233 255
217 233 255
217 233 255
217 233 255
217 233 255
217 233 255
217 233 255
217 233 255
217 233 255
217 233 255
217 233 255
217 233 255
217 233 255
217 233 255
217 233 255
217 233 255
217 233 255
217 233 255
217 233 255
217 233 255
217 233 255
217 233 255
217 233 255
217 233 255
217 233 255
218 233 255
218 233 255
218 233 255
218 233 255
218 233 255
218 233 255
218 233 255
218 233 255
218 234 255
218 234 255
218 234 255
218 234 255
218 234 255
218 234 255
218 234 255
218 234 255
218 234 255
218 234 255
218 234 255
218 234 255
218 234 255
218 234 255
218 234 255
218 234 255
218 234 255
218 234 255
218 234 255
218 234 255
218 234 255
218 234 255
218 234 255
218 234 255
218 234 255
218 234 255
218 234 255
218 234 255
218 234 255
218 234 255
218 234 255
218 233 255
218 233 255
218 233 255
218 233 255
218 233 255
218 233 255
218 233 255
218 233 255
217 233 255
217 233 255
217 233 255
217 233 255
217 233 255
217 233 255
217 233 255
217 233 255
217 233 255
217 233 255
217 233 255
217 233 255
217 233 255
217 233 255
217 233 255
217 233 255
217 233 255
217 233 255
217 233 255
217 233 255
217 233 255
217 233 255
217 233 255
217 233 255
201 204 221
165 118 118
162 117 115
159 116 103
160 118 110
163 118 112
163 118 112
166 120 113
163 119 110
165 120 122
159 115 101
167 119 120
162 119 117
165 119 118
162 117 103
160 116 104
165 120 117
166 120 113
161 117 106
160 116 106
162 117 97
164 119 115
160 116 104
166 120 125
162 118 106
164 119 112
165 120 117
165 118 115
163 119 117
162 118 110
165 120 117
164 119 115
164 119 117
161 117 99
162 118 110
163 119 115
160 118 117
166 120 118
161 117 108
161 117 104
165 120 113
167 120 117
168 120 115
163 118 117
165 119 117
163 118 113
164 119 113
163 118 118
165 120 120
164 119 113
164 119 113
163 119 113
162 118 115
165 119 115
160 116 101
160 117 108
163 117 103
160 117 106
162 118 108
157 114 99
165 119 120
160 117 104
163 119 110
163 119 115
164 118 103
164 119 112
162 118 110
162 118 112
159 116 99
163 117 104
164 119 115
165 120 120
162 117 110
159 116 99
161 117 104
161 117 104
160 116 110
162 117 110
170 122 125
164 119 115
164 120 118
163 118 122
162 118 110
163 118 108
162 117 108
166 120 122
163 119 112
164 119 110
161 117 115
160 116 106
161 116 106
164 119 115
162 118 110
162 117 112
165 119 113
163 119 113
163 118 113
159 116 104
162 117 104
163 118 113
165 119 112
163 118 106
164 119 117
163 118 108
162 118 110
164 119 110
163 118 112
160 116 113
164 119 113
161 117 108
164 119 118
167 121 125
164 119 112
162 117 112
162 118 108
160 117 108
162 117 104
161 117 101
165 119 118
158 115 99
166 120 118
165 119 115
161 118 110
163 119 112
160 117 112
160 116 110
164 119 118
166 119 117
161 117 113
160 117 108
162 117 106
159 115 103
161 117 104
168 121 117
164 119 108
161 116 101
163 119 115
165 119 120
163 119 112
162 118 113
161 118 113
162 118 106
163 119 122
166 120 120
200 201 217
217 233 255
217 233 255
217 233 255
217 233 255
217 233 255
217 233 255
217 233 255
217 233 255
217 233 255
217 233 255
217 233 255
217 233 255
217 233 255
217 233 255
217 233 255
217 233 255
217 233 255
217 233 255
217 233 255
217 233 255
217 233 255
217 233 255
217 233 255
217 233 255
218 233 255
218 233 255
218 233 255
218 233 255
218 233 255
218 233 255
218 233 255
218 233 255
218 233 255
218 234 255
218 234 255
218 234 255
218 234 255
218 234 255
218 234 255
218 234 255
218 234 255
218 234 255
218 234 255
218 234 255
218 234 255
218 234 255
218 234 255
218 234 255
218 234 255
218 234 255
218 234 255
218 234 255
218 234 255
218 234 255
218 234 255
218 234 255
218 234 255
218 234 255
218 234 255
218 234 255
218 234 255
218 234 255
218 234 255
218 234 255
218 234 255
218 234 255
218 234 255
218 234 255
218 234 255
218 234 255
218 234 255
218 234 255
218 234 255
218 234 255
218 234 255
218 234 255
218 234 255
218 234 255
218 234 255
218 234 255
218 234 255
218 234 255
218 234 255
218 234 255
218 234 255
218 234 255
218 234 255
218 234 255
218 234 255
218 234 255
218 234 255
218 234 255
218 234 255
218 234 255
218 234 255
218 234 255
218 234 255
218 233 255
218 233 255
218 233 255
218 233 255
218 233 255
218 233 255
218 233 255
218 233 255
217 233 255
217 233 255
217 233 255
217 233 255
217 233 255
217 233 255
190 181 194
163 118 110
168 121 123
163 118 115
164 119 117
161 116 108
166 120 117
164 118 120
165 120 123
162 118 118
161 118 110
162 117 108
165 120 120
165 119 110
164 118 104
164 119 115
163 118 110
165 119 117
162 118 110
166 119 112
162 119 117
165 119 115
163 117 112
163 118 110
163 119 112
162 119 115
164 119 106
163 118 115
165 119 115
162 119 117
164 119 106
161 117 106
162 116 113
160 117 108
161 118 112
162 117 112
165 119 112
162 117 108
165 120 118
162 118 113
161 118 115
165 119 113
160 115 108
164 119 113
160 117 103
163 118 110
162 118 104
160 117 110
164 118 110
164 119 112
166 120 118
162 118 108
165 120 118
164 118 118
159 116 103
160 118 113
160 116 108
157 114 97
162 116 110
163 118 115
159 115 104
163 117 110
162 118 110
161 117 112
164 120 118
164 119 118
161 118 110
165 119 118
164 119 112
164 118 112
163 119 112
161 116 106
161 118 108
161 117 112
160 117 113
160 116 110
156 114 103
165 119 112
163 119 113
158 115 104
159 116 110
165 119 113
159 117 104
154 112 81
162 117 110
165 118 117
162 118 113
164 118 110
161 116 106
164 119 113
165 119 113
161 118 108
162 118 113
166 120 120
164 118 117
162 117 106
160 117 101
160 117 113
165 119 113
163 118 106
162 117 108
163 118 110
160 116 101
161 117 104
158 116 99
163 118 115
161 117 101
161 117 112
161 117 112
162 117 108
162 116 110
164 119 113
166 120 113
163 119 117
164 118 110
162 118 120
160 115 99
166 120 117
160 117 117
164 119 113
163 118 113
161 116 110
163 118 112
162 118 104
163 119 117
161 116 101
163 118 108
162 117 108
165 120 117
164 119 113
159 116 106
156 114 93
167 120 117
166 120 120
160 117 106
162 116 113
166 120 120
159 117 108
165 118 112
162 118 115
161 118 108
166 119 117
166 120 120
164 119 112
191 183 194
217 233 255
217 233 255
217 233 255
217 233 255
217 233 255
217 233 255
217 233 255
218 233 255
218 233 255
218 233 255
218 233 255
218 233 255
218 233 255
218 233 255
218 233 255
218 234 255
218 234 255
218 234 255
218 234 255
218 234 255
218 234 255
218 234 255
218 234 255
218 234 255
218 234 255
218 234 255
218 234 255
218 234 255
218 234 255
218 234 255
218 234 255
218 234 255
218 234 255
218 234 255
218 234 255
218 234 255
218 234 255
218 234 255
218 234 255
218 234 255
218 234 255
218 234 255
218 234 255
218 234 255
218 234 255
218 234 255
218 234 255
218 234 255
218 234 255
218 234 255
218 234 255
218 234 255
218 234 255
218 234 255
218 234 255
218 234 255
218 234 255
218 234 255
218 234 255
218 234 255
218 234 255
218 234 255
218 234 255
218 234 255
218 234 255
218 234 255
218 234 255
218 234 255
218 234 255
218 234 255
218 234 255
218 234 255
218 234 255
218 234 255
218 234 255
218 234 255
218 234 255
218 234 255
218 234 255
218 234 255
218 234 255
218 234 255
218 234 255
218 234 255
218 234 255
218 234 255
218 234 255
218 234 255
218 234 255
218 234 255
218 234 255
218 234 255
218 234 255
218 234 255
218 234 255
218 234 255
218 234 255
218 234 255
218 234 255
218 234 255
218 234 255
218 234 255
218 234 255
218 234 255
218 234 255
218 234 255
218 234 255
218 234 255
218 234 255
218 234 255
218 234 255
176 151 151
164 119 120
164 118 112
165 120 117
160 116 99
163 119 113
161 117 118
162 118 106
162 118 112
161 116 108
162 117 106
161 116 104
166 121 123
166 120 112
158 114 106
162 117 101
159 116 101
161 117 103
163 118 104
163 118 113
168 121 113
162 117 104
161 117 106
166 119 117
160 117 106
158 115 104
162 117 106
162 118 113
163 118 110
159 116 104
163 117 112
163 118 117
163 118 108
162 117 110
161 116 106
157 115 97
163 119 112
160 116 104
163 118 118
165 119 117
164 118 108
166 119 115
164 119 110
166 120 115
165 119 118
163 118 106
165 120 117
157 114 101
159 117 108
166 120 112
163 118 115
159 116 99
164 119 115
164 119 117
162 117 112
156 114 93
161 117 112
160 117 104
159 115 97
166 120 113
167 120 122
165 118 106
164 119 115
162 118 112
164 118 113
159 117 103
166 120 122
160 117 103
164 119 117
164 118 108
162 118 108
166 120 117
164 120 118
163 118 108
160 117 104
161 117 108
165 120 120
166 120 118
165 120 117
162 118 110
161 117 104
160 117 110
162 118 112
158 114 103
159 115 103
161 118 112
158 115 101
164 119 112
159 116 104
162 117 113
162 118 106
162 118 110
163 119 115
160 116 110
160 115 103
165 119 117
163 118 110
164 119 115
163 119 115
163 119 117
164 119 115
164 119 117
164 119 112
160 117 110
163 118 115
164 119 112
164 119 113
160 117 103
162 117 110
164 118 106
160 117 101
165 119 115
160 116 95
160 117 113
160 116 101
167 120 125
159 117 106
160 116 108
160 117 112
158 117 108
163 118 115
165 119 112
162 117 110
163 119 117
166 120 120
163 118 113
162 117 110
161 117 106
161 117 108
164 118 117
161 117 108
164 119 118
164 119 113
159 115 97
165 120 122
164 117 113
164 119 117
164 119 113
161 117 106
160 117 101
165 119 112
162 118 113
164 118 113
162 117 104
178 156 161
218 234 255
218 234 255
218 234 255
218 234 255
218 234 255
218 234 255
218 234 255
218 234 255
218 234 255
218 234 255
218 234 255
218 234 255
218 234 255
218 234 255
218 234 255
218 234 255
218 234 255
218 234 255
218 234 255
218 234 255
218 234 255
218 234 255
218 234 255
218 234 255
218 234 255
218 234 255
218 234 255
218 234 255
218 234 255
218 234 255
218 234 255
218 234 255
218 234 255
218 234 255
218 234 255
218 234 255
218 234 255
218 234 255
218 234 255
218 234 255
218 234 255
218 234 255
218 234 255
218 234 255
218 234 255
218 234 255
218 234 255
218 234 255
218 234 255
218 234 255
218 234 255
218 234 255
218 234 255
218 234 255
218 234 255
218 234 255
219 234 255
219 234 255
219 234 255
219 234 255
218 234 255
218 234 255
218 234 255
218 234 255
218 234 255
218 234 255
218 234 255
218 234 255
218 234 255
218 234 255
218 234 255
218 234 255
218 234 255
218 234 255
218 234 255
218 234 255
218 234 255
218 234 255
218 234 255
218 234 255
218 234 255
218 234 255
218 234 255
218 234 255
218 234 255
218 234 255
218 234 255
218 234 255
218 234 255
218 234 255
218 234 255
218 234 255
218 234 255
218 234 255
218 234 255
218 234 255
218 234 255
218 234 255
218 234 255
218 234 255
218 234 255
218 234 255
218 234 255
218 234 255
218 234 255
218 234 255
218 234 255
218 234 255
218 234 255
218 234 255
217 232 254
164 124 118
163 118 113
165 120 115
162 118 115
165 119 110
165 120 118
159 116 101
162 118 106
166 119 112
164 117 108
163 117 106
167 121 120
161 118 106
163 117 113
166 119 113
163 118 112
166 119 113
165 118 106
160 117 106
166 118 113
167 121 122
159 115 101
160 116 106
162 117 106
162 118 110
160 117 103
164 118 117
163 118 117
159 116 106
163 118 112
160 116 106
166 119 117
163 118 110
161 115 104
164 118 115
164 119 112
164 119 112
157 114 104
162 118 108
161 117 110
162 118 113
163 119 110
162 118 110
156 113 88
158 114 104
162 118 110
161 117 110
162 117 104
161 118 110
160 117 101
162 117 106
165 120 117
164 118 112
163 117 106
161 116 103
162 118 104
160 116 106
164 118 113
167 120 120
164 119 118
163 118 110
162 118 113
165 120 115
163 117 110
167 120 117
165 119 120
160 117 103
167 120 115
161 117 108
160 116 106
163 119 113
166 119 117
162 118 112
166 119 112
163 118 112
163 119 117
157 114 101
159 116 101
160 116 108
165 119 110
164 119 113
159 115 97
160 116 104
165 118 117
162 118 108
163 117 112
160 117 112
161 118 115
161 117 101
164 119 118
164 118 113
165 119 112
160 116 106
160 117 110
162 118 104
161 116 106
163 119 117
163 119 117
159 116 108
165 120 113
166 120 123
162 118 108
164 119 115
160 117 110
163 118 108
162 117 110
162 117 113
164 118 115
164 118 113
161 117 108
163 118 108
163 119 113
162 118 112
162 118 108
162 117 106
163 118 110
161 117 106
161 117 108
163 117 110
162 118 113
166 119 115
163 118 108
163 118 115
162 118 106
163 119 112
163 119 118
163 118 110
166 119 118
162 117 108
162 117 112
166 120 118
166 119 118
168 121 120
162 117 117
162 118 113
163 118 112
162 118 117
163 119 115
163 119 117
163 118 110
166 119 110
162 119 115
162 117 108
164 119 113
168 129 126
218 234 255
218 234 255
218 234 255
218 234 255
218 234 255
218 234 255
218 234 255
218 234 255
218 234 255
218 234 255
218 234 255
218 234 255
218 234 255
218 234 255
218 234 255
218 234 255
218 234 255
218 234 255
218 234 255
218 234 255
218 234 255
218 234 255
218 234 255
218 234 255
218 234 255
218 234 255
218 234 255
218 234 255
218 234 255
218 234 255
218 234 255
218 234 255
218 234 255
218 234 255
218 234 255
218 234 255
218 234 255
218 234 255
218 234 255
218 234 255
218 234 255
218 234 255
218 234 255
218 234 255
218 234 255
218 234 255
218 234 255
218 234 255
218 234 255
218 234 255
218 234 255
218 234 255
218 234 255
219 234 255
219 234 255
219 234 255
219 234 255
219 234 255
219 234 255
219 234 255
219 234 255
219 234 255
219 234 255
219 234 255
219 234 255
219 234 255
219 234 255
219 234 255
219 234 255
219 234 255
219 234 255
219 234 255
219 234 255
219 234 255
219 234 255
219 234 255
219 234 255
219 234 255
219 234 255
218 234 255
218 234 255
218 234 255
218 234 255
218 234 255
218 234 255
218 234 255
218 234 255
218 234 255
218 234 255
218 234 255
218 234 255
218 234 255
218 234 255
218 234 255
218 234 255
218 234 255
218 234 255
218 234 255
218 234 255
218 234 255
218 234 255
218 234 255
218 234 255
218 234 255
218 234 255
218 234 255
218 234 255
218 234 255
218 234 255
218 234 255
210 219 237
163 117 112
159 116 104
161 118 112
161 118 106
160 115 101
163 118 110
162 118 110
166 120 115
162 118 113
166 120 118
166 120 120
159 116 99
166 120 113
162 117 112
164 118 110
161 118 112
163 118 115
163 119 113
165 119 118
158 115 101
164 118 112
164 119 115
162 117 110
163 118 110
162 117 106
164 119 113
164 119 115
158 115 97
161 118 108
162 117 110
165 119 110
162 118 106
159 117 110
164 119 112
163 117 108
167 120 120
165 119 110
164 119 112
157 115 99
162 118 112
163 118 108
166 120 120
162 117 104
162 118 110
160 116 106
160 117 104
160 116 106
163 119 115
159 115 95
163 119 113
161 117 106
162 117 110
161 116 101
162 117 104
160 117 106
165 120 118
162 118 112
163 117 106
162 118 104
161 117 103
166 120 110
164 118 113
165 119 112
160 117 104
163 119 113
164 119 112
160 117 103
163 119 112
159 115 95
159 116 101
161 117 103
157 114 95
165 118 113
167 120 118
163 119 113
160 116 104
164 119 113
160 117 108
161 118 106
157 115 99
162 118 104
164 119 117
166 119 113
162 117 106
162 118 110
163 118 106
163 118 108
161 117 112
165 119 113
164 118 112
161 118 108
159 115 110
167 121 123
164 119 113
158 114 101
163 119 113
163 118 113
161 117 110
163 118 106
160 115 110
160 116 103
161 117 104
161 117 106
164 118 113
164 119 113
163 119 115
163 118 113
165 120 113
167 120 118
161 117 108
159 116 103
163 118 108
160 116 97
166 120 122
162 118 110
161 117 103
170 122 122
159 116 103
165 119 113
164 118 108
162 118 106
158 114 106
161 117 108
162 118 110
164 118 112
158 116 103
162 118 110
163 119 110
163 118 113
163 118 110
164 119 110
165 120 118
160 116 103
160 116 104
162 118 104
165 118 112
161 117 108
163 119 113
162 117 103
165 119 113
163 119 120
162 118 110
169 121 122
161 117 101
164 119 122
210 218 238
218 234 255
218 234 255
218 234 255
218 234 255
218 234 255
218 234 255
218 234 255
218 234 255
218 234 255
218 234 255
218 234 255
218 234 255
218 234 255
218 234 255
218 234 255
218 234 255
218 234 255
218 234 255
218 234 255
218 234 255
218 234 255
218 234 255
218 234 255
218 234 255
218 234 255
218 234 255
218 234 255
218 234 255
218 234 255
218 234 255
219 234 255
218 234 255
219 234 255
219 234 255
219 234 255
219 234 255
219 234 255
219 234 255
219 234 255
219 234 255
219 234 255
219 234 255
219 234 255
219 234 255
219 234 255
219 234 255
219 234 255
219 234 255
219 234 255
219 234 255
219 234 255
219 234 255
219 234 255
219 234 255
219 234 255
219 234 255
219 234 255
219 234 255
219 234 255
219 234 255
219 234 255
219 234 255
219 234 255
219 234 255
219 234 255
219 234 255
219 234 255
219 234 255
219 234 255
219 234 255
219 234 255
219 234 255
219 234 255
219 234 255
219 234 255
219 234 255
219 234 255
219 234 255
219 234 255
219 234 255
219 234 255
219 234 255
219 234 255
219 234 255
219 234 255
219 234 255
219 234 255
219 234 255
219 234 255
219 234 255
219 234 255
219 234 255
219 234 255
219 234 255
219 234 255
219 234 255
219 234 255
219 234 255
219 234 255
219 234 255
219 234 255
219 234 255
218 234 255
218 234 255
218 234 255
218 234 255
218 234 255
218 234 255
218 234 255
204 207 224
164 118 113
159 116 103
161 117 106
164 119 113
165 118 110
164 119 112
160 117 106
164 118 117
165 120 118
160 116 97
163 118 110
162 117 108
159 115 110
162 117 106
163 118 110
159 117 112
160 116 103
163 119 110
159 115 106
162 118 108
159 114 99
164 119 117
163 118 112
165 120 120
162 118 112
164 118 117
162 118 112
164 119 113
166 119 113
163 118 108
156 113 95
160 117 104
161 117 108
162 117 108
161 117 101
160 117 106
161 117 108
161 117 112
156 114 88
165 120 117
162 117 108
159 115 101
161 117 104
161 117 106
159 116 103
159 117 106
163 118 108
164 119 108
162 117 110
163 118 104
164 119 108
163 117 106
166 120 113
162 117 108
161 117 106
163 118 113
165 119 112
160 115 106
162 118 106
164 119 118
163 118 106
165 119 112
161 116 101
163 118 108
161 117 108
159 115 106
161 117 108
166 120 117
161 116 106
159 115 104
163 118 110
161 117 112
162 118 113
160 114 95
160 116 104
161 117 103
159 115 95
160 118 110
164 119 112
166 120 123
166 120 122
164 119 113
167 120 117
164 119 110
164 118 113
166 120 118
160 117 104
160 115 108
160 117 108
162 118 113
162 117 110
160 117 104
166 120 118
162 117 106
167 121 120
160 116 110
161 117 110
160 117 115
163 119 120
165 119 115
157 115 99
163 118 110
160 116 106
162 118 112
160 117 106
166 119 110
163 119 112
155 113 97
159 117 104
163 118 113
162 119 117
165 119 117
160 115 103
160 117 104
159 116 106
161 118 106
160 115 101
165 119 112
163 119 112
166 120 122
161 117 106
164 117 108
166 119 117
161 117 112
162 118 117
161 117 104
160 117 108
165 120 115
161 116 108
165 118 117
161 117 106
161 116 106
164 118 113
163 117 117
164 119 110
162 118 104
165 119 120
162 118 112
165 120 118
163 119 113
167 120 120
160 116 104
164 118 113
163 117 115
167 120 115
202 202 218
218 234 255
218 234 255
218 234 255
218 234 255
219 234 255
218 234 255
218 234 255
219 234 255
219 234 255
219 234 255
219 234 255
219 234 255
219 234 255
219 234 255
219 234 255
219 234 255
219 234 255
219 234 255
219 234 255
219 234 255
219 234 255
219 234 255
219 234 255
219 234 255
219 234 255
219 234 255
219 234 255
219 234 255
219 234 255
219 234 255
219 234 255
219 234 255
219 234 255
219 234 255
219 234 255
219 234 255
219 234 255
219 234 255
219 234 255
219 234 255
219 234 255
219 234 255
219 234 255
219 234 255
219 234 255
219 234 255
219 234 255
219 234 255
219 234 255
219 234 255
219 234 255
219 234 255
219 234 255
219 234 255
219 234 255
219 234 255
219 234 255
219 234 255
219 234 255
219 234 255
219 234 255
219 234 255
219 234 255
219 234 255
219 234 255
219 234 255
219 234 255
219 234 255
219 234 255
219 234 255
219 234 255
219 234 255
219 234 255
219 234 255
219 234 255
219 234 255
219 234 255
219 234 255
219 234 255
219 234 255
219 234 255
219 234 255
219 234 255
219 234 255
219 234 255
219 234 255
219 234 255
219 234 255
219 234 255
219 234 255
219 234 255
219 234 255
219 234 255
219 234 255
219 234 255
219 234 255
219 234 255
219 234 255
219 234 255
219 234 255
219 234 255
219 234 255
219 234 255
219 234 255
219 234 255
219 234 255
219 234 255
219 234 255
219 234 255
197 198 211
161 116 106
159 115 97
159 116 103
161 118 112
161 117 101
164 119 110
165 120 115
163 119 117
162 117 108
158 114 103
165 119 113
161 117 101
164 118 112
163 119 113
166 120 122
163 119 117
166 120 117
162 117 110
162 118 108
164 119 113
162 118 117
162 117 97
168 121 118
160 116 104
161 117 104
161 118 108
159 116 99
164 119 115
160 115 99
163 118 106
162 117 113
158 116 104
164 117 104
164 118 115
161 117 101
166 120 117
166 121 122
165 120 118
161 118 106
160 116 104
161 117 104
161 116 101
160 116 103
157 114 97
161 117 108
161 117 104
165 119 115
161 117 103
158 115 99
163 118 112
166 120 115
161 117 104
165 119 117
159 116 101
164 118 112
162 118 112
161 117 103
160 117 104
162 118 113
164 119 115
165 119 120
167 120 118
163 118 113
162 118 112
160 117 106
161 116 101
162 118 112
164 119 113
163 117 108
160 116 103
160 116 101
160 117 115
166 119 117
160 116 106
162 117 110
159 115 103
161 117 106
167 121 122
163 116 106
160 116 106
162 117 106
169 120 118
162 118 112
166 120 117
162 116 103
161 117 103
161 117 110
161 118 113
165 118 110
161 117 106
163 117 104
164 119 113
164 118 112
166 119 115
164 119 117
164 119 115
163 119 115
161 117 106
163 117 110
160 116 101
160 116 106
164 119 108
163 118 112
166 119 110
165 119 112
166 120 118
163 118 106
162 117 104
162 117 112
165 119 115
164 119 113
161 117 110
161 117 106
166 120 117
161 118 110
157 114 99
166 120 117
162 118 110
165 120 113
162 117 103
162 116 104
165 119 118
163 118 113
163 117 101
168 121 117
159 116 110
163 118 110
165 120 117
159 116 101
163 118 106
165 119 113
162 118 110
164 119 110
161 117 112
163 118 103
160 116 103
160 116 95
171 123 128
164 119 113
159 115 103
160 115 97
161 118 108
162 118 108
161 117 104
160 116 99
203 204 219
219 234 255
219 234 255
219 234 255
219 234 255
219 234 255
219 234 255
219 234 255
219 234 255
219 234 255
219 234 255
219 234 255
219 234 255
219 234 255
219 234 255
219 234 255
219 234 255
219 234 255
219 234 255
219 234 255
219 234 255
219 234 255
219 234 255
219 234 255
219 234 255
219 234 255
219 234 255
219 234 255
219 234 255
219 234 255
219 234 255
219 234 255
219 234 255
219 234 255
219 234 255
219 234 255
219 234 255
219 234 255
219 234 255
219 234 255
219 234 255
219 234 255
219 234 255
219 234 255
219 234 255
219 234 255
219 234 255
219 234 255
219 234 255
219 234 255
219 234 255
219 234 255
219 234 255
219 234 255
219 234 255
219 234 255
219 234 255
219 234 255
219 234 255
219 234 255
219 234 255
219 234 255
219 234 255
219 234 255
219 234 255
219 234 255
219 234 255
219 234 255
219 234 255
219 234 255
219 234 255
219 234 255
219 234 255
219 234 255
219 234 255
219 234 255
219 234 255
219 234 255
219 234 255
219 234 255
219 234 255
219 234 255
219 234 255
219 234 255
219 234 255
219 234 255
219 234 255
219 234 255
219 234 255
219 234 255
219 234 255
219 234 255
219 234 255
219 234 255
219 234 255
219 234 255
219 234 255
219 234 255
219 234 255
219 234 255
219 234 255
219 234 255
219 234 255
219 234 255
219 234 255
219 234 255
219 234 255
219 234 255
219 234 255
219 234 255
189 178 186
163 119 117
159 116 99
160 117 108
167 119 118
162 116 101
161 117 108
158 115 104
159 116 97
162 118 108
161 116 110
165 120 117
165 119 117
160 116 103
166 120 120
161 117 112
168 121 120
164 119 112
160 116 103
164 118 106
160 117 108
165 119 110
165 118 113
165 118 115
164 119 112
158 115 99
161 117 103
166 119 115
160 117 104
164 119 112
159 115 99
163 118 110
165 119 112
164 119 118
160 115 99
161 117 110
161 116 113
162 117 101
164 119 115
162 117 106
163 118 108
161 116 106
162 118 115
166 120 118
156 114 99
165 120 117
160 114 101
160 116 103
164 119 106
162 117 115
164 118 108
158 115 95
161 116 103
160 115 106
162 118 110
162 118 115
162 118 108
162 118 113
162 118 110
163 118 113
159 116 103
165 119 108
162 117 117
161 118 108
163 118 108
163 118 112
163 119 113
165 120 115
160 117 103
158 115 88
160 116 106
158 114 103
159 117 106
160 116 104
159 115 106
156 114 95
164 119 112
159 117 103
163 117 112
160 117 112
163 118 110
163 117 108
163 119 112
160 117 106
157 114 95
159 116 104
161 116 99
161 117 110
160 116 103
161 117 106
161 117 106
160 116 104
158 115 103
164 118 115
162 117 110
160 117 108
162 117 112
161 118 112
163 118 106
161 117 108
161 117 106
163 118 112
165 119 110
162 118 113
166 120 122
164 119 108
159 116 90
157 113 90
160 115 106
164 118 115
160 117 101
162 118 113
164 119 115
161 116 110
164 118 115
158 114 93
164 119 112
164 117 113
161 117 104
162 117 115
162 118 106
158 115 97
161 116 106
167 121 123
164 118 110
161 117 112
160 116 104
160 116 101
166 120 117
162 117 110
162 118 110
168 121 122
164 119 110
164 119 118
159 114 101
160 116 101
163 119 112
159 115 104
166 119 112
164 119 117
158 115 99
159 116 108
164 118 117
161 118 106
157 113 104
165 119 115
179 156 161
219 234 255
219 234 255
219 234 255
219 234 255
219 234 255
219 234 255
219 234 255
219 234 255
219 234 255
219 234 255
219 234 255
219 234 255
219 234 255
219 234 255
219 234 255
219 234 255
219 234 255
219 234 255
219 234 255
219 234 255
219 234 255
219 234 255
219 234 255
219 234 255
219 234 255
219 234 255
219 234 255
219 234 255
219 234 255
219 234 255
219 234 255
219 234 255
219 234 255
219 234 255
219 234 255
219 234 255
219 234 255
219 234 255
219 234 255
219 234 255
219 234 255
219 234 255
219 234 255
219 234 255
219 234 255
219 234 255
219 234 255
219 234 255
219 234 255
219 234 255
219 234 255
219 234 255
219 234 255
219 234 255
219 234 255
220 235 255
220 235 255
220 235 255
220 235 255
220 235 255
220 235 255
220 235 255
220 235 255
220 235 255
220 235 255
219 235 255
219 235 255
219 235 255
219 235 255
219 235 255
219 235 255
219 235 255
219 235 255
219 235 255
219 235 255
219 235 255
219 235 255
219 235 255
219 235 255
219 235 255
219 234 255
219 234 255
219 234 255
219 234 255
219 234 255
219 234 255
219 234 255
219 234 255
219 234 255
219 234 255
219 234 255
219 234 255
219 234 255
219 234 255
219 234 255
219 234 255
219 234 255
219 234 255
219 234 255
219 234 255
219 234 255
219 234 255
219 234 255
219 234 255
219 234 255
219 234 255
219 234 255
219 234 255
219 234 255
186 168 178
160 117 108
166 120 118
162 118 113
161 117 103
165 119 113
164 118 120
160 116 101
159 116 101
160 117 106
165 119 113
166 120 117
162 118 106
162 117 106
160 117 106
163 119 115
162 117 110
161 117 103
164 118 115
164 119 115
161 117 112
159 114 101
159 116 108
160 117 101
159 116 108
164 118 108
163 118 113
160 116 101
162 116 106
164 118 104
158 115 99
161 116 103
163 117 106
159 115 106
163 118 115
163 118 106
164 119 118
166 120 120
160 115 108
164 119 113
162 116 108
164 117 108
166 120 115
160 117 108
162 117 108
162 118 110
160 116 99
162 117 108
160 116 103
164 119 112
160 115 110
169 122 126
159 116 103
159 115 101
165 119 112
159 116 97
164 119 106
161 116 108
162 117 115
162 116 101
165 119 118
161 117 108
162 118 112
156 113 99
163 118 101
164 118 108
164 119 120
164 119 115
163 118 113
157 115 99
163 118 117
162 118 106
162 116 106
163 117 106
162 118 112
167 121 118
166 120 118
166 119 110
159 115 106
165 119 108
161 116 103
160 116 99
162 117 106
161 116 108
162 116 110
161 117 104
163 118 113
163 118 104
158 115 97
161 116 103
161 117 106
162 117 108
158 115 95
162 117 106
161 117 104
160 117 104
161 117 104
163 117 106
162 118 108
163 118 117
163 118 113
161 115 108
161 117 103
161 116 103
161 117 106
164 118 110
160 116 104
162 117 110
161 117 113
162 117 110
163 118 115
162 117 101
162 117 103
163 118 108
167 120 117
162 117 108
160 116 101
160 116 104
160 115 101
165 119 118
157 115 95
163 117 112
163 118 108
162 118 110
164 118 110
159 115 103
158 114 106
161 117 106
161 117 108
165 120 115
161 116 108
160 117 99
160 117 110
163 118 112
162 118 110
161 118 110
156 114 97
161 117 106
157 114 95
164 119 113
158 116 103
165 120 117
164 118 110
158 115 99
164 119 118
164 118 112
187 178 188
219 234 255
219 234 255
219 234 255
219 234 255
219 234 255
219 234 255
219 234 255
219 234 255
219 234 255
219 234 255
219 234 255
219 234 255
219 234 255
219 234 255
219 234 255
219 234 255
219 234 255
219 234 255
219 234 255
219 234 255
219 234 255
219 234 255
219 234 255
219 234 255
219 234 255
219 234 255
219 234 255
219 234 255
219 234 255
219 235 255
219 235 255
219 235 255
219 235 255
219 235 255
219 235 255
219 235 255
219 235 255
219 235 255
219 235 255
219 235 255
219 235 255
219 235 255
219 235 255
219 235 255
219 235 255
220 235 255
220 235 255
220 235 255
220 235 255
220 235 255
220 235 255
220 235 255
220 235 255
220 235 255
220 235 255
220 235 255
220 235 255
220 235 255
220 235 255
220 235 255
220 235 255
220 235 255
220 235 255
220 235 255
220 235 255
220 235 255
220 235 255
220 235 255
220 235 255
220 235 255
220 235 255
220 235 255
220 235 255
220 235 255
220 235 255
220 235 255
220 235 255
220 235 255
220 235 255
220 235 255
220 235 255
220 235 255
220 235 255
220 235 255
220 235 255
220 235 255
220 235 255
220 235 255
220 235 255
220 235 255
220 235 255
220 235 255
220 235 255
220 235 255
220 235 255
220 235 255
220 235 255
220 235 255
220 235 255
219 235 255
219 235 255
219 235 255
219 235 255
219 235 255
219 235 255
219 235 255
219 235 255
219 235 255
219 235 255
175 150 154
163 118 106
162 118 113
158 116 103
158 116 99
160 115 103
159 115 95
161 116 104
159 115 110
159 116 101
163 118 110
162 117 113
163 119 118
162 118 106
160 117 106
163 118 112
165 119 120
160 117 104
162 116 110
165 119 113
158 114 108
160 117 104
162 117 110
165 120 120
163 118 113
163 118 117
160 115 93
161 115 110
162 116 106
162 118 110
162 118 108
160 117 104
168 120 120
160 117 106
163 118 110
159 116 106
160 116 110
161 117 101
162 116 104
162 118 112
164 119 117
163 118 110
163 118 110
156 112 95
160 117 101
159 116 95
162 118 110
162 118 110
163 117 112
166 119 112
163 118 113
165 118 113
162 117 106
162 117 108
162 116 110
161 117 108
169 122 125
161 117 106
165 119 110
159 115 101
165 119 108
161 117 103
167 120 115
162 117 106
161 117 103
158 115 110
158 114 97
163 118 108
165 119 115
161 117 110
160 115 101
159 116 99
160 117 108
160 116 95
165 119 115
153 112 81
161 117 104
161 117 106
160 117 115
158 116 99
161 115 108
163 119 113
166 120 118
159 115 104
162 117 101
159 117 110
161 118 110
163 118 113
163 118 106
161 117 104
160 117 103
159 116 99
164 119 106
160 117 104
167 120 120
162 118 108
165 119 110
160 115 99
163 118 106
162 117 106
163 118 115
163 119 110
161 117 106
162 117 108
161 117 106
165 118 110
162 118 106
163 118 112
158 114 95
159 115 99
162 118 104
160 116 103
166 119 113
164 119 117
161 117 103
165 119 117
160 116 104
164 119 110
162 117 108
165 119 112
161 117 108
162 116 103
165 119 112
163 117 104
162 118 112
160 117 103
162 117 108
161 117 104
165 119 113
162 118 110
158 114 93
162 118 108
168 121 123
164 118 115
162 117 106
163 118 110
165 118 115
159 114 104
159 116 108
161 117 97
165 119 112
163 118 108
161 117 106
156 115 95
162 117 106
163 118 108
176 153 157
219 235 255
219 235 255
219 235 255
219 235 255
219 235 255
219 235 255
219 235 255
219 235 255
219 235 255
220 235 255
220 235 255
220 235 255
220 235 255
220 235 255
220 235 255
220 235 255
220 235 255
220 235 255
220 235 255
220 235 255
220 235 255
220 235 255
220 235 255
220 235 255
220 235 255
220 235 255
220 235 255
220 235 255
220 235 255
220 235 255
220 235 255
220 235 255
220 235 255
220 235 255
220 235 255
220 235 255
220 235 255
220 235 255
220 235 255
220 235 255
220 235 255
220 235 255
220 235 255
220 235 255
220 235 255
220 235 255
220 235 255
220 235 255
220 235 255
220 235 255
220 235 255
220 235 255
220 235 255
220 235 255
220 235 255
220 235 255
220 235 255
220 235 255
220 235 255
220 235 255
220 235 255
220 235 255
220 235 255
220 235 255
220 235 255
220 235 255
220 235 255
220 235 255
220 235 255
220 235 255
220 235 255
220 235 255
220 235 255
220 235 255
220 235 255
220 235 255
220 235 255
220 235 255
220 235 255
220 235 255
220 235 255
220 235 255
220 235 255
220 235 255
220 235 255
220 235 255
220 235 255
220 235 255
220 235 255
220 235 255
220 235 255
220 235 255
220 235 255
220 235 255
220 235 255
220 235 255
220 235 255
220 235 255
220 235 255
220 235 255
220 235 255
220 235 255
220 235 255
220 235 255
220 235 255
220 235 255
220 235 255
220 235 255
220 235 255
175 148 150
159 117 106
161 117 104
165 119 112
164 118 110
158 116 104
163 119 113
163 119 110
166 120 117
164 119 112
164 119 115
166 120 115
161 116 97
163 117 117
162 116 104
162 117 110
162 117 101
157 115 93
156 112 99
163 117 104
160 115 106
163 118 110
166 120 117
164 118 104
164 119 115
162 118 113
163 117 104
164 118 115
161 117 103
167 120 118
162 116 110
164 119 115
162 117 108
161 117 106
161 116 106
165 119 113
164 119 112
159 116 99
159 115 97
160 117 106
163 119 115
162 117 106
164 118 113
162 118 112
162 118 110
162 117 104
162 117 108
160 116 99
165 119 115
163 117 113
161 117 106
163 118 112
161 117 112
160 116 106
159 115 103
159 116 99
163 118 110
161 116 106
161 116 104
164 119 113
162 115 108
162 118 113
165 118 110
163 118 112
162 117 110
160 116 104
160 117 101
160 117 101
159 116 106
157 114 101
160 116 110
162 116 108
160 115 99
163 118 108
161 117 103
162 118 110
164 118 113
165 120 120
160 116 103
165 120 120
162 117 106
160 116 101
164 119 117
165 117 112
161 116 108
162 117 106
161 117 112
161 117 106
164 119 108
161 116 103
161 116 101
158 115 95
161 117 103
161 116 108
160 116 104
159 115 103
166 118 112
160 117 104
162 118 113
162 118 112
159 115 99
163 118 110
161 117 106
163 117 112
160 117 108
166 120 117
166 120 117
162 118 108
165 119 112
165 119 112
160 116 103
162 117 106
160 115 106
161 117 106
160 116 97
161 118 112
163 118 110
164 119 112
161 117 110
162 118 108
160 116 103
161 117 104
161 117 113
163 118 108
158 115 99
161 118 110
163 117 108
165 119 108
167 119 113
164 119 113
161 116 101
163 119 115
164 118 104
162 117 103
158 115 106
162 117 110
163 117 108
160 115 101
163 119 112
157 115 97
156 114 99
159 116 103
162 118 108
164 118 113
165 119 110
164 119 112
167 130 124
220 235 255
220 235 255
220 235 255
220 235 255
220 235 255
220 235 255
220 235 255
220 235 255
220 235 255
220 235 255
220 235 255
220 235 255
220 235 255
220 235 255
220 235 255
220 235 255
220 235 255
220 235 255
220 235 255
220 235 255
220 235 255
220 235 255
220 235 255
220 235 255
220 235 255
220 235 255
220 235 255
220 235 255
220 235 255
220 235 255
220 235 255
220 235 255
220 235 255
220 235 255
220 235 255
220 235 255
220 235 255
220 235 255
220 235 255
220 235 255
220 235 255
220 235 255
220 235 255
220 235 255
220 235 255
220 235 255
220 235 255
220 235 255
220 235 255
220 235 255
220 235 255
220 235 255
220 235 255
220 235 255
220 235 255
220 235 255
220 235 255
220 235 255
220 235 255
220 235 255
220 235 255
220 235 255
220 235 255
220 235 255
220 235 255
220 235 255
220 235 255
220 235 255
220 235 255
220 235 255
220 235 255
220 235 255
220 235 255
220 235 255
220 235 255
220 235 255
220 235 255
220 235 255
220 235 255
220 235 255
220 235 255
220 235 255
220 235 255
220 235 255
220 235 255
220 235 255
220 235 255
220 235 255
220 235 255
220 235 255
220 235 255
220 235 255
220 235 255
220 235 255
220 235 255
220 235 255
220 235 255
220 235 255
220 235 255
220 235 255
220 235 255
220 235 255
220 235 255
220 235 255
220 235 255
220 235 255
220 235 255
220 235 255
220 235 255
165 127 125
163 118 112
159 115 110
158 115 101
157 115 99
162 117 99
161 116 95
161 117 108
161 117 106
158 115 93
160 115 101
170 122 125
160 117 104
161 117 104
162 117 103
161 117 106
157 114 99
160 117 106
162 118 108
162 117 99
164 119 115
158 115 99
161 118 108
161 115 103
160 117 99
163 119 117
164 118 112
160 117 106
161 117 99
160 116 97
160 118 110
163 118 108
163 118 106
162 118 106
161 116 106
161 117 106
161 118 108
163 119 112
157 114 93
161 115 104
165 120 115
160 116 103
161 115 103
163 118 108
158 115 95
162 116 104
160 116 101
164 118 108
165 119 110
161 117 104
160 117 106
164 119 112
160 116 104
159 114 99
159 115 104
160 117 103
167 120 117
162 118 106
162 117 108
158 114 97
162 117 110
164 119 110
164 119 112
158 116 99
163 118 110
160 116 104
162 118 112
165 119 110
165 120 117
159 116 104
162 115 112
162 117 108
161 117 106
161 116 108
160 116 106
163 118 112
164 119 117
163 118 103
161 118 108
160 117 104
161 118 110
156 115 99
160 115 99
158 115 99
164 118 113
158 115 95
163 118 104
160 116 103
163 118 112
161 117 106
161 117 106
159 116 104
162 118 104
158 115 104
159 114 97
162 117 101
164 118 106
167 120 122
162 117 110
166 120 122
161 117 112
168 121 118
162 117 106
162 116 106
159 116 99
164 118 115
161 117 104
166 119 112
163 117 104
157 114 90
161 116 103
161 115 104
160 117 106
163 118 112
160 116 103
156 114 97
161 117 110
165 119 110
165 119 115
163 118 108
162 117 110
162 116 104
163 118 110
164 118 112
163 119 113
163 118 106
165 119 113
160 117 103
162 117 113
162 117 108
162 118 106
162 118 112
159 115 97
162 118 108
165 120 115
159 115 103
162 116 106
158 116 104
161 117 101
167 120 118
161 117 106
160 116 104
158 115 93
164 118 115
162 117 110
165 119 110
166 128 123
220 235 255
220 235 255
220 235 255
220 235 255
220 235 255
220 235 255
220 235 255
220 235 255
220 235 255
220 235 255
220 235 255
220 235 255
220 235 255
220 235 255
220 235 255
220 235 255
220 235 255
220 235 255
220 235 255
220 235 255
220 235 255
220 235 255
220 235 255
220 235 255
220 235 255
220 235 255
220 235 255
220 235 255
220 235 255
220 235 255
220 235 255
220 235 255
220 235 255
220 235 255
220 235 255
220 235 255
220 235 255
220 235 255
220 235 255
220 235 255
220 235 255
220 235 255
220 235 255
220 235 255
220 235 255
220 235 255
220 235 255
220 235 255
220 235 255
220 235 255
220 235 255
220 235 255
220 235 255
220 235 255
220 235 255
220 235 255
220 235 255
220 235 255
220 235 255
220 235 255
220 235 255
220 235 255
220 235 255
220 235 255
220 235 255
220 235 255
220 235 255
220 235 255
220 235 255
220 235 255
220 235 255
220 235 255
220 235 255
220 235 255
220 235 255
220 235 255
220 235 255
220 235 255
220 235 255
220 235 255
220 235 255
220 235 255
220 235 255
220 235 255
220 235 255
220 235 255
220 235 255
220 235 255
220 235 255
220 235 255
220 235 255
220 235 255
220 235 255
220 235 255
220 235 255
220 235 255
220 235 255
220 235 255
220 235 255
220 235 255
220 235 255
220 235 255
220 235 255
220 235 255
220 235 255
220 235 255
220 235 255
220 235 255
220 235 255
160 119 109
166 119 118
161 117 110
158 115 99
162 116 103
165 119 115
166 120 112
163 118 110
162 117 108
161 116 103
163 118 113
164 118 113
157 115 93
162 118 110
161 117 104
161 118 108
161 118 106
159 117 106
158 115 103
163 119 115
165 119 112
162 117 104
159 115 95
162 118 108
165 119 110
161 116 108
164 119 108
159 116 101
163 117 112
161 116 101
163 118 112
165 119 117
157 115 90
160 116 101
159 116 101
158 116 103
162 118 113
161 117 106
160 116 99
158 116 95
161 117 108
164 119 113
164 119 112
160 116 103
162 118 104
162 118 110
163 118 108
161 117 106
162 118 103
163 119 112
162 117 110
165 119 112
165 119 113
161 116 104
161 118 113
158 116 103
166 121 122
157 115 106
164 117 110
163 119 112
161 117 103
162 117 110
161 116 108
166 120 115
162 118 108
160 117 104
162 117 106
164 119 115
163 117 110
163 118 104
159 116 103
163 118 112
159 116 97
161 117 104
162 116 110
160 117 104
160 118 110
159 116 97
165 118 113
162 117 106
160 117 106
165 118 106
162 117 110
159 116 101
163 119 115
163 118 106
163 117 106
159 116 95
161 117 108
166 120 118
158 115 99
158 114 93
159 116 97
156 114 95
164 118 120
163 118 108
162 117 110
164 119 110
161 117 106
161 117 103
159 115 103
161 117 110
158 115 101
162 117 106
160 117 103
162 118 110
157 115 101
163 118 110
163 117 106
159 115 97
159 117 103
163 117 112
165 119 120
156 114 93
163 117 110
160 116 101
161 115 101
161 117 106
163 118 112
157 113 95
161 118 118
159 115 90
159 116 106
167 120 118
162 118 106
158 114 93
161 117 108
160 115 101
160 117 104
162 117 103
167 120 113
160 115 99
163 117 108
161 117 112
164 118 108
164 118 112
163 117 117
162 117 103
161 117 106
164 117 110
163 117 106
165 120 117
162 118 115
163 118 110
162 118 115
159 115 104
159 116 101
219 233 253
220 235 255
220 235 255
220 235 255
220 235 255
220 235 255
220 235 255
220 235 255
220 235 255
220 235 255
220 235 255
220 235 255
220 235 255
220 235 255
220 235 255
220 235 255
220 235 255
220 235 255
220 235 255
220 235 255
220 235 255
220 235 255
220 235 255
220 235 255
220 235 255
220 235 255
220 235 255
220 235 255
220 235 255
220 235 255
220 235 255
220 235 255
220 235 255
220 235 255
220 235 255
220 235 255
220 235 255
220 235 255
220 235 255
220 235 255
220 235 255
220 235 255
220 235 255
220 235 255
220 235 255
220 235 255
220 235 255
220 235 255
220 235 255
220 235 255
220 235 255
220 235 255
220 235 255
220 235 255
220 235 255
221 235 255
221 235 255
221 235 255
221 235 255
221 235 255
221 235 255
221 235 255
221 235 255
221 235 255
221 235 255
221 235 255
221 235 255
221 235 255
221 235 255
221 235 255
221 235 255
221 235 255
221 235 255
221 235 255
221 235 255
221 235 255
221 235 255
221 235 255
221 235 255
221 235 255
221 235 255
221 235 255
220 235 255
221 235 255
221 235 255
221 235 255
221 235 255
221 235 255
221 235 255
220 235 255
220 235 255
220 235 255
221 235 255
220 235 255
220 235 255
220 235 255
220 235 255
220 235 255
220 235 255
220 235 255
220 235 255
220 235 255
220 235 255
220 235 255
220 235 255
220 235 255
220 235 255
220 235 255
220 235 255
156 113 97
162 117 112
164 118 113
162 118 106
162 118 110
165 118 104
164 118 117
162 118 112
161 117 103
159 115 101
161 116 104
161 117 104
159 116 103
162 117 106
155 113 84
159 115 104
165 119 113
160 116 106
162 117 106
167 120 115
162 117 110
161 115 104
161 117 99
164 118 112
168 121 118
161 117 106
162 117 101
159 116 101
158 115 97
164 119 113
160 116 103
162 118 106
164 119 117
161 118 108
158 114 103
161 117 104
160 116 104
164 118 112
162 117 108
162 117 110
161 117 104
160 117 104
161 116 108
161 117 110
159 116 99
162 117 106
157 114 99
158 115 95
163 118 108
165 118 106
168 121 117
165 118 106
165 119 110
157 115 97
157 114 97
161 116 104
164 119 117
162 119 115
161 116 108
160 116 99
162 118 104
163 117 108
161 117 104
166 119 113
164 118 108
161 115 95
160 116 108
162 117 101
162 116 108
162 119 117
161 117 101
163 118 113
164 119 112
164 119 117
163 117 113
160 116 97
159 116 99
160 116 103
156 113 95
159 115 106
158 115 101
166 120 115
163 118 110
160 116 106
163 117 101
159 115 95
164 119 118
161 117 108
153 112 88
157 114 97
163 118 110
161 116 103
167 120 117
158 113 88
163 118 112
165 119 112
162 118 110
159 114 95
164 119 115
158 115 101
159 116 108
159 115 106
162 116 104
160 116 108
161 118 110
159 116 103
162 117 106
160 116 108
163 118 108
161 117 106
162 117 108
159 116 106
162 117 103
162 116 108
166 120 117
157 114 95
160 116 103
165 120 118
160 117 106
158 116 93
160 116 104
160 117 110
162 118 104
162 117 104
161 116 106
160 115 104
160 116 112
158 116 103
162 118 106
166 120 120
161 116 104
158 115 88
160 116 106
164 118 110
164 117 106
160 117 103
161 117 106
162 117 113
159 115 99
158 115 101
163 118 110
162 117 106
162 117 106
160 117 110
161 117 106
166 120 120
157 114 97
216 228 246
220 235 255
220 235 255
220 235 255
220 235 255
220 235 255
220 235 255
220 235 255
220 235 255
220 235 255
220 235 255
220 235 255
220 235 255
220 235 255
221 235 255
220 235 255
221 235 255
220 235 255
220 235 255
220 235 255
220 235 255
220 235 255
221 235 255
221 235 255
221 235 255
221 235 255
221 235 255
221 235 255
221 235 255
221 235 255
221 235 255
221 235 255
221 235 255
221 235 255
221 235 255
221 235 255
221 235 255
221 235 255
221 235 255
221 235 255
221 235 255
221 235 255
221 235 255
221 235 255
221 235 255
221 235 255
221 235 255
221 235 255
221 235 255
221 235 255
221 235 255
221 235 255
221 235 255
221 235 255
221 235 255
221 235 255
221 235 255
221 235 255
221 235 255
221 235 255
221 235 255
221 235 255
221 235 255
221 235 255
221 235 255
221 235 255
221 235 255
221 235 255
221 235 255
221 235 255
221 235 255
221 235 255
221 235 255
221 235 255
221 235 255
221 235 255
221 235 255
221 235 255
221 235 255
221 235 255
221 235 255
221 235 255
221 235 255
221 235 255
221 235 255
221 235 255
221 235 255
221 235 255
221 235 255
221 235 255
221 235 255
221 235 255
221 235 255
221 235 255
221 235 255
221 235 255
221 235 255
221 235 255
221 235 255
221 235 255
221 235 255
221 235 255
221 235 255
221 235 255
221 235 255
221 235 255
221 235 255
221 235 255
216 228 246
160 116 103
165 119 118
164 118 106
160 116 103
164 118 112
161 116 101
160 117 106
162 118 112
159 116 101
162 116 106
160 116 97
162 118 112
160 116 103
158 114 97
159 115 95
161 116 106
162 118 108
164 118 115
163 117 104
162 117 106
161 116 101
163 118 112
160 116 104
164 118 112
163 118 106
161 116 104
163 117 110
163 118 106
161 115 103
161 117 101
159 114 103
163 118 108
164 119 108
164 118 112
167 120 117
162 117 99
161 117 110
160 117 103
163 118 110
164 118 113
160 116 97
166 119 110
160 116 101
164 118 108
159 116 101
158 115 99
160 117 101
162 117 106
161 117 103
158 115 99
162 117 101
164 118 112
163 117 113
164 119 112
161 117 106
161 117 103
163 118 110
162 116 106
161 117 110
159 116 99
162 117 101
163 117 104
163 118 118
159 116 101
163 118 113
163 118 110
162 117 108
165 119 112
161 118 110
162 117 104
162 117 108
162 118 112
158 115 103
160 116 99
161 116 104
166 119 115
162 116 112
160 117 106
166 119 113
165 119 117
158 115 101
160 116 106
158 116 95
159 115 97
162 117 104
161 118 110
163 118 103
163 118 113
163 117 104
159 116 103
162 118 110
160 116 103
165 118 113
159 116 104
159 117 103
162 117 106
162 117 112
161 116 104
163 118 113
158 113 99
162 116 110
161 117 110
165 120 117
161 116 106
164 119 118
162 117 110
162 116 108
161 117 104
164 118 108
162 117 103
158 116 95
160 115 103
160 117 103
166 120 110
162 117 110
168 120 117
165 119 103
159 116 104
161 117 112
162 118 106
159 115 101
162 118 106
160 116 101
159 114 97
160 116 106
161 116 103
165 119 117
157 114 99
164 118 112
160 115 104
163 118 112
158 113 90
161 116 113
160 116 99
162 118 113
164 119 112
164 119 113
164 119 108
161 116 101
159 115 97
156 113 93
163 118 112
162 117 108
162 116 110
164 119 108
162 118 108
162 118 112
219 232 252
221 235 255
221 235 255
221 235 255
221 235 255
221 235 255
221 235 255
221 235 255
221 235 255
221 235 255
221 235 255
221 235 255
221 235 255
221 235 255
221 235 255
221 235 255
221 235 255
221 235 255
221 235 255
221 235 255
221 235 255
221 235 255
221 235 255
221 235 255
221 235 255
221 235 255
221 235 255
221 235 255
221 235 255
221 235 255
221 235 255
221 235 255
221 235 255
221 235 255
221 235 255
221 235 255
221 235 255
221 235 255
221 235 255
221 235 255
221 235 255
221 235 255
221 235 255
221 235 255
221 235 255
221 235 255
221 235 255
221 235 255
221 235 255
221 235 255
221 235 255
221 235 255
221 235 255
221 235 255
221 235 255
221 235 255
221 235 255
221 235 255
221 235 255
221 235 255
221 235 255
221 235 255
221 235 255
221 235 255
221 235 255
221 235 255
221 235 255
221 235 255
221 235 255
221 235 255
221 235 255
221 235 255
221 235 255
221 235 255
221 235 255
221 235 255
221 235 255
221 235 255
221 235 255
221 235 255
221 235 255
221 235 255
221 235 255
221 235 255
221 235 255
221 235 255
221 235 255
221 235 255
221 235 255
221 235 255
221 235 255
221 235 255
221 235 255
221 235 255
221 235 255
221 235 255
221 235 255
221 235 255
221 235 255
221 235 255
221 235 255
221 235 255
221 235 255
221 235 255
221 235 255
221 235 255
221 235 255
221 235 255
213 221 237
162 117 108
162 117 104
163 117 110
161 117 101
164 118 115
161 117 104
166 120 112
162 117 103
161 116 104
162 117 101
162 117 104
162 117 104
162 118 103
165 119 117
161 117 101
162 118 112
161 116 106
163 118 106
162 115 106
156 114 86
158 115 103
160 115 108
162 117 99
160 115 103
163 119 112
161 115 106
157 114 97
158 114 97
161 117 112
163 118 108
159 116 101
164 119 113
161 116 112
161 117 103
160 115 99
162 118 112
160 117 108
160 115 101
163 118 106
161 115 101
166 120 120
161 117 99
164 118 112
164 117 108
159 116 106
160 117 108
163 118 110
160 116 104
164 117 110
162 117 106
159 116 101
158 114 90
164 118 115
160 117 104
160 116 106
158 114 99
162 116 112
151 110 81
160 116 104
160 116 108
159 115 99
160 116 99
162 116 99
162 118 106
166 119 113
159 116 104
158 114 93
158 115 97
161 117 110
161 117 112
163 118 113
164 119 115
162 117 103
162 117 103
163 118 113
162 117 104
159 115 108
160 116 97
155 113 99
164 118 106
163 118 110
160 116 104
164 118 108
164 119 112
160 117 101
161 115 106
162 117 104
155 113 90
167 120 117
162 117 108
160 116 106
157 115 95
162 118 112
161 117 110
163 119 110
161 117 108
164 117 110
162 118 110
161 117 104
162 118 110
162 118 106
162 118 108
160 116 95
164 119 110
161 117 103
164 118 104
160 116 106
162 117 108
159 115 104
163 118 115
152 112 81
160 117 108
157 115 99
162 118 108
163 117 104
158 116 99
166 120 118
164 119 110
156 114 97
158 114 93
161 115 99
165 119 117
163 118 108
167 121 118
161 116 103
162 116 104
161 117 106
164 119 112
158 116 99
159 114 97
159 114 104
162 117 104
163 117 106
163 119 117
163 119 110
162 117 112
161 117 106
161 116 103
161 116 106
159 116 101
162 117 106
157 114 99
158 113 99
163 118 112
159 115 101
166 119 117
161 117 101
215 225 243
221 235 255
221 235 255
221 235 255
221 235 255
221 235 255
221 235 255
221 235 255
221 235 255
221 235 255
221 235 255
221 235 255
221 235 255
221 235 255
221 235 255
221 235 255
221 235 255
221 235 255
221 235 255
221 235 255
221 235 255
221 235 255
221 235 255
221 235 255
221 235 255
221 235 255
221 235 255
221 235 255
221 235 255
221 235 255
221 235 255
221 235 255
221 235 255
221 235 255
221 235 255
221 235 255
221 235 255
221 235 255
221 235 255
221 235 255
221 235 255
221 235 255
221 235 255
221 235 255
221 235 255
221 235 255
221 235 255
221 235 255
221 235 255
221 235 255
221 235 255
221 235 255
221 235 255
221 235 255
221 235 255
221 236 255
221 236 255
221 236 255
221 236 255
221 236 255
221 236 255
221 236 255
221 236 255
221 236 255
221 236 255
221 236 255
221 236 255
221 236 255
221 236 255
221 236 255
221 236 255
221 236 255
221 236 255
221 236 255
221 236 255
221 236 255
221 236 255
221 236 255
221 236 255
221 236 255
221 236 255
221 236 255
221 236 255
221 236 255
221 236 255
221 236 255
221 236 255
221 236 255
221 236 255
221 236 255
221 236 255
221 236 255
221 236 255
221 236 255
221 236 255
221 236 255
221 236 255
221 236 255
221 236 255
221 236 255
221 236 255
221 236 255
221 236 255
221 236 255
221 236 255
221 236 255
221 236 255
221 236 255
215 225 244
161 116 106
159 116 101
161 118 115
163 117 103
160 116 95
162 117 110
161 117 106
160 115 101
159 115 101
159 116 99
162 117 99
157 114 97
161 117 104
161 116 104
161 117 108
159 114 99
160 117 103
162 117 106
162 118 108
163 117 108
162 117 101
160 117 99
164 118 115
160 116 108
160 115 99
163 117 110
162 118 110
158 115 99
161 116 104
161 116 106
166 120 117
161 116 108
162 117 106
160 116 106
163 117 108
161 116 110
162 118 103
161 118 110
166 119 110
160 115 99
162 118 104
163 117 113
164 119 113
162 116 104
158 114 99
163 119 115
157 115 99
163 118 110
159 114 99
162 118 106
159 116 97
165 119 120
160 116 101
165 119 113
160 116 101
165 119 108
162 118 104
160 116 101
161 116 108
162 117 106
162 117 106
163 119 112
161 117 103
158 114 101
161 117 106
162 118 104
161 115 101
160 115 104
161 117 108
160 115 103
163 118 110
164 118 110
159 114 97
161 116 103
160 116 104
160 116 101
158 115 103
160 116 97
162 117 106
158 115 93
160 116 108
164 119 117
164 119 113
162 117 103
159 114 99
162 118 104
165 119 113
157 114 93
163 118 108
157 114 99
162 117 110
160 117 104
159 116 104
163 118 113
163 118 110
165 119 117
159 116 97
161 117 108
162 117 99
155 113 86
162 118 110
160 117 104
159 116 101
164 119 113
164 119 110
159 115 103
160 116 101
160 116 104
161 116 104
165 118 117
160 116 97
165 118 110
157 114 101
161 117 104
162 117 115
163 118 104
162 117 104
160 116 103
163 117 104
159 116 95
160 116 95
161 117 106
161 116 104
166 120 117
157 113 95
165 119 112
158 115 97
162 117 108
163 118 115
156 113 95
164 119 110
163 117 104
163 118 108
163 118 112
164 119 117
162 117 106
160 116 104
160 116 97
158 114 99
160 117 101
161 117 106
160 116 93
164 118 108
162 118 104
164 119 115
159 116 97
158 115 99
215 225 243
221 236 255
221 236 255
221 236 255
221 236 255
221 236 255
221 236 255
221 236 255
221 236 255
221 236 255
221 236 255
221 236 255
221 236 255
221 236 255
221 236 255
221 236 255
221 236 255
221 236 255
221 236 255
221 236 255
221 236 255
221 236 255
221 236 255
221 236 255
221 236 255
221 236 255
221 236 255
221 236 255
221 236 255
221 236 255
221 236 255
221 236 255
221 236 255
221 236 255
221 236 255
221 236 255
221 236 255
221 236 255
221 236 255
221 236 255
221 236 255
221 236 255
221 236 255
221 236 255
221 236 255
221 236 255
221 236 255
221 236 255
221 236 255
221 236 255
221 236 255
221 236 255
221 236 255
221 236 255
221 236 255
221 236 255
221 236 255
221 236 255
221 236 255
221 236 255
221 236 255
221 236 255
221 236 255
221 236 255
221 236 255
221 236 255
221 236 255
221 236 255
221 236 255
221 236 255
221 236 255
221 236 255
221 236 255
221 236 255
221 236 255
221 236 255
221 236 255
221 236 255
221 236 255
221 236 255
221 236 255
221 236 255
221 236 255
221 236 255
221 236 255
221 236 255
221 236 255
221 236 255
221 236 255
221 236 255
221 236 255
221 236 255
221 236 255
221 236 255
221 236 255
221 236 255
221 236 255
221 236 255
221 236 255
221 236 255
221 236 255
221 236 255
221 236 255
221 236 255
221 236 255
221 236 255
221 236 255
221 236 255
216 225 243
161 116 97
161 117 108
163 117 110
160 117 104
160 117 103
157 115 99
162 118 108
163 118 104
155 112 90
162 116 104
162 116 106
163 117 106
160 115 104
160 115 97
160 116 97
161 117 97
165 117 104
163 118 106
161 117 103
160 116 103
158 115 104
163 117 104
163 119 113
158 114 101
164 119 110
162 117 104
161 116 104
161 117 101
162 117 101
161 115 97
158 116 95
154 111 86
162 118 108
161 116 104
163 118 110
161 116 106
161 117 103
161 117 103
161 118 110
161 116 104
162 118 104
161 116 104
163 117 112
162 117 108
162 117 103
154 113 86
157 114 93
156 114 93
160 116 103
165 119 112
160 114 97
160 117 104
158 116 95
164 119 112
160 116 104
163 117 108
160 115 103
163 118 110
156 113 90
162 117 110
161 117 103
159 116 97
163 117 110
161 117 104
159 115 95
158 116 99
157 115 86
164 119 108
162 118 104
160 116 106
164 118 104
165 118 103
163 118 112
156 114 93
160 115 101
163 117 108
162 118 108
159 115 95
162 117 103
163 118 103
163 118 108
163 118 112
166 119 117
159 115 101
160 115 106
163 116 108
160 116 103
163 117 106
160 116 103
157 115 101
162 117 106
157 113 97
161 116 97
161 117 103
163 118 108
163 118 108
162 118 112
156 114 95
160 116 103
162 117 101
159 116 104
164 118 110
163 118 110
158 114 93
166 119 115
161 117 104
164 118 104
160 116 104
166 119 112
160 116 97
162 117 104
159 115 101
162 117 106
164 119 115
163 117 108
158 114 95
164 119 113
159 116 99
161 117 106
162 118 117
158 115 99
158 113 99
162 118 110
160 116 103
159 116 104
160 117 101
157 113 90
163 117 108
161 116 103
162 118 106
161 116 108
163 117 113
161 116 106
158 114 99
160 116 99
161 117 103
161 117 101
159 116 97
160 116 104
160 116 104
160 117 99
163 118 112
164 119 117
160 116 103
158 114 97
158 114 95
165 119 112
214 223 240
221 236 255
221 236 255
221 236 255
221 236 255
221 236 255
221 236 255
221 236 255
221 236 255
221 236 255
221 236 255
221 236 255
221 236 255
221 236 255
221 236 255
221 236 255
221 236 255
221 236 255
221 236 255
221 236 255
221 236 255
221 236 255
221 236 255
221 236 255
221 236 255
221 236 255
221 236 255
221 236 255
221 236 255
221 236 255
221 236 255
221 236 255
221 236 255
221 236 255
221 236 255
221 236 255
221 236 255
221 236 255
221 236 255
221 236 255
221 236 255
221 236 255
221 236 255
221 236 255
221 236 255
221 236 255
221 236 255
221 236 255
221 236 255
221 236 255
221 236 255
221 236 255
221 236 255
221 236 255
221 236 255
222 236 255
222 236 255
222 236 255
222 236 255
222 236 255
222 236 255
222 236 255
222 236 255
222 236 255
222 236 255
222 236 255
222 236 255
222 236 255
222 236 255
222 236 255
222 236 255
222 236 255
222 236 255
222 236 255
222 236 255
222 236 255
222 236 255
222 236 255
222 236 255
222 236 255
222 236 255
222 236 255
222 236 255
222 236 255
222 236 255
222 236 255
222 236 255
222 236 255
222 236 255
222 236 255
222 236 255
222 236 255
222 236 255
222 236 255
222 236 255
222 236 255
222 236 255
222 236 255
222 236 255
222 236 255
222 236 255
222 236 255
222 236 255
222 236 255
222 236 255
222 236 255
222 236 255
222 236 255
221 234 254
159 116 104
158 115 101
158 114 97
163 118 110
167 120 118
160 116 103
164 119 112
161 116 108
164 118 108
159 115 101
159 116 104
162 116 112
157 114 88
165 119 112
162 117 103
161 115 103
161 116 103
162 117 101
162 118 106
161 117 103
162 117 110
161 116 101
163 117 110
162 118 108
158 115 99
161 117 108
161 117 104
154 113 86
164 117 103
157 115 86
156 115 90
160 116 101
161 117 106
163 118 110
159 115 93
162 117 113
162 117 106
162 118 106
158 115 95
160 116 103
160 116 99
165 119 106
156 114 88
162 117 104
160 117 103
166 120 115
164 118 110
164 119 113
161 116 103
162 118 106
166 120 118
161 116 113
162 118 108
161 116 99
165 119 108
162 117 104
162 117 101
160 116 104
164 118 112
168 121 113
155 113 93
158 115 93
157 115 103
162 117 103
159 115 95
159 116 104
165 119 112
160 117 103
161 116 103
157 114 95
164 118 108
165 118 108
163 118 106
157 115 95
156 114 88
161 116 103
163 118 112
159 114 97
160 116 101
161 116 103
160 116 95
158 115 90
159 116 104
164 118 108
164 119 110
158 116 103
157 114 88
162 116 101
163 118 106
162 117 104
162 117 104
164 117 108
160 116 103
157 114 88
162 117 108
156 113 93
161 117 112
163 117 110
160 116 101
162 117 108
160 116 101
163 117 104
159 116 93
161 117 95
158 114 97
160 117 103
161 116 104
166 120 115
163 118 106
158 115 103
163 117 106
158 115 90
157 115 101
157 115 103
162 117 101
162 117 101
157 114 95
161 117 103
163 118 106
162 118 103
160 115 106
158 115 99
160 115 101
161 116 108
162 118 108
158 116 104
159 116 103
161 117 104
164 119 110
163 119 110
159 115 93
162 117 113
165 118 110
161 116 101
160 117 103
158 114 104
156 113 88
166 119 108
162 116 103
165 119 112
160 116 93
164 118 113
163 118 108
162 118 106
163 117 101
157 114 93
162 117 112
220 234 253
222 236 255
222 236 255
222 236 255
222 236 255
222 236 255
222 236 255
222 236 255
222 236 255
222 236 255
222 236 255
222 236 255
222 236 255
222 236 255
222 236 255
222 236 255
222 236 255
222 236 255
222 236 255
222 236 255
222 236 255
222 236 255
222 236 255
222 236 255
222 236 255
222 236 255
222 236 255
222 236 255
222 236 255
222 236 255
222 236 255
222 236 255
222 236 255
222 236 255
222 236 255
222 236 255
222 236 255
222 236 255
222 236 255
222 236 255
222 236 255
222 236 255
222 236 255
222 236 255
222 236 255
222 236 255
222 236 255
222 236 255
222 236 255
222 236 255
222 236 255
222 236 255
222 236 255
222 236 255
222 236 255
222 236 255
222 236 255
222 236 255
222 236 255
222 236 255
222 236 255
222 236 255
222 236 255
222 236 255
222 236 255
222 236 255
222 236 255
222 236 255
222 236 255
222 236 255
222 236 255
222 236 255
222 236 255
222 236 255
222 236 255
222 236 255
222 236 255
222 236 255
222 236 255
222 236 255
222 236 255
222 236 255
222 236 255
222 236 255
222 236 255
222 236 255
222 236 255
222 236 255
222 236 255
222 236 255
222 236 255
222 236 255
222 236 255
222 236 255
222 236 255
222 236 255
222 236 255
222 236 255
222 236 255
222 236 255
222 236 255
222 236 255
222 236 255
222 236 255
222 236 255
222 236 255
222 236 255
222 236 255
217 229 247
156 114 90
163 117 112
161 117 110
162 117 110
154 112 88
163 117 104
159 115 103
166 119 106
159 115 95
160 116 97
164 118 113
157 113 93
162 118 101
163 118 108
160 116 110
160 116 99
161 116 104
160 115 101
160 116 104
163 117 117
162 117 112
164 119 108
155 113 88
161 117 103
163 118 108
160 117 101
164 118 106
155 113 97
157 114 97
163 118 110
160 116 97
158 113 93
161 117 103
160 115 99
161 116 101
162 117 110
160 116 104
157 115 95
162 117 106
156 114 93
165 119 112
157 115 101
162 116 103
158 115 101
160 116 99
159 115 97
161 115 104
158 115 101
164 118 113
160 117 103
164 118 106
158 116 101
160 117 103
161 117 103
163 118 106
165 119 113
161 116 103
159 116 101
159 115 93
164 118 112
160 115 97
159 114 93
157 113 90
159 115 90
159 114 97
159 115 97
162 117 106
162 117 106
162 117 106
159 116 104
162 118 104
157 115 95
163 116 106
166 119 115
164 119 108
160 116 103
164 119 113
158 115 90
159 116 97
158 114 93
159 115 101
160 117 104
161 116 108
159 115 99
162 118 115
158 115 101
160 116 103
158 115 90
160 117 104
161 116 93
163 117 115
161 117 104
166 120 117
164 118 108
163 116 106
162 117 106
158 115 93
161 116 108
165 117 108
161 116 103
161 116 101
162 118 104
162 117 104
160 116 104
163 119 117
160 116 95
161 117 110
164 117 110
164 118 110
164 118 110
163 118 115
160 116 108
161 116 99
164 118 108
158 115 99
163 118 110
157 113 93
159 115 101
164 119 115
162 117 112
158 115 97
158 113 99
163 118 104
160 116 95
165 119 112
159 116 99
166 120 115
156 115 97
154 111 86
159 114 99
161 117 103
158 115 101
160 117 99
161 117 110
160 115 108
156 113 95
160 116 99
161 117 101
162 118 103
157 113 101
159 115 103
162 116 101
161 116 99
160 115 95
158 114 99
162 116 110
162 116 106
220 232 251
222 236 255
222 236 255
222 236 255
222 236 255
222 236 255
222 236 255
222 236 255
222 236 255
222 236 255
222 236 255
222 236 255
222 236 255
222 236 255
222 236 255
222 236 255
222 236 255
222 236 255
222 236 255
222 236 255
222 236 255
222 236 255
222 236 255
222 236 255
222 236 255
222 236 255
222 236 255
222 236 255
222 236 255
222 236 255
222 236 255
222 236 255
222 236 255
222 236 255
222 236 255
222 236 255
222 236 255
222 236 255
222 236 255
222 236 255
222 236 255
222 236 255
222 236 255
222 236 255
222 236 255
222 236 255
222 236 255
222 236 255
222 236 255
222 236 255
222 236 255
222 236 255
222 236 255
222 236 255
222 236 255
222 236 255
222 236 255
222 236 255
222 236 255
222 236 255
222 236 255
222 236 255
222 236 255
222 236 255
222 236 255
222 236 255
222 236 255
222 236 255
222 236 255
222 236 255
222 236 255
222 236 255
222 236 255
222 236 255
222 236 255
222 236 255
222 236 255
222 236 255
222 236 255
222 236 255
222 236 255
222 236 255
222 236 255
222 236 255
222 236 255
222 236 255
222 236 255
222 236 255
222 236 255
222 236 255
222 236 255
222 236 255
222 236 255
222 236 255
222 236 255
222 236 255
222 236 255
222 236 255
222 236 255
222 236 255
222 236 255
222 236 255
222 236 255
222 236 255
222 236 255
222 236 255
222 236 255
222 236 255
221 234 253
158 114 97
156 113 93
159 116 101
161 117 103
163 118 106
156 114 86
162 117 101
161 117 101
163 118 112
160 117 103
163 117 115
157 114 86
163 117 108
159 116 97
166 120 112
161 117 106
159 115 103
160 115 104
164 118 106
159 115 101
159 116 99
164 118 103
165 119 112
158 113 90
165 119 122
161 117 97
163 118 112
160 116 90
159 115 97
160 116 97
160 116 101
161 117 108
160 116 101
161 117 99
161 116 103
160 116 104
161 116 103
158 113 103
157 114 88
162 116 101
163 118 112
157 115 97
161 116 106
158 115 99
160 116 112
156 114 86
161 116 108
159 115 93
159 116 104
160 116 103
157 114 95
161 117 108
165 118 108
162 116 104
159 116 97
160 116 103
164 119 110
164 119 113
158 114 103
162 117 101
159 116 95
161 116 108
159 115 99
164 119 115
161 115 106
164 118 110
155 114 88
162 117 101
159 115 97
161 117 110
159 115 106
161 115 108
156 114 95
159 115 101
164 119 110
163 117 104
161 117 113
158 115 101
159 116 95
163 117 104
160 117 108
161 117 106
159 116 99
159 116 93
162 117 104
161 116 101
164 118 113
159 116 101
157 114 97
161 117 104
163 118 108
156 114 84
158 116 93
159 116 101
158 116 99
161 116 97
160 116 103
160 116 101
159 116 101
161 116 106
165 119 117
161 116 101
162 117 110
161 116 101
167 119 115
157 115 97
157 114 97
165 118 112
157 115 99
159 116 99
164 118 113
162 118 103
159 114 103
159 116 106
162 117 106
159 115 104
157 114 90
158 114 103
161 118 106
156 112 103
162 117 104
162 116 108
157 112 88
156 114 95
160 116 106
161 116 106
164 118 110
157 114 101
163 118 108
156 112 90
163 116 113
167 119 113
160 115 99
158 115 103
161 117 106
155 113 93
165 119 104
160 116 110
161 116 103
155 112 90
159 115 99
163 117 113
158 115 93
160 116 97
160 116 101
164 118 112
167 122 121
222 236 255
222 236 255
222 236 255
222 236 255
222 236 255
222 236 255
222 236 255
222 236 255
222 236 255
222 236 255
222 236 255
222 236 255
222 236 255
222 236 255
222 236 255
222 236 255
222 236 255
222 236 255
222 236 255
222 236 255
222 236 255
222 236 255
222 236 255
222 236 255
222 236 255
222 236 255
222 236 255
222 236 255
222 236 255
222 236 255
222 236 255
222 236 255
222 236 255
222 236 255
222 236 255
222 236 255
222 236 255
222 236 255
222 236 255
222 236 255
222 236 255
222 236 255
222 236 255
222 236 255
222 236 255
222 236 255
222 236 255
222 236 255
222 236 255
222 236 255
222 236 255
222 236 255
222 236 255
222 236 255
222 236 255
222 236 255
222 236 255
222 236 255
222 236 255
222 236 255
222 236 255
222 236 255
222 236 255
222 236 255
222 236 255
222 236 255
222 236 255
222 236 255
222 236 255
222 236 255
222 236 255
222 236 255
222 236 255
222 236 255
222 236 255
222 236 255
222 236 255
222 236 255
222 236 255
222 236 255
222 236 255
222 236 255
222 236 255
222 236 255
222 236 255
222 236 255
222 236 255
222 236 255
222 236 255
222 236 255
222 236 255
222 236 255
222 236 255
222 236 255
222 236 255
222 236 255
222 236 255
222 236 255
222 236 255
222 236 255
222 236 255
222 236 255
222 236 255
222 236 255
222 236 255
222 236 255
222 236 255
222 236 255
222 236 255
163 126 112
162 118 106
162 117 103
161 116 101
167 120 115
160 114 101
163 118 101
159 115 101
160 116 95
160 115 106
159 115 95
164 117 110
162 118 104
158 114 95
156 114 99
157 114 97
165 119 113
162 117 103
165 118 115
163 117 106
158 115 97
158 115 95
158 115 90
157 114 93
159 112 103
160 115 97
163 117 104
164 119 110
163 118 108
157 114 97
161 117 106
163 118 112
160 116 103
161 116 101
164 118 106
155 113 86
158 115 93
161 115 101
162 117 104
159 115 99
161 116 104
160 117 104
158 115 97
161 116 108
162 117 104
155 113 84
163 117 106
160 116 104
158 115 86
162 117 104
156 114 93
160 116 103
160 116 104
162 117 104
159 116 99
160 115 104
162 118 108
163 117 112
165 119 113
161 116 103
160 116 106
161 116 106
167 121 118
158 115 97
162 117 106
162 118 108
160 115 97
157 115 88
165 119 113
157 115 97
162 117 108
161 116 101
161 116 95
161 117 104
162 118 112
162 117 104
160 114 101
164 119 113
163 119 112
160 114 103
158 115 93
164 119 113
162 117 103
161 117 103
160 115 101
163 117 112
163 118 104
162 117 108
165 119 117
162 117 103
166 119 115
160 117 106
159 116 103
158 115 88
161 116 108
164 119 108
161 117 104
167 120 112
160 117 99
163 117 115
164 118 108
159 114 93
161 117 103
161 116 101
159 114 103
166 120 113
162 117 103
158 116 97
157 115 99
159 116 101
160 117 104
162 118 106
169 122 122
155 113 93
161 116 101
160 116 110
158 116 99
166 120 117
159 115 101
161 116 101
161 117 99
163 116 104
160 117 106
160 116 104
159 116 97
162 116 97
160 115 104
160 116 103
164 118 108
158 115 95
164 117 112
159 115 101
162 118 106
164 118 113
161 116 108
158 114 97
158 115 104
158 115 97
158 115 90
162 117 99
159 114 99
163 118 106
159 114 90
161 116 101
164 119 108
157 112 97
169 132 125
222 236 255
222 236 255
222 236 255
222 236 255
222 236 255
222 236 255
222 236 255
222 236 255
222 236 255
222 236 255
222 236 255
222 236 255
222 236 255
222 236 255
222 236 255
222 236 255
222 236 255
222 236 255
222 236 255
222 236 255
222 236 255
222 236 255
222 236 255
222 236 255
222 236 255
222 236 255
222 236 255
222 236 255
222 236 255
222 236 255
222 236 255
222 236 255
222 236 255
222 236 255
222 236 255
222 236 255
222 236 255
222 236 255
222 236 255
222 236 255
222 236 255
222 236 255
222 236 255
222 236 255
222 236 255
222 236 255
222 236 255
222 236 255
222 236 255
222 236 255
222 236 255
222 236 255
222 236 255
222 236 255
222 236 255
222 236 255
222 236 255
222 236 255
222 236 255
222 236 255
222 236 255
222 236 255
222 236 255
222 236 255
222 236 255
222 236 255
222 236 255
222 236 255
222 236 255
223 236 255
223 236 255
223 236 255
223 236 255
223 236 255
223 236 255
223 236 255
223 236 255
223 236 255
223 236 255
223 236 255
223 236 255
223 236 255
223 236 255
223 236 255
223 236 255
223 236 255
223 236 255
223 236 255
223 236 255
223 236 255
223 236 255
223 236 255
223 236 255
223 236 255
223 236 255
223 236 255
223 236 255
223 236 255
223 236 255
223 236 255
223 236 255
223 236 255
223 236 255
223 236 255
223 236 255
223 236 255
223 236 255
223 236 255
223 236 255
171 140 130
161 117 104
158 115 95
157 115 95
161 116 106
160 115 104
160 114 95
160 115 103
158 114 103
164 118 108
160 114 97
163 118 112
162 117 108
161 116 110
159 114 106
159 115 103
159 115 97
161 116 103
163 118 108
159 115 97
157 113 97
159 113 104
160 116 108
161 116 99
160 117 104
160 116 101
158 114 97
160 115 106
160 116 101
161 116 103
159 115 101
161 117 103
163 117 106
159 116 99
158 113 97
166 119 117
161 116 106
161 117 103
157 112 97
165 119 113
164 118 108
161 117 101
161 116 108
159 116 101
162 117 104
163 117 106
165 119 118
162 117 110
162 116 106
161 118 106
160 116 103
160 116 101
160 115 88
162 118 108
161 117 106
159 115 99
163 116 106
159 116 101
167 119 123
163 118 108
161 115 106
159 115 93
163 117 104
163 117 110
163 118 108
162 117 104
164 118 108
157 115 99
159 115 93
158 115 95
167 120 115
164 117 110
159 114 101
159 115 104
157 114 95
163 118 110
155 113 93
162 116 103
164 119 108
158 116 97
161 115 103
157 115 95
156 113 86
157 115 99
156 113 90
162 117 106
161 117 103
160 116 103
164 119 113
162 117 104
161 116 88
163 118 117
158 113 99
160 115 99
162 116 101
164 119 113
160 115 101
159 116 99
162 117 104
162 116 103
158 114 90
159 115 110
161 115 95
160 116 97
156 113 86
159 116 97
155 111 86
157 114 88
158 116 97
157 114 101
162 117 101
160 116 101
164 119 113
157 114 93
161 116 101
159 115 97
161 116 101
156 113 97
162 118 112
162 118 106
161 115 108
166 119 110
168 121 120
160 116 103
160 116 101
164 118 104
164 118 108
162 118 103
155 112 84
161 116 104
158 115 101
158 115 99
158 115 99
159 114 99
163 119 110
160 116 103
159 115 99
163 117 112
160 116 103
162 117 110
158 116 103
156 113 90
159 116 106
155 113 90
160 116 104
157 113 93
178 156 157
223 236 255
223 236 255
223 236 255
223 236 255
223 236 255
223 236 255
223 236 255
223 236 255
223 236 255
223 236 255
223 236 255
223 236 255
223 236 255
223 236 255
223 236 255
223 236 255
223 236 255
223 236 255
223 236 255
223 236 255
223 236 255
223 236 255
223 236 255
223 236 255
223 236 255
223 236 255
223 236 255
223 236 255
223 236 255
223 236 255
223 236 255
223 236 255
223 236 255
223 236 255
223 236 255
223 236 255
223 236 255
223 236 255
223 236 255
222 236 255
222 236 255
222 236 255
222 236 255
222 236 255
222 236 255
222 236 255
222 236 255
222 236 255
222 236 255
222 236 255
222 236 255
222 236 255
222 236 255
222 236 255
222 236 255
223 236 255
223 236 255
223 236 255
223 236 255
223 236 255
223 236 255
223 236 255
223 236 255
223 236 255
223 236 255
223 236 255
223 236 255
223 236 255
223 236 255
223 236 255
223 236 255
223 236 255
223 236 255
223 236 255
223 236 255
223 236 255
223 236 255
223 236 255
223 236 255
223 236 255
223 236 255
223 236 255
223 236 255
223 236 255
223 236 255
223 236 255
223 236 255
223 236 255
223 236 255
223 236 255
223 236 255
223 236 255
223 236 255
223 236 255
223 236 255
223 236 255
223 236 255
223 236 255
223 236 255
223 236 255
223 236 255
223 236 255
223 236 255
223 236 255
223 236 255
223 236 255
223 237 255
223 237 255
223 237 255
176 145 143
161 116 106
158 115 103
165 119 115
159 114 101
165 119 112
163 118 108
160 116 104
161 116 99
161 117 104
161 117 108
156 112 90
160 116 103
163 117 104
166 118 110
160 115 99
162 116 106
157 113 88
163 117 104
165 119 113
159 115 95
161 116 99
160 115 104
157 114 97
164 119 108
159 114 103
162 117 108
162 117 110
160 116 104
158 116 101
166 119 115
158 114 99
155 111 90
161 117 99
157 114 99
162 117 103
160 117 103
160 115 101
160 115 99
162 118 104
162 117 106
160 117 101
162 117 101
161 117 106
160 115 97
157 115 101
158 116 95
162 117 113
160 115 95
165 119 117
160 116 99
162 117 112
161 116 101
163 118 106
160 114 103
162 117 104
163 117 106
163 117 104
157 113 95
160 115 103
160 116 99
161 116 104
162 118 106
156 114 95
161 117 104
161 116 103
162 117 106
164 118 103
166 120 120
158 116 101
163 117 103
161 116 103
160 115 101
160 116 95
160 116 99
160 117 103
157 114 88
158 114 97
161 117 101
158 114 93
162 116 104
157 114 90
161 118 108
163 119 117
156 113 95
160 115 101
167 119 110
159 115 103
161 115 101
161 117 106
158 115 95
162 117 103
157 114 90
162 116 103
162 117 101
158 116 99
157 114 103
161 117 104
159 116 97
156 112 99
160 116 103
159 114 99
163 118 110
157 113 95
162 116 103
159 115 95
155 114 76
161 117 106
158 115 97
166 119 113
156 114 90
160 114 97
158 115 93
163 117 108
161 116 106
160 116 101
167 120 117
162 116 106
159 115 101
159 114 97
165 119 112
163 117 106
160 116 95
159 115 95
163 118 110
160 116 95
161 117 99
158 116 95
157 114 101
159 114 93
159 115 103
165 119 118
161 116 104
162 117 104
157 114 86
159 114 106
165 119 113
161 117 108
161 116 104
157 113 95
161 116 104
158 114 93
157 115 103
162 117 108
163 118 106
162 117 106
176 153 145
223 236 255
223 236 255
223 237 255
223 236 255
223 236 255
223 236 255
223 236 255
223 236 255
223 236 255
223 236 255
223 236 255
223 236 255
223 236 255
223 236 255
223 236 255
223 236 255
223 236 255
223 236 255
223 236 255
223 236 255
223 236 255
223 236 255
223 236 255
223 236 255
223 236 255
223 236 255
223 236 255
223 236 255
223 236 255
223 236 255
223 236 255
223 236 255
223 236 255
223 236 255
223 236 255
223 236 255
223 236 255
223 236 255
223 236 255
223 236 255
223 236 255
223 236 255
223 236 255
223 236 255
223 236 255
223 236 255
223 236 255
223 236 255
223 236 255
223 236 255
223 236 255
223 236 255
223 236 255
223 236 255
223 236 255
223 236 255
223 236 255
223 236 255
223 236 255
223 236 255
223 236 255
223 236 255
223 236 255
223 236 255
223 236 255
223 236 255
223 236 255
223 236 255
223 236 255
223 236 255
223 237 255
223 237 255
223 237 255
223 237 255
223 237 255
223 237 255
223 237 255
223 237 255
223 237 255
223 237 255
223 237 255
223 237 255
223 237 255
223 237 255
223 237 255
223 237 255
223 237 255
223 237 255
223 237 255
223 237 255
223 237 255
223 237 255
223 237 255
223 237 255
223 237 255
223 237 255
223 237 255
223 237 255
223 237 255
223 237 255
223 237 255
223 237 255
223 237 255
223 237 255
223 237 255
223 237 255
223 237 255
223 237 255
223 237 255
178 161 159
162 116 106
164 118 110
163 118 117
156 114 99
159 114 97
163 118 106
153 110 79
160 116 106
160 115 99
159 114 90
155 113 86
160 115 101
160 117 104
163 118 110
163 117 112
163 116 108
161 116 99
161 116 108
162 117 108
160 115 103
159 116 97
161 117 101
163 117 108
161 116 101
151 108 76
158 114 95
157 115 97
156 113 93
163 117 113
162 117 110
161 117 95
161 116 99
162 116 103
159 116 106
158 114 93
164 118 113
163 117 112
164 119 115
159 116 90
166 119 115
158 114 95
163 117 106
159 115 99
161 115 103
162 118 104
159 115 104
156 113 93
161 116 108
156 113 93
157 115 90
157 113 97
158 113 97
158 114 99
162 117 104
165 118 112
157 114 97
157 113 88
156 113 95
165 119 112
154 111 97
162 116 108
162 117 101
160 116 97
160 116 101
158 114 103
161 117 99
164 118 110
161 116 99
159 115 97
161 115 103
158 116 93
163 118 110
159 115 93
163 118 110
159 115 99
163 118 106
161 117 110
162 116 108
164 118 113
161 116 99
159 116 101
157 114 99
161 117 106
162 116 108
161 116 95
162 117 101
159 115 99
160 116 101
161 116 103
159 114 101
155 113 93
166 119 112
161 117 104
161 116 99
162 117 104
159 115 106
163 118 103
159 114 99
163 118 108
161 116 104
160 117 103
162 117 106
163 117 108
155 112 88
161 117 103
160 114 99
163 118 108
162 117 106
156 112 93
161 115 110
163 118 108
159 116 101
163 118 108
163 118 106
164 118 108
162 118 108
161 117 108
160 116 97
154 112 81
161 115 101
160 115 106
159 115 99
158 115 97
164 118 112
158 115 99
162 117 106
157 115 90
159 116 103
162 117 108
161 116 103
157 114 90
159 115 103
158 115 99
162 117 101
158 115 95
160 115 95
161 117 110
163 119 113
163 118 110
161 116 108
160 115 99
155 114 95
158 115 95
160 116 101
165 118 104
187 170 174
223 237 255
223 237 255
223 237 255
223 237 255
223 237 255
223 237 255
223 237 255
223 237 255
223 237 255
223 237 255
223 237 255
223 237 255
223 237 255
223 237 255
223 237 255
223 237 255
223 237 255
223 237 255
223 237 255
223 237 255
223 237 255
223 237 255
223 237 255
223 237 255
223 237 255
223 237 255
223 237 255
223 237 255
223 237 255
223 237 255
223 237 255
223 237 255
223 237 255
223 237 255
223 237 255
223 237 255
223 237 255
223 237 255
223 237 255
223 236 255
223 236 255
223 236 255
223 236 255
223 236 255
223 236 255
223 236 255
223 236 255
223 236 255
223 236 255
223 236 255
223 236 255
223 236 255
223 236 255
223 236 255
223 236 255
223 237 255
223 237 255
223 237 255
223 237 255
223 237 255
223 237 255
223 237 255
223 237 255
223 237 255
223 237 255
223 237 255
223 237 255
223 237 255
223 237 255
223 237 255
223 237 255
223 237 255
223 237 255
223 237 255
223 237 255
223 237 255
223 237 255
223 237 255
223 237 255
223 237 255
223 237 255
223 237 255
223 237 255
223 237 255
223 237 255
223 237 255
223 237 255
223 237 255
223 237 255
223 237 255
223 237 255
223 237 255
223 237 255
223 237 255
223 237 255
223 237 255
223 237 255
223 237 255
223 237 255
223 237 255
223 237 255
223 237 255
223 237 255
223 237 255
223 237 255
223 237 255
223 237 255
223 237 255
223 237 255
190 183 189
159 116 103
159 116 90
161 115 104
164 118 108
159 116 99
159 115 99
161 117 99
158 114 84
157 115 93
165 118 108
158 115 104
163 118 103
158 113 99
157 114 99
157 114 86
159 116 104
160 116 101
161 117 106
161 117 108
163 116 106
161 117 106
160 114 101
158 114 95
164 118 110
154 109 95
162 117 103
162 117 106
160 116 99
159 115 95
166 119 110
160 117 108
160 117 101
160 116 106
162 117 99
161 117 110
160 116 104
159 114 104
159 115 103
162 116 101
160 116 97
159 115 103
158 114 93
160 116 104
162 118 110
158 115 99
159 116 103
158 114 104
164 118 106
161 117 104
159 115 95
163 116 106
167 120 117
158 114 95
161 117 101
162 117 104
159 114 95
156 114 88
160 116 103
160 117 104
158 115 93
161 117 104
162 118 108
161 117 99
162 116 103
160 117 99
161 117 106
160 116 99
160 116 101
155 111 93
158 115 103
158 115 101
160 117 101
159 115 104
163 118 112
160 115 97
155 112 93
160 116 93
163 118 108
161 117 103
165 119 113
159 116 97
163 117 103
161 115 99
165 119 115
163 118 110
161 117 99
163 117 104
162 117 104
160 116 97
159 114 99
157 114 104
160 115 101
162 117 106
165 119 115
163 116 108
159 116 104
159 116 104
159 116 106
160 116 108
161 117 106
159 115 99
161 117 108
155 111 95
162 117 103
163 117 101
159 115 101
161 117 104
160 116 104
161 117 104
160 116 97
161 116 99
161 117 101
159 115 97
161 115 103
162 117 103
158 115 95
154 112 86
162 118 106
159 116 99
157 115 86
161 116 104
165 118 110
163 118 104
163 117 110
163 117 106
161 117 101
153 112 86
163 118 115
153 111 84
160 115 99
163 117 106
163 117 112
161 116 104
158 114 88
165 119 115
162 118 112
162 117 101
158 115 95
161 116 101
160 115 101
159 115 104
161 116 101
157 114 97
162 117 106
158 114 99
193 183 190
223 237 255
223 237 255
223 237 255
223 237 255
223 237 255
223 237 255
223 237 255
223 237 255
223 237 255
223 237 255
223 237 255
223 237 255
223 237 255
223 237 255
223 237 255
223 237 255
223 237 255
223 237 255
223 237 255
223 237 255
223 237 255
223 237 255
223 237 255
223 237 255
223 237 255
223 237 255
223 237 255
223 237 255
223 237 255
223 237 255
223 237 255
223 237 255
223 237 255
223 237 255
223 237 255
223 237 255
223 237 255
223 237 255
223 237 255
223 237 255
223 237 255
223 237 255
223 237 255
223 237 255
223 237 255
223 237 255
223 237 255
223 237 255
223 237 255
223 237 255
223 237 255
223 237 255
223 237 255
223 237 255
223 237 255
223 237 255
223 237 255
223 237 255
223 237 255
223 237 255
223 237 255
223 237 255
223 237 255
223 237 255
223 237 255
223 237 255
223 237 255
223 237 255
223 237 255
223 237 255
223 237 255
223 237 255
223 237 255
223 237 255
223 237 255
223 237 255
223 237 255
223 237 255
223 237 255
223 237 255
223 237 255
223 237 255
223 237 255
223 237 255
223 237 255
223 237 255
224 237 255
223 237 255
224 237 255
224 237 255
224 237 255
224 237 255
224 237 255
224 237 255
224 237 255
224 237 255
224 237 255
224 237 255
224 237 255
224 237 255
224 237 255
224 237 255
224 237 255
224 237 255
224 237 255
224 237 255
224 237 255
224 237 255
224 237 255
201 196 208
158 114 97
158 114 97
156 114 93
161 117 103
155 111 90
159 115 93
156 114 84
158 115 93
160 116 99
165 119 108
159 116 106
162 117 106
157 115 93
159 115 97
158 113 95
157 114 95
159 115 90
162 118 112
160 116 99
153 110 90
156 114 93
159 115 95
162 117 103
161 117 103
161 115 106
159 115 90
161 117 104
160 114 106
162 116 103
157 113 97
159 116 104
158 115 95
163 118 108
159 115 90
159 116 95
162 117 103
161 117 104
164 118 106
156 113 86
159 116 95
163 117 106
162 117 108
160 116 101
162 118 108
159 115 97
164 118 110
161 116 101
161 116 99
165 117 108
159 115 93
164 118 108
161 118 106
162 117 103
161 116 104
157 114 86
159 116 99
161 117 103
160 116 99
164 118 108
162 116 99
157 113 95
157 114 88
158 115 95
160 116 99
157 113 86
159 115 95
161 116 106
160 116 103
158 115 97
156 113 86
157 112 95
159 115 99
163 118 112
159 115 101
161 116 99
159 114 97
161 117 99
160 116 101
163 118 108
162 118 104
159 114 103
164 119 108
153 112 88
160 115 101
161 116 101
157 114 86
160 116 99
161 117 101
159 114 99
158 113 97
161 117 101
161 116 99
156 113 90
160 116 99
160 117 104
161 117 106
158 115 95
165 119 112
162 117 104
161 117 103
158 116 103
160 116 103
160 116 93
160 115 101
158 115 90
159 114 90
157 114 95
159 116 99
160 115 101
159 115 90
161 116 101
159 116 99
159 116 106
160 116 95
159 116 103
157 112 97
160 116 101
159 114 93
160 116 103
161 117 97
160 116 101
162 116 101
164 118 113
159 116 108
159 114 97
158 114 93
158 115 93
159 116 106
165 118 103
159 114 97
161 117 108
157 115 90
159 115 93
162 117 106
162 117 103
157 114 97
160 116 108
159 115 97
159 115 95
161 116 99
166 119 115
161 116 103
160 115 101
164 118 104
158 113 99
186 175 176
224 237 255
224 237 255
224 237 255
224 237 255
224 237 255
224 237 255
224 237 255
224 237 255
224 237 255
224 237 255
224 237 255
224 237 255
224 237 255
224 237 255
224 237 255
224 237 255
224 237 255
224 237 255
224 237 255
224 237 255
224 237 255
224 237 255
224 237 255
223 237 255
223 237 255
223 237 255
223 237 255
223 237 255
223 237 255
223 237 255
223 237 255
223 237 255
223 237 255
223 237 255
223 237 255
223 237 255
223 237 255
223 237 255
223 237 255
223 237 255
223 237 255
223 237 255
223 237 255
223 237 255
223 237 255
223 237 255
223 237 255
223 237 255
223 237 255
223 237 255
223 237 255
223 237 255
223 237 255
223 237 255
223 237 255
223 237 255
223 237 255
223 237 255
223 237 255
223 237 255
223 237 255
223 237 255
224 237 255
224 237 255
224 237 255
224 237 255
224 237 255
224 237 255
224 237 255
224 237 255
224 237 255
224 237 255
224 237 255
224 237 255
224 237 255
224 237 255
224 237 255
224 237 255
224 237 255
224 237 255
224 237 255
224 237 255
224 237 255
224 237 255
224 237 255
224 237 255
224 237 255
224 237 255
224 237 255
224 237 255
224 237 255
224 237 255
224 237 255
224 237 255
224 237 255
224 237 255
224 237 255
224 237 255
224 237 255
224 237 255
224 237 255
224 237 255
224 237 255
224 237 255
224 237 255
224 237 255
224 237 255
224 237 255
224 237 255
202 201 213
158 114 97
160 115 97
164 118 112
162 116 104
156 113 93
159 115 95
157 114 81
162 118 104
160 113 103
157 114 90
159 114 99
162 118 106
157 113 90
162 117 108
159 115 99
162 117 108
160 116 97
157 114 93
162 116 106
156 113 93
161 117 103
160 115 101
161 115 104
163 117 104
160 115 106
155 113 88
159 114 104
158 115 97
162 117 103
161 116 106
162 118 104
161 116 97
163 117 101
158 115 93
161 115 103
162 118 110
157 113 90
162 117 106
161 116 99
157 114 90
158 115 93
161 115 97
163 118 104
159 116 93
160 116 97
160 117 106
159 115 99
164 118 108
158 115 104
164 119 110
163 117 106
159 116 95
160 116 101
168 121 120
160 116 99
163 117 101
158 114 97
161 117 103
161 116 97
160 116 101
163 118 112
158 114 101
161 116 97
163 118 104
157 114 93
158 115 97
158 115 97
158 114 93
160 116 104
161 116 108
160 116 103
162 118 108
159 116 97
163 118 108
153 111 81
160 115 103
159 114 93
161 113 106
158 115 99
163 118 115
160 117 101
160 116 101
163 118 106
159 116 99
162 117 101
161 116 99
163 118 104
159 115 106
159 115 99
160 116 101
160 115 106
164 118 108
161 117 108
164 118 108
162 117 103
154 113 81
159 115 93
162 118 103
156 113 90
163 118 108
157 113 90
161 117 101
161 117 104
163 118 108
161 117 97
157 113 99
163 118 108
162 118 104
163 118 110
161 117 108
164 118 110
163 118 108
158 114 103
161 115 95
156 114 86
163 118 106
163 118 106
160 115 99
160 115 101
164 118 103
160 115 104
161 117 101
163 117 106
155 112 86
157 114 84
164 118 108
163 118 104
160 117 99
158 114 93
164 118 108
161 115 97
160 115 101
158 114 88
165 119 112
159 114 95
158 115 93
157 114 95
162 117 99
162 118 103
159 114 101
157 115 97
157 113 101
161 117 103
159 115 93
160 115 104
211 218 231
224 237 255
224 237 255
224 237 255
224 237 255
224 237 255
224 237 255
224 237 255
224 237 255
224 237 255
224 237 255
224 237 255
224 237 255
224 237 255
224 237 255
224 237 255
224 237 255
224 237 255
224 237 255
224 237 255
224 237 255
224 237 255
224 237 255
224 237 255
224 237 255
224 237 255
224 237 255
224 237 255
224 237 255
224 237 255
224 237 255
224 237 255
224 237 255
224 237 255
224 237 255
224 237 255
224 237 255
224 237 255
224 237 255
224 237 255
224 237 255
224 237 255
224 237 255
224 237 255
224 237 255
224 237 255
224 237 255
224 237 255
223 237 255
223 237 255
223 237 255
223 237 255
223 237 255
223 237 255
223 237 255
223 237 255
224 237 255
224 237 255
224 237 255
224 237 255
224 237 255
224 237 255
224 237 255
224 237 255
224 237 255
224 237 255
224 237 255
224 237 255
224 237 255
224 237 255
224 237 255
224 237 255
224 237 255
224 237 255
224 237 255
224 237 255
224 237 255
224 237 255
224 237 255
224 237 255
224 237 255
224 237 255
224 237 255
224 237 255
224 237 255
224 237 255
224 237 255
224 237 255
224 237 255
224 237 255
224 237 255
224 237 255
224 237 255
224 237 255
224 237 255
224 237 255
224 237 255
224 237 255
224 237 255
224 237 255
224 237 255
224 237 255
224 237 255
224 237 255
224 237 255
224 237 255
224 237 255
224 237 255
224 237 255
224 237 255
219 228 245
162 117 101
156 114 86
157 113 97
164 119 110
155 111 93
161 117 95
160 117 104
161 115 104
161 115 104
154 111 86
162 117 97
161 116 97
161 116 101
160 117 99
157 115 93
159 114 93
158 115 88
156 114 86
157 114 97
164 118 113
158 113 95
160 116 93
162 117 104
155 113 81
161 116 97
157 112 93
161 115 104
161 117 103
164 118 106
161 116 99
163 118 110
158 115 88
157 114 97
162 117 103
161 116 104
160 116 108
164 117 110
164 118 104
160 116 103
157 115 93
161 116 101
162 117 108
158 113 99
157 114 99
165 119 112
154 111 86
158 113 95
161 117 104
164 118 101
162 117 101
160 116 99
161 116 95
157 113 99
162 117 110
159 115 103
158 113 97
156 114 95
166 119 117
157 114 95
164 118 104
165 119 113
157 114 97
159 114 99
157 115 93
157 113 97
164 118 108
158 115 95
159 115 101
158 115 90
159 115 95
154 113 79
159 115 93
157 114 95
160 116 97
157 113 101
160 115 97
158 114 95
157 114 99
162 118 106
160 116 104
158 114 99
164 119 108
161 116 99
157 114 93
160 116 95
161 116 99
156 113 95
160 117 104
165 118 101
159 115 97
162 116 101
162 118 103
160 116 103
157 113 90
156 112 95
158 115 97
161 115 103
157 114 95
165 119 110
155 113 86
163 118 104
161 116 106
162 116 104
158 114 99
160 116 103
155 112 97
158 116 93
161 116 97
160 116 97
160 117 99
162 117 108
157 114 97
162 117 108
159 116 106
159 115 90
161 117 101
155 113 86
160 116 101
154 111 84
154 112 81
161 116 106
159 114 95
161 117 95
162 117 101
161 117 99
158 115 97
163 117 110
162 117 101
159 115 95
164 117 108
162 117 97
159 115 103
161 116 97
158 113 99
162 117 101
164 119 106
161 116 101
160 116 101
161 117 104
165 119 112
159 113 93
158 115 90
158 115 93
154 111 88
159 115 97
218 227 243
224 237 255
224 237 255
224 237 255
224 237 255
224 237 255
224 237 255
224 237 255
224 237 255
224 237 255
224 237 255
224 237 255
224 237 255
224 237 255
224 237 255
224 237 255
224 237 255
224 237 255
224 237 255
224 237 255
224 237 255
224 237 255
224 237 255
224 237 255
224 237 255
224 237 255
224 237 255
224 237 255
224 237 255
224 237 255
224 237 255
224 237 255
224 237 255
224 237 255
224 237 255
224 237 255
224 237 255
224 237 255
224 237 255
224 237 255
224 237 255
224 237 255
224 237 255
224 237 255
224 237 255
224 237 255
224 237 255
224 237 255
224 237 255
224 237 255
224 237 255
224 237 255
224 237 255
224 237 255
224 237 255
224 237 255
224 237 255
224 237 255
224 237 255
224 237 255
224 237 255
224 237 255
224 237 255
224 237 255
224 237 255
224 237 255
224 237 255
224 237 255
224 237 255
224 237 255
224 237 255
224 237 255
224 237 255
224 237 255
224 237 255
224 237 255
224 237 255
224 237 255
224 237 255
224 237 255
224 237 255
224 237 255
224 237 255
224 237 255
224 237 255
224 237 255
224 237 255
224 237 255
224 237 255
224 237 255
224 237 255
224 237 255
224 237 255
224 237 255
224 237 255
224 237 255
224 237 255
224 237 255
224 237 255
224 237 255
224 237 255
224 237 255
224 237 255
224 237 255
224 237 255
224 237 255
224 237 255
224 237 255
224 237 255
224 237 255
224 237 255
162 122 108
159 116 101
154 110 88
161 117 99
158 116 99
162 117 103
157 114 95
157 114 88
160 116 93
157 113 86
160 115 99
161 117 104
159 114 93
162 116 101
163 118 103
161 116 104
160 115 108
157 113 93
159 115 95
158 114 97
161 117 103
159 114 101
160 115 97
161 116 97
161 117 110
159 115 99
160 116 99
160 116 97
159 114 101
159 116 99
162 117 103
159 115 104
161 116 101
162 116 104
157 114 90
162 117 99
160 116 106
162 116 103
161 117 103
156 113 86
158 114 93
159 115 97
156 112 86
152 110 79
157 115 97
162 116 103
162 117 108
159 115 99
160 115 99
161 116 106
159 114 97
160 114 101
163 117 103
160 115 101
162 116 97
161 117 101
157 114 97
163 118 106
158 112 97
160 115 104
161 117 101
159 115 86
156 113 95
159 115 97
160 116 103
161 116 95
161 118 108
161 116 103
157 113 95
157 113 88
160 116 101
160 115 101
157 115 90
165 120 113
164 119 112
160 116 95
158 114 97
157 115 95
156 112 88
163 118 104
161 116 99
157 114 97
161 116 106
160 115 97
162 117 106
163 117 110
156 114 95
158 114 95
164 118 106
160 115 99
160 116 97
160 115 103
160 116 97
165 119 108
157 113 93
157 113 93
161 115 95
161 114 101
159 116 101
164 118 108
154 112 79
160 116 101
158 115 95
158 114 97
159 114 90
157 114 97
158 115 90
158 115 101
156 112 90
164 118 101
161 116 103
161 117 104
157 114 99
160 116 97
159 115 99
162 117 106
159 115 97
162 117 99
158 115 97
164 119 108
158 115 99
158 116 101
157 114 95
158 114 97
157 113 90
164 118 106
162 115 101
161 116 106
165 119 113
159 114 97
161 116 104
161 116 108
155 112 81
158 115 93
161 116 106
158 114 103
161 117 104
160 116 104
157 113 90
160 116 108
154 110 81
157 113 95
157 114 88
160 115 106
167 127 113
224 237 253
224 237 255
224 237 255
224 237 255
224 237 255
224 237 255
224 237 255
224 237 255
224 237 255
224 237 255
224 237 255
224 237 255
224 237 255
224 237 255
224 237 255
224 237 255
224 237 255
224 237 255
224 237 255
224 237 255
224 237 255
224 237 255
224 237 255
224 237 255
224 237 255
224 237 255
224 237 255
224 237 255
224 237 255
224 237 255
224 237 255
224 237 255
224 237 255
224 237 255
224 237 255
224 237 255
224 237 255
224 237 255
224 237 255
224 237 255
224 237 255
224 237 255
224 237 255
224 237 255
224 237 255
224 237 255
224 237 255
224 237 255
224 237 255
224 237 255
224 237 255
224 237 255
224 237 255
224 237 255
224 237 255
224 237 255
224 237 255
224 237 255
224 237 255
224 237 255
224 237 255
224 237 255
224 237 255
224 237 255
224 237 255
224 237 255
224 237 255
224 237 255
224 237 255
224 237 255
224 237 255
224 237 255
224 237 255
224 237 255
224 237 255
224 237 255
224 237 255
224 237 255
224 237 255
224 237 255
224 237 255
224 237 255
224 237 255
224 237 255
224 237 255
224 237 255
224 237 255
224 237 255
224 237 255
224 237 255
224 237 255
224 237 255
224 237 253
223 237 253
222 235 248
216 230 226
209 225 204
208 224 204
207 223 201
207 223 201
199 217 173
196 215 165
195 214 161
199 216 169
192 211 140
192 211 144
187 208 125
184 205 102
186 206 108
178 201 72
176 199 0
165 136 88
160 116 99
155 113 90
155 112 86
160 115 97
157 114 90
157 115 95
159 114 99
160 116 95
164 118 104
164 119 108
160 116 104
159 113 95
161 116 101
159 115 97
163 118 108
160 116 101
157 113 93
159 116 99
160 115 99
159 115 99
161 116 106
158 114 93
162 117 101
163 118 108
159 115 90
156 113 86
159 114 99
157 114 95
158 114 101
162 116 103
161 116 106
160 115 99
157 114 88
157 112 97
154 111 88
164 119 115
160 116 99
158 116 99
157 114 93
164 117 113
164 119 112
159 116 101
154 113 88
159 116 95
159 115 97
156 114 93
158 114 95
165 119 106
157 113 93
159 115 101
158 114 93
157 114 99
157 114 90
161 117 104
160 116 97
158 114 93
161 116 103
164 117 101
164 119 108
158 115 97
161 115 103
157 114 88
159 114 101
163 116 99
162 116 101
163 117 110
153 111 76
156 114 95
162 116 101
161 117 108
160 116 103
158 115 90
164 119 113
158 114 97
159 115 101
162 117 106
158 114 95
159 116 103
159 115 101
157 114 84
156 113 95
156 113 90
162 117 101
161 116 106
155 112 97
160 115 103
156 114 93
155 113 90
166 119 113
161 117 101
162 117 99
159 116 97
162 117 103
158 113 95
163 118 106
159 115 90
158 114 95
162 116 106
162 117 106
162 116 108
160 117 99
159 115 103
160 114 103
161 117 103
159 115 103
161 116 99
160 117 104
162 117 104
156 113 81
161 117 104
160 115 101
157 114 99
156 113 99
159 115 97
161 117 95
160 115 101
159 115 103
158 114 95
163 116 108
160 115 99
158 115 101
161 115 99
160 116 95
158 114 95
161 117 103
164 118 112
157 114 93
162 117 101
162 117 104
157 114 88
160 115 101
159 115 95
158 114 97
158 115 97
156 113 88
163 118 99
157 113 93
157 113 90
163 117 103
158 114 101
160 116 101
160 115 97
158 114 95
166 142 86
178 200 51
179 201 51
183 205 108
187 207 114
184 205 108
195 214 157
194 213 157
200 218 177
200 217 173
201 219 181
204 221 188
201 219 184
202 219 184
211 227 217
212 227 217
218 232 237
217 232 234
223 236 250
223 237 253
224 237 255
224 237 255
224 237 255
224 237 255
224 237 255
224 237 255
224 237 255
224 237 255
224 237 255
224 237 255
224 237 255
224 237 255
224 237 255
224 237 255
224 237 255
224 237 255
224 237 255
224 237 255
224 237 255
224 237 255
224 237 255
224 237 255
224 237 255
224 237 255
224 237 255
224 237 255
224 237 255
224 237 255
224 237 255
224 237 255
224 237 255
224 237 255
224 237 255
224 237 255
224 237 255
224 237 255
224 237 255
224 237 255
224 237 255
224 237 255
224 237 255
224 237 255
224 237 255
224 237 255
224 237 255
224 237 255
224 237 255
224 237 255
224 237 255
224 237 255
224 237 255
224 237 255
224 237 255
224 237 255
224 237 255
224 237 255
224 237 255
222 235 248
219 233 240
221 234 245
212 227 217
205 222 194
213 228 220
197 216 165
205 221 191
203 220 184
195 214 161
192 211 140
188 208 125
191 211 140
186 206 108
178 200 62
175 198 51
174 198 0
172 197 0
173 197 0
173 197 0
173 197 0
174 198 0
174 197 0
175 198 0
173 197 0
174 197 0
175 198 0
174 198 0
173 197 0
175 198 0
174 198 0
174 198 0
174 197 0
175 198 0
174 198 0
167 158 74
160 115 97
165 118 113
162 117 101
161 115 101
161 116 106
158 114 101
161 116 99
154 111 93
155 111 86
157 114 95
158 114 97
158 114 90
161 117 106
162 117 101
163 117 104
159 115 101
154 112 84
162 118 108
162 117 101
165 118 113
159 115 97
159 115 97
159 115 93
160 115 95
159 114 101
156 113 88
159 115 93
160 115 93
160 115 101
161 116 101
159 115 99
163 117 108
162 117 97
159 115 104
160 116 99
164 119 113
157 113 86
160 116 103
161 116 97
157 114 95
156 112 99
157 113 93
162 118 104
165 119 110
157 114 86
158 115 95
161 116 97
163 116 99
153 111 84
156 113 86
162 116 108
162 115 103
161 117 101
164 117 112
158 115 93
161 115 104
161 116 101
156 110 88
161 117 106
157 113 103
160 115 95
163 118 110
161 117 104
160 116 106
161 117 99
159 115 93
163 117 104
155 112 95
161 117 99
160 115 99
163 118 106
158 114 86
159 115 101
162 117 110
161 116 101
160 116 101
162 117 106
160 115 95
160 116 97
161 117 101
158 114 93
161 115 103
158 115 95
156 114 101
160 115 106
159 114 90
160 116 99
162 116 103
162 117 99
162 116 103
161 115 99
157 114 90
156 113 88
156 113 90
159 115 97
162 117 108
156 114 97
158 115 93
162 117 110
161 117 103
162 117 106
155 112 95
158 113 95
159 116 90
155 111 88
162 117 108
162 117 101
158 115 104
159 115 97
159 114 103
162 117 101
164 117 110
159 115 101
156 114 99
159 115 90
161 115 99
161 116 104
159 115 103
160 116 103
159 116 95
161 116 101
162 117 103
164 118 106
168 120 113
162 117 101
163 119 112
158 114 99
158 114 95
165 118 106
160 113 104
158 114 95
160 116 86
161 115 106
161 116 101
159 116 90
157 114 88
154 112 84
157 114 95
157 114 95
158 114 95
162 117 101
159 113 95
160 114 99
167 159 74
173 197 0
173 197 0
178 200 0
175 198 0
174 197 0
176 199 0
174 198 0
174 198 0
176 199 0
175 198 0
175 198 0
173 197 0
175 198 0
174 198 0
174 198 0
173 197 0
175 198 0
178 200 0
178 200 0
175 199 36
183 204 102
185 206 114
188 208 120
188 209 135
190 210 135
198 216 165
201 219 184
203 220 188
210 225 204
212 227 214
211 226 214
215 230 228
217 231 231
218 232 237
224 237 253
224 237 255
224 237 255
224 237 255
224 237 255
224 237 255
224 237 255
224 237 255
224 237 255
224 237 255
224 237 255
224 237 255
224 237 255
224 237 255
224 237 255
224 237 255
224 237 255
224 237 255
224 237 255
224 237 255
224 237 255
224 237 255
224 237 255
224 237 255
224 237 255
224 237 255
225 237 255
223 236 250
219 233 240
219 233 240
212 228 220
215 229 226
210 226 211
202 219 184
196 214 161
194 213 153
192 212 149
193 213 157
192 211 140
183 204 102
179 201 72
177 199 0
174 198 0
172 197 0
175 198 0
176 199 0
174 198 0
175 198 0
176 199 0
173 197 0
173 197 0
176 199 0
174 198 0
175 198 0
174 197 0
175 198 0
174 197 0
175 198 0
174 197 0
175 198 0
174 198 0
175 198 0
173 197 0
174 197 0
175 198 0
173 197 0
175 198 0
174 198 0
176 199 0
175 198 0
174 198 0
176 199 0
176 199 0
175 198 0
173 197 0
174 198 0
176 199 0
167 170 52
158 115 97
159 115 95
155 113 93
158 113 88
157 112 81
160 116 101
161 117 101
160 115 97
158 113 97
160 116 95
156 112 90
163 116 113
158 114 90
161 117 101
162 116 103
161 116 106
151 110 68
163 116 103
162 118 110
161 117 103
158 115 97
159 115 93
157 113 95
163 117 97
161 116 101
161 116 104
160 115 95
166 119 108
150 110 74
163 119 113
157 114 95
158 114 88
157 113 88
157 113 93
159 114 103
161 117 103
163 118 104
161 115 95
155 113 84
160 116 101
154 113 93
159 115 97
161 116 99
160 115 101
160 116 106
160 116 95
157 113 93
163 118 106
156 113 90
158 115 103
162 117 101
162 116 104
160 116 101
158 113 97
162 117 106
158 115 97
163 118 106
158 115 95
156 112 90
160 116 97
166 119 112
163 117 104
161 115 103
157 114 95
161 117 101
160 116 95
160 116 97
158 114 93
159 116 99
158 112 95
155 114 86
159 114 95
154 112 81
160 116 97
160 116 99
159 115 90
156 113 88
162 118 113
154 112 88
161 116 99
155 112 88
161 116 99
155 112 88
158 115 103
157 114 93
158 113 99
166 119 118
160 115 101
158 114 95
160 115 90
158 115 95
161 116 97
161 117 104
163 118 108
158 112 99
160 115 104
160 115 101
158 114 93
159 116 97
162 118 108
167 120 110
157 114 95
156 113 81
159 115 95
160 116 108
160 116 97
162 117 103
163 118 104
160 115 95
161 116 97
161 117 101
160 115 97
158 115 103
161 117 103
155 113 86
158 114 95
158 115 88
157 113 93
161 116 104
161 116 97
159 114 95
161 116 101
159 115 90
160 115 101
163 118 108
157 113 93
159 114 95
159 114 97
159 116 93
159 115 93
163 118 108
159 113 101
165 119 112
160 117 101
162 116 110
160 114 101
161 116 104
159 115 93
159 114 99
158 115 95
157 113 95
158 113 95
161 116 108
172 178 56
175 198 0
175 198 0
173 197 0
175 198 0
175 198 0
175 198 0
172 196 0
175 198 0
174 197 0
177 199 0
174 198 0
176 199 0
171 196 0
177 199 0
176 199 0
174 198 0
173 197 0
177 199 0
174 198 0
173 197 0
174 198 0
176 199 0
175 198 0
173 197 0
174 198 0
174 197 0
176 199 0
175 198 0
172 197 0
175 198 0
173 197 0
172 197 0
175 198 0
174 197 0
174 198 0
176 199 0
178 201 62
189 209 125
185 206 120
187 208 125
194 212 149
189 209 130
198 217 173
202 219 184
212 227 214
215 230 226
212 227 220
220 234 242
224 237 253
224 237 253
225 237 255
224 237 255
224 237 255
224 237 255
224 237 255
224 237 255
191 211 135
185 206 114
185 206 108
178 201 72
177 200 36
175 198 0
174 198 0
174 198 0
174 197 0
177 199 0
174 197 0
175 198 0
174 198 0
174 198 0
173 197 0
177 199 0
174 198 0
175 198 0
174 198 0
174 198 0
175 198 0
176 199 0
175 198 0
176 199 0
175 198 0
177 199 0
173 197 0
173 197 0
174 198 0
172 197 0
174 197 0
173 197 0
174 197 0
174 198 0
174 198 0
174 198 0
174 197 0
175 198 0
175 198 0
172 197 0
174 198 0
176 199 0
175 198 0
174 198 0
174 198 0
175 198 0
174 198 0
171 196 0
174 198 0
174 198 0
176 199 0
172 197 0
175 198 0
173 197 0
173 197 0
173 190 19
158 115 95
159 115 95
159 116 101
153 110 74
157 113 95
155 113 90
154 112 86
156 112 93
154 112 93
162 118 106
159 115 97
156 113 93
155 112 95
158 115 95
159 115 95
159 116 95
155 111 90
158 114 99
161 117 103
162 116 106
157 113 86
159 116 90
161 116 108
163 118 103
162 115 101
158 114 93
161 117 104
159 116 99
165 119 104
160 115 93
161 117 95
158 115 99
160 116 93
159 116 97
161 116 103
159 116 99
160 115 99
156 111 86
160 116 106
162 116 101
158 114 99
157 114 93
162 117 101
156 113 90
159 115 99
159 115 93
162 117 101
156 114 90
159 116 97
156 113 86
152 111 81
160 116 101
159 113 99
157 115 90
155 111 90
165 119 112
157 113 81
159 115 101
161 116 101
154 112 86
158 115 90
158 114 90
162 117 104
160 116 103
159 115 97
161 117 99
159 116 95
158 114 95
157 115 93
160 114 99
162 116 103
160 117 106
159 116 99
162 117 106
161 116 103
163 118 112
154 110 81
160 115 103
157 113 95
157 115 95
159 115 97
161 117 104
164 118 108
157 114 88
156 113 86
156 113 81
161 117 104
154 111 84
157 115 97
158 114 95
157 113 95
158 115 95
161 117 106
159 116 90
159 115 95
161 116 103
157 114 90
161 114 108
157 113 101
163 118 108
156 113 88
155 112 84
161 116 104
160 115 97
160 116 101
164 117 101
161 117 97
161 116 106
160 114 103
155 113 93
163 117 110
157 114 97
160 116 95
160 115 95
158 112 97
161 117 104
161 117 101
159 115 101
157 115 97
161 115 99
157 114 95
157 113 90
157 112 90
157 114 93
157 112 95
155 112 79
160 116 108
160 115 99
159 115 99
159 115 95
156 112 97
160 115 106
160 114 99
157 113 90
161 117 103
161 116 106
165 118 103
158 114 101
155 113 86
156 113 95
158 114 90
159 115 95
158 115 97
169 187 19
175 198 0
176 197 0
176 199 0
177 199 0
177 199 0
174 197 0
176 199 0
175 198 0
174 197 0
173 197 0
174 197 0
176 198 0
172 197 0
176 198 0
174 197 0
172 197 0
175 198 0
175 198 0
174 198 0
177 199 0
176 199 0
175 198 0
175 198 0
175 198 0
173 197 0
173 197 0
176 198 0
174 197 0
174 196 0
176 199 0
173 197 0
174 198 0
173 197 0
176 198 0
173 197 0
174 198 0
173 197 0
173 197 0
172 196 0
174 198 0
177 199 0
177 199 0
174 196 0
176 199 0
174 198 0
175 198 0
172 197 0
174 197 0
174 198 0
175 198 0
177 200 62
183 204 102
188 208 125
189 208 125
194 213 157
197 215 157
176 199 0
174 197 0
176 199 0
174 198 0
174 198 0
174 198 0
175 198 0
173 197 0
173 197 0
176 199 0
175 198 0
174 198 0
176 199 0
173 197 0
174 198 0
174 198 0
177 199 0
174 198 0
175 198 0
173 197 0
175 198 0
174 198 0
172 197 0
173 197 0
175 198 0
173 197 0
175 198 0
175 198 0
175 198 0
175 198 0
174 198 0
173 197 0
174 197 0
177 199 0
174 197 0
176 199 0
175 198 0
173 197 0
176 198 0
175 198 0
174 198 0
174 198 0
174 197 0
175 198 0
176 199 0
175 198 0
174 198 0
172 197 0
175 198 0
174 198 0
174 198 0
177 199 0
175 198 0
174 197 0
175 198 0
174 198 0
162 137 86
159 115 103
161 116 99
161 115 103
158 114 86
162 117 99
159 115 99
158 115 95
160 115 101
158 114 93
155 111 90
158 114 95
158 114 99
159 115 93
160 114 99
163 118 110
159 114 101
161 116 97
163 118 104
160 116 101
155 113 90
159 115 106
156 114 86
156 113 90
160 114 97
157 114 95
160 116 99
162 116 103
160 116 103
162 117 101
161 117 103
159 114 97
160 114 93
162 117 104
158 113 95
157 114 86
158 114 93
161 116 103
163 117 106
159 116 97
166 119 110
165 118 117
159 115 97
161 116 106
160 115 103
159 113 95
156 114 88
161 116 103
164 117 104
164 119 108
159 115 101
157 113 93
159 115 90
160 115 103
155 113 84
164 118 103
159 115 97
161 116 97
160 116 103
159 115 99
161 117 103
162 118 106
158 113 101
155 112 90
160 115 99
155 113 79
163 118 106
155 112 84
157 113 93
161 116 99
159 115 99
155 111 90
155 113 88
161 116 104
162 117 108
160 117 101
161 117 99
162 117 97
155 112 88
164 119 112
154 111 88
158 114 97
160 116 95
157 114 88
158 115 101
160 116 101
156 113 88
156 112 93
158 115 99
155 112 95
157 114 95
164 118 108
161 116 99
156 113 86
159 115 103
159 115 93
164 119 110
162 117 108
158 114 95
156 112 86
153 109 84
162 116 103
158 114 97
159 114 95
163 118 113
160 115 95
161 116 97
160 115 97
160 114 103
161 116 99
157 112 97
155 111 88
156 113 90
164 118 112
159 114 95
156 113 97
157 114 88
157 114 90
159 116 97
155 112 84
158 113 88
163 117 113
160 117 103
160 115 97
157 113 88
163 117 104
156 112 88
160 115 101
168 121 120
157 114 97
157 112 90
160 115 104
159 116 97
157 113 86
156 113 93
156 114 90
162 116 101
157 113 95
157 113 95
155 112 76
158 114 103
162 117 108
162 132 90
177 199 0
172 197 0
174 198 0
175 198 0
173 197 0
174 197 0
176 199 0
172 196 0
176 199 0
176 199 0
175 198 0
176 198 0
175 198 0
175 198 0
174 198 0
173 197 0
173 197 0
174 198 0
173 196 0
173 197 0
173 197 0
175 198 0
177 199 0
175 198 0
176 199 0
176 199 0
175 198 0
176 199 0
176 198 0
175 198 0
175 198 0
174 198 0
173 197 0
173 197 0
176 197 0
174 198 0
173 197 0
173 197 0
175 198 0
174 197 0
173 197 0
174 197 0
174 198 0
175 198 0
173 197 0
175 198 0
173 197 0
174 197 0
176 199 0
175 198 0
173 197 0
174 197 0
174 197 0
173 197 0
176 199 0
175 198 0
172 197 0
173 197 0
174 197 0
173 197 0
175 198 0
174 198 0
174 198 0
175 198 0
174 197 0
173 197 0
175 198 0
173 197 0
174 197 0
176 199 0
175 198 0
176 198 0
174 198 0
173 197 0
175 198 0
173 197 0
173 197 0
174 198 0
174 198 0
174 198 0
175 198 0
175 198 0
173 197 0
172 197 0
175 198 0
175 198 0
174 198 0
174 198 0
173 197 0
175 198 0
176 198 0
176 199 0
174 198 0
173 197 0
174 198 0
174 198 0
172 196 0
171 196 0
176 198 0
173 197 0
174 198 0
175 198 0
174 197 0
171 196 0
175 198 0
176 199 0
175 198 0
174 198 0
173 197 0
175 198 0
173 196 0
176 198 0
175 198 0
166 147 81
159 113 93
163 117 110
158 115 95
159 114 97
160 113 101
155 113 88
154 111 86
155 111 90
157 114 88
164 118 104
159 115 95
159 115 99
158 113 93
160 116 101
159 116 97
161 116 97
163 117 110
159 115 99
162 117 104
156 113 97
155 113 84
155 114 93
160 115 93
159 115 95
157 112 97
159 113 93
157 115 97
161 117 103
161 116 104
159 114 90
154 111 90
157 113 95
160 115 103
159 115 104
158 113 95
159 114 97
160 115 103
157 114 86
158 114 95
158 114 97
162 117 104
154 110 86
159 114 97
157 114 88
158 115 90
158 113 95
159 115 99
158 113 95
157 113 93
158 113 93
159 115 90
158 114 99
160 115 97
157 113 86
156 114 81
164 118 110
155 113 84
160 115 104
159 115 95
159 114 90
160 114 101
160 116 95
163 117 108
158 115 99
162 117 104
160 115 97
157 116 101
161 117 101
160 115 99
160 115 95
162 115 110
157 114 86
160 116 103
160 116 101
158 115 95
153 110 88
161 117 106
160 116 101
158 114 101
159 115 93
164 118 106
157 114 86
158 114 101
159 115 95
161 115 103
158 113 88
160 116 103
160 116 101
159 116 97
159 115 99
158 114 103
163 117 108
159 115 88
157 114 86
163 117 106
160 116 101
157 114 86
157 113 93
162 117 99
161 116 99
157 114 90
161 116 101
162 117 103
161 117 104
155 111 90
154 111 81
166 119 108
157 113 95
160 115 97
162 117 108
155 113 86
158 114 93
162 116 101
159 115 95
156 112 84
161 117 99
163 118 108
160 115 104
162 116 104
158 114 90
159 115 99
152 109 86
158 115 95
157 114 90
159 114 95
165 118 110
163 118 108
159 114 93
160 115 95
162 116 101
155 112 86
154 111 84
163 118 110
157 114 97
158 115 93
157 113 93
154 111 93
164 119 110
162 116 99
158 115 90
155 113 88
166 158 71
175 198 0
175 198 0
173 197 0
175 198 0
172 197 0
175 198 0
175 198 0
175 198 0
175 198 0
174 197 0
175 198 0
176 199 0
175 198 0
176 198 0
174 198 0
174 198 0
176 199 0
174 198 0
175 198 0
174 198 0
174 198 0
175 198 0
174 196 0
173 197 0
173 197 0
173 197 0
173 197 0
173 197 0
174 197 0
174 198 0
174 197 0
175 198 0
175 198 0
173 197 0
176 199 0
177 199 0
173 197 0
173 197 0
174 198 0
174 198 0
175 198 0
175 198 0
175 198 0
171 196 0
174 198 0
176 199 0
173 197 0
172 196 0
176 198 0
174 198 0
174 198 0
175 198 0
174 198 0
175 198 0
175 198 0
173 197 0
173 197 0
173 197 0
173 197 0
174 198 0
175 198 0
175 198 0
171 196 0
172 197 0
174 197 0
174 198 0
176 198 0
176 199 0
173 197 0
174 195 0
175 198 0
174 196 0
176 199 0
174 198 0
174 197 0
175 198 0
174 198 0
174 196 0
175 198 0
176 199 0
175 198 0
175 198 0
174 198 0
172 197 0
171 196 0
174 198 0
174 198 0
175 198 0
174 197 0
174 197 0
176 199 0
173 197 0
175 198 0
174 198 0
175 198 0
174 197 0
176 199 0
175 198 0
174 198 0
176 199 0
172 197 0
173 197 0
174 198 0
174 198 0
175 198 0
173 197 0
175 197 0
173 197 0
175 198 0
173 196 0
173 197 0
175 198 0
175 198 0
170 177 56
158 113 90
160 116 103
159 115 95
159 115 93
163 118 103
159 115 99
157 113 90
162 116 103
157 113 90
155 111 88
158 115 97
158 112 97
157 114 88
160 116 93
158 115 88
158 115 93
157 114 86
156 113 88
159 116 103
157 113 95
156 113 84
155 113 93
160 116 101
163 118 106
162 117 108
163 118 103
163 117 106
158 115 97
161 117 97
160 116 101
163 117 110
159 116 99
161 116 97
155 111 86
160 114 106
157 113 86
158 115 95
160 115 97
158 114 99
154 111 86
157 114 84
160 116 106
158 114 97
156 114 81
163 118 108
160 113 103
158 115 93
158 114 90
159 115 93
163 117 99
162 117 106
161 117 99
159 115 101
156 113 88
156 113 97
159 114 93
159 114 97
157 112 93
156 113 86
159 115 93
159 115 101
163 117 110
158 115 90
160 115 93
158 115 93
156 113 84
156 114 90
156 112 90
161 115 112
164 118 108
159 115 95
156 114 90
159 116 101
158 114 95
159 114 97
164 117 106
159 113 95
162 115 103
158 115 103
157 113 93
160 116 103
159 115 99
159 115 95
159 115 93
160 115 93
161 116 97
154 113 86
157 113 95
157 115 95
156 113 90
159 115 97
164 119 108
158 115 95
158 114 95
157 113 90
160 115 99
157 115 88
160 115 99
156 114 93
159 114 97
155 113 95
157 114 99
159 114 101
159 115 101
158 116 95
163 118 103
159 115 95
161 116 97
160 114 99
152 110 76
156 112 88
157 114 88
157 114 93
156 113 86
157 114 93
164 118 106
160 115 99
156 114 88
156 113 90
163 117 106
156 113 86
158 113 97
157 113 93
157 115 90
150 108 74
157 113 84
160 115 104
159 114 99
161 115 103
156 112 88
159 114 99
162 117 99
159 114 97
159 115 95
162 116 104
156 112 93
168 120 120
158 115 88
156 113 90
153 110 71
158 115 90
171 172 62
176 199 0
173 197 0
173 197 0
175 198 0
176 198 0
175 198 0
175 198 0
174 198 0
174 198 0
176 199 0
175 198 0
174 198 0
174 197 0
175 198 0
173 197 0
173 197 0
174 198 0
174 198 0
174 198 0
175 198 0
173 197 0
174 197 0
174 198 0
173 197 0
174 197 0
175 198 0
174 198 0
172 195 0
175 198 0
174 198 0
174 198 0
175 198 0
175 198 0
175 198 0
171 195 0
176 199 0
174 198 0
173 197 0
174 198 0
174 198 0
176 199 0
173 197 0
174 198 0
175 198 0
174 198 0
173 196 0
176 199 0
175 198 0
174 198 0
173 197 0
176 199 0
176 199 0
174 197 0
176 199 0
174 198 0
174 197 0
176 198 0
173 197 0
174 198 0
175 198 0
177 199 0
175 198 0
175 198 0
175 198 0
174 198 0
174 197 0
174 198 0
173 196 0
175 198 0
177 199 0
172 197 0
172 197 0
173 197 0
176 199 0
173 197 0
174 198 0
174 198 0
174 197 0
175 198 0
176 199 0
173 197 0
174 198 0
175 198 0
173 197 0
175 198 0
174 198 0
176 198 0
174 197 0
174 196 0
173 197 0
175 198 0
175 198 0
175 197 0
172 196 0
175 198 0
174 198 0
174 197 0
175 198 0
178 200 0
173 197 0
175 198 0
174 198 0
173 196 0
174 198 0
174 198 0
176 199 0
174 198 0
176 198 0
174 198 0
174 197 0
175 198 0
173 196 0
175 198 0
170 191 0
154 111 84
157 114 88
154 111 81
158 115 90
162 116 101
161 116 97
159 114 99
159 115 93
159 114 99
158 114 84
155 112 97
164 118 110
158 113 95
159 115 95
163 118 106
159 114 97
154 111 93
160 116 104
160 115 104
159 115 101
160 115 103
160 116 95
159 115 93
162 116 108
160 114 101
159 115 103
158 113 97
161 116 101
162 116 101
158 112 95
158 114 101
157 114 90
160 115 90
156 113 84
157 113 88
159 115 95
160 116 103
158 113 97
157 115 86
161 116 103
159 116 95
157 113 90
162 116 101
159 114 99
158 114 95
159 115 97
160 116 95
155 112 95
156 114 93
160 116 103
154 111 81
161 117 101
159 113 97
159 115 101
157 113 90
162 117 106
153 109 84
160 116 99
158 114 97
159 116 99
154 110 90
161 116 99
162 117 108
162 117 103
158 115 93
157 114 88
158 113 93
159 114 97
161 117 97
159 115 90
155 113 79
158 113 97
156 112 90
159 115 93
160 117 99
162 118 106
160 117 106
157 113 88
158 114 95
156 112 81
158 114 93
154 113 76
157 113 93
160 116 93
159 116 97
157 113 93
161 115 101
159 115 101
157 113 88
158 115 103
154 110 84
159 113 95
156 111 84
158 114 99
158 113 97
158 113 86
158 115 97
159 114 88
166 119 113
155 113 93
163 117 108
158 114 84
155 113 84
158 113 101
161 117 101
156 112 86
159 116 104
152 111 81
159 115 101
157 113 90
156 114 90
157 113 90
158 115 93
158 115 88
155 110 79
154 113 86
158 113 93
162 118 104
154 111 90
160 115 93
157 113 93
155 112 81
159 115 90
158 115 90
156 114 93
157 114 93
160 115 101
158 113 90
159 115 93
156 112 90
162 116 101
155 112 90
162 116 101
154 112 71
162 116 104
162 117 97
159 116 97
159 114 97
153 110 74
162 118 103
155 112 86
172 195 19
173 196 0
172 197 0
172 195 0
174 198 0
174 198 0
174 198 0
173 196 0
173 197 0
175 198 0
174 198 0
176 199 0
171 196 0
173 197 0
172 196 0
173 197 0
173 197 0
175 197 0
174 198 0
175 198 0
175 198 0
176 198 0
178 200 0
176 199 0
173 197 0
175 198 0
176 197 0
175 198 0
176 198 0
177 199 0
175 198 0
178 199 0
172 197 0
172 197 0
177 198 0
172 197 0
175 198 0
175 197 0
175 198 0
175 198 0
175 198 0
175 198 0
174 198 0
174 198 0
174 197 0
176 198 0
173 197 0
178 199 0
172 197 0
175 198 0
173 197 0
175 198 0
174 198 0
174 198 0
171 196 0
173 197 0
174 198 0
174 198 0
173 197 0
174 198 0
176 199 0
173 197 0
174 197 0
173 197 0
173 197 0
173 197 0
173 197 0
173 197 0
174 198 0
174 197 0
175 198 0
173 197 0
173 197 0
173 196 0
176 199 0
174 198 0
173 197 0
175 198 0
174 198 0
175 197 0
175 198 0
173 197 0
172 196 0
173 197 0
173 197 0
175 198 0
173 197 0
175 198 0
173 196 0
175 198 0
174 196 0
175 198 0
175 198 0
174 198 0
173 197 0
175 198 0
175 198 0
174 198 0
174 198 0
175 198 0
173 197 0
175 198 0
175 198 0
174 198 0
175 198 0
174 195 0
176 199 0
174 198 0
175 198 0
176 199 0
176 198 0
174 195 0
175 198 0
172 197 0
173 196 0
164 145 84
159 114 95
164 118 104
156 112 95
161 116 103
157 112 93
158 114 93
156 114 90
158 114 95
159 114 93
161 116 101
158 114 95
161 116 95
160 115 101
156 112 84
161 116 99
165 119 113
158 114 95
160 116 99
161 117 104
157 113 88
162 116 101
157 114 88
158 114 93
155 111 95
161 117 101
155 113 84
158 114 97
156 112 95
158 114 88
162 117 103
156 113 84
163 117 108
155 112 79
158 115 93
160 116 97
156 113 90
158 116 93
158 115 90
158 114 101
160 114 99
160 115 106
155 113 81
164 117 104
162 117 103
156 113 97
162 117 106
153 110 81
159 116 99
159 113 101
160 116 95
158 114 88
157 113 90
159 116 95
161 115 95
158 115 90
159 114 95
158 114 93
161 115 103
156 112 90
158 113 93
166 118 112
153 110 79
156 114 88
159 115 95
156 112 86
162 116 104
156 113 88
156 113 84
159 115 88
158 114 93
154 111 88
158 115 93
156 113 93
157 114 90
161 115 99
156 112 93
160 116 104
161 116 97
159 116 99
159 114 97
160 114 103
157 114 90
156 114 84
160 115 99
161 116 97
154 109 84
163 118 112
159 114 93
156 113 95
157 113 86
158 115 88
158 113 97
157 113 86
158 114 99
159 114 95
163 118 103
161 116 104
157 114 88
158 112 90
158 116 97
160 116 93
159 113 95
161 115 99
161 116 101
162 115 106
159 116 97
159 115 93
156 113 88
163 118 106
162 117 108
157 113 90
157 114 93
155 112 79
161 117 101
157 112 99
158 113 93
153 111 81
159 115 95
159 114 97
158 114 97
161 116 103
158 113 97
158 115 101
159 115 99
163 117 103
160 114 103
161 116 97
157 113 93
161 116 103
155 113 76
156 112 88
160 116 103
158 114 95
158 115 88
159 113 95
160 114 103
157 112 93
157 114 90
159 114 97
163 144 71
174 197 0
174 198 0
175 198 0
175 198 0
172 194 0
174 196 0
174 197 0
175 198 0
175 198 0
175 198 0
177 199 0
173 197 0
172 195 0
174 198 0
174 198 0
175 198 0
174 197 0
174 197 0
174 198 0
174 198 0
175 198 0
175 198 0
176 199 0
176 198 0
173 197 0
175 197 0
175 198 0
175 198 0
172 197 0
174 198 0
174 198 0
176 199 0
175 198 0
174 197 0
175 198 0
174 196 0
174 197 0
174 198 0
174 198 0
174 198 0
174 198 0
173 196 0
174 197 0
173 197 0
174 198 0
173 197 0
174 198 0
175 198 0
174 198 0
172 197 0
172 193 0
175 198 0
175 198 0
174 197 0
174 198 0
174 198 0
176 199 0
173 197 0
174 198 0
173 197 0
175 198 0
175 198 0
174 198 0
176 198 0
175 198 0
171 196 0
175 198 0
173 197 0
174 198 0
175 198 0
174 197 0
174 197 0
171 196 0
176 198 0
176 199 0
175 198 0
174 198 0
172 197 0
173 197 0
175 198 0
173 197 0
174 197 0
174 198 0
172 197 0
173 196 0
173 197 0
176 198 0
176 198 0
174 198 0
174 198 0
177 199 0
174 198 0
175 198 0
177 199 0
175 197 0
175 198 0
176 197 0
174 197 0
174 196 0
173 197 0
175 198 0
174 198 0
174 198 0
173 197 0
174 198 0
174 197 0
175 198 0
175 198 0
174 197 0
172 196 0
172 194 0
173 197 0
176 199 0
175 198 0
172 197 0
167 169 52
155 111 84
155 112 88
160 116 95
158 115 97
160 116 90
160 116 99
158 113 99
152 110 81
157 114 88
155 112 81
159 115 97
155 111 84
157 114 90
157 113 84
159 115 99
157 115 93
157 114 88
153 109 76
159 115 97
159 115 93
162 117 101
162 116 101
162 116 104
162 117 106
154 112 84
160 114 101
159 116 99
159 115 95
158 114 86
158 114 90
161 114 103
160 114 99
160 115 99
159 115 99
156 113 99
162 117 97
155 114 81
160 114 99
158 115 93
163 117 97
153 111 81
157 114 88
157 114 86
157 112 88
159 115 93
159 115 99
160 114 99
156 114 95
158 113 93
159 115 90
162 116 103
155 112 88
160 116 99
155 111 88
155 113 90
165 119 112
155 111 88
160 115 99
161 115 99
155 111 95
160 115 97
157 114 90
163 117 106
162 117 101
157 114 95
156 112 86
160 116 103
160 115 95
155 112 86
160 115 90
162 117 99
159 116 95
155 112 95
157 112 81
157 114 88
159 115 95
161 117 99
161 115 103
157 114 90
160 115 97
160 115 97
160 116 101
154 110 84
157 113 93
163 116 106
157 112 90
168 120 113
160 115 99
159 115 95
156 112 88
156 112 90
163 118 101
156 114 88
161 116 97
154 112 84
159 114 99
157 113 95
158 114 95
165 119 106
156 113 88
157 112 90
157 114 97
158 113 95
155 110 86
159 114 93
159 115 93
155 114 93
156 113 90
155 113 90
162 117 99
158 114 88
162 117 99
160 116 103
157 113 88
158 115 86
154 110 81
160 116 95
159 114 101
152 110 76
158 114 88
156 112 84
158 115 101
156 113 90
159 115 95
156 114 88
160 116 104
158 114 90
158 114 93
154 110 86
157 113 95
158 115 90
158 114 88
158 113 95
154 110 95
158 115 93
158 113 86
158 113 97
156 111 90
156 114 88
168 168 59
174 198 0
174 198 0
173 196 0
172 196 0
175 198 0
172 197 0
174 196 0
174 198 0
175 197 0
175 198 0
173 196 0
174 198 0
173 196 0
176 199 0
173 197 0
174 197 0
174 198 0
174 197 0
175 197 0
175 198 0
173 197 0
174 198 0
175 198 0
172 197 0
173 197 0
174 198 0
175 198 0
171 195 0
173 197 0
175 198 0
174 198 0
173 197 0
174 197 0
173 197 0
176 199 0
174 198 0
174 198 0
172 197 0
173 196 0
174 197 0
173 196 0
171 195 0
172 197 0
174 196 0
174 197 0
174 196 0
175 198 0
176 198 0
174 198 0
176 199 0
174 198 0
174 197 0
175 198 0
176 199 0
173 197 0
176 198 0
174 197 0
173 197 0
173 197 0
175 198 0
174 197 0
172 197 0
176 199 0
174 198 0
175 198 0
175 198 0
174 198 0
174 198 0
174 197 0
173 195 0
174 197 0
173 197 0
175 197 0
173 197 0
175 198 0
174 198 0
172 197 0
175 198 0
174 197 0
172 195 0
175 198 0
174 198 0
174 197 0
174 198 0
172 197 0
172 194 0
173 197 0
171 196 0
174 198 0
174 196 0
175 197 0
176 199 0
174 198 0
175 198 0
174 198 0
174 198 0
177 199 0
173 196 0
172 195 0
173 197 0
174 197 0
173 197 0
173 197 0
174 196 0
173 197 0
174 198 0
175 198 0
175 198 0
173 197 0
176 199 0
175 198 0
175 198 0
174 197 0
173 197 0
173 196 0
172 184 19
154 112 76
157 113 88
162 117 104
159 115 95
156 113 88
155 112 88
157 113 86
153 110 86
158 114 90
157 112 88
155 113 81
154 112 88
159 114 97
158 114 93
152 108 76
158 113 97
155 112 76
158 114 97
153 111 86
160 116 95
160 115 97
157 113 95
163 118 108
162 116 103
157 113 95
156 114 79
150 107 65
159 115 95
159 115 93
163 116 104
161 116 101
155 113 86
157 113 90
157 112 97
162 118 106
159 115 101
162 115 104
159 114 90
159 115 93
159 114 101
158 114 93
156 113 90
156 112 81
155 114 81
159 115 104
161 116 99
160 116 97
155 112 79
160 115 101
157 114 88
155 112 84
162 118 104
157 114 95
156 113 88
152 111 74
160 116 103
161 116 101
159 115 97
156 114 95
161 116 106
160 116 88
161 117 103
162 117 104
160 115 103
158 115 97
156 111 81
158 113 88
156 113 86
160 115 99
156 113 81
157 113 90
160 115 103
157 115 90
159 114 95
158 114 95
160 116 97
160 115 97
166 118 110
160 116 97
155 112 86
160 115 99
164 118 110
157 114 84
158 114 97
164 118 106
162 117 104
162 117 106
157 111 101
157 114 90
161 116 101
161 116 101
161 115 101
158 114 95
156 112 95
157 112 90
163 118 104
156 113 86
159 116 101
159 115 99
157 113 93
155 112 81
155 112 86
159 113 95
160 116 97
159 115 95
159 115 93
155 112 88
159 116 97
156 112 86
154 113 86
163 118 106
158 115 97
159 116 95
151 108 81
159 115 101
157 112 86
157 113 90
159 115 101
164 117 108
155 112 81
158 114 97
157 115 84
157 113 90
154 112 76
159 115 95
155 111 93
161 116 99
159 114 90
156 114 86
159 116 95
159 115 93
162 116 104
163 117 106
156 112 86
158 114 93
151 110 76
160 116 97
158 114 93
157 115 90
175 187 48
174 197 0
174 198 0
176 198 0
174 198 0
174 197 0
174 197 0
173 196 0
175 197 0
172 196 0
176 198 0
174 198 0
175 198 0
175 198 0
174 197 0
178 200 0
173 197 0
173 197 0
174 197 0
174 197 0
174 196 0
173 196 0
175 198 0
176 198 0
174 198 0
174 198 0
174 197 0
173 197 0
173 197 0
175 198 0
173 197 0
172 197 0
173 197 0
173 197 0
175 198 0
175 198 0
175 198 0
176 198 0
175 198 0
174 197 0
174 198 0
173 197 0
173 197 0
174 198 0
175 198 0
173 197 0
175 198 0
177 199 0
174 198 0
174 197 0
177 199 0
176 198 0
176 199 0
174 197 0
173 196 0
173 196 0
175 198 0
174 196 0
177 199 0
175 197 0
175 198 0
176 198 0
176 198 0
175 198 0
173 197 0
175 197 0
176 199 0
174 197 0
175 198 0
175 197 0
173 196 0
177 199 0
174 198 0
175 198 0
175 198 0
176 199 0
175 198 0
174 198 0
177 199 0
175 198 0
174 197 0
176 199 0
171 196 0
175 198 0
172 195 0
175 198 0
174 197 0
175 198 0
176 198 0
175 197 0
174 198 0
172 196 0
175 198 0
174 198 0
176 199 0
173 196 0
175 197 0
171 195 0
174 196 0
175 198 0
172 196 0
176 199 0
173 197 0
174 198 0
175 197 0
174 195 0
173 197 0
174 197 0
175 198 0
176 199 0
172 193 0
174 198 0
174 198 0
173 196 0
173 197 0
175 198 0
173 197 0
159 141 68
153 109 84
158 115 95
160 115 99
156 111 84
156 113 86
158 112 99
153 111 81
155 113 81
158 114 93
156 111 95
154 111 76
160 116 95
161 116 101
156 113 90
161 116 99
160 114 93
154 111 86
158 113 90
153 112 79
154 112 81
162 117 112
155 112 86
159 114 104
163 118 106
160 115 97
159 114 95
164 117 108
163 118 101
160 114 103
152 107 86
155 110 84
156 112 90
152 110 81
162 117 97
157 112 88
156 112 84
158 114 99
158 114 95
161 116 99
159 115 93
154 111 90
159 113 93
158 114 95
158 115 93
158 113 90
156 113 86
162 117 104
159 114 101
160 116 95
162 116 103
158 114 88
161 116 104
159 114 90
159 116 95
156 114 84
160 115 97
157 113 97
156 112 81
159 114 97
155 112 84
158 113 90
156 112 90
159 115 101
161 115 103
161 116 95
159 114 97
157 112 90
158 114 86
156 113 81
163 117 101
159 116 93
164 118 110
161 116 99
153 111 76
157 113 90
156 113 88
156 114 84
156 112 81
158 115 88
157 113 95
155 113 88
155 112 88
156 111 93
159 114 99
156 113 93
160 115 93
156 113 88
160 114 95
164 117 103
166 120 117
160 115 97
156 113 90
156 112 95
160 116 97
157 114 88
159 114 99
164 118 108
159 115 95
158 115 95
156 112 81
156 112 90
160 115 95
159 116 97
154 111 76
155 112 81
161 117 103
160 115 93
160 115 97
157 113 93
162 117 104
162 116 104
155 111 86
157 113 86
153 111 79
160 115 97
159 115 97
160 116 106
158 114 97
157 111 93
159 114 97
162 116 101
156 113 93
163 117 106
156 113 93
158 114 93
157 113 90
155 111 84
156 113 93
154 110 79
158 113 88
158 115 97
161 116 104
159 115 95
159 113 101
160 115 95
158 114 93
161 116 95
160 131 81
174 198 0
174 197 0
173 197 0
174 197 0
173 197 0
173 197 0
174 198 0
175 198 0
173 197 0
175 198 0
175 198 0
175 198 0
174 198 0
175 197 0
174 196 0
176 198 0
175 198 0
173 196 0
171 194 0
176 199 0
175 197 0
173 196 0
175 198 0
174 198 0
175 198 0
173 197 0
175 198 0
174 198 0
176 199 0
174 198 0
174 197 0
172 195 0
173 197 0
174 198 0
176 199 0
172 197 0
175 198 0
176 199 0
173 197 0
176 199 0
174 198 0
173 195 0
177 199 0
174 198 0
176 199 0
173 197 0
175 198 0
174 198 0
175 198 0
177 199 0
174 198 0
176 198 0
174 197 0
174 197 0
174 197 0
175 197 0
174 198 0
174 197 0
174 198 0
174 198 0
175 197 0
172 197 0
174 197 0
172 197 0
175 198 0
175 198 0
174 198 0
174 198 0
174 198 0
175 197 0
172 195 0
178 200 0
174 196 0
175 198 0
175 198 0
176 199 0
174 197 0
173 195 0
172 194 0
175 198 0
174 198 0
175 198 0
174 197 0
175 198 0
175 198 0
174 198 0
174 197 0
175 197 0
177 199 0
175 198 0
173 196 0
176 199 0
175 198 0
177 199 0
175 198 0
177 198 0
176 199 0
172 197 0
176 197 0
172 196 0
175 198 0
176 199 0
174 198 0
175 198 0
173 197 0
173 194 0
176 199 0
175 198 0
174 195 0
176 198 0
174 197 0
173 197 0
174 197 0
173 196 0
175 198 0
175 198 0
173 197 0
167 167 56
159 115 93
159 114 95
158 113 95
157 114 90
162 117 99
162 117 103
161 116 101
159 116 95
161 115 93
160 116 99
157 113 93
158 114 95
158 114 95
156 112 93
152 112 86
159 114 95
160 114 99
155 111 84
158 113 88
165 118 108
152 110 71
155 111 81
160 114 95
155 111 76
160 115 95
162 116 103
157 111 86
160 116 90
153 111 76
156 113 84
156 112 88
159 116 97
156 114 88
158 114 90
160 115 99
159 115 101
160 117 106
160 114 97
159 115 101
159 115 97
155 112 88
154 110 88
159 114 97
160 116 93
160 115 101
164 118 103
154 110 86
159 115 97
162 117 103
156 113 90
160 116 103
159 115 95
156 112 93
161 117 103
152 109 81
158 114 95
159 115 104
161 116 103
160 114 103
160 116 99
161 116 106
160 116 101
157 112 93
160 116 90
159 114 101
156 112 93
154 111 86
160 115 99
159 114 97
159 115 95
155 114 86
161 115 93
157 115 86
152 110 81
159 116 90
159 115 93
159 114 101
158 113 88
161 116 101
162 116 99
158 114 95
157 115 95
159 114 93
160 116 101
156 114 88
154 112 86
162 118 104
156 113 93
160 116 95
159 116 95
159 115 90
160 116 97
155 112 90
155 112 88
159 115 88
161 116 103
154 112 79
154 110 88
155 112 86
158 114 95
154 111 86
159 114 93
159 115 99
157 113 81
159 115 95
159 115 93
152 108 81
156 112 86
157 114 86
164 116 104
161 115 95
154 112 86
158 115 93
156 112 88
153 111 88
152 111 79
161 115 106
159 113 99
159 116 90
159 115 93
159 113 101
160 116 97
154 111 88
160 116 90
157 114 88
158 114 99
158 113 93
160 116 97
160 116 103
157 114 88
165 118 104
158 114 93
159 113 101
156 113 90
155 114 88
155 112 79
160 115 95
167 167 56
172 194 0
174 198 0
173 196 0
174 196 0
171 194 0
175 198 0
174 195 0
173 197 0
174 198 0
176 199 0
175 198 0
174 198 0
175 197 0
176 199 0
173 197 0
173 197 0
174 196 0
172 195 0
171 196 0
174 197 0
175 198 0
173 196 0
174 197 0
173 197 0
173 197 0
174 197 0
173 195 0
176 199 0
175 198 0
173 196 0
173 196 0
175 198 0
174 196 0
174 198 0
174 198 0
176 198 0
173 196 0
174 198 0
173 197 0
173 197 0
175 198 0
173 197 0
174 198 0
174 196 0
174 198 0
173 197 0
175 198 0
174 196 0
176 198 0
175 197 0
172 196 0
174 198 0
175 198 0
172 196 0
176 199 0
174 198 0
176 198 0
175 198 0
173 197 0
176 199 0
175 197 0
175 198 0
173 195 0
175 197 0
174 198 0
173 197 0
172 197 0
174 197 0
178 199 0
174 196 0
175 198 0
174 198 0
174 197 0
175 198 0
174 198 0
173 197 0
177 199 0
172 197 0
174 198 0
174 197 0
174 198 0
172 197 0
173 197 0
174 198 0
176 199 0
176 199 0
173 196 0
172 197 0
173 196 0
172 195 0
174 197 0
177 199 0
174 198 0
175 198 0
176 198 0
174 198 0
174 198 0
172 194 0
174 197 0
174 198 0
174 196 0
174 195 0
173 197 0
174 198 0
176 199 0
173 197 0
173 197 0
176 199 0
174 195 0
175 198 0
174 198 0
175 197 0
172 196 0
173 195 0
175 197 0
175 198 0
175 198 0
174 196 0
158 123 81
157 114 97
159 115 88
152 109 76
157 113 93
163 117 108
157 115 84
159 114 90
149 107 74
156 113 90
157 113 88
157 112 90
158 113 95
158 114 99
157 112 90
153 111 84
160 116 95
157 113 97
157 113 99
161 116 103
156 113 79
156 113 88
159 113 95
159 114 97
157 112 88
157 114 88
159 115 95
155 111 86
158 114 88
156 112 90
156 113 90
159 115 101
154 110 84
159 114 90
158 115 99
157 115 93
163 117 103
153 110 86
158 112 90
158 114 99
151 108 81
159 113 97
155 111 81
154 112 93
159 115 97
161 115 95
151 109 79
164 118 106
162 117 99
156 111 86
159 114 97
161 116 104
160 116 99
151 110 74
159 113 93
160 114 103
160 115 101
155 112 86
159 114 93
155 113 81
161 115 95
160 114 93
157 113 93
160 116 97
155 112 71
162 115 101
155 113 86
161 116 101
161 116 99
155 114 88
158 113 93
162 117 106
160 116 101
158 115 95
158 114 97
156 113 88
159 116 99
160 115 99
158 115 90
157 113 86
158 115 90
156 113 88
158 115 88
160 116 93
158 113 97
160 115 99
159 114 95
160 115 95
162 116 103
160 115 101
154 109 84
158 114 95
161 116 101
165 119 112
157 114 93
157 113 84
158 114 93
161 117 99
156 113 90
156 110 84
158 114 95
160 115 95
158 113 97
155 113 84
156 113 90
158 114 93
157 114 90
160 115 97
156 111 95
157 113 86
158 113 90
160 116 103
157 113 93
158 114 90
160 116 90
162 117 110
157 114 84
159 114 90
157 113 86
160 114 95
159 114 90
156 113 88
161 117 103
158 113 97
155 112 95
156 113 86
155 113 93
156 112 88
157 113 88
155 114 79
157 112 84
151 107 76
149 106 76
158 113 90
158 113 97
154 110 84
158 120 79
172 193 28
172 196 0
173 197 0
172 194 0
174 197 0
175 194 0
172 195 0
174 196 0
173 197 0
173 196 0
174 198 0
174 196 0
175 198 0
173 196 0
174 197 0
175 198 0
176 198 0
173 197 0
175 198 0
174 198 0
176 199 0
173 197 0
175 198 0
175 197 0
173 195 0
173 197 0
174 198 0
173 197 0
176 199 0
175 198 0
173 197 0
175 198 0
174 197 0
173 197 0
174 196 0
173 197 0
174 198 0
175 198 0
172 196 0
174 198 0
172 197 0
175 198 0
174 197 0
177 199 0
172 195 0
174 198 0
174 197 0
173 197 0
174 196 0
176 198 0
175 198 0
174 196 0
171 195 0
173 197 0
173 197 0
173 197 0
175 198 0
173 197 0
177 199 0
175 198 0
175 198 0
173 197 0
175 198 0
173 197 0
173 197 0
175 198 0
174 197 0
176 199 0
174 198 0
176 198 0
174 196 0
174 197 0
172 196 0
174 197 0
173 197 0
175 196 0
175 198 0
172 197 0
174 198 0
174 197 0
173 196 0
175 197 0
176 199 0
173 197 0
173 197 0
172 196 0
174 196 0
173 197 0
174 198 0
175 197 0
172 196 0
174 197 0
171 195 0
173 197 0
173 195 0
175 197 0
176 199 0
175 198 0
175 197 0
175 198 0
174 195 0
175 198 0
174 198 0
174 198 0
173 195 0
173 197 0
174 195 0
176 197 0
173 196 0
172 196 0
172 197 0
176 199 0
174 195 0
170 193 0
174 198 0
175 198 0
174 198 0
173 196 0
172 195 0
161 141 76
154 110 81
158 114 86
156 114 84
154 112 84
157 113 90
156 112 79
159 114 93
154 112 81
162 117 97
157 114 86
156 112 86
155 113 90
159 114 97
156 113 90
159 116 101
158 114 97
158 113 90
151 109 84
154 113 84
152 110 76
159 114 90
160 115 103
151 109 74
157 114 90
158 113 90
156 113 95
160 115 101
159 113 101
154 111 86
161 116 103
160 114 103
161 116 104
159 114 97
159 115 95
160 115 97
159 115 90
161 116 99
162 117 108
156 112 79
159 115 97
151 110 79
155 111 95
162 118 103
158 115 99
160 113 99
152 111 79
155 113 81
160 116 99
158 112 95
156 113 95
159 112 97
159 115 97
155 112 90
158 114 90
159 114 101
156 113 88
158 114 101
161 116 99
158 112 97
158 115 95
160 114 101
158 112 93
158 114 93
156 113 95
158 114 99
163 117 104
157 112 90
160 115 97
155 111 86
162 115 99
158 114 99
159 115 93
161 116 99
163 117 108
158 113 97
152 108 81
157 114 88
161 115 97
159 114 90
159 115 95
158 114 95
154 110 88
156 112 81
153 110 93
160 115 106
161 114 99
159 114 99
157 113 88
158 114 93
156 111 81
158 113 95
162 117 101
157 113 86
155 113 84
161 116 103
157 113 90
155 112 84
161 116 110
154 112 86
155 113 93
156 111 93
158 113 95
159 114 90
160 115 97
155 112 93
161 115 110
159 114 95
156 112 86
157 114 88
155 111 93
158 113 86
158 114 86
150 108 76
152 109 76
157 112 86
159 115 99
161 116 99
158 114 93
155 110 88
157 113 90
162 115 104
158 112 93
160 115 97
159 115 95
158 114 95
153 111 74
155 112 84
158 113 90
158 114 95
163 118 101
155 112 90
160 113 90
156 112 93
153 110 76
151 109 79
167 155 68
175 196 0
174 198 0
175 198 0
175 198 0
172 194 0
173 196 0
173 195 0
172 195 0
172 194 0
173 196 0
175 198 0
173 197 0
175 198 0
174 197 0
174 198 0
173 197 0
173 196 0
175 198 0
174 197 0
174 195 0
173 197 0
175 198 0
174 197 0
173 196 0
175 198 0
174 198 0
175 198 0
172 194 0
174 196 0
176 197 0
174 198 0
172 194 0
172 196 0
176 199 0
175 198 0
173 197 0
174 197 0
175 197 0
174 198 0
172 195 0
173 197 0
176 199 0
173 197 0
176 198 0
174 198 0
173 197 0
174 198 0
172 196 0
173 197 0
173 196 0
175 197 0
174 198 0
173 196 0
176 199 0
172 196 0
174 198 0
174 196 0
173 197 0
170 196 0
172 197 0
174 196 0
174 198 0
176 199 0
176 199 0
176 199 0
174 197 0
174 197 0
175 197 0
173 197 0
173 197 0
173 196 0
173 195 0
175 198 0
175 198 0
175 198 0
175 198 0
175 197 0
175 198 0
174 196 0
173 197 0
171 196 0
176 196 0
174 196 0
174 198 0
175 198 0
173 197 0
174 198 0
175 198 0
172 195 0
176 198 0
177 199 0
173 197 0
174 198 0
173 197 0
174 196 0
177 198 0
171 194 0
174 198 0
175 198 0
174 196 0
173 196 0
177 199 0
173 195 0
175 198 0
173 195 0
175 198 0
171 194 0
174 194 0
174 196 0
174 197 0
172 194 0
174 197 0
173 195 0
175 197 0
171 194 0
175 196 0
174 195 0
173 197 0
172 195 0
169 186 19
156 113 88
155 112 81
155 112 88
154 111 86
154 111 79
157 114 84
154 110 79
153 110 86
157 114 84
155 111 90
159 113 99
158 115 84
159 115 95
160 116 95
158 115 95
154 112 84
153 111 84
158 115 97
161 116 101
153 110 84
159 114 97
158 114 99
151 110 76
154 112 84
162 115 103
154 112 86
159 115 99
159 115 97
159 113 99
161 116 97
159 115 93
162 117 103
160 114 101
164 117 106
157 113 95
162 117 106
159 113 93
160 115 99
161 114 97
162 117 104
158 112 99
156 111 95
156 111 88
159 115 90
156 111 88
160 115 101
154 111 76
153 110 84
158 113 95
154 112 81
158 115 88
159 115 93
153 110 81
160 115 103
163 118 108
154 110 88
156 112 90
156 112 86
155 111 88
158 114 95
157 113 97
159 115 103
161 115 99
155 112 84
157 113 90
162 117 101
157 112 93
159 115 90
157 113 90
156 112 81
153 110 81
155 111 88
155 113 84
158 115 95
160 116 97
154 112 79
156 111 90
159 115 93
153 111 86
156 113 86
156 113 90
157 113 93
162 116 95
159 114 95
153 110 84
158 112 97
159 114 95
161 115 99
155 112 86
161 116 95
155 113 86
158 115 90
152 107 79
155 112 79
157 113 88
160 114 95
161 115 104
160 114 93
162 116 104
161 115 97
159 114 90
159 116 93
157 114 95
157 113 93
160 113 99
160 116 106
158 114 86
160 115 97
155 112 88
155 112 88
155 111 84
157 113 95
158 114 90
156 112 88
161 115 101
158 113 90
157 113 93
158 114 93
158 114 95
151 109 74
155 113 79
157 114 88
163 116 99
156 112 84
159 115 90
154 111 84
157 113 90
154 110 74
160 116 97
153 110 81
154 111 88
157 114 86
151 107 76
151 109 76
156 112 76
169 181 39
173 196 0
174 196 0
173 197 0
174 198 0
175 198 0
173 196 0
172 195 0
174 196 0
174 197 0
175 198 0
173 194 0
172 196 0
174 197 0
173 197 0
172 194 0
175 197 0
173 195 0
173 195 0
176 196 0
173 195 0
176 198 0
172 197 0
174 197 0
173 197 0
174 197 0
175 198 0
176 198 0
174 197 0
172 196 0
174 198 0
173 196 0
171 195 0
173 197 0
173 196 0
174 196 0
174 198 0
173 197 0
174 196 0
173 196 0
175 197 0
173 197 0
175 198 0
173 196 0
173 197 0
176 198 0
174 195 0
174 198 0
176 199 0
176 198 0
173 196 0
175 198 0
174 197 0
176 199 0
175 198 0
174 198 0
175 198 0
174 197 0
173 196 0
176 199 0
174 198 0
173 196 0
175 198 0
174 195 0
176 199 0
174 198 0
174 197 0
173 196 0
175 198 0
173 196 0
173 197 0
174 197 0
177 199 0
177 199 0
175 197 0
174 197 0
174 196 0
175 198 0
173 196 0
175 197 0
172 196 0
175 198 0
173 197 0
176 198 0
177 199 0
173 196 0
175 198 0
176 199 0
175 198 0
174 197 0
174 197 0
174 197 0
173 196 0
174 197 0
174 198 0
173 196 0
175 197 0
173 197 0
174 198 0
173 196 0
175 198 0
174 197 0
176 198 0
171 194 0
174 196 0
173 197 0
174 198 0
174 194 0
175 197 0
173 197 0
172 197 0
174 197 0
173 195 0
174 196 0
173 195 0
174 198 0
172 194 0
174 198 0
171 194 0
173 195 0
175 197 0
162 136 81
158 114 93
157 113 90
160 114 99
156 114 81
159 114 90
157 111 103
156 113 84
160 115 103
158 114 88
157 112 95
150 109 71
159 113 90
157 112 90
162 116 103
155 111 86
160 115 101
158 114 93
150 107 76
156 110 88
157 113 84
156 114 86
156 113 97
158 114 90
156 113 90
161 116 97
154 110 86
158 115 90
153 111 81
156 113 84
160 115 99
157 114 88
159 114 93
150 109 71
157 114 99
153 111 76
157 113 88
157 113 90
161 116 90
157 113 99
156 111 93
158 115 99
155 112 88
161 116 101
158 115 93
156 112 86
161 116 103
152 110 74
158 113 93
159 116 99
153 110 84
154 110 90
158 113 90
156 111 93
156 112 84
157 113 97
158 113 97
152 110 74
159 115 90
151 108 81
156 111 93
159 115 99
159 113 93
159 115 90
158 114 95
158 115 88
161 116 104
153 109 81
159 114 95
157 113 99
163 117 104
159 114 93
158 114 86
159 113 90
155 111 84
160 115 93
158 114 97
155 110 88
161 116 106
156 113 86
154 111 79
157 114 88
157 114 97
158 113 97
148 106 79
156 113 97
157 112 88
157 114 90
162 117 99
158 113 97
157 114 88
158 113 99
155 113 84
157 114 88
154 111 86
158 114 93
160 115 99
155 111 84
158 115 90
163 117 104
156 113 90
156 113 81
157 112 93
154 110 90
159 113 95
157 114 95
162 116 99
158 113 90
159 114 93
158 114 93
161 117 95
157 113 93
155 112 79
157 113 86
159 115 95
158 113 88
152 108 81
158 113 88
159 114 93
158 114 93
151 108 76
157 113 95
158 114 93
154 112 86
156 113 84
160 115 101
157 113 81
153 110 79
154 110 84
157 112 95
155 112 84
156 110 79
154 110 93
154 110 81
161 143 62
175 197 0
174 194 0
175 197 0
170 193 0
176 197 0
174 195 0
171 192 0
174 196 0
176 198 0
175 197 0
174 197 0
173 195 0
174 195 0
176 199 0
174 196 0
173 196 0
176 196 0
173 196 0
172 193 0
175 196 0
175 198 0
175 198 0
174 197 0
173 197 0
175 197 0
174 197 0
174 197 0
173 197 0
174 197 0
173 196 0
176 199 0
175 198 0
175 198 0
174 198 0
174 196 0
172 193 0
173 196 0
175 197 0
173 196 0
174 198 0
174 198 0
172 197 0
172 196 0
173 197 0
175 198 0
174 196 0
173 197 0
173 196 0
173 197 0
176 198 0
173 196 0
174 196 0
174 196 0
174 198 0
172 197 0
175 198 0
176 198 0
174 198 0
174 195 0
173 197 0
172 195 0
172 196 0
171 196 0
175 198 0
175 198 0
175 198 0
171 196 0
174 197 0
172 197 0
175 198 0
173 197 0
176 199 0
173 197 0
174 196 0
174 197 0
175 197 0
173 197 0
174 196 0
173 196 0
175 198 0
174 198 0
175 197 0
175 198 0
173 197 0
174 196 0
173 195 0
174 197 0
174 196 0
175 197 0
176 198 0
173 197 0
173 196 0
175 198 0
174 197 0
173 196 0
174 198 0
175 197 0
174 197 0
173 196 0
173 197 0
173 196 0
175 197 0
173 195 0
173 195 0
176 198 0
174 197 0
171 193 0
171 191 0
174 197 0
172 197 0
174 197 0
173 197 0
171 195 0
177 199 0
174 197 0
174 198 0
174 197 0
173 196 0
173 196 0
174 198 0
172 196 0
171 184 44
157 113 90
160 114 101
154 110 79
159 115 95
162 116 101
162 117 97
153 108 84
152 110 76
152 108 79
159 114 86
154 111 86
154 111 84
160 115 97
155 112 86
156 111 95
156 113 88
156 114 84
155 111 81
156 112 93
158 114 93
159 114 95
156 112 88
161 115 104
154 111 90
157 113 84
159 114 97
153 108 76
159 113 93
162 117 99
157 114 99
162 117 106
161 116 106
149 108 68
156 114 90
157 114 88
161 115 99
156 111 88
160 117 103
156 114 90
155 112 79
159 114 95
157 115 86
159 114 95
154 112 81
153 112 84
158 115 95
157 113 84
158 115 95
157 114 95
161 115 99
161 116 97
158 114 95
159 115 97
156 111 88
156 112 84
155 110 86
152 109 81
157 114 90
155 112 81
158 114 88
160 116 93
155 110 81
156 112 86
158 113 97
156 114 93
151 110 68
158 115 88
156 113 90
157 112 86
154 111 81
155 111 84
155 111 84
152 111 71
154 111 86
160 115 93
161 116 101
158 114 99
157 113 90
160 115 93
158 112 95
159 115 95
158 114 86
158 114 84
151 108 76
156 113 84
160 115 93
159 113 101
155 111 86
159 115 86
155 111 88
158 114 95
156 112 93
157 114 88
156 112 86
155 110 88
154 110 84
155 112 90
162 117 106
157 114 95
156 113 84
158 114 88
159 114 93
152 108 68
156 112 88
155 111 88
155 112 95
157 114 90
155 111 90
163 117 104
156 110 90
160 114 101
153 112 76
163 117 104
160 116 95
161 116 90
156 114 84
156 113 79
158 113 90
155 113 95
157 112 93
161 115 99
159 115 95
158 112 95
158 112 97
161 115 103
154 111 74
159 114 101
159 113 103
156 112 84
156 111 86
157 114 86
158 111 88
150 106 79
168 174 48
175 197 0
172 196 0
172 195 0
175 197 0
175 197 0
172 194 0
174 198 0
175 197 0
173 197 0
172 193 0
171 195 0
171 195 0
176 198 0
176 197 0
174 196 0
173 195 0
175 196 0
174 197 0
173 193 0
173 195 0
173 196 0
174 198 0
174 198 0
173 197 0
172 196 0
174 197 0
176 199 0
175 197 0
175 197 0
174 198 0
175 197 0
173 197 0
174 198 0
173 197 0
174 197 0
175 194 0
173 197 0
176 198 0
172 197 0
177 199 0
174 197 0
173 196 0
175 198 0
176 199 0
174 198 0
174 198 0
174 198 0
174 197 0
172 196 0
173 197 0
173 197 0
174 196 0
173 196 0
173 196 0
174 196 0
176 199 0
173 196 0
175 198 0
175 198 0
174 195 0
174 198 0
174 198 0
173 195 0
175 197 0
173 197 0
173 197 0
174 197 0
175 198 0
173 197 0
172 196 0
173 197 0
173 196 0
176 198 0
175 198 0
174 197 0
174 196 0
174 198 0
175 198 0
173 195 0
173 195 0
172 197 0
174 198 0
171 196 0
176 197 0
174 197 0
175 198 0
175 197 0
174 197 0
174 197 0
175 196 0
175 198 0
176 196 0
175 196 0
172 194 0
177 197 0
176 199 0
174 195 0
173 196 0
174 197 0
173 196 0
174 197 0
176 198 0
176 198 0
172 195 0
172 196 0
175 198 0
176 199 0
173 196 0
175 198 0
172 196 0
171 195 0
171 194 0
172 193 0
174 196 0
175 194 0
174 196 0
176 199 0
173 195 0
174 198 0
173 192 0
172 193 0
173 197 0
162 139 76
156 112 93
157 113 88
155 110 90
154 111 84
155 111 90
155 113 86
160 113 95
152 110 88
155 111 81
151 108 79
157 111 84
157 114 95
158 113 93
155 112 90
153 110 74
154 111 71
154 110 84
156 112 88
159 115 90
160 116 93
159 114 97
152 109 76
153 110 86
158 114 90
158 113 93
154 112 71
158 113 90
159 114 93
158 113 95
153 111 81
160 114 93
156 112 86
156 112 86
160 116 101
155 112 81
156 111 93
160 116 95
158 115 97
162 114 101
157 113 93
155 113 88
156 111 90
157 113 90
156 111 88
154 111 84
156 112 90
155 111 76
157 112 97
153 109 76
160 116 95
156 114 79
154 110 88
162 115 99
157 113 90
154 112 74
162 118 104
159 115 95
157 113 81
156 113 93
160 115 95
161 114 103
157 113 86
161 116 97
155 112 93
156 113 86
155 112 86
157 114 93
164 118 110
157 114 90
158 114 93
157 112 97
151 111 81
160 115 101
157 113 88
159 114 99
158 114 90
156 112 81
161 116 86
155 111 84
156 114 84
158 114 95
161 116 93
160 115 88
156 113 88
158 115 90
158 114 95
156 111 97
160 114 97
154 111 86
154 110 86
157 113 86
153 111 76
154 109 84
155 112 86
158 114 95
155 111 90
154 110 90
155 112 76
164 117 101
156 113 84
150 109 68
161 116 103
154 109 81
157 112 93
158 114 93
160 114 97
158 114 95
160 115 99
159 115 95
155 111 84
155 112 81
157 114 84
159 113 97
156 113 88
155 109 88
162 116 97
159 115 90
160 116 97
155 112 79
154 110 76
156 112 88
158 115 97
162 117 99
159 115 93
156 113 86
159 115 90
159 115 95
160 115 90
163 117 103
157 114 88
153 109 79
158 132 71
173 196 0
175 197 0
172 194 0
174 197 0
173 196 0
172 196 0
175 197 0
172 195 0
176 198 0
173 194 0
174 194 0
175 196 0
174 196 0
174 198 0
174 198 0
172 197 0
172 196 0
174 196 0
174 196 0
173 196 0
173 196 0
175 197 0
174 196 0
174 198 0
174 197 0
175 198 0
173 195 0
170 192 0
175 197 0
174 197 0
175 197 0
171 195 0
176 197 0
172 197 0
174 196 0
175 196 0
172 195 0
176 199 0
173 196 0
175 198 0
175 198 0
172 197 0
173 197 0
174 196 0
173 197 0
173 197 0
174 198 0
171 194 0
171 196 0
173 197 0
175 196 0
173 197 0
174 197 0
171 195 0
176 198 0
173 197 0
174 197 0
174 197 0
173 197 0
175 198 0
174 198 0
173 197 0
176 199 0
175 198 0
175 198 0
173 196 0
175 198 0
174 196 0
174 197 0
173 194 0
172 197 0
174 197 0
174 198 0
171 196 0
173 197 0
173 196 0
172 194 0
174 198 0
175 198 0
175 196 0
174 198 0
172 196 0
172 195 0
175 198 0
175 198 0
174 197 0
173 197 0
171 191 0
173 197 0
172 194 0
172 194 0
174 194 0
173 195 0
171 193 0
172 195 0
175 198 0
171 193 0
174 197 0
172 195 0
174 196 0
175 196 0
173 196 0
174 196 0
173 196 0
172 192 0
175 198 0
176 197 0
173 196 0
174 198 0
173 195 0
174 197 0
172 195 0
170 194 0
170 191 0
173 193 0
173 197 0
175 197 0
172 196 0
174 197 0
172 194 0
173 197 0
171 193 0
171 189 0
168 171 48
152 108 76
157 112 88
155 113 76
153 109 88
158 114 93
155 111 79
156 111 88
153 109 81
153 109 84
153 108 84
155 111 90
158 113 93
154 111 86
152 109 76
153 109 86
156 109 88
158 112 95
150 107 79
157 112 93
156 113 84
157 113 88
159 114 90
157 111 84
160 115 101
155 111 74
156 113 90
161 116 101
155 112 81
158 115 97
161 116 101
157 114 90
155 113 81
155 113 86
162 117 97
157 113 90
159 115 95
158 113 97
157 113 93
158 114 99
154 111 88
157 113 84
156 113 86
158 112 90
156 113 88
155 112 90
156 113 86
159 114 93
163 118 101
159 115 97
159 114 97
158 113 97
156 113 90
158 113 97
158 114 104
160 113 95
154 111 84
159 114 97
153 111 79
158 113 88
157 113 93
158 114 90
157 112 99
159 115 95
160 114 99
156 111 90
160 116 93
161 115 101
157 113 86
155 111 76
156 113 81
161 116 97
162 116 101
156 113 86
156 113 88
155 111 84
157 113 81
159 114 90
151 107 81
155 113 88
160 116 99
162 117 112
156 112 90
161 115 97
157 113 84
151 110 76
158 115 88
156 112 81
154 111 81
160 116 97
155 110 88
155 111 81
160 115 99
161 116 99
158 113 88
155 110 81
156 112 93
156 113 86
156 113 88
160 115 95
154 111 81
158 114 93
161 116 101
163 116 108
160 116 97
155 111 86
155 113 86
157 112 84
159 115 93
158 115 88
158 114 95
157 113 86
159 115 99
160 115 97
155 112 79
156 111 86
154 110 84
161 116 104
155 110 86
162 117 99
156 112 79
151 107 76
154 110 86
152 110 71
152 109 76
162 116 103
153 111 84
155 110 81
156 112 86
153 111 79
158 113 93
160 114 93
172 183 44
172 194 0
173 195 0
171 194 0
175 198 0
174 197 0
174 196 0
173 197 0
174 197 0
173 195 0
171 193 0
174 198 0
173 197 0
174 198 0
174 198 0
174 198 0
172 194 0
173 196 0
174 197 0
173 193 0
173 197 0
171 195 0
176 194 0
173 197 0
175 198 0
173 197 0
171 193 0
173 195 0
172 194 0
174 198 0
174 197 0
176 198 0
175 198 0
173 196 0
174 194 0
173 196 0
176 197 0
174 197 0
174 196 0
175 196 0
175 198 0
173 197 0
174 198 0
175 198 0
176 199 0
174 198 0
174 198 0
175 198 0
173 197 0
176 198 0
173 197 0
175 198 0
175 198 0
173 194 0
173 196 0
175 198 0
174 198 0
174 196 0
175 196 0
174 197 0
172 195 0
174 198 0
176 199 0
173 196 0
176 199 0
175 197 0
173 195 0
175 197 0
176 197 0
176 199 0
175 198 0
176 197 0
175 197 0
174 196 0
173 197 0
174 198 0
174 198 0
172 196 0
173 197 0
175 197 0
172 196 0
170 192 0
172 197 0
173 193 0
176 198 0
173 196 0
173 195 0
173 197 0
172 196 0
173 196 0
173 197 0
173 196 0
172 196 0
177 198 0
173 196 0
173 194 0
175 197 0
170 192 0
173 196 0
175 198 0
171 193 0
175 195 0
176 198 0
173 196 0
175 197 0
174 196 0
173 197 0
173 194 0
172 197 0
174 196 0
175 198 0
173 193 0
173 195 0
172 189 0
173 195 0
174 195 0
171 195 0
172 191 0
172 196 0
175 197 0
173 195 0
173 194 0
173 195 0
173 196 0
173 196 0
160 132 81
152 110 81
152 110 79
155 110 84
152 108 79
151 107 81
156 111 86
155 111 81
155 110 93
154 110 79
156 113 86
158 111 93
158 114 88
159 114 97
157 112 90
156 110 93
153 110 76
158 113 97
151 108 79
153 110 86
153 109 76
154 111 81
157 113 81
157 111 90
156 112 90
153 110 79
155 112 84
156 112 90
154 110 86
153 111 74
160 115 97
156 111 90
153 109 79
156 112 86
158 113 93
159 114 95
162 116 106
153 110 79
156 114 93
159 113 93
160 116 97
157 114 90
161 117 103
151 107 81
159 116 90
159 115 99
160 114 95
159 115 90
151 109 76
157 112 88
154 110 84
155 111 79
159 116 95
158 113 97
157 113 84
150 108 76
155 112 81
158 113 93
158 113 97
155 113 81
154 111 84
155 113 84
156 112 88
160 116 99
162 116 97
159 115 93
154 110 84
155 113 81
153 111 71
157 113 84
154 110 84
154 110 74
157 113 90
160 114 93
157 112 95
151 108 74
162 117 101
153 111 86
158 113 101
154 111 88
157 112 90
156 113 86
153 110 86
156 113 86
153 111 86
160 115 93
152 110 76
159 115 86
158 113 90
155 112 79
162 117 99
158 113 101
156 112 90
156 112 84
157 111 90
158 114 88
161 116 99
156 111 95
157 113 90
156 113 88
155 111 88
162 117 99
153 109 88
154 109 81
155 112 86
148 107 76
155 111 88
157 111 90
157 113 90
156 112 88
162 116 103
154 110 84
160 116 93
158 113 88
152 108 84
159 115 86
158 112 84
154 110 88
157 112 88
156 113 88
157 113 93
159 115 97
154 111 84
159 115 101
156 113 93
155 111 84
157 112 88
154 113 79
156 113 79
158 113 86
154 122 65
171 193 0
171 193 0
173 193 0
172 193 0
175 194 0
171 192 0
174 197 0
173 196 0
174 196 0
172 196 0
174 195 0
173 196 0
174 198 0
176 198 0
172 195 0
171 194 0
174 196 0
173 196 0
174 198 0
174 198 0
172 197 0
173 194 0
174 198 0
174 197 0
173 195 0
175 198 0
172 194 0
174 195 0
173 195 0
173 193 0
175 197 0
173 197 0
172 193 0
175 197 0
172 194 0
174 197 0
172 194 0
176 199 0
172 194 0
173 196 0
177 198 0
172 194 0
173 195 0
175 196 0
176 198 0
174 197 0
174 198 0
173 197 0
173 197 0
172 197 0
176 199 0
171 196 0
176 199 0
172 195 0
174 197 0
175 198 0
174 195 0
174 197 0
174 198 0
173 195 0
173 197 0
171 195 0
174 196 0
173 196 0
175 197 0
172 197 0
172 196 0
174 198 0
172 195 0
174 196 0
174 196 0
172 196 0
175 198 0
172 194 0
173 196 0
174 198 0
173 196 0
172 194 0
173 197 0
174 198 0
172 194 0
171 194 0
173 196 0
172 195 0
172 195 0
173 196 0
172 194 0
173 196 0
172 197 0
174 196 0
175 198 0
175 197 0
175 195 0
175 196 0
173 197 0
173 196 0
173 196 0
174 198 0
173 196 0
174 195 0
173 196 0
173 197 0
176 199 0
173 196 0
171 192 0
174 196 0
172 193 0
172 194 0
173 196 0
173 197 0
173 193 0
176 197 0
175 198 0
172 193 0
171 189 0
175 197 0
173 196 0
174 195 0
172 195 0
175 197 0
175 197 0
173 194 0
169 188 0
175 197 0
173 196 0
170 170 62
157 112 90
148 105 71
156 112 90
157 114 84
153 110 84
157 112 95
159 113 93
151 110 74
159 113 88
157 111 88
154 111 81
159 114 90
153 109 88
153 109 76
153 109 76
159 115 93
156 112 81
151 111 74
159 114 90
157 114 88
153 110 84
155 111 90
161 116 99
158 114 90
157 114 90
158 113 90
159 112 99
154 110 79
155 110 84
154 111 76
154 110 86
159 113 99
153 109 79
156 113 88
159 116 88
151 110 76
154 110 84
163 116 106
160 115 97
153 110 90
160 115 93
152 110 65
154 111 84
156 110 90
159 114 97
158 113 90
157 113 90
153 111 79
160 115 97
155 111 81
159 115 99
156 113 93
158 114 93
157 113 90
157 113 97
159 114 90
156 112 88
157 114 95
159 114 99
151 109 74
158 114 86
153 110 81
155 112 86
159 115 101
157 113 93
158 114 95
153 110 86
159 114 97
155 113 90
156 112 88
156 111 90
162 116 99
157 113 84
155 111 88
152 109 79
162 116 106
157 113 86
160 114 95
156 113 86
153 111 76
160 116 101
158 113 95
156 113 84
155 111 93
153 111 88
160 115 101
154 109 86
160 115 99
166 119 110
154 111 88
154 111 84
159 113 97
156 114 84
159 114 95
155 112 90
157 112 90
155 110 79
157 113 88
156 112 84
158 115 90
163 117 106
154 113 81
159 114 99
159 115 90
157 113 93
156 112 86
161 115 101
156 110 88
159 114 93
153 110 76
157 112 84
155 111 86
158 114 95
164 116 104
160 115 95
158 114 84
156 113 88
155 112 95
153 108 86
161 114 97
156 113 88
158 111 97
155 111 79
150 108 71
156 112 88
155 111 86
152 108 81
158 115 90
157 113 84
171 185 34
173 193 0
173 195 0
170 191 0
172 194 0
173 196 0
171 194 0
172 194 0
173 195 0
173 195 0
173 196 0
173 196 0
176 198 0
174 196 0
171 193 0
174 197 0
171 192 0
170 192 0
172 197 0
174 193 0
173 196 0
172 195 0
174 198 0
174 198 0
172 193 0
173 196 0
176 199 0
174 197 0
175 196 0
176 198 0
173 195 0
172 195 0
176 198 0
174 198 0
174 195 0
173 196 0
175 197 0
174 196 0
176 198 0
172 194 0
173 192 0
175 197 0
175 197 0
171 194 0
175 197 0
175 198 0
175 198 0
175 197 0
174 198 0
173 195 0
176 199 0
176 199 0
173 197 0
175 198 0
174 193 0
175 198 0
174 198 0
172 195 0
175 198 0
175 198 0
174 198 0
174 196 0
172 195 0
174 198 0
173 196 0
174 198 0
174 196 0
174 195 0
174 197 0
174 196 0
175 196 0
174 195 0
174 197 0
174 197 0
175 198 0
175 198 0
172 192 0
171 193 0
174 198 0
173 196 0
171 192 0
171 195 0
173 197 0
173 197 0
174 196 0
173 196 0
172 194 0
172 193 0
175 198 0
173 196 0
170 195 0
174 196 0
175 197 0
176 199 0
171 193 0
174 195 0
174 197 0
173 196 0
174 197 0
175 196 0
175 195 0
173 195 0
172 195 0
172 195 0
172 196 0
173 195 0
172 194 0
172 193 0
174 194 0
173 195 0
175 198 0
173 195 0
173 195 0
175 197 0
173 195 0
173 195 0
172 194 0
174 195 0
175 198 0
172 197 0
174 196 0
173 196 0
171 191 0
172 190 0
173 197 0
171 191 0
172 193 0
156 133 74
158 114 99
154 111 79
163 117 103
160 115 97
155 111 79
154 110 84
158 114 95
160 116 88
153 110 84
154 111 84
150 109 74
154 110 79
159 112 104
158 112 90
157 113 90
160 116 95
159 115 93
150 109 76
153 109 81
158 114 88
158 114 88
157 115 86
152 110 84
154 111 74
154 110 90
157 113 90
151 110 65
153 112 81
159 113 101
156 111 88
158 115 90
159 114 95
156 112 86
156 111 97
154 111 90
150 108 84
153 110 81
157 113 90
158 114 86
159 115 97
156 112 84
155 112 86
159 113 86
154 111 76
157 114 90
161 117 103
155 111 86
148 107 62
155 110 81
157 114 93
159 114 93
164 118 108
155 112 81
152 109 84
159 115 97
153 110 76
156 111 81
155 111 81
153 110 76
159 115 93
160 115 95
155 112 79
156 110 97
157 114 88
158 113 93
156 112 90
155 112 88
158 113 93
158 115 88
154 112 84
156 113 88
155 111 86
157 113 93
156 113 86
158 114 86
157 114 90
156 113 95
154 110 81
160 116 99
152 109 88
157 112 88
158 114 99
154 111 81
156 113 93
155 112 93
158 114 93
158 113 86
161 116 103
153 112 76
155 111 81
159 113 95
152 109 81
155 113 84
151 110 74
153 111 84
160 115 97
153 112 76
155 112 93
156 112 95
155 112 81
155 110 81
154 112 71
159 114 93
162 117 99
153 109 76
154 109 79
157 112 86
150 109 76
155 113 93
158 113 95
156 113 93
158 113 93
159 113 103
160 114 95
155 112 81
151 110 76
153 110 71
160 115 97
158 113 97
155 112 76
154 111 81
156 112 76
155 112 86
156 112 88
158 114 99
153 112 79
158 113 86
156 135 59
169 190 0
176 197 0
172 195 0
170 187 0
170 190 0
172 192 0
175 197 0
172 193 0
172 196 0
175 197 0
173 194 0
173 196 0
169 189 0
173 196 0
171 193 0
173 196 0
172 194 0
172 194 0
171 193 0
175 198 0
172 196 0
173 195 0
172 195 0
170 191 0
175 197 0
175 196 0
175 197 0
173 197 0
171 192 0
174 198 0
173 195 0
174 194 0
176 199 0
172 196 0
172 195 0
172 194 0
175 197 0
175 198 0
174 197 0
176 199 0
172 195 0
175 198 0
175 198 0
173 196 0
173 196 0
173 196 0
172 193 0
174 198 0
174 198 0
175 198 0
171 194 0
174 197 0
175 197 0
173 195 0
174 196 0
173 195 0
174 197 0
171 195 0
175 198 0
173 197 0
175 197 0
173 196 0
175 197 0
173 196 0
176 199 0
176 196 0
174 198 0
175 198 0
173 197 0
173 196 0
174 197 0
173 197 0
173 196 0
174 194 0
172 197 0
173 197 0
172 196 0
175 198 0
173 196 0
175 198 0
173 196 0
174 197 0
175 198 0
174 198 0
175 198 0
172 194 0
174 197 0
174 198 0
174 196 0
172 191 0
174 197 0
174 195 0
172 194 0
173 196 0
174 198 0
173 195 0
173 194 0
174 196 0
171 190 0
175 197 0
172 194 0
172 192 0
173 195 0
173 197 0
170 189 0
172 194 0
172 193 0
173 196 0
169 188 0
171 194 0
174 197 0
173 196 0
176 197 0
172 193 0
170 191 0
173 195 0
172 195 0
167 185 0
174 195 0
171 192 0
172 196 0
170 192 0
174 198 0
176 198 0
170 192 0
172 193 0
171 192 0
170 187 28
155 115 81
154 111 86
156 112 84
152 109 74
155 112 86
160 116 93
160 114 95
155 111 86
158 114 86
158 115 93
161 115 99
154 110 86
154 111 76
157 114 88
157 112 86
157 112 88
159 113 97
155 113 79
153 109 81
155 111 93
152 110 76
157 113 88
157 114 90
161 116 97
154 110 74
158 114 95
160 115 97
153 110 86
148 107 59
152 109 79
162 116 97
155 113 84
153 111 79
158 113 88
158 114 84
156 111 86
155 112 79
159 114 90
156 113 84
153 111 79
156 112 90
155 110 86
154 111 86
155 112 86
161 116 99
160 116 95
152 109 88
159 112 88
152 110 71
161 116 97
162 117 99
157 113 95
148 106 68
157 113 88
154 111 84
159 115 93
157 113 93
154 110 86
160 115 99
157 113 95
156 114 86
158 113 99
158 112 93
155 111 90
155 111 81
161 115 99
155 111 90
157 112 88
160 114 97
157 113 90
157 113 90
157 112 88
156 111 86
157 114 90
154 111 86
154 112 84
156 113 88
155 112 90
150 108 76
157 115 93
157 113 93
158 113 93
156 113 86
153 110 84
155 112 84
157 113 88
156 112 84
153 110 79
154 111 86
160 115 86
156 112 88
156 113 90
156 112 93
159 114 93
154 112 86
157 113 86
155 111 84
154 110 84
159 114 101
161 115 101
155 110 88
159 116 93
154 111 86
154 111 88
156 111 90
154 110 86
154 110 88
158 113 88
152 109 81
157 112 90
160 115 97
152 109 76
157 113 86
153 110 88
151 110 74
159 114 93
153 108 81
153 110 86
152 109 76
155 111 84
154 111 76
153 111 76
157 112 93
159 114 95
159 115 97
159 114 86
152 112 68
167 178 28
171 191 0
171 192 0
171 195 0
172 191 0
173 197 0
173 195 0
174 195 0
173 195 0
174 194 0
174 198 0
171 193 0
173 196 0
175 197 0
174 196 0
174 194 0
174 198 0
174 195 0
173 197 0
174 194 0
171 194 0
174 196 0
174 196 0
170 191 0
171 194 0
173 196 0
173 195 0
173 196 0
174 198 0
175 197 0
173 196 0
172 194 0
173 196 0
174 196 0
172 194 0
172 195 0
174 196 0
173 194 0
171 195 0
173 196 0
172 194 0
175 197 0
174 195 0
175 198 0
175 198 0
175 197 0
174 198 0
175 197 0
174 198 0
176 199 0
173 196 0
175 197 0
174 197 0
173 197 0
173 196 0
172 194 0
175 198 0
175 196 0
173 196 0
175 198 0
176 199 0
174 197 0
173 197 0
173 195 0
174 198 0
174 198 0
172 196 0
175 197 0
175 197 0
174 197 0
176 199 0
172 194 0
173 196 0
173 195 0
174 196 0
174 195 0
175 197 0
173 196 0
172 194 0
169 193 0
174 197 0
175 197 0
171 192 0
172 193 0
170 193 0
174 196 0
173 196 0
173 196 0
172 197 0
175 197 0
172 194 0
171 195 0
176 199 0
173 196 0
173 192 0
172 195 0
173 195 0
173 196 0
171 193 0
173 196 0
173 195 0
174 197 0
172 194 0
175 198 0
172 193 0
174 197 0
175 197 0
169 188 0
171 194 0
174 195 0
176 196 0
171 189 0
173 196 0
171 194 0
173 195 0
173 195 0
172 194 0
172 191 0
172 194 0
173 195 0
170 191 0
172 194 0
170 189 0
170 191 0
174 195 0
173 194 0
170 189 0
171 191 0
169 185 0
160 148 52
160 114 93
154 110 84
153 109 79
154 109 86
151 108 76
156 113 86
150 107 71
155 112 81
156 112 86
154 110 79
159 114 95
154 110 71
155 112 79
153 109 71
161 115 95
158 114 90
152 107 86
159 113 99
155 111 84
159 114 99
156 114 84
151 107 71
156 113 93
154 110 81
158 112 93
155 112 76
159 115 88
151 108 76
157 113 88
156 112 88
156 113 90
155 112 86
155 112 84
155 112 81
158 113 95
158 114 86
159 114 97
153 110 86
153 111 81
157 113 90
151 109 74
157 113 93
157 111 90
160 116 99
149 107 68
155 111 86
157 114 86
158 115 90
156 114 84
154 111 86
161 114 101
153 109 79
154 111 74
153 111 84
157 114 88
156 112 81
159 113 93
154 113 76
157 113 93
158 114 90
154 111 79
154 110 81
160 116 95
157 113 93
158 114 93
152 110 71
154 110 76
160 115 93
155 110 93
157 113 88
155 112 86
159 115 99
154 110 86
153 107 79
154 108 88
157 113 93
155 112 86
159 114 99
161 114 95
156 112 81
154 111 76
157 111 95
155 110 88
159 115 93
157 112 95
157 113 88
156 113 93
160 116 97
159 114 97
153 109 81
154 111 79
152 108 79
152 109 76
157 115 90
155 111 90
155 112 81
158 113 88
157 112 84
163 117 103
160 114 99
156 114 99
154 111 81
158 111 90
157 113 84
156 110 88
159 112 95
153 111 79
153 110 74
157 112 86
148 106 71
153 110 79
150 107 71
155 110 86
156 109 88
159 113 95
160 115 95
156 111 90
160 115 97
154 109 88
155 110 84
155 112 88
147 104 76
154 110 84
154 110 79
156 112 84
164 161 52
170 192 0
172 193 0
174 195 0
171 191 0
173 192 0
167 185 0
172 192 0
172 194 0
173 193 0
171 191 0
175 196 0
173 196 0
172 193 0
173 195 0
172 194 0
175 197 0
172 194 0
171 193 0
174 195 0
170 191 0
175 196 0
174 197 0
173 192 0
174 198 0
175 197 0
171 192 0
172 197 0
174 198 0
174 198 0
172 194 0
174 196 0
174 198 0
171 192 0
174 198 0
174 197 0
173 196 0
171 194 0
175 198 0
175 197 0
174 196 0
170 192 0
173 197 0
173 196 0
172 194 0
176 198 0
174 195 0
173 196 0
175 198 0
175 197 0
175 198 0
174 198 0
173 195 0
174 197 0
174 197 0
176 197 0
177 199 0
174 196 0
173 197 0
174 198 0
178 198 0
175 197 0
174 197 0
175 197 0
172 193 0
173 197 0
175 197 0
175 198 0
174 198 0
173 197 0
173 196 0
173 194 0
171 195 0
175 198 0
174 198 0
172 194 0
174 198 0
175 198 0
174 198 0
174 194 0
173 197 0
173 197 0
175 197 0
172 194 0
172 194 0
175 197 0
175 196 0
172 196 0
173 195 0
173 195 0
174 196 0
172 193 0
174 196 0
175 197 0
171 195 0
174 197 0
175 196 0
171 194 0
174 198 0
172 193 0
173 195 0
170 192 0
172 193 0
175 198 0
173 195 0
174 193 0
172 195 0
176 198 0
173 194 0
172 195 0
173 194 0
174 196 0
173 196 0
174 195 0
174 196 0
171 189 0
172 195 0
177 198 0
170 192 0
172 193 0
171 191 0
173 195 0
168 186 0
172 191 0
170 187 0
171 193 0
175 198 0
172 191 0
173 194 0
170 189 0
170 188 0
155 119 79
149 106 74
158 112 90
157 113 93
156 112 74
155 112 81
158 113 93
157 112 88
157 112 95
156 113 88
158 114 90
157 112 81
156 112 90
160 116 99
153 110 84
156 112 81
156 111 79
157 112 88
156 112 84
157 113 88
155 113 86
153 109 86
155 111 81
160 113 101
157 113 86
157 114 88
155 111 90
160 114 99
157 114 90
154 110 79
160 116 99
150 107 65
157 114 84
154 110 88
153 107 90
155 113 84
155 112 88
154 112 81
159 113 93
157 113 88
153 111 74
153 109 84
157 111 88
159 116 90
161 115 97
156 112 84
156 113 81
158 113 88
163 117 103
158 113 90
156 112 86
155 111 84
158 113 97
160 115 99
159 116 99
157 114 88
154 112 74
156 112 88
155 112 93
159 115 95
155 112 84
155 112 93
158 113 93
160 116 99
156 113 88
157 112 95
153 110 81
153 110 81
158 114 86
154 111 79
157 114 81
157 113 97
155 112 84
157 114 90
155 112 76
160 116 95
158 113 86
155 112 76
153 109 86
161 115 97
155 110 84
157 113 86
155 111 93
153 112 76
159 113 95
152 111 71
157 113 93
158 113 95
161 117 95
154 111 81
150 107 74
154 109 81
161 116 99
157 114 84
154 110 90
153 109 79
151 109 74
154 110 81
155 111 86
157 114 90
157 112 84
158 113 93
158 113 86
159 115 90
151 108 76
157 113 90
151 107 79
155 110 90
149 109 76
156 113 79
153 110 81
156 112 88
155 113 81
160 114 88
156 111 88
153 111 79
155 111 84
159 112 86
149 107 62
158 114 95
156 112 84
154 109 79
153 109 84
148 103 84
158 119 81
173 194 0
172 193 0
169 189 0
168 186 0
173 195 0
172 192 0
170 187 0
172 192 0
168 186 0
173 197 0
171 192 0
171 193 0
173 194 0
172 192 0
173 193 0
173 195 0
174 197 0
172 195 0
173 195 0
172 193 0
174 196 0
173 196 0
171 194 0
173 192 0
171 190 0
173 195 0
177 198 0
173 196 0
171 192 0
174 196 0
174 198 0
173 195 0
171 192 0
172 194 0
173 192 0
173 196 0
173 197 0
176 198 0
175 197 0
172 196 0
171 193 0
172 193 0
173 196 0
172 193 0
175 197 0
174 197 0
173 197 0
172 195 0
173 197 0
175 197 0
171 192 0
174 196 0
176 199 0
172 196 0
178 200 0
175 198 0
173 193 0
174 198 0
175 197 0
173 197 0
173 196 0
173 196 0
174 196 0
174 195 0
173 194 0
174 197 0
171 192 0
175 198 0
172 193 0
172 196 0
174 198 0
172 197 0
177 199 0
173 197 0
172 197 0
172 196 0
173 195 0
173 196 0
174 195 0
176 199 0
174 197 0
175 197 0
170 194 0
171 193 0
173 195 0
172 194 0
173 196 0
170 193 0
172 194 0
177 199 0
173 196 0
176 196 0
173 196 0
175 197 0
172 192 0
174 195 0
172 193 0
169 193 0
173 194 0
175 198 0
172 194 0
173 196 0
171 192 0
170 192 0
175 197 0
172 194 0
173 196 0
172 196 0
172 192 0
174 198 0
175 197 0
174 197 0
174 197 0
172 194 0
175 196 0
170 192 0
171 190 0
174 196 0
172 193 0
174 195 0
170 192 0
173 195 0
172 193 0
172 193 0
172 197 0
171 189 0
173 194 0
172 192 0
171 192 0
173 193 0
170 191 0
166 172 48
153 111 76
154 110 88
155 112 88
153 109 74
148 106 59
156 112 86
149 106 71
155 111 86
154 112 79
157 113 86
154 109 81
157 111 90
155 110 88
159 116 99
153 108 86
151 108 79
158 112 99
156 111 90
154 112 81
154 109 86
158 114 97
155 113 79
155 111 79
156 112 86
152 109 84
153 109 84
153 110 86
156 113 90
153 111 71
154 109 84
158 115 86
158 114 86
159 115 90
151 110 79
159 114 90
157 112 99
159 115 95
152 110 79
155 112 84
158 113 95
157 112 86
153 109 76
154 112 76
158 113 90
159 115 93
149 106 74
156 111 88
153 111 76
154 111 79
156 113 84
156 113 93
157 113 84
158 115 90
153 108 81
157 112 93
154 113 79
153 111 81
157 113 97
151 108 71
154 111 84
156 114 93
161 115 104
156 112 81
158 113 86
155 111 84
154 111 76
157 112 88
156 111 88
162 117 104
159 114 93
156 112 88
154 111 79
158 113 95
160 115 97
154 111 88
156 113 88
158 114 86
157 112 86
158 114 84
157 113 88
155 111 90
152 110 79
156 112 93
156 113 88
156 112 88
159 115 93
159 114 93
158 112 97
152 108 79
155 111 81
157 114 90
155 113 84
152 109 71
159 114 93
159 115 90
153 109 79
153 110 76
154 110 84
154 112 81
149 106 68
160 115 95
157 113 86
159 114 93
160 116 99
156 111 86
154 109 84
153 110 79
156 113 86
157 113 93
155 111 79
158 113 84
158 112 88
157 112 88
155 110 88
152 109 79
155 109 86
157 112 90
156 113 88
151 109 76
156 110 88
158 113 86
156 112 86
154 111 79
165 175 28
172 193 0
168 189 0
172 193 0
170 190 0
171 189 0
172 194 0
174 196 0
172 193 0
173 193 0
171 193 0
171 193 0
174 198 0
172 192 0
170 192 0
170 189 0
175 197 0
172 191 0
170 191 0
170 191 0
175 195 0
174 194 0
171 190 0
173 196 0
174 194 0
172 193 0
174 195 0
170 193 0
173 195 0
171 194 0
171 188 0
171 194 0
171 195 0
170 191 0
172 194 0
173 197 0
173 194 0
174 195 0
169 190 0
173 197 0
173 196 0
173 196 0
172 192 0
175 198 0
175 197 0
174 196 0
174 197 0
174 198 0
172 196 0
173 197 0
172 193 0
172 194 0
175 197 0
172 192 0
171 194 0
174 198 0
175 195 0
173 194 0
173 197 0
175 197 0
175 194 0
174 195 0
172 195 0
173 195 0
174 198 0
172 194 0
173 195 0
174 198 0
170 192 0
173 196 0
174 194 0
173 195 0
172 193 0
173 195 0
172 194 0
171 190 0
171 193 0
174 198 0
173 196 0
173 195 0
174 198 0
171 195 0
173 197 0
171 194 0
174 196 0
173 195 0
173 193 0
173 197 0
172 194 0
174 197 0
174 194 0
175 197 0
174 195 0
173 195 0
172 194 0
172 193 0
174 196 0
172 194 0
170 189 0
171 193 0
173 194 0
172 193 0
173 194 0
173 195 0
174 196 0
175 196 0
171 192 0
170 191 0
170 192 0
171 191 0
173 196 0
172 193 0
172 194 0
173 195 0
172 190 0
173 196 0
171 190 0
172 195 0
173 194 0
169 189 0
172 192 0
171 194 0
171 192 0
168 186 0
171 192 0
171 191 0
173 195 0
171 191 0
171 190 0
169 185 0
169 188 0
172 192 0
169 184 0
157 132 62
159 114 90
155 111 84
155 111 81
153 109 79
157 113 84
151 107 79
156 111 93
148 106 65
154 110 86
153 109 76
158 113 90
156 112 84
155 111 88
157 112 93
156 111 81
149 106 59
156 112 81
153 110 68
157 111 93
159 114 88
159 115 90
153 110 79
152 109 81
157 112 84
153 109 84
156 112 84
156 112 84
158 114 93
158 113 81
158 113 90
155 112 90
151 110 68
152 111 68
154 111 81
152 109 76
155 110 86
156 114 93
158 114 93
159 115 93
155 112 74
157 112 95
155 112 79
153 109 84
153 109 79
155 112 88
154 112 86
155 111 88
157 114 79
154 112 76
157 113 86
154 111 79
152 109 71
156 110 90
158 113 97
155 110 81
154 111 76
152 109 74
153 111 76
160 113 99
152 108 79
151 108 71
157 114 90
151 107 79
164 116 104
155 112 84
155 112 86
157 112 76
153 110 74
150 108 65
158 114 93
158 112 97
157 113 88
156 112 88
155 112 81
159 113 99
162 116 101
159 114 95
154 112 88
154 109 84
161 117 101
152 110 74
153 109 84
155 111 74
149 105 71
158 114 97
154 110 79
155 112 95
153 110 81
160 116 99
157 112 84
154 112 76
153 107 79
153 110 71
159 113 90
160 115 93
150 108 68
152 110 81
157 113 86
159 115 88
153 109 84
156 113 90
162 115 101
153 111 84
156 113 88
151 108 74
147 106 68
152 108 81
157 113 86
155 112 86
154 111 84
156 112 81
156 112 93
156 112 88
149 105 79
155 111 81
153 109 84
155 111 90
157 112 81
156 112 81
149 107 65
153 109 74
159 143 65
169 188 0
168 191 0
168 189 0
174 192 0
172 194 0
170 186 0
173 196 0
169 187 0
174 195 0
171 193 0
174 194 0
172 194 0
171 193 0
174 197 0
170 191 0
170 191 0
174 194 0
171 188 0
172 192 0
172 193 0
173 197 0
172 193 0
171 192 0
171 194 0
171 193 0
171 194 0
172 193 0
170 192 0
173 195 0
174 196 0
177 197 0
175 196 0
172 193 0
174 196 0
174 196 0
173 194 0
172 194 0
171 195 0
174 194 0
171 185 0
175 197 0
174 197 0
174 198 0
173 195 0
173 197 0
175 198 0
173 197 0
173 196 0
173 196 0
172 194 0
173 193 0
174 195 0
174 198 0
174 198 0
171 190 0
173 197 0
175 198 0
172 191 0
172 195 0
174 196 0
171 195 0
176 197 0
173 195 0
172 195 0
174 198 0
175 197 0
171 194 0
172 194 0
174 197 0
173 196 0
174 197 0
175 197 0
174 197 0
175 198 0
173 195 0
174 197 0
172 193 0
171 193 0
173 196 0
174 197 0
173 196 0
171 194 0
174 197 0
174 196 0
173 196 0
175 197 0
175 198 0
173 197 0
174 197 0
175 196 0
172 192 0
172 195 0
171 193 0
173 197 0
173 193 0
174 196 0
170 191 0
174 196 0
170 192 0
173 197 0
172 195 0
172 193 0
175 196 0
174 196 0
172 195 0
174 194 0
170 191 0
169 188 0
171 192 0
174 196 0
171 193 0
173 192 0
170 187 0
173 190 0
173 193 0
172 193 0
173 191 0
173 195 0
174 194 0
169 189 0
174 197 0
173 196 0
171 190 0
174 194 0
172 195 0
173 194 0
171 192 0
173 195 0
171 192 0
174 190 0
168 187 0
173 195 0
172 191 0
169 183 19
152 115 65
152 109 68
152 108 76
151 106 81
150 107 76
151 109 81
152 108 76
152 110 76
156 112 86
153 110 76
151 108 76
156 113 86
156 111 86
154 110 84
156 112 84
156 113 81
156 112 79
161 115 99
154 112 88
156 111 86
153 110 76
158 112 93
157 114 90
150 106 79
157 113 90
156 112 81
158 112 74
154 110 81
158 115 90
154 110 81
155 112 84
155 111 81
154 109 86
156 112 86
156 110 93
155 112 81
156 112 90
160 114 97
155 110 90
150 105 79
154 110 81
156 112 93
154 109 88
155 112 86
155 111 81
151 108 81
153 110 74
155 111 88
156 112 90
159 113 93
152 109 81
152 109 74
153 110 74
160 115 93
153 110 81
159 115 93
150 109 68
154 109 81
159 116 99
156 110 93
159 114 97
151 110 74
153 109 88
154 112 84
154 108 88
157 113 95
152 108 74
155 111 81
160 115 90
155 112 86
155 112 84
161 116 97
157 113 86
158 113 88
150 108 71
151 108 79
152 109 74
156 113 95
158 113 90
149 106 76
157 113 79
153 110 74
151 108 81
154 111 71
157 111 88
156 111 93
159 115 93
158 114 93
160 115 101
152 108 84
159 115 97
149 105 71
156 111 86
154 110 88
152 109 68
152 110 76
161 115 99
154 111 74
152 110 65
153 108 84
153 109 81
152 109 65
158 114 93
154 110 76
159 113 93
156 111 93
154 110 81
150 107 81
159 114 93
151 106 71
155 112 76
154 109 81
149 108 71
148 104 71
150 107 79
152 109 76
154 110 81
157 113 81
150 107 71
156 111 84
153 116 76
170 188 19
171 191 0
171 193 0
170 187 0
170 191 0
173 195 0
172 193 0
171 191 0
171 190 0
170 191 0
172 193 0
173 193 0
169 189 0
174 196 0
174 196 0
171 191 0
169 189 0
174 197 0
172 192 0
171 191 0
169 192 0
174 193 0
171 193 0
170 191 0
169 185 0
169 188 0
172 191 0
173 192 0
173 192 0
174 197 0
173 196 0
174 194 0
173 195 0
173 194 0
172 197 0
171 194 0
171 192 0
171 194 0
173 196 0
170 191 0
173 195 0
172 194 0
173 195 0
174 195 0
172 195 0
170 191 0
171 193 0
173 197 0
174 195 0
171 193 0
176 197 0
173 196 0
171 193 0
175 198 0
171 194 0
175 196 0
170 193 0
172 194 0
174 197 0
174 197 0
174 196 0
171 194 0
171 194 0
174 197 0
176 198 0
175 198 0
176 199 0
174 196 0
173 193 0
173 197 0
174 197 0
172 193 0
172 197 0
175 198 0
171 194 0
174 194 0
174 196 0
174 197 0
173 194 0
175 196 0
172 193 0
174 197 0
173 195 0
174 198 0
173 195 0
176 196 0
174 196 0
174 191 0
171 195 0
171 194 0
175 197 0
176 196 0
171 192 0
173 195 0
174 195 0
174 195 0
173 194 0
175 196 0
173 195 0
171 192 0
171 193 0
172 192 0
172 191 0
171 194 0
174 195 0
171 193 0
172 191 0
172 194 0
170 192 0
172 193 0
174 196 0
173 195 0
171 188 0
171 192 0
170 190 0
172 194 0
171 194 0
170 192 0
173 194 0
171 194 0
172 192 0
173 195 0
172 188 0
170 189 0
169 188 0
169 185 0
170 190 0
169 186 0
172 189 0
170 190 0
172 192 0
171 188 0
172 191 0
170 189 0
167 183 0
166 168 48
152 112 71
153 107 86
155 111 84
158 114 88
155 111 84
152 108 79
150 105 74
153 108 76
153 108 88
156 113 84
154 110 74
158 113 88
151 109 74
152 111 71
157 112 86
149 107 68
156 112 88
157 114 88
153 110 74
156 111 81
160 115 93
155 110 90
153 110 74
158 114 88
154 111 81
154 112 76
157 114 90
149 108 76
151 107 81
157 112 97
153 111 81
153 110 79
153 109 79
154 110 81
150 109 68
156 111 86
158 113 99
154 110 84
155 110 86
152 110 79
153 109 86
155 111 86
157 114 90
145 102 65
156 112 95
156 111 86
151 109 74
156 112 88
159 114 88
154 109 81
157 112 88
158 114 79
152 109 74
156 111 88
157 114 90
149 106 74
156 112 81
160 115 99
157 111 84
155 111 84
153 109 81
156 113 93
158 112 93
158 115 88
158 113 86
160 115 93
153 111 81
157 113 93
157 112 97
155 112 88
154 110 93
150 106 65
156 112 90
156 112 88
153 112 79
155 110 86
156 113 84
155 112 79
154 111 81
156 112 84
153 109 79
153 110 84
156 112 86
155 110 88
157 114 79
157 112 97
153 109 79
153 109 86
150 107 68
154 112 71
154 111 81
154 109 76
159 115 88
156 113 84
153 108 86
157 112 88
158 113 90
152 110 71
153 110 74
152 109 74
153 109 81
151 106 74
152 108 76
156 112 86
153 110 76
150 107 76
155 111 86
156 111 88
152 109 79
150 106 71
151 106 74
152 109 74
152 110 81
155 111 86
151 105 76
150 107 79
147 104 68
157 113 88
159 115 95
169 180 34
170 189 0
173 192 0
172 193 0
172 190 0
172 196 0
170 187 0
170 191 0
174 196 0
169 188 0
171 191 0
172 192 0
171 193 0
172 194 0
173 190 0
174 195 0
174 193 0
172 193 0
171 191 0
173 194 0
167 187 0
172 194 0
170 189 0
171 190 0
170 192 0
171 192 0
171 192 0
170 190 0
170 188 0
168 186 0
172 189 0
173 196 0
170 190 0
171 193 0
171 192 0
174 194 0
173 196 0
169 191 0
171 194 0
173 194 0
173 192 0
167 188 0
167 186 0
173 195 0
172 195 0
174 195 0
172 196 0
171 195 0
174 197 0
174 195 0
172 195 0
175 195 0
172 192 0
174 198 0
171 191 0
173 196 0
171 193 0
171 192 0
172 194 0
174 197 0
171 192 0
173 197 0
173 197 0
170 191 0
175 196 0
174 196 0
174 196 0
172 193 0
173 195 0
174 198 0
170 193 0
171 194 0
171 194 0
172 194 0
171 191 0
171 191 0
174 195 0
173 193 0
175 197 0
173 196 0
172 192 0
173 195 0
174 196 0
174 196 0
173 195 0
171 193 0
176 199 0
175 195 0
173 196 0
173 195 0
173 197 0
174 195 0
173 196 0
174 196 0
174 194 0
176 197 0
174 198 0
173 191 0
170 190 0
173 196 0
173 194 0
173 195 0
172 193 0
172 190 0
173 196 0
172 193 0
172 192 0
173 195 0
172 195 0
174 195 0
172 192 0
173 195 0
172 193 0
171 192 0
173 197 0
171 193 0
172 194 0
170 190 0
170 187 0
170 187 0
173 195 0
173 195 0
168 189 0
171 187 0
172 194 0
170 187 0
173 195 0
167 183 0
171 188 0
169 190 0
170 190 0
169 189 0
169 184 0
168 184 0
166 184 0
175 196 0
165 174 0
154 137 48
157 113 88
156 111 86
154 109 79
150 106 76
153 110 81
152 108 74
155 111 81
157 113 86
152 109 76
156 111 81
149 107 68
160 112 99
155 111 86
155 109 86
156 112 88
154 110 71
154 109 84
154 111 81
151 107 74
159 114 93
155 111 76
154 110 79
155 111 93
151 108 74
157 112 90
156 112 93
157 113 93
159 114 90
155 111 81
155 112 86
156 111 88
157 113 95
158 113 95
157 113 90
153 109 86
150 107 79
156 112 84
155 111 90
157 112 93
154 111 84
154 109 84
153 108 79
155 112 81
151 108 74
159 114 90
158 113 88
156 113 88
154 112 84
155 111 88
154 109 81
157 112 90
158 114 88
155 112 81
159 114 95
158 114 90
159 114 93
154 112 79
153 109 86
157 112 88
153 111 81
158 114 86
154 110 81
162 117 103
157 114 86
150 109 71
156 112 86
155 110 88
156 113 88
161 116 99
153 107 81
153 111 81
157 112 84
149 107 79
155 112 86
154 111 84
157 112 86
156 111 95
156 113 81
154 109 90
155 112 86
159 115 88
157 113 90
150 108 71
159 113 90
154 112 71
155 110 88
155 113 76
155 111 86
159 113 95
152 110 71
154 109 76
152 108 81
153 110 76
155 111 76
153 110 71
156 112 86
153 110 74
154 110 79
151 110 71
152 110 71
157 114 86
155 112 71
153 110 74
152 110 71
153 109 84
159 114 97
153 111 76
157 113 84
153 110 79
156 112 86
152 108 81
156 111 79
151 110 76
155 109 84
155 112 81
153 110 71
150 107 68
163 149 68
168 182 0
167 184 0
172 191 0
167 182 0
170 188 0
169 187 0
166 184 0
169 189 0
173 194 0
167 178 0
171 193 0
169 187 0
170 189 0
165 182 0
170 191 0
169 188 0
174 194 0
171 188 0
167 189 0
172 193 0
175 193 0
170 190 0
171 190 0
172 192 0
171 192 0
173 194 0
171 193 0
172 191 0
174 198 0
173 196 0
170 189 0
173 195 0
172 192 0
173 196 0
173 196 0
174 193 0
172 194 0
176 197 0
171 191 0
171 194 0
172 194 0
174 193 0
174 197 0
174 195 0
174 196 0
172 194 0
174 197 0
173 197 0
175 198 0
174 197 0
172 194 0
170 194 0
173 194 0
176 195 0
178 199 0
173 195 0
174 198 0
173 197 0
174 198 0
173 194 0
175 197 0
173 197 0
172 192 0
176 199 0
172 197 0
174 196 0
174 198 0
173 196 0
174 198 0
171 192 0
175 197 0
173 194 0
173 196 0
171 191 0
171 194 0
172 192 0
174 197 0
174 195 0
173 197 0
173 193 0
173 197 0
174 197 0
175 196 0
174 196 0
175 197 0
172 194 0
169 189 0
173 195 0
174 197 0
172 191 0
171 195 0
175 195 0
173 197 0
175 197 0
173 195 0
171 192 0
173 194 0
174 196 0
173 196 0
175 197 0
171 196 0
175 198 0
173 193 0
172 194 0
175 198 0
169 189 0
174 198 0
166 185 0
173 194 0
172 193 0
171 192 0
171 191 0
170 186 0
168 187 0
172 193 0
171 190 0
173 191 0
173 196 0
171 190 0
173 193 0
168 186 0
173 189 0
169 190 0
170 193 0
174 194 0
172 187 0
172 193 0
173 195 0
170 190 0
173 193 0
168 187 0
168 181 0
168 183 0
168 189 0
168 183 0
169 189 0
169 184 0
168 186 0
155 136 59
147 103 71
149 106 71
153 109 86
157 112 90
159 114 95
154 109 81
155 111 86
151 105 88
151 109 76
154 110 79
152 109 76
155 112 84
148 107 56
153 109 84
157 111 81
157 112 86
148 106 74
158 111 95
154 109 84
155 111 88
153 110 79
156 112 88
153 111 74
152 108 68
155 110 81
155 111 84
160 115 99
155 109 84
153 110 76
157 114 79
155 110 74
150 108 68
153 110 71
154 110 86
159 115 90
158 114 86
153 108 81
160 115 88
152 109 79
155 113 86
152 109 74
151 108 88
156 111 84
154 110 81
153 109 84
155 112 86
153 111 84
152 109 76
155 112 79
152 110 86
154 111 79
154 111 76
152 109 71
154 111 81
155 112 79
153 109 79
159 113 93
158 114 88
153 109 81
155 112 84
161 115 99
153 108 88
156 111 79
153 108 84
154 111 79
153 110 84
155 112 84
154 110 84
157 113 84
159 115 95
154 110 81
156 114 86
155 110 86
156 112 79
158 113 88
150 108 76
154 111 81
148 106 65
154 110 84
149 107 68
152 110 74
154 111 81
150 107 86
153 109 79
153 110 84
156 113 88
150 108 68
155 112 84
149 107 76
151 107 71
157 112 79
156 112 90
154 111 81
158 114 86
154 111 79
159 112 90
157 113 93
155 112 81
150 106 71
159 114 95
154 111 71
155 112 74
155 111 81
156 112 93
155 110 86
154 111 76
154 110 74
154 110 74
152 109 76
153 108 81
155 112 86
150 107 74
155 112 88
149 106 68
147 104 62
156 127 76
168 182 19
168 185 0
166 177 0
168 187 0
171 191 0
169 188 0
172 193 0
168 184 0
173 194 0
168 188 0
173 195 0
171 190 0
171 192 0
171 194 0
170 192 0
175 192 0
172 192 0
170 190 0
171 187 0
175 196 0
171 195 0
173 191 0
172 193 0
173 196 0
173 194 0
174 197 0
176 197 0
169 192 0
171 194 0
173 194 0
173 195 0
169 188 0
174 194 0
173 194 0
169 189 0
174 195 0
173 192 0
172 192 0
172 194 0
171 192 0
172 194 0
175 196 0
173 196 0
172 193 0
174 195 0
174 196 0
173 195 0
173 193 0
175 196 0
173 196 0
173 190 0
171 189 0
174 198 0
175 196 0
173 195 0
172 192 0
172 192 0
171 192 0
174 198 0
175 197 0
173 196 0
175 197 0
175 197 0
172 193 0
174 195 0
172 194 0
174 195 0
172 194 0
172 195 0
173 195 0
172 194 0
174 198 0
175 197 0
172 193 0
172 196 0
173 196 0
174 194 0
172 196 0
173 197 0
174 197 0
173 192 0
172 193 0
173 194 0
173 196 0
173 197 0
171 191 0
174 196 0
174 198 0
169 191 0
171 192 0
175 197 0
173 194 0
173 195 0
173 195 0
171 193 0
174 195 0
171 194 0
173 193 0
170 190 0
171 191 0
170 192 0
171 188 0
174 196 0
172 195 0
172 193 0
169 189 0
169 187 0
170 193 0
171 194 0
173 195 0
173 191 0
171 188 0
172 195 0
170 193 0
175 197 0
172 192 0
174 194 0
172 192 0
173 192 0
173 192 0
170 187 0
172 192 0
168 186 0
171 193 0
167 182 0
175 193 0
173 191 0
171 188 0
172 193 0
172 192 0
171 189 0
173 194 0
171 185 0
166 182 0
169 189 0
169 187 0
168 185 0
168 188 0
168 184 0
162 167 19
159 126 84
148 106 68
153 108 88
158 111 95
148 103 71
150 110 71
158 114 84
157 113 86
149 105 65
151 109 65
148 107 65
152 108 79
153 109 84
150 109 74
154 112 79
155 108 86
148 107 65
150 107 74
151 108 74
152 109 74
152 110 79
156 112 86
152 109 84
155 112 74
157 111 88
155 111 86
154 111 86
153 108 84
155 111 88
153 108 74
158 115 95
154 110 76
156 111 90
154 108 88
150 106 81
149 108 65
158 114 88
154 111 84
153 111 81
156 113 86
155 112 74
151 106 84
158 112 84
153 109 81
153 110 74
153 108 81
154 110 84
151 108 68
155 111 79
161 116 103
155 112 84
156 112 84
154 109 84
156 112 88
156 112 84
153 109 79
151 108 74
152 110 74
159 113 95
150 108 74
159 114 95
158 114 93
154 112 76
160 115 93
152 109 84
158 113 93
151 107 79
158 114 97
152 109 90
158 113 86
160 114 97
150 108 71
151 107 84
153 108 81
151 107 76
156 112 88
151 109 79
147 106 68
152 110 71
154 111 79
159 115 95
157 113 88
155 111 93
155 111 88
155 111 74
155 109 93
155 113 79
152 109 79
155 113 79
154 110 79
154 110 88
154 110 81
147 106 59
157 112 84
156 113 84
156 113 84
157 113 84
152 109 79
155 111 84
151 107 71
156 111 90
157 114 86
152 108 79
149 106 65
144 103 62
154 110 81
151 108 74
149 106 68
147 105 65
148 104 52
154 110 79
154 110 76
149 105 68
153 108 76
150 124 48
166 179 19
170 186 0
169 188 0
169 185 0
166 181 0
174 193 0
169 185 0
167 183 0
168 185 0
171 191 0
167 182 0
171 187 0
169 189 0
169 186 0
168 186 0
170 191 0
170 190 0
172 191 0
170 186 0
170 189 0
172 189 0
170 187 0
169 187 0
174 194 0
171 194 0
172 194 0
168 187 0
171 189 0
169 188 0
171 190 0
174 195 0
172 192 0
174 193 0
174 195 0
173 196 0
171 190 0
171 193 0
170 191 0
176 196 0
172 192 0
173 195 0
172 193 0
172 193 0
168 189 0
170 190 0
174 195 0
172 193 0
173 193 0
174 198 0
171 191 0
172 193 0
172 193 0
173 197 0
175 196 0
174 198 0
173 195 0
173 195 0
173 192 0
173 197 0
175 198 0
170 190 0
173 193 0
173 195 0
174 195 0
173 195 0
173 196 0
172 194 0
173 197 0
175 196 0
176 197 0
172 194 0
175 198 0
173 197 0
173 196 0
169 185 0
174 197 0
172 193 0
173 192 0
171 194 0
173 196 0
174 197 0
173 195 0
172 195 0
174 195 0
174 194 0
171 193 0
172 193 0
170 192 0
171 195 0
171 190 0
173 196 0
174 195 0
175 197 0
173 192 0
171 193 0
175 198 0
171 192 0
174 197 0
173 194 0
173 193 0
170 190 0
171 193 0
173 193 0
173 194 0
174 192 0
173 195 0
171 194 0
173 192 0
172 193 0
170 190 0
172 194 0
170 193 0
172 196 0
170 188 0
172 194 0
169 189 0
171 193 0
170 186 0
171 188 0
174 194 0
171 191 0
170 191 0
167 183 0
169 184 0
170 191 0
169 189 0
171 194 0
169 189 0
173 195 0
171 185 0
162 173 0
171 188 0
162 171 0
169 183 0
169 184 0
169 185 0
169 191 0
164 176 0
170 192 0
168 181 0
167 182 0
164 169 34
148 110 56
157 112 86
152 109 76
154 111 81
153 110 81
146 104 68
153 109 79
157 112 86
155 109 81
148 105 62
160 115 97
158 113 93
151 110 65
149 105 74
157 113 90
152 107 81
151 106 74
155 112 88
155 109 84
154 110 81
149 106 71
152 108 81
153 107 79
153 110 81
154 110 81
154 110 79
154 109 86
153 107 86
157 112 86
157 113 84
158 113 95
151 108 76
150 109 79
152 109 71
154 110 86
155 111 81
153 110 74
157 113 84
153 111 81
150 108 68
153 110 84
159 113 90
157 112 79
160 116 93
153 111 76
148 106 68
154 110 84
154 110 79
155 110 81
155 112 76
158 113 90
153 110 76
157 113 86
154 111 74
152 109 68
153 110 74
161 116 95
157 112 90
158 112 95
154 111 81
152 109 74
155 110 86
154 110 84
162 115 106
156 111 86
152 110 76
155 111 86
151 108 79
152 110 71
155 111 84
154 111 86
161 116 97
153 110 81
155 112 88
153 109 79
155 109 93
158 114 90
154 109 86
154 110 86
154 112 76
153 109 76
153 110 71
150 109 74
151 108 71
152 107 76
148 107 68
156 111 84
154 111 84
154 110 86
156 113 81
155 113 81
153 109 76
154 112 79
155 112 81
151 109 76
152 109 79
150 106 74
157 111 84
150 106 65
151 109 68
148 104 71
151 107 71
155 111 76
156 113 79
152 109 68
154 109 81
148 106 68
152 106 76
149 105 74
148 106 68
152 107 79
158 112 90
150 110 71
164 169 39
168 181 0
169 184 0
169 183 0
171 189 0
170 188 0
169 183 0
168 181 0
168 186 0
173 191 0
168 185 0
168 187 0
172 192 0
169 186 0
170 187 0
169 187 0
169 188 0
169 184 0
173 192 0
173 191 0
167 187 0
164 180 0
175 196 0
170 190 0
169 191 0
172 194 0
171 192 0
177 198 0
171 189 0
175 195 0
172 192 0
171 190 0
169 190 0
172 192 0
172 192 0
173 195 0
173 193 0
171 194 0
170 190 0
171 195 0
170 186 0
173 195 0
173 194 0
174 198 0
173 194 0
167 188 0
171 195 0
173 195 0
174 197 0
173 196 0
175 195 0
172 192 0
171 193 0
173 195 0
174 198 0
173 196 0
172 193 0
172 193 0
174 195 0
173 196 0
173 196 0
172 194 0
172 194 0
172 193 0
174 196 0
173 196 0
173 194 0
176 196 0
173 196 0
174 197 0
173 194 0
173 197 0
175 198 0
172 196 0
171 193 0
172 194 0
173 195 0
174 194 0
171 189 0
171 191 0
171 194 0
174 196 0
171 192 0
172 196 0
174 197 0
174 196 0
173 195 0
170 187 0
171 192 0
172 195 0
171 190 0
173 197 0
173 195 0
174 195 0
172 192 0
173 197 0
174 195 0
174 195 0
172 195 0
171 188 0
173 195 0
172 196 0
171 192 0
171 190 0
171 196 0
168 184 0
174 194 0
174 193 0
173 195 0
172 192 0
172 192 0
170 189 0
172 193 0
172 193 0
170 188 0
173 192 0
170 189 0
172 190 0
170 188 0
172 189 0
171 190 0
171 190 0
167 182 0
170 190 0
171 191 0
174 195 0
172 193 0
168 185 0
171 191 0
167 181 0
173 191 0
170 187 0
172 192 0
168 185 0
169 187 0
169 186 0
169 184 0
169 185 0
165 177 0
170 189 0
162 175 0
167 182 0
163 173 0
164 160 52
151 114 59
157 112 88
152 109 76
152 108 76
156 112 84
152 109 76
149 107 65
150 108 74
156 112 84
154 109 88
152 108 76
154 111 90
155 112 81
157 110 88
157 114 90
154 109 84
148 107 62
151 107 74
152 108 81
154 109 79
151 108 76
148 107 59
153 108 79
153 110 79
158 113 93
151 109 68
156 112 81
157 112 90
152 108 68
151 108 76
151 108 74
150 107 74
152 110 84
154 111 86
149 107 79
156 109 88
157 113 90
158 114 90
160 114 90
154 111 84
152 109 76
153 108 76
154 110 86
160 114 97
151 109 74
160 115 93
149 107 71
154 110 74
152 110 81
156 111 88
151 109 79
156 112 81
156 111 90
159 114 90
152 107 79
155 110 86
158 112 90
155 109 76
155 112 81
153 109 84
158 113 88
153 109 79
154 110 84
158 111 93
156 112 84
156 111 86
154 111 93
152 109 68
152 110 74
155 112 88
149 106 65
154 111 84
156 111 88
153 109 76
152 110 74
156 111 86
158 112 86
154 108 76
155 111 81
155 111 86
154 109 79
156 111 86
154 110 84
154 113 79
151 107 74
153 110 76
156 112 88
152 109 76
152 109 74
151 106 65
152 109 74
157 113 90
156 111 86
154 109 81
157 112 84
153 110 68
147 105 71
146 105 62
152 110 76
149 106 68
153 109 71
151 108 71
154 111 74
149 104 68
152 108 76
151 108 79
155 111 84
150 105 81
157 111 90
152 110 74
153 108 76
158 153 56
166 180 0
164 177 0
168 185 0
170 188 0
165 176 0
168 184 0
165 178 0
168 187 0
169 188 0
164 175 0
170 188 0
165 178 0
167 185 0
169 188 0
170 189 0
167 185 0
170 188 0
170 190 0
167 186 0
172 191 0
171 189 0
169 188 0
168 186 0
172 193 0
172 191 0
169 189 0
167 186 0
171 191 0
169 188 0
171 187 0
171 191 0
168 187 0
170 192 0
168 188 0
172 192 0
170 188 0
172 193 0
171 191 0
173 192 0
171 193 0
175 198 0
169 192 0
172 193 0
174 194 0
168 185 0
171 191 0
174 195 0
173 196 0
171 195 0
174 198 0
174 194 0
174 195 0
176 198 0
174 198 0
172 193 0
170 193 0
170 190 0
175 198 0
171 194 0
174 195 0
170 189 0
173 195 0
174 196 0
171 195 0
170 192 0
172 196 0
175 196 0
174 194 0
173 196 0
174 196 0
173 195 0
172 196 0
173 195 0
172 196 0
173 194 0
173 196 0
174 197 0
173 194 0
174 195 0
172 193 0
175 197 0
171 193 0
173 193 0
174 195 0
171 193 0
170 191 0
170 190 0
173 193 0
173 192 0
173 194 0
174 194 0
171 192 0
169 191 0
171 193 0
173 194 0
168 185 0
174 196 0
171 193 0
171 194 0
169 191 0
171 190 0
173 192 0
173 193 0
174 194 0
174 195 0
170 190 0
170 187 0
174 195 0
173 193 0
174 194 0
170 188 0
170 191 0
173 195 0
173 196 0
171 194 0
172 189 0
170 187 0
164 177 0
171 190 0
171 190 0
171 193 0
170 185 0
167 185 0
168 184 0
171 189 0
169 187 0
168 181 0
172 193 0
166 181 0
168 181 0
171 190 0
170 188 0
171 185 0
170 186 0
167 187 0
168 184 0
170 184 0
171 185 0
165 177 0
170 189 0
169 182 0
167 180 0
165 177 0
164 178 0
156 148 44
157 112 86
145 103 59
152 108 76
155 111 79
149 105 65
155 110 84
153 110 88
151 107 76
153 110 76
154 110 76
155 112 86
155 112 79
153 109 74
158 112 90
156 112 90
156 112 81
156 112 84
151 107 71
150 107 71
153 111 79
153 107 86
157 112 88
155 111 76
157 112 86
155 111 86
147 105 59
155 112 76
154 111 74
154 108 86
157 112 86
158 112 90
153 110 76
155 111 86
153 110 84
156 112 86
155 112 79
158 111 93
153 110 68
154 109 79
154 110 84
152 109 84
151 109 74
162 116 103
155 113 79
152 107 74
156 112 81
156 112 90
156 112 74
154 110 81
153 109 74
157 111 88
156 113 84
153 109 71
152 108 68
152 108 79
155 110 86
152 107 76
154 109 79
149 106 68
154 108 88
154 112 81
155 111 86
151 107 76
154 109 86
148 106 62
159 115 88
161 115 99
153 107 81
154 110 81
152 108 76
154 110 88
155 112 90
153 110 74
159 115 90
150 107 74
153 109 79
152 107 76
157 115 86
147 103 62
154 110 79
154 112 81
152 109 71
156 112 88
156 113 81
155 111 81
151 107 76
152 107 68
152 109 74
154 108 84
152 109 88
153 111 74
154 111 79
158 113 86
155 110 88
155 110 86
147 106 65
152 109 84
154 110 81
149 106 76
152 108 71
154 107 81
146 103 62
152 108 76
144 102 56
152 105 74
146 104 62
152 105 86
149 105 65
147 103 62
160 154 44
169 183 0
168 183 0
167 179 0
166 179 0
167 181 0
166 177 0
168 186 0
165 182 0
168 185 0
170 191 0
168 185 0
168 185 0
167 179 0
172 190 0
169 184 0
166 183 0
172 192 0
170 187 0
172 192 0
166 179 0
169 187 0
165 183 0
170 190 0
174 196 0
168 188 0
172 192 0
174 195 0
172 193 0
170 189 0
169 188 0
173 193 0
170 188 0
169 189 0
172 193 0
175 197 0
170 193 0
174 195 0
173 195 0
172 192 0
171 192 0
171 193 0
169 188 0
170 190 0
173 194 0
171 192 0
172 194 0
173 196 0
174 194 0
172 192 0
170 191 0
174 194 0
174 192 0
172 194 0
175 197 0
174 196 0
172 194 0
172 195 0
170 191 0
174 194 0
174 196 0
172 195 0
174 196 0
173 196 0
174 195 0
173 195 0
173 197 0
173 195 0
171 192 0
171 192 0
175 197 0
176 198 0
173 194 0
173 195 0
172 193 0
173 194 0
172 194 0
177 197 0
172 193 0
176 196 0
172 195 0
171 193 0
173 196 0
173 192 0
171 192 0
171 190 0
174 196 0
175 196 0
171 191 0
172 192 0
173 196 0
172 192 0
170 189 0
173 196 0
173 194 0
173 191 0
173 195 0
170 188 0
172 192 0
174 196 0
173 192 0
174 194 0
170 191 0
170 191 0
170 188 0
172 190 0
171 190 0
166 185 0
171 190 0
169 188 0
174 193 0
174 195 0
174 196 0
167 189 0
171 185 0
168 186 0
168 184 0
168 183 0
169 188 0
172 192 0
172 190 0
170 191 0
169 184 0
168 186 0
166 182 0
168 181 0
168 181 0
169 188 0
169 183 0
168 183 0
168 183 0
169 184 0
164 178 0
167 186 0
171 189 0
171 188 0
172 188 0
163 174 0
166 180 0
166 178 0
169 183 0
170 187 0
171 189 0
163 173 0
168 183 0
163 176 0
170 185 0
157 149 28
152 109 76
149 106 65
155 110 79
151 106 79
142 99 71
146 103 65
150 104 76
154 110 71
153 108 79
151 107 68
155 112 84
152 108 71
152 110 71
153 110 76
155 111 81
156 109 86
156 112 81
153 109 84
157 112 86
154 110 81
152 108 74
150 110 71
149 107 65
152 109 71
154 110 88
156 111 90
151 108 76
152 108 74
151 108 71
157 113 84
154 109 81
154 111 79
151 109 81
152 109 81
152 110 76
160 114 90
152 109 79
149 105 74
149 106 65
158 113 90
153 110 84
154 110 81
144 101 62
155 110 81
151 107 68
155 111 79
158 112 97
152 109 71
154 110 76
159 114 95
152 106 71
153 110 68
154 110 88
155 111 79
155 113 76
154 111 79
150 107 71
152 109 79
152 109 76
151 106 74
152 109 74
152 108 68
154 110 81
157 113 88
158 112 99
152 108 76
151 109 76
152 110 79
150 106 74
151 108 74
154 111 81
151 107 74
152 109 68
155 111 81
154 110 88
152 110 76
149 106 76
159 113 90
153 111 74
153 111 74
150 107 68
153 110 86
155 110 84
156 111 84
157 112 79
152 108 86
153 110 76
152 108 65
152 106 84
152 107 76
152 109 71
153 108 81
154 110 90
148 105 68
153 110 79
143 98 68
149 105 71
151 108 76
148 105 65
150 107 76
153 110 79
155 110 81
149 105 68
148 106 65
152 107 86
146 104 59
149 103 71
157 144 59
167 175 0
167 184 0
166 180 0
166 175 0
166 177 0
165 176 0
169 187 0
171 189 0
169 183 0
165 179 0
165 177 0
168 187 0
170 186 0
168 186 0
168 182 0
172 189 0
169 184 0
170 187 0
173 191 0
171 190 0
168 182 0
169 188 0
171 189 0
174 193 0
170 189 0
173 193 0
172 191 0
169 188 0
171 190 0
167 186 0
171 187 0
176 198 0
171 188 0
170 187 0
171 189 0
167 185 0
172 193 0
172 194 0
172 194 0
174 195 0
172 191 0
172 194 0
171 192 0
171 189 0
174 194 0
170 191 0
173 195 0
173 191 0
171 190 0
172 194 0
171 192 0
170 189 0
170 185 0
171 192 0
176 196 0
169 188 0
173 196 0
170 190 0
170 192 0
173 194 0
171 189 0
173 191 0
172 192 0
172 192 0
173 194 0
172 193 0
173 194 0
173 196 0
169 190 0
174 197 0
173 196 0
173 196 0
172 193 0
174 195 0
173 196 0
172 192 0
173 195 0
174 195 0
170 188 0
174 194 0
171 193 0
171 193 0
170 191 0
173 196 0
175 198 0
174 195 0
174 198 0
170 188 0
172 193 0
174 196 0
173 195 0
168 188 0
175 196 0
171 191 0
171 190 0
171 193 0
171 194 0
170 190 0
169 188 0
172 193 0
171 193 0
170 189 0
172 191 0
172 196 0
174 192 0
172 195 0
171 191 0
171 189 0
171 189 0
174 195 0
169 188 0
173 196 0
169 191 0
172 194 0
170 192 0
171 189 0
172 188 0
172 194 0
172 191 0
167 185 0
168 188 0
167 186 0
171 189 0
172 193 0
169 188 0
171 187 0
171 190 0
168 183 0
169 184 0
171 191 0
168 183 0
169 184 0
172 192 0
168 187 0
164 178 0
164 176 0
168 183 0
170 189 0
167 183 0
167 182 0
170 186 0
167 185 0
169 183 0
170 187 0
165 177 0
164 175 0
163 174 0
167 181 0
152 136 34
154 108 90
156 112 84
151 107 71
148 104 68
156 112 88
154 109 81
149 107 74
153 108 81
149 106 76
157 113 88
152 109 74
150 107 65
151 108 79
151 108 79
152 109 79
155 109 84
154 109 86
154 110 84
154 109 84
152 111 76
151 107 74
151 107 76
153 111 76
149 104 74
151 108 76
155 111 71
152 109 74
157 112 88
153 111 74
146 105 62
154 108 90
152 111 74
148 106 56
153 110 88
152 110 68
148 106 68
150 105 74
155 112 84
154 110 71
153 110 86
157 112 95
152 109 79
155 110 86
155 109 86
157 112 90
150 105 76
151 109 68
155 112 81
155 110 76
155 110 81
156 111 81
149 108 65
153 110 76
158 113 93
150 108 71
151 108 79
159 113 95
155 111 84
152 110 79
155 111 81
155 110 86
149 107 71
156 112 81
153 109 71
154 109 86
150 106 65
156 112 84
157 113 84
155 111 86
147 102 65
160 114 97
149 106 68
148 105 62
152 109 79
150 107 71
151 109 65
153 109 84
157 111 86
156 112 76
153 110 76
155 110 84
159 112 90
145 103 74
150 109 71
153 110 68
155 110 86
150 106 81
152 108 71
157 112 88
157 112 90
149 105 71
157 113 90
151 106 84
149 106 79
154 108 79
153 107 86
147 106 68
152 108 81
154 110 86
153 110 68
155 108 84
143 100 68
156 111 79
151 109 68
143 100 65
153 134 48
165 179 0
168 181 0
165 181 0
163 176 0
167 180 0
167 182 0
168 180 0
166 180 0
167 181 0
168 186 0
165 181 0
169 182 0
166 182 0
166 178 0
166 179 0
167 176 0
163 177 0
170 188 0
168 182 0
166 180 0
170 187 0
170 190 0
165 181 0
170 188 0
167 182 0
169 188 0
171 189 0
170 191 0
167 183 0
172 191 0
169 189 0
172 193 0
171 189 0
167 183 0
168 186 0
169 185 0
166 184 0
171 184 0
171 193 0
170 189 0
171 193 0
170 190 0
173 195 0
170 190 0
173 192 0
172 192 0
170 190 0
173 193 0
174 194 0
170 190 0
173 193 0
171 192 0
171 192 0
173 196 0
172 193 0
171 189 0
169 187 0
171 189 0
172 193 0
172 193 0
172 192 0
172 196 0
171 191 0
173 193 0
171 189 0
174 196 0
175 198 0
173 193 0
171 189 0
171 193 0
172 192 0
172 194 0
172 193 0
173 196 0
175 198 0
170 189 0
173 195 0
174 198 0
170 191 0
171 192 0
171 192 0
174 198 0
170 192 0
174 195 0
174 192 0
172 193 0
173 194 0
173 195 0
174 197 0
170 191 0
171 193 0
171 190 0
170 189 0
171 191 0
170 190 0
168 185 0
173 195 0
176 199 0
175 197 0
172 193 0
170 186 0
169 187 0
170 190 0
171 190 0
175 197 0
171 188 0
169 185 0
168 186 0
170 190 0
170 190 0
169 187 0
172 193 0
170 191 0
170 187 0
172 188 0
164 179 0
172 189 0
169 188 0
173 189 0
169 188 0
169 185 0
170 188 0
165 178 0
170 189 0
168 184 0
173 191 0
170 187 0
168 183 0
170 189 0
174 193 0
165 176 0
165 178 0
171 191 0
170 187 0
169 184 0
167 183 0
172 188 0
162 176 0
165 174 0
167 182 0
164 178 0
163 179 0
169 185 0
169 181 0
168 185 0
166 179 0
161 169 0
165 177 0
165 179 0
165 177 0
157 136 62
153 109 74
151 109 71
151 108 68
149 107 74
148 106 71
151 108 71
149 106 62
144 101 62
145 105 48
149 105 74
154 111 76
152 107 74
155 110 79
154 110 86
149 107 68
151 108 68
150 108 68
149 105 68
155 110 84
154 111 81
151 109 68
149 106 68
152 107 79
152 107 79
152 109 74
152 106 76
146 103 59
151 107 71
149 104 76
145 102 62
155 110 81
157 111 88
151 108 79
152 108 74
155 111 79
155 110 76
153 107 79
152 108 79
152 109 74
156 110 90
160 115 93
152 109 76
157 113 88
151 109 74
157 114 86
152 110 74
147 105 59
149 107 74
155 110 88
154 109 74
153 108 81
150 106 68
154 111 81
157 111 90
151 109 68
151 107 68
154 109 84
155 108 86
157 112 86
156 112 86
154 110 88
153 111 79
153 109 88
152 110 76
155 111 81
158 114 81
152 109 74
152 109 81
157 113 93
154 112 71
155 111 90
155 111 86
151 106 79
153 109 71
157 113 88
152 108 79
159 114 95
150 107 74
153 110 76
150 108 71
152 108 74
155 111 74
155 113 79
152 108 81
153 109 76
155 111 86
151 108 76
154 110 81
155 113 84
149 107 65
150 105 71
150 109 65
154 112 86
154 111 79
154 109 86
147 105 59
153 109 81
156 110 84
158 112 93
151 105 76
151 107 76
151 106 71
150 107 65
154 130 59
166 179 0
167 176 0
168 182 0
165 178 0
164 180 0
167 179 0
168 182 0
159 169 0
168 189 0
167 184 0
166 176 0
165 176 0
164 173 0
163 173 0
167 183 0
167 178 0
168 184 0
164 179 0
165 178 0
167 182 0
164 176 0
172 191 0
170 187 0
171 189 0
166 182 0
167 184 0
168 184 0
171 187 0
169 187 0
167 186 0
173 195 0
171 193 0
170 187 0
172 194 0
168 185 0
174 195 0
172 193 0
167 182 0
169 189 0
173 193 0
171 188 0
171 191 0
175 195 0
170 191 0
170 191 0
169 189 0
170 192 0
170 189 0
171 189 0
170 190 0
171 194 0
171 189 0
173 191 0
171 193 0
173 191 0
170 192 0
170 190 0
174 191 0
172 192 0
172 194 0
176 198 0
172 193 0
172 195 0
172 193 0
174 193 0
173 196 0
173 196 0
168 191 0
172 195 0
171 191 0
176 198 0
172 193 0
173 194 0
173 196 0
173 195 0
172 192 0
172 194 0
172 195 0
172 194 0
173 194 0
172 193 0
169 190 0
171 192 0
174 196 0
173 192 0
171 195 0
172 194 0
171 190 0
171 192 0
172 192 0
172 194 0
169 185 0
171 189 0
175 197 0
173 192 0
174 196 0
169 190 0
170 187 0
172 190 0
169 189 0
174 195 0
174 196 0
170 186 0
170 189 0
170 190 0
172 194 0
171 190 0
173 192 0
170 190 0
170 187 0
171 188 0
169 188 0
171 192 0
167 186 0
167 185 0
170 190 0
171 193 0
168 186 0
171 189 0
171 190 0
171 190 0
170 188 0
166 183 0
169 182 0
166 181 0
169 185 0
170 184 0
165 180 0
165 182 0
167 187 0
167 184 0
165 181 0
170 185 0
172 190 0
165 181 0
168 182 0
166 177 0
166 181 0
165 178 0
167 178 0
166 178 0
171 187 0
162 173 0
168 181 0
162 174 0
165 175 0
162 170 0
168 178 0
162 168 0
170 186 0
164 175 0
157 160 0
155 137 52
152 106 79
148 104 68
148 106 68
152 108 68
146 102 56
151 105 76
153 107 84
154 108 86
146 101 59
151 108 71
155 111 84
151 107 76
151 107 71
157 110 88
150 107 65
146 103 65
155 109 90
151 107 74
150 105 81
149 108 74
152 109 76
153 108 86
149 105 81
150 106 79
153 109 76
149 106 62
151 108 76
152 110 74
152 107 71
153 110 74
152 109 74
151 107 79
148 107 74
152 109 76
155 111 79
152 106 84
153 109 79
148 106 65
154 111 79
150 106 71
151 106 76
153 108 74
151 107 76
154 112 76
153 109 79
153 110 81
150 108 79
149 105 74
158 112 93
154 110 86
155 110 86
153 110 74
149 106 79
151 107 71
149 107 65
155 110 81
152 109 74
149 105 81
155 111 86
153 110 76
156 112 81
153 110 81
149 107 74
155 111 84
154 111 79
148 104 74
150 107 71
155 112 79
158 113 81
150 107 79
152 109 79
146 104 65
152 108 76
146 103 68
157 113 86
150 108 68
151 109 76
151 108 81
153 111 81
155 109 84
154 112 79
149 106 65
153 110 76
150 107 68
148 105 76
150 106 71
151 107 71
150 107 62
150 107 68
152 109 74
151 107 71
149 107 62
147 105 59
149 104 74
151 109 79
151 108 68
146 102 62
153 111 81
149 106 74
153 108 81
150 107 65
159 142 56
162 173 0
160 164 0
162 173 0
170 187 0
159 172 0
167 178 0
155 158 0
163 179 0
167 177 0
162 172 0
163 173 0
167 183 0
168 182 0
164 176 0
164 179 0
166 179 0
167 182 0
164 181 0
170 186 0
163 175 0
165 175 0
168 184 0
166 179 0
164 174 0
168 185 0
164 180 0
171 188 0
173 193 0
168 184 0
167 185 0
167 184 0
169 182 0
173 195 0
168 189 0
170 188 0
171 191 0
172 193 0
169 188 0
174 193 0
171 190 0
168 183 0
168 186 0
170 186 0
170 190 0
175 196 0
171 190 0
170 187 0
171 191 0
172 193 0
171 194 0
174 195 0
174 195 0
170 190 0
169 187 0
172 189 0
173 192 0
169 190 0
170 188 0
170 188 0
173 193 0
171 195 0
174 198 0
172 191 0
169 188 0
171 194 0
170 193 0
173 192 0
172 193 0
172 195 0
173 192 0
172 192 0
172 192 0
174 196 0
169 189 0
173 196 0
175 197 0
172 192 0
172 195 0
172 194 0
172 193 0
170 187 0
170 187 0
169 188 0
171 193 0
173 195 0
172 195 0
172 191 0
173 195 0
172 192 0
175 198 0
173 194 0
174 195 0
172 194 0
173 193 0
173 197 0
173 196 0
173 193 0
171 194 0
168 187 0
169 188 0
172 194 0
168 186 0
169 186 0
169 183 0
170 191 0
167 186 0
171 189 0
173 192 0
168 186 0
171 188 0
168 187 0
172 188 0
172 193 0
169 186 0
169 186 0
169 188 0
171 193 0
169 190 0
170 186 0
171 190 0
168 189 0
169 182 0
170 185 0
172 190 0
170 186 0
170 189 0
171 190 0
164 176 0
167 180 0
166 180 0
166 181 0
166 179 0
166 181 0
161 174 0
169 186 0
163 175 0
166 182 0
167 184 0
164 173 0
164 175 0
163 170 0
166 180 0
167 184 0
165 170 0
162 173 0
168 178 0
167 178 0
161 166 0
164 172 0
156 163 0
161 168 0
160 166 0
167 177 0
161 173 0
155 135 56
154 107 84
152 110 79
154 109 84
147 104 68
145 104 52
154 110 76
153 108 76
149 106 71
150 107 74
151 109 68
153 111 71
149 104 68
148 104 59
146 106 56
145 104 59
156 111 81
151 106 79
146 105 56
143 102 52
153 109 76
153 108 76
150 107 71
151 108 79
151 108 74
149 104 68
152 109 84
152 110 62
148 105 65
154 109 79
156 111 86
152 109 74
150 106 68
151 106 74
151 110 71
153 110 86
148 106 74
149 108 52
153 108 79
158 113 93
155 112 88
155 112 86
153 109 74
157 112 84
152 109 81
146 105 62
148 105 65
155 112 81
152 107 76
150 108 68
152 106 71
153 110 71
153 109 84
151 108 76
148 106 68
150 109 74
154 112 71
155 109 84
149 106 68
154 111 74
154 109 79
159 114 88
152 108 81
151 107 81
155 111 81
147 105 59
144 103 62
152 107 74
151 107 68
155 110 86
148 105 68
150 108 71
161 115 93
156 112 76
150 107 68
156 112 81
150 106 71
153 109 76
151 108 71
154 109 90
151 108 68
152 107 71
150 106 59
149 107 68
158 113 88
156 112 79
151 109 62
149 105 68
150 107 68
150 107 68
152 109 74
146 101 59
153 110 74
150 107 71
155 110 86
148 104 68
147 103 71
143 103 52
147 104 62
147 103 59
157 140 59
161 167 19
167 177 0
161 170 0
160 173 0
161 168 0
166 179 0
165 180 0
165 178 0
162 173 0
167 182 0
164 178 0
166 180 0
168 185 0
169 178 0
163 172 0
165 176 0
169 180 0
167 183 0
167 183 0
167 178 0
166 181 0
165 176 0
170 186 0
166 180 0
171 187 0
169 184 0
166 185 0
165 180 0
170 189 0
163 180 0
170 184 0
168 181 0
169 187 0
166 180 0
168 183 0
172 192 0
170 190 0
167 183 0
170 189 0
174 194 0
169 189 0
171 191 0
168 187 0
172 192 0
170 183 0
170 192 0
169 188 0
173 194 0
172 193 0
172 193 0
171 188 0
173 192 0
168 184 0
170 191 0
170 189 0
170 192 0
172 193 0
174 191 0
173 192 0
174 194 0
171 192 0
170 188 0
172 196 0
174 195 0
171 191 0
174 195 0
170 192 0
170 191 0
174 198 0
173 196 0
173 194 0
173 194 0
172 192 0
174 195 0
172 191 0
172 196 0
170 191 0
171 194 0
170 195 0
171 190 0
171 193 0
170 190 0
173 196 0
174 197 0
171 191 0
172 193 0
173 194 0
172 193 0
172 192 0
173 192 0
173 196 0
170 191 0
169 188 0
170 191 0
169 189 0
172 188 0
174 196 0
169 188 0
172 196 0
170 190 0
170 190 0
170 192 0
171 188 0
171 189 0
170 191 0
169 187 0
172 193 0
170 190 0
168 187 0
169 187 0
171 191 0
171 190 0
167 183 0
173 193 0
171 192 0
169 189 0
169 185 0
170 187 0
168 185 0
172 193 0
171 190 0
168 189 0
169 184 0
170 187 0
165 179 0
166 180 0
169 186 0
168 185 0
166 182 0
166 176 0
170 191 0
169 187 0
164 176 0
172 189 0
162 173 0
159 163 0
160 175 0
162 173 0
170 185 0
164 175 0
168 180 0
164 176 0
166 179 0
161 171 0
165 176 0
165 176 0
157 160 0
162 169 0
162 171 0
160 164 0
168 181 0
161 167 0
157 161 0
164 176 0
163 174 0
160 166 0
151 136 34
145 103 56
155 110 81
145 101 68
152 108 71
152 107 79
148 105 62
147 105 62
149 106 74
151 109 74
149 103 79
155 111 88
146 104 59
150 107 71
152 107 71
145 104 68
152 107 76
148 104 79
156 111 88
153 109 71
155 111 93
151 106 81
151 107 76
153 108 76
151 107 71
151 107 76
150 108 68
157 112 84
149 105 68
155 112 74
149 105 65
155 111 81
151 107 71
148 106 71
156 111 79
150 108 71
155 112 76
150 104 76
149 105 68
152 107 71
153 109 81
155 111 81
153 110 68
151 107 68
149 107 68
151 107 74
153 109 74
154 110 76
153 110 76
151 109 79
148 105 65
146 102 62
155 110 86
155 111 81
152 105 76
150 106 74
156 111 93
154 112 81
150 107 68
152 107 76
154 112 81
151 109 68
152 107 71
151 106 84
149 103 71
148 107 65
157 111 90
146 104 68
155 112 79
153 109 74
148 106 74
154 109 79
151 106 76
153 108 74
152 108 76
152 108 74
150 106 59
153 111 79
153 109 74
151 108 62
156 110 90
151 108 76
156 112 84
152 108 76
144 102 52
152 109 74
150 106 68
153 110 68
151 109 76
148 104 71
147 106 62
148 106 71
148 104 68
150 105 65
147 103 79
146 102 71
144 101 68
145 101 68
153 142 19
161 161 0
158 163 0
163 170 0
156 157 0
160 165 0
158 163 0
170 186 0
167 180 0
165 176 0
167 177 0
169 182 0
163 172 0
158 160 0
162 175 0
166 182 0
163 176 0
167 181 0
165 178 0
163 172 0
167 184 0
168 183 0
162 177 0
170 187 0
168 180 0
173 191 0
173 190 0
165 178 0
166 180 0
169 187 0
165 181 0
167 181 0
169 187 0
172 190 0
170 180 0
165 180 0
168 186 0
168 188 0
171 187 0
166 179 0
169 188 0
173 196 0
166 181 0
171 191 0
173 192 0
168 185 0
170 191 0
173 190 0
168 188 0
173 188 0
173 194 0
171 189 0
167 185 0
172 196 0
173 194 0
167 184 0
170 191 0
173 195 0
172 191 0
171 194 0
171 191 0
166 180 0
176 198 0
173 195 0
172 193 0
171 190 0
172 193 0
171 190 0
171 192 0
173 196 0
173 194 0
173 195 0
169 189 0
174 197 0
171 190 0
172 189 0
173 196 0
171 192 0
174 197 0
170 189 0
171 194 0
173 194 0
172 195 0
176 195 0
174 197 0
173 194 0
172 193 0
170 189 0
173 191 0
176 197 0
171 191 0
173 195 0
170 188 0
172 192 0
173 194 0
172 187 0
169 187 0
174 197 0
174 193 0
174 193 0
172 193 0
173 191 0
171 190 0
166 188 0
168 186 0
172 193 0
172 191 0
171 188 0
172 191 0
169 187 0
166 186 0
171 186 0
167 182 0
170 187 0
168 188 0
169 185 0
167 182 0
171 188 0
171 191 0
173 194 0
172 189 0
169 185 0
168 187 0
171 185 0
170 187 0
168 182 0
171 191 0
167 182 0
166 179 0
168 186 0
169 187 0
169 184 0
168 185 0
170 188 0
164 178 0
167 182 0
168 184 0
168 181 0
164 175 0
164 179 0
166 179 0
166 180 0
162 174 0
169 185 0
165 181 0
167 179 0
166 175 0
160 164 0
164 175 0
166 179 0
165 180 0
165 177 0
160 169 0
157 161 0
160 165 0
161 169 0
160 169 0
164 173 0
162 165 0
151 141 34
144 102 56
141 98 52
147 104 59
153 105 79
151 106 79
151 107 65
152 107 68
151 108 62
147 103 62
153 107 90
147 105 71
152 108 74
148 105 74
152 109 59
151 108 74
155 111 84
159 114 93
149 105 76
156 110 81
153 110 81
150 105 76
155 111 81
149 109 56
151 106 71
147 105 48
153 108 84
159 114 95
152 110 71
151 106 79
150 108 68
147 105 59
153 109 79
153 111 81
152 109 74
154 109 88
154 111 79
156 111 86
151 108 65
159 113 90
148 106 74
154 109 90
155 109 81
151 107 71
149 108 65
146 102 68
151 109 68
150 108 79
149 108 65
152 108 79
153 108 86
150 105 71
148 107 68
150 108 68
149 105 71
147 103 74
152 109 90
154 111 74
151 106 74
151 107 68
153 109 79
152 108 71
154 109 84
149 106 74
152 106 79
154 108 76
151 108 76
149 104 81
159 113 97
156 112 81
148 105 74
148 106 68
155 111 81
158 112 93
152 106 79
153 108 79
151 108 68
155 112 76
149 106 74
156 111 88
151 108 65
150 107 65
148 106 56
150 106 71
150 106 79
149 104 74
148 107 65
147 104 65
147 101 71
148 106 59
152 108 76
148 104 71
148 104 68
148 104 81
147 104 62
148 108 59
163 150 52
162 170 0
165 173 0
159 164 0
165 174 0
160 165 0
163 172 0
163 173 0
155 165 0
159 163 0
168 182 0
163 170 0
163 172 0
168 183 0
165 178 0
169 186 0
167 184 0
168 180 0
167 182 0
167 184 0
168 180 0
166 179 0
166 180 0
162 173 0
168 186 0
169 183 0
172 192 0
167 181 0
166 179 0
167 181 0
168 183 0
169 187 0
171 190 0
166 181 0
163 174 0
168 185 0
169 185 0
168 186 0
171 191 0
170 190 0
173 190 0
168 186 0
170 186 0
167 181 0
166 184 0
166 179 0
174 191 0
172 190 0
166 185 0
169 188 0
168 186 0
173 192 0
171 189 0
171 190 0
167 187 0
169 191 0
169 192 0
167 187 0
168 185 0
170 189 0
173 196 0
171 190 0
168 185 0
175 196 0
171 191 0
171 189 0
172 187 0
170 189 0
172 197 0
173 195 0
171 189 0
173 195 0
170 195 0
172 193 0
171 190 0
172 192 0
171 191 0
172 193 0
171 189 0
170 192 0
172 190 0
172 194 0
174 194 0
172 192 0
169 187 0
173 194 0
171 191 0
175 197 0
172 193 0
170 193 0
170 190 0
169 188 0
174 194 0
170 189 0
171 194 0
169 188 0
169 184 0
173 195 0
170 189 0
169 190 0
172 192 0
172 192 0
170 186 0
171 190 0
172 195 0
169 190 0
169 186 0
171 192 0
169 187 0
173 195 0
167 182 0
170 187 0
168 187 0
169 186 0
168 186 0
170 186 0
168 187 0
169 188 0
171 193 0
171 192 0
168 186 0
168 185 0
169 187 0
174 194 0
169 187 0
165 182 0
165 181 0
169 188 0
171 191 0
162 174 0
167 181 0
162 173 0
171 185 0
163 179 0
171 189 0
164 176 0
166 176 0
168 182 0
164 175 0
168 181 0
160 169 0
170 185 0
158 167 0
166 183 0
164 175 0
161 175 0
165 174 0
167 181 0
161 167 0
162 168 0
160 166 0
166 178 0
164 172 0
162 172 0
162 170 0
165 171 0
154 155 0
154 158 0
162 171 0
159 162 0
155 158 0
155 153 34
148 109 62
152 108 71
143 100 48
151 107 84
153 109 76
145 103 52
149 105 76
146 103 59
152 107 76
150 107 68
149 106 65
146 102 65
141 98 56
151 107 84
148 106 65
151 108 68
148 105 68
150 108 65
149 105 68
158 113 90
153 110 79
153 108 84
152 108 74
155 108 86
155 111 79
149 106 62
151 108 68
154 108 88
156 110 84
151 108 74
148 105 74
142 98 48
155 109 84
154 109 84
154 109 79
150 106 65
155 111 84
151 108 76
149 103 71
146 103 76
153 110 68
154 108 79
150 107 74
149 107 59
151 110 65
154 109 88
158 112 86
145 103 48
146 103 48
157 114 81
154 110 68
154 110 71
151 104 76
149 104 71
146 103 62
150 108 62
152 106 79
151 107 74
154 111 76
151 108 74
153 109 71
150 105 68
152 108 71
157 110 88
152 109 74
147 101 76
150 105 81
155 111 79
151 107 76
148 105 65
150 104 71
155 110 86
151 106 84
150 108 59
152 109 76
151 108 76
151 107 76
154 110 74
151 107 65
150 107 76
143 101 52
144 101 59
147 104 68
149 106 65
156 111 79
154 108 81
148 105 68
146 103 62
158 112 86
148 105 68
151 107 79
146 103 68
145 106 48
153 154 19
156 158 0
150 143 0
155 162 0
163 173 0
155 158 0
163 171 0
160 170 0
161 168 0
165 175 0
167 181 0
155 159 0
160 168 0
165 180 0
164 172 0
162 174 0
160 169 0
162 175 0
163 171 0
165 176 0
166 175 0
168 179 0
165 175 0
167 182 0
167 180 0
166 181 0
164 171 0
165 176 0
160 169 0
168 179 0
166 185 0
167 182 0
167 181 0
168 185 0
168 184 0
169 187 0
167 181 0
169 188 0
167 180 0
170 185 0
164 177 0
168 182 0
173 191 0
165 178 0
171 193 0
173 190 0
168 187 0
169 186 0
171 186 0
169 185 0
170 189 0
170 183 0
170 190 0
170 188 0
170 190 0
172 191 0
172 192 0
171 190 0
169 189 0
174 197 0
170 189 0
174 192 0
170 191 0
169 189 0
171 189 0
170 188 0
170 192 0
173 192 0
172 193 0
172 193 0
171 190 0
171 190 0
171 191 0
174 196 0
174 196 0
172 194 0
169 188 0
172 193 0
171 190 0
172 192 0
170 192 0
169 193 0
175 197 0
171 191 0
173 192 0
173 196 0
172 192 0
171 194 0
172 193 0
173 194 0
171 189 0
170 191 0
171 194 0
171 190 0
170 188 0
172 191 0
171 191 0
170 189 0
168 185 0
170 190 0
170 191 0
171 190 0
171 187 0
169 189 0
172 191 0
168 184 0
170 188 0
170 190 0
169 187 0
170 189 0
168 186 0
170 189 0
170 190 0
170 187 0
172 194 0
168 184 0
170 189 0
169 189 0
170 191 0
168 183 0
167 188 0
172 187 0
165 182 0
166 177 0
166 179 0
171 187 0
165 177 0
166 176 0
167 184 0
166 183 0
173 191 0
167 183 0
166 182 0
166 180 0
167 188 0
169 186 0
163 170 0
171 185 0
165 181 0
166 175 0
164 174 0
162 172 0
161 170 0
161 170 0
162 170 0
160 163 0
167 181 0
162 172 0
162 172 0
164 175 0
164 173 0
160 168 0
161 170 0
160 168 0
154 149 0
159 165 0
161 166 0
156 161 0
156 160 0
163 166 0
157 157 0
151 151 0
149 146 0
154 152 28
153 131 48
145 99 68
148 103 62
144 102 59
145 103 59
147 103 59
148 105 71
145 101 68
149 103 76
149 106 74
150 107 74
148 103 68
146 101 68
152 107 76
154 109 74
147 105 68
151 107 68
149 106 71
155 109 84
152 109 84
148 104 71
147 101 79
148 103 62
151 108 71
151 108 65
150 109 62
150 106 65
152 110 71
158 111 88
152 109 76
153 108 74
152 107 81
152 107 81
151 108 74
151 109 74
145 102 59
151 108 76
151 107 76
152 110 71
151 105 79
159 113 93
154 109 68
149 106 65
146 102 68
150 108 62
151 106 86
151 108 68
152 109 71
150 107 71
152 108 84
154 111 76
149 107 68
150 107 74
155 110 86
148 106 56
145 101 62
150 106 71
149 106 79
152 108 81
151 107 74
150 108 62
151 107 71
150 108 74
145 100 65
146 103 65
156 112 86
152 110 59
149 105 59
148 105 59
148 104 71
155 111 76
154 110 86
150 106 81
147 103 68
144 102 52
145 103 48
146 102 65
149 106 71
148 105 68
150 107 74
152 107 76
153 109 76
152 109 76
145 104 62
149 104 74
152 106 71
145 101 56
143 100 52
148 104 71
146 100 79
152 122 44
153 152 19
163 170 0
152 154 0
156 162 0
159 165 0
155 159 0
157 158 0
159 163 0
165 175 0
156 160 0
165 168 0
161 166 0
162 169 0
162 174 0
156 161 0
162 170 0
168 182 0
162 173 0
166 180 0
166 179 0
164 176 0
168 183 0
166 179 0
167 183 0
164 176 0
166 178 0
166 182 0
170 183 0
164 174 0
168 184 0
169 187 0
168 187 0
167 181 0
170 187 0
164 175 0
168 183 0
170 185 0
166 184 0
165 179 0
165 182 0
167 184 0
172 192 0
171 190 0
169 189 0
169 187 0
171 188 0
167 182 0
167 187 0
172 190 0
168 184 0
165 184 0
169 188 0
167 183 0
171 189 0
172 190 0
168 186 0
169 189 0
167 184 0
168 186 0
173 194 0
169 188 0
171 188 0
172 189 0
170 190 0
170 190 0
171 191 0
171 189 0
175 196 0
171 193 0
170 188 0
171 189 0
171 193 0
171 194 0
170 192 0
175 193 0
168 187 0
171 190 0
167 187 0
169 188 0
175 196 0
175 196 0
170 192 0
173 195 0
172 193 0
169 192 0
171 194 0
173 193 0
173 196 0
169 187 0
172 194 0
170 192 0
171 190 0
172 193 0
174 195 0
170 192 0
173 192 0
167 182 0
168 185 0
169 188 0
172 194 0
174 194 0
167 185 0
173 195 0
173 192 0
167 185 0
170 187 0
172 193 0
171 190 0
172 190 0
171 186 0
169 186 0
170 186 0
171 190 0
166 181 0
172 195 0
169 190 0
168 184 0
169 188 0
171 187 0
172 191 0
171 191 0
167 183 0
167 186 0
170 187 0
168 185 0
170 187 0
167 184 0
162 175 0
169 183 0
165 177 0
168 180 0
166 178 0
165 179 0
163 174 0
169 187 0
168 185 0
167 186 0
159 168 0
165 175 0
165 177 0
168 181 0
167 179 0
163 163 0
170 181 0
166 183 0
164 173 0
166 177 0
161 169 0
158 164 0
164 176 0
161 169 0
164 173 0
163 175 0
163 173 0
160 165 0
162 167 0
167 177 0
156 163 0
162 173 0
158 163 0
154 155 0
161 167 0
157 165 0
161 169 0
146 142 0
145 144 0
148 128 44
149 104 62
146 104 62
144 102 56
151 106 71
148 104 71
155 110 81
149 106 65
149 107 76
141 100 59
152 108 68
141 98 56
148 103 62
148 105 59
151 108 71
149 106 62
149 104 62
152 108 76
147 103 71
144 101 52
153 108 74
154 110 71
156 111 81
147 106 48
156 107 86
152 107 74
149 105 79
156 111 79
150 105 76
148 106 65
151 105 79
154 111 79
151 108 68
156 111 84
153 109 79
152 109 84
148 104 62
151 105 74
151 108 74
145 102 56
147 106 59
155 110 81
149 105 76
154 111 76
151 108 74
148 106 65
149 106 68
149 106 76
147 104 79
143 99 59
148 105 68
148 104 71
149 105 74
151 106 71
149 108 68
150 105 76
150 108 68
150 107 65
153 109 74
147 103 76
147 103 62
157 112 88
150 107 76
149 103 65
155 111 81
148 106 59
149 106 71
153 108 76
154 110 71
148 105 65
149 106 71
149 104 65
149 106 65
152 107 76
152 108 79
150 107 79
150 107 68
147 102 71
151 108 62
150 109 71
154 109 86
147 104 48
148 104 74
150 105 65
148 105 65
148 106 62
147 103 59
150 106 62
151 134 44
160 161 0
151 151 0
156 157 0
152 148 0
153 157 0
162 169 0
163 174 0
150 150 0
162 164 0
160 167 0
158 160 0
158 165 0
157 163 0
162 171 0
164 175 0
161 168 0
159 170 0
166 177 0
161 175 0
164 179 0
169 182 0
160 169 0
162 170 0
161 171 0
165 175 0
162 173 0
166 180 0
164 176 0
164 177 0
165 175 0
166 177 0
168 184 0
169 185 0
164 178 0
167 183 0
168 185 0
169 183 0
167 183 0
168 182 0
164 179 0
165 178 0
169 183 0
165 186 0
169 185 0
173 194 0
168 184 0
171 190 0
168 184 0
170 186 0
170 187 0
170 190 0
168 186 0
170 187 0
169 184 0
168 187 0
172 191 0
171 190 0
173 192 0
168 184 0
169 188 0
174 194 0
170 186 0
171 192 0
170 186 0
169 185 0
169 186 0
173 195 0
171 190 0
167 187 0
169 188 0
171 190 0
166 188 0
172 191 0
170 190 0
170 191 0
172 193 0
173 194 0
173 193 0
171 193 0
170 190 0
174 197 0
173 197 0
169 189 0
172 191 0
173 195 0
171 194 0
173 196 0
168 187 0
169 187 0
171 191 0
170 189 0
169 184 0
172 188 0
175 193 0
174 195 0
173 193 0
169 189 0
172 193 0
170 190 0
170 188 0
169 188 0
168 185 0
173 193 0
170 189 0
172 192 0
169 189 0
168 182 0
168 186 0
167 183 0
169 186 0
169 185 0
172 195 0
165 181 0
166 181 0
165 177 0
169 190 0
167 183 0
172 190 0
170 188 0
169 187 0
169 186 0
164 176 0
166 178 0
171 186 0
163 176 0
174 192 0
165 179 0
162 176 0
169 187 0
164 178 0
167 185 0
168 180 0
168 176 0
164 176 0
168 179 0
167 181 0
163 176 0
170 185 0
161 174 0
168 180 0
169 184 0
163 176 0
167 176 0
162 167 0
163 175 0
162 173 0
165 176 0
162 170 0
151 150 0
161 171 0
160 167 0
164 173 0
160 169 0
160 163 0
154 151 0
158 159 0
162 167 0
155 159 0
161 169 0
157 163 0
147 138 0
161 170 0
157 162 0
157 155 0
147 149 0
166 172 0
154 156 0
155 154 0
150 138 34
143 103 65
145 100 65
145 102 68
151 106 79
148 105 68
149 106 71
147 106 48
148 103 65
149 104 71
149 106 65
148 104 68
146 103 56
144 101 59
152 108 65
148 106 71
153 108 74
150 105 76
149 105 68
148 105 65
151 105 76
148 104 71
152 106 74
150 105 74
146 104 71
149 104 71
146 104 65
150 104 59
156 111 84
147 104 65
150 107 74
142 100 62
146 104 71
148 104 62
149 106 65
151 107 79
147 101 76
150 106 68
152 108 68
151 108 62
145 104 59
151 108 74
146 100 74
153 108 79
148 104 71
154 111 81
152 109 65
150 108 74
149 105 76
144 102 52
153 110 71
156 110 86
148 106 62
150 107 74
149 102 76
152 108 74
150 106 71
145 100 65
146 102 68
151 107 81
148 106 68
152 107 81
151 107 79
152 107 79
154 109 76
153 109 71
151 108 74
147 103 62
150 106 71
144 101 59
152 106 74
147 103 56
145 102 71
150 107 68
152 109 68
150 105 71
149 106 59
145 100 68
151 106 76
145 101 59
148 104 71
151 106 71
141 97 48
141 99 59
148 103 59
143 111 48
152 141 39
161 162 0
159 166 0
157 162 0
160 165 0
154 154 0
160 163 0
159 163 0
158 163 0
159 162 0
162 168 0
162 171 0
161 165 0
159 167 0
155 156 0
161 170 0
163 173 0
163 168 0
161 168 0
165 180 0
164 177 0
163 171 0
164 176 0
165 175 0
166 176 0
165 177 0
167 182 0
163 169 0
165 179 0
168 185 0
169 182 0
168 185 0
165 178 0
168 183 0
166 179 0
167 179 0
164 176 0
170 185 0
164 179 0
169 183 0
168 186 0
165 181 0
168 181 0
168 186 0
166 183 0
163 178 0
168 182 0
166 186 0
168 185 0
170 190 0
169 190 0
167 184 0
169 188 0
173 192 0
164 181 0
172 192 0
166 180 0
172 191 0
169 190 0
167 180 0
169 188 0
171 190 0
167 183 0
165 185 0
171 189 0
170 187 0
169 189 0
169 186 0
171 190 0
170 191 0
171 193 0
171 192 0
171 190 0
173 191 0
173 194 0
172 194 0
171 190 0
171 193 0
170 188 0
169 188 0
172 193 0
172 193 0
173 193 0
170 191 0
175 197 0
173 196 0
171 190 0
169 188 0
170 191 0
170 187 0
171 192 0
173 195 0
173 193 0
170 188 0
173 193 0
173 194 0
169 183 0
168 185 0
169 188 0
168 182 0
170 192 0
173 194 0
167 181 0
174 194 0
168 185 0
171 191 0
169 184 0
171 193 0
174 194 0
168 188 0
169 190 0
170 190 0
171 191 0
169 186 0
168 184 0
171 190 0
167 183 0
169 188 0
168 185 0
171 189 0
167 185 0
171 190 0
166 180 0
168 182 0
162 170 0
170 188 0
171 186 0
169 187 0
170 188 0
168 183 0
168 184 0
166 180 0
166 182 0
166 180 0
165 178 0
162 170 0
168 183 0
163 176 0
165 178 0
160 167 0
169 181 0
170 188 0
160 167 0
161 170 0
162 170 0
167 185 0
163 172 0
166 176 0
164 179 0
169 183 0
164 174 0
157 163 0
155 160 0
161 171 0
166 176 0
160 166 0
160 169 0
161 164 0
159 167 0
160 164 0
158 160 0
158 160 0
154 159 0
158 160 0
154 157 0
154 158 0
162 168 0
143 139 0
151 152 0
155 155 0
149 145 0
150 142 28
155 137 59
144 99 59
145 100 62
146 102 68
149 103 74
144 102 52
150 104 71
151 107 79
152 109 76
146 100 68
151 104 79
148 106 59
147 104 59
145 101 71
143 100 48
154 110 88
151 107 71
150 105 62
149 106 68
145 103 56
151 107 65
150 105 74
148 104 59
153 109 86
149 103 65
147 103 59
144 100 62
146 101 65
146 101 65
148 104 59
154 109 84
148 104 74
154 110 79
147 104 71
148 104 74
149 106 74
146 104 62
149 106 62
146 100 62
149 106 65
140 98 56
151 105 81
154 108 79
148 105 65
151 108 76
149 106 71
149 106 65
149 106 62
140 100 48
152 108 71
148 102 76
151 106 84
147 103 56
152 109 74
151 106 79
149 108 62
150 108 65
147 104 65
148 105 65
151 108 74
143 99 56
147 102 74
145 100 71
152 107 71
149 108 68
153 108 86
156 110 90
146 102 65
149 105 71
146 101 62
149 106 65
151 107 56
149 106 68
145 104 44
153 108 81
144 99 62
147 103 68
146 103 56
150 107 68
150 105 71
141 97 56
146 102 59
150 119 62
146 138 0
156 154 0
146 143 0
154 154 0
153 155 0
156 158 0
157 163 0
161 169 0
156 162 0
161 169 0
153 156 0
164 172 0
155 163 0
160 166 0
156 160 0
158 162 0
157 160 0
160 163 0
161 167 0
164 172 0
165 176 0
162 171 0
158 162 0
163 174 0
162 170 0
163 171 0
166 176 0
163 175 0
161 171 0
166 179 0
164 178 0
163 171 0
170 181 0
168 184 0
168 183 0
165 178 0
167 182 0
167 181 0
164 174 0
162 170 0
161 171 0
167 183 0
169 189 0
166 181 0
167 182 0
166 180 0
165 181 0
167 181 0
168 180 0
172 187 0
168 185 0
167 180 0
171 192 0
167 181 0
170 188 0
167 183 0
170 182 0
168 185 0
166 182 0
169 183 0
169 184 0
172 189 0
169 182 0
169 184 0
170 187 0
172 192 0
168 184 0
171 189 0
169 186 0
171 194 0
171 192 0
169 190 0
171 190 0
170 190 0
171 189 0
171 190 0
172 188 0
171 189 0
170 190 0
172 195 0
173 196 0
173 195 0
171 192 0
171 192 0
173 195 0
173 192 0
171 189 0
173 193 0
170 190 0
172 191 0
170 186 0
172 194 0
171 190 0
170 188 0
173 196 0
171 193 0
171 191 0
172 192 0
172 193 0
171 191 0
168 185 0
168 185 0
172 188 0
167 186 0
171 194 0
169 189 0
172 188 0
168 185 0
172 191 0
169 187 0
166 180 0
171 188 0
165 181 0
166 181 0
170 185 0
170 189 0
167 183 0
166 181 0
168 185 0
170 190 0
169 184 0
169 185 0
166 183 0
168 188 0
165 180 0
167 182 0
169 187 0
166 184 0
165 183 0
168 184 0
168 186 0
166 176 0
160 175 0
166 179 0
164 172 0
166 177 0
169 185 0
164 173 0
170 185 0
162 175 0
165 174 0
168 180 0
163 175 0
166 175 0
161 164 0
164 176 0
164 178 0
163 172 0
167 176 0
159 163 0
162 169 0
157 162 0
163 170 0
162 167 0
158 164 0
161 165 0
161 171 0
158 165 0
163 171 0
159 161 0
160 165 0
163 172 0
154 157 0
149 148 0
156 160 0
158 163 0
162 166 0
158 160 0
161 164 0
149 150 0
148 143 0
143 140 0
149 145 0
150 143 0
145 135 19
148 112 52
149 104 68
149 105 74
145 101 65
154 107 84
143 101 56
147 103 71
147 102 59
144 100 56
147 104 56
145 101 65
146 102 52
145 103 62
143 98 65
145 100 65
149 104 74
155 109 86
147 103 62
149 106 74
143 99 56
142 97 59
150 106 74
149 104 71
144 103 56
150 106 68
148 104 65
148 104 52
146 104 68
143 98 65
154 109 86
147 104 71
153 108 76
148 103 68
153 107 81
142 100 68
151 106 65
143 100 68
153 110 79
146 102 59
152 108 74
155 110 86
150 105 65
148 104 56
150 108 68
151 108 71
150 107 68
151 107 74
155 110 81
153 108 88
147 105 65
152 107 76
148 106 74
155 111 86
150 105 65
148 104 62
143 99 59
144 101 62
150 107 65
150 106 76
147 104 59
143 101 56
148 106 71
149 106 65
146 104 62
153 108 74
149 102 65
147 106 48
145 104 48
150 105 81
143 101 62
146 102 71
147 102 76
149 105 65
154 108 88
147 104 52
149 105 59
141 97 44
147 103 52
144 106 48
150 134 44
145 137 0
147 148 0
159 168 0
140 138 0
145 138 0
151 147 0
148 142 0
157 159 0
154 158 0
159 163 0
150 147 0
158 168 0
153 158 0
156 162 0
153 154 0
163 172 0
160 165 0
156 154 0
164 170 0
161 163 0
157 155 0
164 174 0
148 150 0
159 171 0
165 175 0
163 171 0
164 173 0
164 175 0
163 175 0
161 173 0
164 174 0
163 175 0
165 175 0
165 177 0
161 173 0
162 173 0
165 178 0
163 179 0
168 181 0
164 178 0
163 170 0
170 185 0
164 176 0
168 187 0
163 176 0
164 179 0
167 182 0
167 184 0
168 181 0
167 186 0
165 178 0
164 177 0
171 186 0
162 177 0
169 188 0
168 185 0
173 192 0
168 188 0
171 188 0
168 185 0
169 185 0
167 186 0
170 187 0
172 192 0
170 192 0
169 188 0
168 186 0
169 189 0
171 191 0
171 192 0
166 181 0
175 196 0
170 186 0
172 192 0
171 192 0
168 185 0
175 197 0
171 191 0
171 191 0
174 195 0
169 186 0
173 191 0
170 189 0
170 189 0
172 191 0
171 191 0
174 195 0
173 189 0
173 196 0
172 189 0
172 193 0
172 192 0
173 193 0
168 187 0
169 185 0
169 185 0
170 190 0
170 193 0
171 193 0
169 188 0
171 191 0
170 187 0
167 186 0
171 188 0
167 190 0
172 189 0
169 186 0
169 191 0
171 188 0
167 184 0
171 191 0
169 188 0
168 180 0
167 186 0
165 180 0
169 185 0
168 186 0
172 190 0
168 187 0
168 185 0
166 182 0
169 188 0
169 182 0
170 191 0
171 192 0
165 180 0
164 178 0
171 190 0
164 180 0
168 185 0
172 188 0
164 178 0
164 178 0
171 183 0
167 178 0
164 178 0
162 174 0
170 189 0
161 171 0
168 187 0
165 179 0
163 174 0
163 173 0
163 174 0
161 172 0
160 167 0
166 176 0
161 171 0
155 157 0
155 164 0
161 173 0
161 168 0
165 178 0
161 165 0
154 154 0
163 173 0
162 172 0
162 170 0
156 164 0
155 155 0
164 171 0
156 159 0
156 159 0
154 160 0
157 153 0
150 143 0
157 157 0
157 155 0
158 162 0
151 153 0
152 149 0
158 161 0
154 151 0
139 133 0
145 135 0
136 126 0
146 139 19
144 121 39
144 100 59
137 95 56
148 104 59
142 97 65
144 99 59
137 92 44
147 102 71
145 103 52
147 105 56
151 107 65
152 108 79
141 101 56
143 101 59
145 102 59
147 105 59
153 106 84
145 104 59
152 108 71
146 101 62
143 98 44
150 106 79
146 102 56
144 102 65
145 103 52
147 102 71
151 106 79
146 104 52
145 102 62
145 104 59
152 107 74
148 104 65
145 101 62
144 102 56
153 108 76
145 102 34
145 100 56
148 105 68
151 105 71
142 98 52
151 105 76
148 104 52
150 104 86
151 104 79
145 100 65
146 102 56
152 108 76
146 101 74
150 105 65
151 106 74
152 108 74
152 106 68
149 104 68
149 106 71
145 102 52
150 105 71
150 105 74
149 104 68
146 101 59
146 104 56
150 106 68
141 100 52
151 107 79
143 100 59
146 102 68
139 97 59
151 105 71
149 104 71
143 99 62
151 102 81
148 103 65
146 103 65
145 101 56
143 97 62
147 103 62
140 96 59
147 124 28
155 151 0
140 136 0
145 141 0
160 163 0
145 136 0
153 153 0
156 158 0
153 151 0
152 155 0
156 160 0
150 146 0
158 164 0
158 164 0
152 156 0
152 150 0
162 166 0
164 175 0
160 160 0
159 163 0
154 151 0
160 163 0
163 172 0
158 163 0
158 163 0
165 176 0
162 171 0
155 157 0
161 169 0
166 181 0
167 181 0
163 168 0
167 178 0
164 175 0
164 172 0
166 176 0
165 176 0
163 172 0
166 177 0
166 182 0
167 176 0
165 178 0
165 182 0
167 184 0
168 185 0
169 187 0
165 179 0
168 180 0
166 178 0
167 181 0
167 182 0
166 180 0
170 189 0
169 186 0
167 179 0
172 192 0
171 189 0
173 192 0
166 181 0
168 181 0
166 183 0
170 190 0
171 194 0
171 191 0
169 188 0
173 190 0
169 184 0
171 191 0
171 188 0
170 191 0
172 192 0
167 180 0
169 189 0
169 187 0
169 188 0
172 193 0
171 191 0
171 189 0
173 190 0
173 195 0
174 193 0
171 192 0
170 190 0
170 189 0
169 188 0
172 193 0
168 184 0
170 190 0
170 187 0
174 195 0
170 195 0
168 190 0
171 192 0
171 193 0
172 193 0
170 190 0
172 191 0
170 186 0
170 191 0
170 191 0
170 189 0
169 186 0
167 185 0
173 191 0
166 183 0
170 188 0
168 187 0
170 188 0
170 187 0
168 188 0
167 183 0
174 197 0
171 189 0
169 191 0
171 187 0
168 183 0
170 185 0
165 184 0
172 189 0
169 190 0
171 191 0
171 192 0
170 186 0
169 183 0
166 182 0
163 174 0
166 180 0
173 191 0
168 184 0
168 185 0
161 168 0
164 174 0
165 177 0
168 180 0
169 184 0
162 174 0
166 178 0
169 186 0
166 179 0
164 178 0
165 180 0
164 176 0
168 184 0
164 175 0
156 163 0
163 173 0
170 182 0
159 168 0
164 174 0
166 179 0
161 170 0
153 151 0
167 175 0
164 175 0
159 160 0
160 165 0
164 174 0
160 166 0
160 168 0
158 164 0
153 155 0
148 145 0
150 146 0
164 170 0
158 164 0
148 143 0
154 150 0
153 151 0
153 154 0
154 148 0
158 161 0
158 164 0
150 148 0
148 143 0
149 149 0
152 149 0
142 137 0
147 136 0
153 153 0
139 123 0
139 127 0
139 123 19
135 95 56
141 96 52
146 102 59
145 100 59
144 99 59
143 100 52
144 98 68
145 99 62
146 101 71
151 106 71
146 101 62
149 104 59
150 107 62
149 105 65
148 104 71
147 105 56
149 102 74
147 103 65
142 100 59
145 102 71
146 103 56
144 98 71
154 111 79
146 104 65
150 106 74
147 102 62
144 97 65
148 106 65
150 107 68
149 108 65
143 99 56
146 104 59
147 103 71
143 99 62
153 109 71
145 104 68
146 102 68
147 103 48
140 99 39
146 104 62
151 106 74
147 102 71
153 110 74
150 106 71
145 101 68
148 102 71
150 105 68
150 104 71
150 105 79
149 103 76
145 103 56
147 104 65
147 102 65
145 100 68
152 106 74
144 100 56
141 99 39
152 109 68
145 103 56
148 103 71
146 103 56
144 100 65
147 104 62
144 102 59
146 100 68
148 102 59
150 107 71
149 105 71
145 101 56
142 99 59
142 99 65
144 99 65
140 102 56
141 127 28
145 137 0
135 121 0
141 134 0
144 138 0
140 136 0
152 149 0
146 145 0
151 152 0
152 147 0
142 135 0
143 141 0
155 158 0
153 154 0
145 150 0
151 150 0
151 154 0
156 161 0
163 170 0
153 156 0
163 169 0
155 159 0
165 177 0
157 163 0
166 178 0
162 166 0
165 178 0
150 150 0
162 172 0
159 162 0
161 166 0
165 176 0
161 169 0
160 168 0
163 174 0
161 171 0
165 173 0
165 175 0
163 177 0
164 178 0
165 177 0
164 176 0
163 172 0
169 187 0
170 185 0
166 179 0
166 182 0
166 180 0
168 181 0
163 175 0
165 177 0
165 178 0
171 190 0
163 181 0
170 183 0
172 187 0
166 182 0
164 175 0
168 185 0
164 180 0
170 187 0
168 183 0
167 178 0
167 184 0
169 189 0
171 189 0
173 190 0
167 179 0
166 185 0
166 181 0
171 193 0
169 186 0
173 192 0
171 191 0
172 190 0
169 187 0
175 194 0
167 182 0
168 185 0
174 190 0
172 193 0
168 190 0
172 190 0
172 192 0
171 193 0
171 189 0
169 186 0
170 188 0
168 190 0
170 189 0
174 194 0
174 195 0
173 193 0
171 190 0
175 192 0
169 188 0
170 188 0
173 193 0
172 192 0
174 195 0
169 187 0
168 189 0
170 191 0
169 189 0
175 197 0
169 185 0
170 191 0
168 186 0
170 189 0
172 192 0
166 183 0
170 190 0
167 182 0
169 188 0
170 190 0
169 181 0
172 191 0
172 190 0
167 179 0
169 184 0
170 186 0
170 186 0
170 186 0
169 187 0
170 187 0
164 180 0
169 183 0
173 192 0
167 181 0
165 182 0
167 183 0
170 187 0
164 177 0
167 181 0
167 183 0
169 183 0
164 178 0
168 186 0
164 174 0
163 179 0
166 179 0
163 174 0
168 185 0
166 176 0
166 180 0
166 174 0
164 175 0
163 177 0
161 165 0
160 173 0
163 176 0
166 178 0
161 167 0
159 167 0
162 170 0
156 158 0
158 165 0
155 157 0
155 152 0
155 159 0
153 149 0
151 153 0
162 173 0
153 150 0
156 161 0
154 151 0
156 158 0
154 153 0
156 157 0
153 154 0
153 154 0
152 154 0
150 148 0
150 151 0
141 134 0
153 150 0
137 123 0
144 133 0
145 141 0
154 149 0
133 118 0
146 135 0
133 118 0
147 141 0
141 118 44
141 108 52
151 105 74
147 105 56
143 98 59
143 100 48
151 105 79
140 95 56
140 97 59
145 99 74
146 102 59
138 94 59
147 106 71
144 100 56
147 101 71
144 102 52
146 101 68
145 100 62
147 104 62
144 102 52
141 98 59
144 101 59
146 100 62
151 106 76
143 99 52
152 108 76
143 101 59
148 102 71
152 108 79
151 107 68
147 102 62
150 106 68
144 101 65
148 104 59
138 95 52
146 104 56
147 104 62
153 107 86
148 105 65
141 100 56
153 109 74
141 96 44
145 102 62
149 107 62
148 104 68
149 102 74
145 102 62
137 96 39
146 102 52
147 103 68
143 101 56
149 105 71
142 99 56
147 102 68
150 105 74
147 104 62
145 102 62
150 106 68
150 105 74
149 105 62
142 98 44
138 97 48
146 101 56
138 96 48
145 101 59
147 102 68
145 101 62
144 101 62
138 95 48
134 94 48
136 116 28
144 138 0
148 146 0
146 137 0
143 139 0
150 147 0
155 153 0
152 151 0
152 146 0
151 147 0
157 160 0
149 147 0
152 154 0
155 161 0
152 151 0
152 153 0
162 167 0
159 159 0
161 164 0
161 164 0
151 153 0
152 155 0
165 174 0
152 154 0
156 152 0
158 161 0
163 173 0
157 161 0
165 177 0
162 169 0
165 174 0
163 173 0
165 178 0
157 160 0
162 171 0
162 175 0
162 169 0
165 173 0
168 177 0
164 175 0
164 169 0
166 176 0
165 180 0
167 182 0
161 170 0
163 171 0
164 179 0
168 184 0
168 184 0
161 171 0
164 180 0
164 177 0
170 180 0
167 182 0
165 179 0
171 192 0
173 192 0
167 181 0
169 187 0
168 182 0
168 186 0
165 180 0
171 191 0
171 190 0
165 180 0
171 191 0
170 187 0
165 181 0
168 191 0
167 183 0
172 194 0
169 188 0
168 181 0
170 187 0
175 193 0
169 189 0
170 191 0
168 184 0
175 196 0
169 186 0
167 181 0
171 191 0
169 186 0
170 190 0
171 189 0
171 191 0
170 190 0
170 190 0
173 193 0
172 194 0
173 194 0
168 187 0
169 188 0
169 184 0
169 190 0
172 188 0
172 193 0
170 191 0
173 197 0
172 191 0
170 189 0
171 189 0
165 181 0
168 186 0
169 187 0
170 189 0
170 187 0
168 183 0
170 188 0
173 191 0
170 187 0
170 187 0
169 188 0
166 180 0
169 187 0
168 185 0
171 192 0
168 188 0
169 193 0
171 190 0
168 186 0
172 192 0
165 181 0
168 187 0
169 183 0
171 184 0
165 183 0
165 176 0
168 183 0
170 187 0
168 185 0
168 183 0
165 176 0
164 181 0
168 184 0
165 175 0
169 184 0
165 177 0
168 186 0
167 181 0
163 175 0
168 184 0
161 168 0
164 173 0
164 174 0
164 179 0
163 172 0
167 181 0
169 184 0
163 173 0
163 172 0
158 164 0
164 175 0
166 176 0
159 167 0
163 169 0
159 164 0
164 173 0
164 176 0
156 162 0
164 175 0
160 169 0
158 159 0
155 157 0
160 159 0
162 160 0
159 163 0
155 155 0
156 159 0
158 165 0
152 149 0
155 153 0
148 144 0
153 150 0
145 139 0
154 151 0
152 149 0
144 145 0
147 146 0
147 141 0
142 126 0
142 133 0
148 143 0
135 118 0
130 116 0
137 131 0
142 135 0
141 128 0
144 119 34
142 105 59
137 94 48
139 96 44
145 100 62
144 97 59
147 101 62
143 99 65
150 106 68
144 102 62
147 102 68
139 94 65
147 104 59
151 105 81
150 107 76
149 106 76
150 105 74
144 101 59
148 104 68
149 102 68
148 105 48
149 103 71
147 105 62
149 106 68
149 105 81
147 103 59
144 99 62
145 102 65
146 101 65
149 105 62
145 101 71
149 105 76
146 101 62
150 104 74
146 100 65
154 109 81
143 98 56
144 102 62
152 108 71
146 102 62
152 108 76
142 99 52
147 105 48
151 106 68
145 99 71
137 95 48
144 102 59
153 108 76
143 100 52
145 100 62
144 103 56
142 99 48
145 101 68
143 100 59
146 102 52
145 98 59
139 97 34
146 104 56
139 96 48
143 101 52
140 98 48
143 99 65
139 93 48
141 97 52
145 100 74
139 99 48
131 116 28
134 119 0
136 128 0
137 125 0
143 134 0
141 129 0
137 124 0
143 142 0
151 149 0
144 142 0
134 122 0
150 141 0
155 157 0
154 156 0
157 163 0
151 147 0
152 149 0
151 151 0
157 159 0
153 153 0
154 151 0
153 155 0
157 155 0
153 152 0
159 166 0
152 154 0
156 156 0
162 170 0
169 178 0
162 168 0
155 156 0
157 157 0
162 165 0
156 163 0
164 176 0
158 161 0
157 157 0
159 165 0
157 163 0
165 177 0
165 175 0
169 187 0
165 179 0
165 181 0
167 179 0
165 176 0
166 176 0
166 177 0
168 184 0
165 175 0
169 180 0
169 182 0
166 175 0
165 179 0
169 183 0
168 180 0
167 182 0
174 194 0
165 178 0
166 180 0
169 186 0
170 186 0
165 183 0
169 185 0
167 185 0
165 180 0
165 180 0
166 176 0
168 185 0
169 186 0
171 189 0
168 184 0
170 188 0
170 188 0
171 191 0
172 189 0
166 186 0
168 185 0
171 187 0
168 184 0
168 185 0
171 189 0
168 188 0
169 185 0
171 189 0
169 186 0
173 192 0
171 188 0
170 193 0
172 192 0
171 190 0
173 195 0
171 189 0
172 192 0
172 194 0
172 189 0
168 184 0
170 191 0
169 189 0
171 191 0
175 196 0
173 191 0
170 188 0
170 192 0
168 187 0
173 191 0
173 191 0
171 193 0
170 187 0
173 191 0
170 192 0
170 190 0
174 191 0
174 196 0
172 191 0
173 193 0
171 186 0
168 183 0
171 190 0
169 186 0
169 187 0
171 191 0
167 179 0
166 183 0
166 178 0
168 184 0
165 181 0
170 186 0
172 192 0
168 187 0
169 188 0
168 181 0
164 178 0
167 182 0
167 184 0
170 187 0
162 170 0
169 184 0
166 181 0
163 171 0
167 182 0
169 188 0
165 176 0
165 174 0
166 184 0
166 179 0
163 174 0
163 174 0
166 180 0
168 184 0
163 173 0
162 168 0
160 171 0
158 165 0
165 181 0
160 169 0
165 178 0
165 172 0
156 158 0
161 168 0
157 160 0
160 164 0
158 160 0
159 157 0
163 169 0
157 158 0
160 170 0
157 159 0
149 147 0
164 171 0
157 160 0
154 152 0
155 156 0
149 149 0
157 155 0
149 151 0
157 159 0
151 150 0
149 150 0
151 145 0
154 146 0
151 147 0
144 133 0
143 138 0
152 152 0
145 138 0
138 132 0
137 123 0
134 127 0
136 119 0
136 119 0
138 130 0
126 109 19
140 106 44
138 96 39
145 99 68
147 102 65
143 100 59
143 96 68
145 100 56
137 96 48
142 99 59
144 100 48
140 96 59
143 100 59
143 98 65
145 102 59
148 105 68
146 101 62
146 101 56
145 101 52
144 103 56
143 100 48
144 102 48
147 103 62
149 104 74
148 103 65
145 101 52
152 106 79
147 105 48
141 97 62
147 104 65
139 95 59
146 101 76
147 103 59
147 105 52
141 98 59
145 100 68
145 102 52
155 110 81
143 99 56
141 98 44
153 107 79
149 107 65
146 100 56
149 104 56
142 99 48
143 100 62
153 107 76
139 96 56
150 105 74
144 100 65
147 103 68
145 101 65
143 99 56
146 103 56
141 96 48
144 101 56
134 92 39
140 98 48
139 97 65
136 93 48
137 92 56
136 99 39
129 104 39
137 130 0
137 129 0
151 147 0
139 131 0
138 128 0
144 139 0
145 143 0
151 145 0
143 136 0
146 144 0
147 143 0
139 132 0
151 154 0
155 158 0
154 155 0
149 147 0
150 145 0
157 162 0
151 153 0
152 151 0
150 147 0
154 157 0
160 166 0
163 171 0
153 157 0
164 171 0
156 162 0
159 164 0
157 158 0
158 164 0
161 172 0
160 166 0
167 176 0
159 158 0
165 179 0
163 173 0
163 170 0
163 172 0
170 187 0
166 174 0
167 176 0
164 172 0
160 171 0
163 170 0
162 173 0
167 181 0
164 175 0
166 176 0
165 178 0
163 178 0
164 177 0
163 174 0
170 185 0
164 180 0
163 178 0
163 174 0
164 175 0
171 190 0
167 179 0
165 181 0
170 187 0
166 181 0
170 188 0
166 183 0
166 182 0
166 178 0
167 181 0
167 183 0
173 192 0
168 182 0
170 189 0
170 186 0
170 188 0
164 179 0
169 187 0
172 190 0
173 193 0
171 190 0
169 183 0
170 188 0
166 180 0
170 189 0
171 188 0
166 182 0
172 194 0
167 186 0
166 187 0
172 194 0
171 190 0
170 187 0
174 193 0
171 188 0
170 190 0
170 186 0
171 191 0
171 188 0
172 192 0
171 193 0
171 191 0
170 188 0
170 187 0
170 191 0
173 190 0
170 185 0
169 185 0
167 184 0
169 185 0
168 188 0
171 189 0
169 187 0
171 193 0
168 185 0
170 186 0
170 190 0
169 188 0
169 188 0
168 185 0
171 188 0
168 186 0
166 180 0
166 182 0
168 184 0
168 184 0
170 186 0
165 181 0
170 187 0
169 185 0
164 180 0
167 184 0
168 186 0
171 189 0
172 191 0
170 182 0
168 186 0
168 184 0
167 178 0
160 173 0
162 172 0
165 176 0
165 179 0
164 175 0
165 177 0
162 175 0
161 171 0
158 165 0
164 178 0
165 177 0
164 173 0
168 179 0
162 171 0
161 168 0
162 173 0
159 162 0
165 174 0
155 156 0
167 178 0
162 171 0
163 172 0
164 178 0
156 163 0
152 157 0
163 175 0
162 170 0
167 180 0
162 168 0
154 161 0
156 159 0
158 163 0
154 155 0
157 156 0
152 153 0
156 158 0
149 140 0
156 158 0
153 156 0
154 148 0
152 150 0
150 150 0
147 148 0
154 152 0
150 148 0
141 135 0
146 141 0
141 138 0
140 127 0
144 136 0
140 135 0
131 125 0
124 97 0
141 128 0
137 130 0
139 130 0
126 108 0
130 115 0
130 121 0
124 105 19
133 105 39
144 99 62
132 88 52
137 93 48
140 95 62
136 91 48
149 105 68
137 94 44
143 101 52
145 101 52
141 98 52
148 104 68
146 101 62
143 99 62
146 102 65
147 102 68
144 101 59
147 103 52
138 95 44
144 99 65
147 102 68
143 98 62
144 103 62
145 101 56
140 97 59
147 104 62
150 106 79
141 97 56
147 102 65
145 100 59
146 100 74
151 105 71
145 102 56
142 97 56
136 93 39
147 104 65
146 101 62
141 97 56
144 100 71
143 98 62
145 100 65
147 103 59
145 101 56
146 102 62
146 102 65
151 106 65
140 95 39
141 97 56
138 93 62
150 104 65
138 93 44
140 97 44
141 96 39
133 91 52
140 95 48
140 99 52
126 96 39
139 119 19
120 104 0
127 109 0
129 109 0
140 133 0
134 121 0
141 131 0
131 115 0
137 134 0
136 124 0
139 123 0
147 142 0
141 133 0
143 138 0
145 137 0
146 141 0
139 124 0
144 138 0
154 157 0
151 146 0
152 150 0
155 158 0
156 154 0
153 151 0
157 157 0
161 170 0
155 156 0
155 157 0
154 156 0
154 147 0
148 135 0
155 159 0
162 167 0
161 170 0
160 170 0
164 172 0
152 151 0
164 171 0
161 169 0
156 156 0
161 168 0
162 170 0
165 173 0
164 169 0
161 173 0
161 174 0
162 175 0
164 173 0
163 173 0
162 174 0
166 181 0
166 176 0
165 176 0
165 179 0
170 184 0
163 180 0
163 176 0
162 175 0
168 185 0
162 175 0
168 178 0
169 187 0
168 188 0
169 186 0
170 186 0
167 179 0
169 187 0
164 176 0
167 183 0
169 187 0
169 187 0
170 187 0
167 184 0
169 183 0
169 180 0
170 186 0
169 183 0
168 182 0
171 188 0
167 178 0
170 188 0
171 189 0
168 182 0
169 185 0
167 187 0
170 188 0
168 184 0
173 193 0
172 194 0
167 180 0
170 188 0
173 194 0
170 185 0
174 194 0
169 186 0
172 193 0
173 193 0
171 192 0
172 193 0
170 191 0
171 190 0
171 189 0
168 188 0
166 183 0
169 187 0
165 185 0
170 189 0
170 189 0
172 189 0
169 188 0
171 188 0
168 182 0
168 186 0
170 187 0
166 183 0
168 189 0
169 187 0
169 184 0
171 191 0
169 185 0
168 181 0
169 189 0
169 187 0
173 195 0
166 179 0
170 184 0
166 184 0
172 188 0
162 173 0
169 186 0
170 187 0
165 177 0
166 183 0
170 183 0
167 182 0
169 184 0
169 181 0
165 175 0
167 183 0
171 187 0
167 180 0
163 179 0
164 174 0
166 178 0
168 184 0
165 180 0
169 184 0
165 176 0
165 176 0
163 176 0
168 182 0
167 179 0
166 181 0
169 183 0
160 165 0
165 173 0
166 176 0
157 159 0
169 178 0
155 153 0
164 173 0
162 166 0
160 164 0
165 174 0
164 175 0
154 159 0
150 141 0
157 159 0
154 155 0
164 171 0
154 157 0
155 156 0
163 172 0
151 153 0
152 151 0
160 159 0
151 148 0
150 147 0
152 151 0
147 142 0
145 146 0
146 133 0
147 139 0
147 143 0
144 142 0
149 142 0
135 122 0
147 135 0
139 132 0
143 130 0
143 140 0
143 139 0
137 132 0
142 129 0
129 113 0
137 131 0
123 108 0
137 132 0
128 111 0
130 120 0
121 109 19
124 101 28
133 98 44
140 99 44
143 100 59
144 100 59
144 100 56
145 100 62
141 97 44
137 95 48
145 99 68
140 98 52
143 100 48
145 101 62
145 100 52
148 103 56
137 92 59
141 95 52
143 100 56
139 96 56
143 99 52
144 99 79
139 97 62
146 100 56
145 101 56
138 94 52
143 98 56
145 103 62
138 94 48
152 108 76
148 102 65
149 103 76
145 101 56
145 100 65
148 105 65
149 104 65
143 99 59
141 99 59
140 95 44
144 101 65
140 100 56
143 99 56
143 98 59
141 97 59
139 94 59
135 90 44
144 100 44
142 101 48
140 98 44
145 101 59
141 97 48
132 89 34
133 101 48
131 108 44
121 105 0
133 122 0
125 108 0
120 104 0
131 113 0
142 137 0
142 130 0
137 124 0
130 108 0
136 118 0
130 120 0
134 122 0
146 146 0
142 139 0
149 142 0
139 132 0
152 150 0
150 147 0
144 137 0
150 148 0
146 143 0
149 148 0
153 153 0
149 151 0
155 156 0
150 143 0
158 162 0
148 139 0
155 152 0
160 157 0
154 154 0
150 146 0
157 157 0
152 151 0
151 153 0
159 168 0
157 161 0
157 163 0
166 176 0
162 171 0
165 174 0
159 163 0
160 166 0
155 158 0
164 171 0
156 166 0
164 175 0
168 182 0
163 173 0
163 174 0
165 176 0
158 166 0
164 176 0
167 179 0
170 182 0
168 180 0
164 174 0
170 186 0
168 185 0
168 182 0
168 183 0
163 177 0
168 180 0
169 187 0
163 171 0
168 184 0
166 181 0
166 182 0
167 179 0
165 181 0
173 194 0
166 179 0
166 177 0
167 183 0
167 182 0
171 188 0
173 195 0
170 188 0
170 187 0
168 185 0
171 182 0
174 194 0
169 185 0
167 185 0
167 186 0
172 192 0
168 186 0
167 186 0
169 188 0
171 191 0
167 186 0
167 183 0
173 194 0
171 189 0
169 187 0
169 188 0
169 184 0
170 191 0
171 190 0
167 186 0
175 193 0
170 191 0
172 193 0
173 194 0
172 192 0
169 186 0
169 185 0
171 187 0
172 192 0
170 190 0
170 185 0
172 188 0
167 181 0
170 188 0
167 184 0
169 187 0
170 187 0
172 187 0
168 185 0
170 190 0
167 185 0
166 180 0
171 189 0
169 184 0
168 185 0
167 185 0
166 180 0
166 176 0
166 175 0
169 182 0
167 180 0
168 182 0
168 183 0
168 184 0
171 186 0
163 175 0
167 176 0
167 179 0
164 174 0
165 178 0
168 182 0
168 178 0
168 178 0
167 182 0
159 167 0
167 183 0
165 174 0
163 175 0
167 182 0
165 172 0
164 178 0
164 176 0
166 180 0
160 169 0
166 176 0
162 175 0
157 162 0
161 171 0
165 173 0
156 163 0
160 166 0
153 159 0
168 182 0
167 178 0
161 169 0
157 161 0
161 171 0
155 158 0
161 168 0
163 172 0
156 160 0
156 163 0
155 156 0
160 165 0
158 164 0
155 157 0
161 167 0
148 142 0
146 140 0
155 154 0
150 150 0
152 152 0
150 141 0
152 150 0
152 148 0
159 161 0
140 130 0
143 131 0
143 131 0
141 137 0
139 128 0
140 126 0
143 141 0
139 133 0
121 100 0
136 124 0
133 120 0
139 131 0
131 121 0
126 110 0
147 145 0
127 108 0
124 109 0
113 89 0
128 114 0
106 78 19
126 99 34
129 87 48
140 96 48
145 100 68
134 87 48
139 95 44
141 94 62
137 93 34
145 99 65
143 97 68
139 94 52
138 93 48
142 96 52
137 92 56
144 97 68
148 103 76
144 98 59
138 94 56
143 99 48
144 98 65
145 101 48
144 100 52
139 94 52
141 97 48
142 99 44
144 103 48
139 96 59
144 101 44
143 99 59
152 107 65
145 101 59
139 94 52
142 96 52
143 99 62
136 92 39
142 96 56
144 99 52
139 94 52
148 105 62
146 102 68
138 94 48
128 87 34
136 92 48
136 90 44
134 91 34
122 83 19
128 104 19
125 107 19
127 117 0
139 126 0
124 106 0
122 105 0
134 120 0
132 123 0
133 125 0
141 139 0
134 115 0
133 125 0
139 125 0
139 130 0
139 131 0
148 141 0
144 133 0
154 152 0
150 149 0
145 146 0
148 144 0
147 143 0
144 138 0
148 142 0
149 151 0
146 144 0
144 143 0
152 152 0
154 155 0
150 147 0
146 137 0
157 160 0
150 151 0
160 166 0
152 153 0
160 168 0
155 155 0
154 151 0
158 164 0
156 161 0
159 163 0
158 161 0
156 161 0
158 167 0
164 175 0
165 174 0
164 171 0
162 172 0
160 168 0
164 175 0
167 181 0
158 166 0
164 176 0
163 176 0
165 177 0
169 187 0
165 177 0
169 185 0
167 181 0
168 180 0
157 163 0
163 178 0
162 176 0
167 183 0
169 187 0
168 182 0
170 191 0
171 186 0
164 175 0
166 180 0
162 172 0
163 178 0
172 190 0
164 178 0
169 185 0
171 188 0
166 181 0
164 180 0
169 183 0
170 189 0
169 184 0
169 183 0
169 188 0
170 186 0
166 181 0
167 185 0
169 189 0
169 188 0
166 187 0
174 194 0
173 191 0
168 187 0
167 184 0
166 184 0
170 186 0
171 190 0
168 183 0
169 185 0
169 189 0
167 184 0
170 186 0
174 193 0
169 188 0
169 186 0
171 193 0
170 190 0
172 193 0
172 192 0
172 189 0
170 186 0
167 181 0
170 188 0
174 194 0
172 189 0
170 190 0
169 189 0
170 189 0
170 186 0
170 188 0
169 186 0
168 188 0
172 190 0
167 186 0
166 179 0
170 182 0
168 186 0
167 184 0
166 178 0
168 183 0
171 191 0
165 177 0
170 186 0
166 179 0
168 186 0
168 185 0
169 185 0
167 182 0
170 189 0
167 178 0
166 184 0
166 176 0
164 172 0
168 186 0
169 180 0
165 176 0
167 180 0
166 177 0
163 176 0
164 178 0
163 174 0
165 175 0
165 172 0
158 166 0
167 180 0
168 177 0
164 177 0
165 174 0
162 173 0
168 178 0
160 171 0
161 168 0
164 174 0
155 159 0
161 164 0
164 169 0
164 171 0
162 167 0
164 174 0
162 167 0
154 161 0
158 167 0
154 157 0
166 170 0
152 153 0
153 155 0
161 167 0
155 155 0
158 162 0
160 163 0
144 141 0
156 152 0
153 155 0
158 164 0
157 160 0
158 160 0
162 168 0
142 134 0
148 149 0
153 150 0
149 148 0
152 149 0
134 121 0
147 143 0
146 138 0
147 140 0
140 125 0
139 126 0
135 121 0
134 125 0
132 119 0
136 125 0
134 125 0
123 101 0
124 112 0
130 115 0
140 127 0
116 95 0
123 110 0
119 103 0
116 99 0
108 93 0
118 97 0
109 89 0
110 82 28
126 94 44
133 88 44
146 100 62
131 87 34
139 97 39
134 90 48
143 98 62
131 87 39
141 97 62
139 97 44
141 98 56
137 93 34
146 101 59
145 101 65
138 93 44
141 98 59
136 94 56
140 96 52
144 98 52
143 100 52
140 97 44
145 103 52
137 93 39
139 94 56
131 86 44
142 96 65
144 101 59
147 102 62
146 101 59
143 98 62
139 95 44
136 91 39
142 100 56
139 96 56
135 91 44
142 95 59
141 94 62
135 91 39
132 94 44
114 87 19
92 68 0
122 104 0
121 106 0
132 120 0
130 113 0
130 123 0
113 88 0
137 125 0
142 137 0
130 119 0
135 117 0
136 124 0
141 132 0
134 120 0
136 121 0
146 135 0
142 136 0
133 116 0
142 126 0
141 138 0
150 147 0
144 133 0
140 134 0
148 141 0
138 130 0
141 132 0
153 147 0
149 146 0
151 146 0
148 141 0
147 146 0
152 146 0
159 163 0
156 157 0
150 148 0
160 165 0
155 149 0
151 153 0
155 157 0
161 172 0
165 174 0
156 158 0
161 171 0
161 164 0
164 174 0
158 163 0
162 169 0
161 171 0
158 165 0
163 173 0
163 173 0
165 179 0
162 172 0
165 174 0
162 169 0
170 182 0
166 171 0
162 171 0
169 187 0
167 177 0
170 181 0
163 178 0
165 177 0
169 186 0
163 173 0
166 173 0
168 184 0
163 172 0
164 183 0
172 193 0
165 177 0
165 177 0
167 178 0
163 176 0
164 178 0
168 183 0
167 182 0
167 180 0
172 189 0
174 191 0
165 174 0
169 183 0
170 188 0
169 185 0
163 178 0
163 181 0
168 183 0
172 190 0
169 182 0
168 185 0
169 183 0
170 187 0
167 182 0
170 188 0
168 183 0
171 193 0
168 183 0
167 184 0
170 191 0
169 189 0
170 190 0
170 186 0
166 183 0
170 189 0
173 195 0
173 192 0
170 187 0
171 190 0
171 189 0
169 187 0
171 191 0
169 187 0
173 191 0
170 191 0
170 187 0
169 184 0
169 190 0
169 187 0
169 188 0
169 185 0
165 181 0
170 190 0
170 188 0
172 187 0
171 191 0
168 185 0
172 191 0
166 178 0
170 192 0
170 186 0
172 190 0
167 184 0
168 185 0
169 186 0
170 183 0
170 187 0
168 184 0
167 183 0
164 177 0
170 186 0
169 182 0
167 179 0
163 176 0
167 181 0
161 173 0
171 189 0
167 179 0
164 176 0
166 175 0
169 185 0
162 174 0
167 180 0
160 171 0
157 164 0
165 181 0
161 168 0
162 173 0
165 176 0
166 176 0
166 177 0
161 166 0
162 173 0
168 181 0
168 184 0
153 157 0
157 164 0
159 161 0
161 170 0
161 167 0
158 162 0
158 167 0
167 171 0
156 158 0
156 161 0
165 168 0
156 157 0
157 163 0
152 152 0
164 171 0
151 152 0
159 163 0
154 151 0
154 153 0
155 157 0
147 139 0
152 144 0
150 147 0
150 148 0
155 149 0
143 137 0
146 138 0
142 138 0
153 148 0
138 132 0
148 143 0
143 132 0
145 142 0
142 138 0
138 121 0
136 125 0
134 122 0
134 121 0
135 122 0
136 126 0
141 126 0
131 110 0
140 135 0
132 121 0
115 92 0
123 106 0
124 114 0
124 113 0
122 109 0
124 105 0
125 102 0
106 86 0
113 96 0
114 95 0
109 90 0
117 89 19
123 88 44
131 89 48
122 78 28
127 82 39
130 86 39
122 77 34
130 88 44
138 93 56
137 94 44
139 95 44
139 94 52
139 95 44
133 89 39
139 95 44
138 94 52
141 94 59
129 84 39
137 94 56
139 95 44
143 98 62
137 94 44
134 89 44
134 90 44
142 98 62
130 87 34
133 87 48
138 95 56
138 94 65
135 89 48
120 82 34
126 91 34
118 98 19
108 94 19
108 88 0
103 88 0
117 96 0
114 100 0
113 96 0
125 114 0
109 86 0
119 104 0
131 120 0
133 125 0
123 114 0
119 100 0
132 128 0
128 117 0
150 141 0
148 146 0
125 108 0
134 121 0
147 144 0
142 132 0
137 124 0
145 140 0
154 157 0
151 144 0
145 141 0
154 156 0
151 148 0
151 149 0
153 152 0
152 145 0
155 158 0
155 159 0
146 145 0
154 155 0
153 158 0
154 161 0
149 151 0
162 160 0
157 158 0
161 167 0
162 165 0
160 165 0
157 160 0
156 160 0
151 150 0
153 157 0
159 163 0
155 160 0
162 170 0
157 157 0
157 161 0
164 175 0
162 169 0
161 170 0
157 163 0
162 170 0
164 174 0
160 164 0
159 162 0
165 173 0
165 180 0
164 173 0
160 172 0
165 180 0
164 179 0
169 184 0
166 179 0
165 175 0
166 178 0
170 187 0
167 186 0
170 186 0
164 180 0
170 189 0
168 181 0
166 178 0
171 185 0
172 187 0
165 179 0
168 182 0
171 189 0
173 187 0
170 189 0
165 175 0
164 182 0
167 183 0
169 182 0
170 187 0
170 187 0
168 184 0
171 192 0
172 189 0
170 183 0
167 181 0
168 185 0
164 177 0
166 183 0
170 187 0
170 186 0
169 189 0
168 183 0
169 185 0
171 185 0
172 193 0
171 191 0
170 187 0
172 189 0
171 191 0
169 187 0
165 182 0
172 194 0
167 181 0
170 190 0
169 187 0
168 189 0
169 188 0
167 182 0
169 190 0
170 187 0
171 189 0
171 189 0
170 183 0
172 194 0
170 186 0
170 187 0
171 189 0
168 182 0
170 187 0
170 182 0
166 177 0
170 183 0
169 188 0
167 180 0
168 188 0
168 185 0
171 187 0
167 179 0
168 189 0
164 176 0
167 183 0
169 184 0
166 182 0
166 179 0
166 179 0
163 172 0
166 178 0
167 180 0
162 173 0
165 175 0
168 182 0
163 176 0
167 178 0
167 181 0
167 182 0
164 177 0
164 174 0
166 176 0
164 173 0
164 174 0
164 177 0
164 175 0
166 178 0
163 172 0
167 178 0
161 168 0
168 177 0
166 179 0
158 165 0
160 168 0
161 171 0
166 174 0
161 172 0
157 161 0
162 168 0
163 168 0
154 157 0
156 158 0
155 162 0
155 155 0
155 160 0
160 166 0
159 164 0
151 149 0
159 167 0
152 150 0
153 152 0
159 164 0
154 155 0
146 138 0
148 137 0
139 132 0
151 146 0
153 148 0
147 142 0
153 153 0
155 154 0
137 126 0
147 141 0
151 157 0
136 127 0
150 143 0
138 129 0
143 140 0
142 144 0
155 158 0
125 110 0
131 117 0
140 131 0
127 114 0
138 129 0
120 102 0
124 103 0
127 114 0
120 105 0
122 104 0
126 111 0
125 106 0
113 92 0
114 102 0
121 100 0
121 113 0
116 107 0
97 66 0
113 104 0
87 64 0
99 80 0
113 99 0
111 83 19
125 98 39
129 95 44
120 81 34
123 85 39
128 92 44
133 89 44
127 83 34
129 87 48
140 92 52
134 87 48
139 94 52
141 93 65
135 88 44
137 90 48
126 84 34
136 91 48
136 94 52
121 83 39
119 78 34
113 79 28
103 71 28
118 96 19
110 86 0
97 78 0
118 104 0
102 82 0
112 95 0
109 94 0
114 91 0
112 94 0
104 84 0
120 102 0
123 106 0
110 95 0
123 109 0
136 129 0
126 116 0
125 116 0
124 108 0
140 133 0
142 137 0
133 120 0
128 123 0
136 126 0
143 140 0
139 136 0
130 115 0
129 121 0
144 137 0
134 125 0
152 145 0
147 138 0
150 145 0
141 126 0
153 150 0
146 140 0
153 149 0
150 145 0
142 137 0
145 131 0
152 153 0
153 150 0
155 156 0
153 155 0
147 142 0
156 157 0
157 160 0
159 163 0
155 158 0
162 166 0
162 171 0
157 162 0
162 167 0
161 168 0
159 167 0
165 175 0
162 171 0
164 174 0
156 163 0
156 163 0
161 169 0
163 172 0
163 173 0
163 171 0
156 162 0
165 176 0
160 163 0
159 164 0
159 164 0
163 176 0
163 173 0
160 167 0
160 169 0
167 182 0
164 180 0
165 177 0
163 175 0
167 179 0
165 179 0
167 183 0
164 174 0
169 181 0
169 184 0
164 178 0
164 174 0
170 183 0
169 184 0
171 188 0
170 188 0
166 180 0
169 188 0
169 189 0
169 188 0
169 187 0
170 189 0
165 178 0
167 181 0
166 180 0
163 177 0
169 185 0
169 189 0
170 186 0
167 185 0
169 185 0
171 192 0
168 187 0
168 185 0
169 188 0
171 186 0
171 190 0
175 197 0
171 191 0
169 191 0
168 183 0
170 188 0
169 187 0
171 192 0
171 189 0
174 193 0
168 186 0
170 188 0
171 192 0
170 188 0
171 189 0
172 192 0
168 187 0
169 184 0
170 187 0
171 190 0
167 179 0
172 195 0
171 188 0
170 187 0
170 189 0
163 176 0
165 180 0
169 187 0
168 186 0
170 189 0
171 190 0
171 190 0
169 188 0
170 183 0
166 180 0
168 180 0
166 181 0
166 178 0
165 177 0
170 187 0
167 183 0
164 175 0
167 180 0
170 186 0
162 175 0
172 186 0
165 179 0
169 180 0
170 187 0
161 171 0
159 168 0
165 176 0
162 171 0
165 181 0
161 168 0
168 184 0
165 179 0
164 178 0
167 175 0
165 177 0
166 179 0
164 172 0
164 169 0
165 176 0
159 165 0
162 176 0
165 173 0
171 184 0
161 168 0
159 165 0
164 172 0
164 171 0
157 163 0
158 163 0
157 156 0
162 171 0
154 152 0
161 165 0
154 157 0
155 159 0
150 147 0
163 174 0
159 163 0
151 153 0
153 159 0
151 150 0
155 154 0
144 142 0
158 160 0
157 159 0
153 156 0
144 139 0
150 146 0
141 124 0
140 129 0
144 131 0
146 139 0
143 137 0
144 136 0
143 137 0
138 125 0
138 122 0
141 137 0
136 127 0
140 127 0
132 121 0
148 140 0
125 108 0
137 122 0
124 101 0
134 122 0
132 121 0
125 107 0
126 110 0
128 109 0
136 131 0
124 104 0
112 95 0
120 105 0
116 103 0
104 84 0
103 77 0
101 81 0
93 74 0
91 71 0
98 83 0
110 88 0
91 72 0
116 101 0
97 76 0
101 73 0
89 65 0
99 84 0
103 90 0
95 78 0
114 97 19
109 89 0
96 75 0
108 89 0
100 77 0
98 79 0
92 72 0
89 79 0
84 53 0
83 61 0
82 67 0
103 90 0
85 60 0
100 70 0
105 85 0
109 88 0
119 98 0
106 84 0
114 98 0
130 122 0
105 96 0
126 112 0
121 99 0
120 103 0
120 111 0
127 112 0
126 115 0
121 92 0
132 119 0
140 132 0
126 114 0
140 136 0
128 115 0
137 121 0
132 116 0
129 116 0
143 130 0
139 131 0
137 122 0
138 132 0
131 120 0
141 133 0
142 132 0
145 136 0
141 134 0
148 140 0
137 134 0
147 148 0
147 146 0
153 155 0
151 145 0
153 151 0
153 153 0
154 157 0
148 139 0
156 161 0
155 155 0
160 162 0
155 156 0
159 161 0
160 160 0
155 159 0
153 150 0
158 166 0
159 166 0
161 167 0
151 154 0
167 178 0
153 154 0
160 168 0
163 168 0
160 162 0
159 169 0
160 165 0
166 179 0
165 177 0
164 172 0
169 184 0
159 167 0
162 167 0
164 177 0
163 167 0
164 176 0
163 173 0
160 166 0
163 173 0
162 170 0
164 178 0
166 179 0
161 173 0
162 173 0
162 170 0
164 174 0
166 176 0
167 182 0
165 173 0
166 178 0
166 179 0
170 185 0
165 174 0
165 177 0
171 186 0
170 187 0
165 176 0
171 193 0
164 175 0
164 179 0
168 186 0
170 192 0
166 179 0
166 182 0
165 177 0
171 189 0
171 188 0
170 185 0
169 185 0
167 185 0
171 186 0
171 190 0
172 192 0
167 186 0
172 193 0
167 183 0
167 186 0
172 192 0
170 191 0
170 187 0
170 191 0
169 187 0
167 184 0
170 189 0
164 180 0
172 193 0
170 187 0
169 188 0
170 187 0
168 189 0
167 185 0
171 189 0
169 189 0
168 183 0
168 185 0
169 189 0
169 183 0
169 184 0
172 188 0
169 188 0
170 186 0
165 178 0
167 186 0
170 186 0
171 190 0
170 186 0
166 176 0
173 191 0
171 188 0
169 184 0
170 187 0
167 180 0
168 184 0
174 192 0
171 185 0
166 176 0
164 175 0
166 178 0
169 187 0
163 173 0
160 170 0
161 172 0
167 182 0
168 181 0
162 169 0
168 179 0
167 179 0
169 187 0
164 175 0
166 175 0
169 183 0
167 179 0
161 168 0
165 174 0
161 172 0
160 169 0
155 163 0
166 177 0
165 174 0
162 165 0
165 177 0
166 178 0
156 160 0
157 157 0
163 177 0
167 179 0
149 154 0
160 165 0
154 156 0
165 172 0
150 140 0
151 149 0
154 160 0
159 165 0
160 166 0
152 152 0
147 147 0
152 147 0
157 158 0
155 160 0
154 150 0
151 147 0
154 153 0
149 146 0
147 141 0
147 145 0
150 143 0
138 129 0
153 153 0
149 151 0
149 146 0
142 135 0
144 144 0
142 128 0
144 140 0
152 144 0
136 130 0
143 134 0
149 143 0
138 133 0
130 116 0
141 129 0
137 134 0
128 117 0
128 113 0
131 122 0
133 123 0
131 116 0
123 109 0
126 108 0
117 101 0
121 104 0
115 100 0
117 98 0
112 97 0
117 90 0
116 93 0
115 92 0
107 89 0
102 81 0
125 118 0
108 91 0
103 87 0
109 93 0
99 79 0
103 86 0
96 80 0
118 108 0
116 109 0
91 75 0
114 100 0
98 73 0
108 86 0
96 75 0
97 74 0
106 81 0
100 86 0
107 87 0
100 84 0
103 89 0
114 102 0
108 90 0
100 79 0
104 89 0
126 110 0
130 116 0
110 92 0
105 76 0
119 101 0
132 118 0
127 110 0
118 100 0
121 99 0
119 101 0
132 116 0
118 102 0
126 114 0
134 125 0
136 122 0
124 106 0
121 108 0
131 115 0
132 117 0
138 130 0
146 141 0
141 136 0
134 117 0
134 120 0
152 150 0
150 144 0
138 129 0
146 137 0
136 127 0
144 143 0
156 160 0
145 142 0
147 145 0
149 150 0
152 147 0
148 137 0
152 150 0
144 139 0
146 142 0
143 142 0
149 143 0
152 154 0
158 162 0
154 155 0
157 165 0
151 150 0
165 172 0
151 149 0
164 174 0
159 164 0
153 153 0
161 167 0
166 176 0
162 170 0
155 157 0
162 170 0
159 169 0
159 165 0
166 178 0
162 170 0
159 163 0
162 169 0
159 165 0
164 172 0
155 157 0
164 176 0
162 170 0
171 182 0
166 180 0
163 173 0
163 177 0
158 168 0
165 177 0
159 168 0
162 173 0
165 174 0
162 175 0
162 173 0
162 174 0
165 180 0
163 176 0
166 175 0
172 190 0
165 178 0
167 182 0
169 181 0
163 172 0
169 189 0
167 176 0
166 180 0
171 188 0
170 190 0
167 183 0
166 183 0
171 193 0
166 180 0
165 178 0
171 192 0
166 179 0
164 177 0
170 189 0
171 189 0
169 184 0
171 191 0
171 193 0
171 190 0
169 184 0
169 186 0
169 189 0
170 184 0
173 189 0
167 187 0
171 187 0
169 183 0
169 188 0
169 185 0
169 192 0
169 188 0
165 179 0
171 190 0
170 187 0
169 189 0
164 179 0
166 183 0
168 181 0
166 184 0
172 192 0
169 186 0
172 186 0
167 184 0
166 180 0
170 186 0
165 181 0
172 191 0
169 185 0
166 180 0
170 186 0
163 176 0
168 185 0
164 176 0
170 186 0
169 182 0
168 186 0
167 182 0
168 182 0
168 183 0
169 184 0
169 182 0
169 182 0
164 175 0
165 177 0
166 177 0
166 178 0
166 178 0
167 180 0
168 177 0
162 169 0
168 180 0
158 165 0
168 178 0
169 180 0
169 182 0
163 174 0
167 180 0
163 177 0
165 174 0
160 169 0
166 177 0
165 172 0
161 171 0
159 162 0
167 179 0
156 161 0
155 162 0
162 168 0
158 159 0
160 163 0
159 164 0
164 172 0
161 162 0
159 165 0
159 164 0
152 157 0
155 158 0
160 163 0
160 163 0
155 158 0
154 158 0
157 159 0
160 166 0
155 158 0
154 155 0
146 143 0
151 154 0
153 153 0
149 151 0
146 138 0
150 144 0
151 151 0
149 136 0
152 146 0
144 138 0
152 155 0
147 140 0
140 133 0
142 136 0
146 139 0
148 140 0
136 127 0
147 137 0
136 122 0
144 139 0
134 126 0
136 119 0
135 126 0
127 113 0
140 130 0
138 126 0
132 116 0
148 148 0
129 118 0
138 125 0
134 126 0
120 99 0
119 106 0
125 104 0
125 111 0
128 116 0
118 99 0
119 113 0
115 104 0
113 97 0
114 95 0
128 116 0
108 82 0
94 69 0
106 89 0
105 82 0
103 87 0
108 89 0
107 91 0
109 94 0
104 93 0
103 77 0
113 97 0
118 106 0
102 88 0
103 85 0
114 95 0
111 92 0
119 106 0
125 114 0
103 84 0
102 84 0
103 90 0
118 107 0
113 94 0
108 94 0
120 103 0
116 99 0
115 95 0
117 97 0
120 102 0
131 109 0
126 103 0
144 132 0
131 122 0
122 106 0
133 118 0
129 120 0
135 125 0
137 123 0
131 120 0
135 128 0
149 144 0
132 117 0
140 133 0
143 136 0
140 136 0
148 141 0
146 139 0
147 141 0
152 152 0
144 134 0
145 136 0
145 141 0
144 134 0
148 145 0
150 141 0
146 146 0
159 159 0
150 145 0
151 142 0
148 148 0
146 138 0
160 168 0
154 155 0
155 159 0
157 161 0
162 172 0
160 172 0
155 158 0
144 139 0
160 166 0
164 166 0
160 160 0
158 163 0
163 167 0
153 155 0
158 159 0
162 167 0
156 162 0
155 157 0
156 158 0
161 168 0
161 172 0
163 173 0
157 165 0
160 166 0
165 176 0
164 175 0
164 177 0
167 177 0
163 175 0
161 169 0
161 168 0
162 170 0
160 171 0
168 179 0
161 171 0
164 173 0
169 179 0
160 172 0
165 176 0
165 176 0
164 173 0
161 174 0
167 182 0
164 173 0
171 189 0
166 180 0
169 183 0
168 182 0
168 180 0
172 188 0
167 180 0
168 181 0
170 190 0
170 188 0
170 188 0
171 189 0
167 182 0
164 172 0
170 186 0
165 182 0
169 183 0
168 186 0
166 183 0
168 185 0
170 191 0
167 179 0
169 186 0
169 188 0
167 183 0
167 186 0
170 186 0
170 188 0
169 188 0
169 185 0
168 186 0
174 194 0
171 189 0
169 183 0
166 180 0
168 183 0
169 187 0
169 186 0
166 180 0
171 188 0
171 190 0
168 186 0
172 189 0
169 187 0
168 183 0
173 192 0
167 184 0
174 195 0
168 183 0
168 181 0
166 181 0
165 177 0
171 185 0
166 180 0
170 190 0
163 180 0
165 179 0
167 186 0
168 183 0
167 184 0
167 182 0
165 176 0
164 178 0
166 185 0
171 189 0
164 179 0
165 174 0
166 181 0
165 178 0
162 170 0
167 182 0
163 175 0
164 175 0
164 175 0
164 175 0
168 185 0
171 184 0
159 169 0
159 168 0
160 169 0
161 170 0
161 170 0
162 169 0
162 172 0
163 172 0
159 166 0
164 171 0
155 160 0
163 172 0
162 171 0
155 157 0
156 159 0
162 174 0
165 174 0
157 158 0
155 157 0
164 171 0
161 172 0
152 155 0
156 166 0
162 170 0
154 154 0
152 153 0
151 152 0
157 160 0
156 160 0
152 152 0
147 147 0
160 165 0
151 146 0
153 154 0
145 139 0
153 155 0
145 139 0
145 143 0
152 151 0
142 136 0
150 147 0
145 147 0
149 146 0
151 147 0
146 132 0
139 124 0
143 137 0
136 127 0
137 125 0
143 138 0
142 133 0
135 116 0
133 124 0
121 103 0
137 126 0
139 127 0
137 127 0
130 121 0
118 100 0
120 103 0
129 115 0
134 120 0
127 114 0
131 119 0
123 105 0
128 115 0
126 104 0
125 112 0
122 108 0
110 86 0
127 111 0
113 98 0
113 97 0
111 93 0
115 92 0
113 95 0
127 115 0
113 93 0
112 94 0
116 94 0
109 86 0
110 92 0
115 100 0
106 91 0
115 100 0
111 98 0
107 89 0
115 104 0
110 85 0
117 99 0
106 87 0
122 111 0
113 90 0
128 119 0
114 93 0
121 108 0
123 108 0
105 86 0
117 108 0
128 108 0
114 98 0
120 106 0
130 116 0
130 123 0
128 109 0
129 120 0
130 120 0
114 101 0
136 122 0
141 128 0
127 109 0
131 117 0
140 133 0
133 114 0
142 138 0
137 128 0
136 120 0
151 145 0
141 133 0
146 137 0
136 122 0
145 132 0
141 132 0
140 130 0
147 141 0
145 137 0
141 131 0
154 150 0
144 138 0
144 141 0
156 162 0
152 144 0
144 141 0
149 145 0
158 157 0
151 149 0
152 156 0
159 163 0
153 155 0
152 149 0
154 155 0
161 166 0
158 162 0
163 166 0
157 160 0
159 163 0
158 159 0
158 162 0
152 155 0
160 167 0
151 150 0
159 158 0
162 167 0
169 178 0
157 160 0
167 178 0
159 160 0
161 175 0
164 177 0
162 168 0
168 179 0
160 168 0
163 172 0
162 170 0
163 173 0
161 171 0
164 172 0
163 178 0
159 172 0
162 173 0
167 182 0
167 179 0
166 179 0
163 175 0
165 178 0
165 176 0
162 173 0
169 186 0
163 174 0
164 175 0
165 176 0
165 178 0
168 179 0
171 188 0
168 182 0
164 179 0
169 183 0
169 185 0
166 181 0
168 184 0
169 184 0
168 186 0
163 175 0
167 185 0
172 191 0
167 183 0
170 188 0
168 182 0
171 189 0
164 177 0
171 189 0
167 183 0
172 190 0
171 190 0
170 186 0
169 187 0
167 186 0
170 189 0
171 191 0
170 185 0
171 190 0
170 189 0
169 186 0
164 179 0
170 190 0
167 182 0
171 188 0
168 185 0
172 192 0
168 186 0
167 182 0
172 190 0
169 189 0
167 185 0
168 184 0
170 186 0
168 183 0
170 188 0
166 181 0
166 176 0
166 182 0
168 188 0
169 183 0
169 183 0
166 182 0
166 179 0
170 187 0
170 183 0
168 178 0
162 174 0
167 178 0
167 177 0
167 179 0
168 178 0
161 174 0
169 185 0
167 181 0
167 180 0
162 170 0
165 173 0
165 177 0
162 170 0
163 173 0
166 180 0
164 174 0
161 170 0
162 169 0
164 176 0
163 172 0
164 175 0
167 178 0
161 168 0
163 171 0
164 172 0
161 170 0
160 164 0
161 169 0
159 166 0
166 177 0
161 167 0
155 157 0
157 157 0
154 156 0
162 166 0
155 157 0
161 169 0
160 161 0
154 157 0
155 155 0
154 158 0
155 161 0
155 160 0
158 163 0
159 159 0
154 155 0
147 141 0
155 159 0
155 158 0
159 163 0
143 135 0
150 149 0
148 148 0
155 157 0
147 142 0
148 140 0
152 151 0
153 153 0
153 151 0
146 139 0
145 134 0
139 133 0
141 134 0
144 135 0
148 139 0
130 118 0
145 138 0
139 133 0
138 129 0
147 143 0
126 111 0
135 126 0
133 128 0
134 123 0
129 108 0
123 110 0
129 111 0
118 100 0
129 113 0
127 114 0
136 128 0
130 117 0
127 114 0
121 109 0
124 105 0
126 114 0
123 104 0
120 99 0
120 105 0
114 94 0
122 106 0
129 107 0
115 98 0
115 96 0
112 98 0
114 96 0
104 82 0
122 110 0
123 107 0
107 79 0
119 110 0
110 91 0
122 102 0
121 112 0
111 87 0
114 99 0
113 92 0
125 103 0
111 95 0
118 99 0
116 93 0
116 94 0
118 95 0
124 117 0
126 109 0
125 107 0
127 105 0
125 113 0
122 108 0
121 106 0
134 120 0
124 109 0
130 114 0
136 126 0
131 116 0
133 122 0
136 117 0
130 112 0
141 136 0
125 107 0
140 127 0
144 137 0
139 126 0
142 129 0
142 137 0
145 138 0
141 136 0
140 137 0
142 139 0
139 131 0
147 143 0
142 130 0
145 132 0
151 150 0
140 130 0
146 146 0
149 141 0
151 152 0
154 152 0
149 146 0
148 145 0
154 155 0
153 154 0
155 161 0
151 146 0
156 158 0
149 142 0
148 142 0
154 153 0
155 150 0
160 164 0
154 157 0
152 149 0
154 151 0
166 177 0
159 165 0
152 152 0
159 169 0
152 152 0
159 163 0
164 171 0
160 166 0
162 169 0
159 167 0
167 180 0
162 172 0
159 165 0
161 168 0
161 164 0
157 162 0
165 178 0
168 180 0
164 174 0
165 179 0
168 184 0
165 181 0
163 173 0
167 180 0
167 184 0
165 176 0
166 179 0
161 174 0
163 176 0
163 174 0
171 188 0
164 175 0
159 169 0
164 173 0
164 175 0
167 184 0
165 178 0
161 172 0
166 181 0
167 186 0
167 184 0
173 192 0
170 187 0
168 179 0
170 188 0
165 176 0
165 177 0
167 184 0
169 185 0
169 186 0
171 188 0
168 183 0
169 185 0
170 184 0
163 178 0
169 186 0
168 189 0
167 186 0
165 181 0
168 184 0
169 187 0
169 188 0
169 188 0
171 190 0
167 185 0
172 192 0
167 184 0
168 184 0
168 183 0
170 191 0
169 184 0
165 178 0
164 180 0
170 187 0
170 186 0
171 189 0
169 186 0
167 176 0
165 182 0
170 190 0
167 183 0
166 179 0
170 189 0
167 185 0
170 187 0
170 188 0
167 179 0
170 185 0
165 178 0
165 182 0
165 176 0
168 185 0
168 177 0
167 179 0
169 186 0
168 182 0
172 190 0
163 173 0
165 178 0
166 175 0
166 175 0
162 175 0
165 180 0
161 173 0
168 181 0
168 184 0
166 183 0
166 172 0
160 169 0
160 169 0
168 179 0
166 180 0
163 174 0
169 182 0
163 173 0
161 169 0
162 167 0
161 171 0
160 172 0
161 173 0
160 164 0
163 173 0
162 171 0
165 174 0
162 173 0
153 154 0
160 165 0
156 159 0
154 158 0
155 158 0
156 164 0
157 164 0
165 174 0
150 152 0
159 162 0
156 161 0
160 165 0
163 171 0
164 171 0
155 160 0
154 153 0
147 140 0
155 161 0
158 164 0
144 133 0
149 143 0
150 150 0
151 144 0
152 151 0
148 146 0
147 142 0
140 128 0
149 138 0
147 139 0
147 143 0
126 101 0
143 130 0
146 141 0
150 149 0
147 141 0
131 119 0
142 130 0
141 133 0
141 127 0
142 132 0
129 109 0
134 121 0
130 116 0
135 124 0
133 121 0
120 109 0
126 110 0
126 111 0
135 124 0
129 119 0
119 106 0
130 123 0
126 114 0
125 104 0
130 116 0
112 100 0
133 127 0
128 105 0
137 134 0
119 105 0
125 112 0
130 114 0
119 104 0
119 104 0
117 104 0
116 103 0
115 93 0
125 111 0
126 108 0
110 93 0
116 103 0
117 97 0
117 99 0
122 107 0
117 95 0
128 109 0
121 100 0
124 105 0
136 127 0
107 82 0
122 102 0
118 102 0
125 114 0
117 98 0
122 106 0
132 121 0
130 120 0
129 117 0
141 135 0
125 110 0
132 123 0
125 113 0
130 116 0
130 117 0
143 136 0
149 154 0
136 126 0
140 131 0
135 121 0
137 129 0
144 130 0
143 132 0
139 130 0
140 133 0
143 130 0
144 136 0
148 141 0
141 138 0
144 138 0
148 141 0
150 145 0
142 130 0
149 145 0
154 156 0
148 145 0
147 138 0
151 156 0
150 150 0
158 162 0
149 148 0
156 154 0
155 153 0
157 162 0
158 158 0
154 155 0
159 167 0
165 175 0
160 168 0
159 160 0
154 154 0
154 154 0
157 159 0
156 161 0
161 166 0
157 159 0
160 167 0
159 163 0
160 163 0
155 161 0
163 170 0
162 172 0
161 172 0
165 172 0
157 159 0
163 171 0
163 172 0
163 172 0
168 181 0
160 172 0
165 180 0
161 170 0
164 170 0
163 174 0
162 170 0
163 173 0
163 172 0
165 176 0
161 169 0
163 177 0
167 181 0
163 173 0
164 178 0
161 171 0
163 176 0
166 177 0
169 185 0
163 175 0
167 179 0
161 173 0
167 183 0
169 182 0
169 184 0
168 183 0
167 181 0
166 181 0
166 181 0
169 187 0
167 178 0
169 184 0
167 183 0
168 184 0
167 181 0
169 184 0
171 190 0
165 179 0
172 190 0
168 180 0
169 185 0
172 193 0
166 181 0
170 189 0
170 187 0
170 190 0
176 197 0
169 189 0
172 191 0
171 189 0
172 192 0
169 190 0
169 183 0
165 180 0
170 191 0
168 182 0
170 189 0
171 191 0
163 179 0
165 178 0
166 181 0
167 185 0
167 178 0
170 190 0
172 191 0
167 183 0
164 180 0
165 178 0
168 184 0
172 190 0
166 179 0
164 175 0
167 176 0
171 188 0
164 178 0
168 187 0
166 180 0
165 176 0
162 170 0
164 177 0
160 169 0
173 188 0
156 163 0
167 182 0
168 180 0
159 168 0
164 178 0
164 174 0
165 173 0
161 169 0
162 173 0
164 181 0
166 176 0
168 183 0
165 177 0
162 176 0
164 173 0
164 176 0
164 173 0
166 174 0
166 176 0
166 177 0
162 171 0
160 166 0
164 169 0
165 171 0
163 173 0
160 167 0
156 159 0
160 167 0
153 147 0
158 163 0
149 147 0
152 155 0
162 167 0
151 146 0
154 157 0
164 177 0
153 154 0
153 155 0
161 165 0
149 144 0
158 162 0
157 157 0
156 158 0
150 147 0
153 152 0
154 161 0
151 153 0
159 161 0
150 146 0
151 149 0
155 161 0
144 142 0
142 135 0
145 138 0
146 144 0
145 140 0
148 145 0
146 144 0
149 143 0
126 111 0
147 144 0
139 132 0
146 143 0
131 120 0
144 136 0
136 125 0
139 132 0
136 120 0
134 119 0
129 121 0
135 131 0
126 111 0
144 136 0
124 113 0
140 136 0
132 115 0
130 111 0
129 112 0
133 122 0
131 126 0
135 127 0
126 111 0
117 92 0
114 96 0
128 110 0
123 112 0
127 111 0
127 112 0
116 98 0
122 106 0
110 85 0
132 121 0
123 101 0
125 108 0
135 120 0
121 107 0
124 113 0
113 94 0
128 112 0
121 100 0
124 104 0
125 109 0
124 105 0
126 105 0
127 110 0
130 110 0
120 99 0
123 97 0
135 127 0
123 107 0
121 101 0
134 122 0
119 106 0
133 122 0
135 125 0
128 112 0
140 126 0
135 120 0
140 127 0
131 117 0
136 129 0
149 141 0
130 112 0
129 112 0
138 134 0
151 147 0
137 129 0
143 134 0
146 135 0
143 142 0
138 132 0
145 145 0
151 149 0
149 142 0
140 134 0
150 144 0
155 158 0
154 155 0
153 158 0
156 159 0
155 154 0
145 139 0
143 133 0
155 161 0
146 141 0
153 157 0
158 162 0
151 154 0
159 160 0
155 159 0
155 153 0
147 144 0
149 146 0
159 164 0
154 155 0
155 153 0
162 168 0
149 147 0
154 151 0
157 163 0
162 168 0
155 159 0
155 160 0
160 168 0
162 173 0
159 167 0
157 167 0
161 176 0
164 173 0
157 162 0
162 166 0
164 174 0
169 176 0
160 167 0
154 159 0
161 168 0
170 183 0
167 179 0
164 174 0
163 176 0
161 177 0
167 177 0
166 178 0
170 185 0
160 168 0
162 170 0
167 179 0
169 185 0
162 170 0
165 178 0
163 176 0
168 181 0
165 180 0
170 186 0
163 176 0
168 182 0
166 178 0
169 186 0
168 186 0
168 181 0
165 178 0
166 179 0
164 180 0
168 183 0
169 187 0
169 187 0
161 174 0
169 187 0
170 187 0
169 186 0
168 180 0
168 186 0
165 180 0
167 182 0
166 181 0
173 195 0
168 184 0
171 187 0
169 184 0
170 191 0
170 187 0
170 187 0
170 188 0
169 186 0
168 183 0
171 189 0
168 181 0
169 186 0
167 187 0
172 191 0
168 182 0
166 182 0
168 181 0
167 183 0
164 177 0
168 185 0
168 185 0
169 187 0
167 183 0
168 185 0
171 190 0
167 179 0
166 182 0
163 172 0
161 168 0
168 182 0
168 181 0
163 176 0
167 182 0
166 181 0
166 182 0
167 181 0
169 184 0
171 189 0
167 181 0
166 181 0
165 178 0
157 167 0
166 178 0
165 175 0
169 182 0
162 174 0
168 180 0
167 178 0
161 171 0
164 178 0
160 166 0
156 163 0
164 178 0
159 167 0
162 167 0
167 176 0
162 170 0
156 164 0
164 177 0
159 166 0
155 162 0
162 172 0
163 173 0
157 162 0
156 159 0
165 175 0
162 164 0
157 162 0
156 164 0
154 160 0
157 163 0
159 162 0
152 151 0
157 155 0
161 167 0
156 159 0
159 163 0
154 152 0
167 180 0
159 162 0
148 145 0
157 161 0
152 149 0
146 140 0
155 158 0
145 146 0
152 149 0
152 155 0
154 154 0
161 169 0
157 155 0
149 144 0
146 140 0
142 135 0
147 139 0
153 152 0
139 123 0
137 130 0
148 147 0
133 124 0
141 136 0
137 127 0
140 136 0
136 124 0
153 150 0
145 137 0
136 118 0
140 133 0
129 113 0
135 126 0
146 138 0
147 138 0
147 142 0
141 137 0
132 116 0
126 114 0
116 98 0
133 119 0
140 139 0
138 129 0
123 98 0
135 126 0
125 105 0
128 115 0
123 106 0
131 119 0
129 114 0
128 121 0
128 114 0
124 105 0
125 106 0
129 115 0
122 111 0
134 125 0
123 101 0
114 105 0
129 113 0
119 98 0
131 124 0
110 87 0
115 95 0
122 110 0
141 134 0
122 105 0
134 116 0
131 113 0
135 131 0
123 114 0
126 108 0
127 113 0
128 118 0
126 113 0
140 133 0
132 114 0
136 126 0
135 124 0
136 125 0
142 135 0
140 136 0
136 126 0
140 130 0
130 118 0
151 148 0
140 129 0
136 127 0
138 126 0
132 122 0
149 149 0
148 137 0
134 125 0
147 140 0
145 143 0
144 134 0
139 130 0
147 149 0
147 143 0
152 150 0
151 149 0
141 132 0
151 149 0
158 161 0
149 148 0
155 156 0
158 159 0
149 145 0
146 141 0
159 165 0
154 156 0
142 137 0
155 159 0
151 145 0
152 151 0
156 159 0
156 158 0
149 148 0
164 169 0
161 162 0
157 162 0
157 164 0
159 163 0
167 178 0
159 168 0
155 155 0
165 171 0
158 162 0
162 171 0
167 175 0
157 164 0
160 169 0
157 161 0
160 163 0
168 182 0
159 168 0
159 165 0
159 162 0
166 176 0
163 172 0
165 172 0
167 181 0
164 175 0
162 174 0
165 177 0
171 184 0
170 187 0
163 171 0
169 180 0
167 183 0
167 182 0
167 178 0
167 175 0
171 191 0
171 185 0
167 182 0
166 176 0
164 177 0
169 184 0
170 186 0
166 184 0
170 188 0
171 188 0
168 184 0
167 182 0
168 186 0
166 180 0
169 184 0
170 185 0
167 184 0
165 178 0
172 189 0
167 182 0
167 182 0
166 180 0
162 177 0
172 187 0
165 181 0
171 190 0
168 184 0
172 193 0
171 190 0
169 187 0
167 180 0
169 189 0
168 183 0
168 184 0
170 192 0
164 172 0
172 191 0
171 189 0
167 184 0
169 190 0
168 186 0
168 186 0
168 181 0
165 179 0
170 184 0
167 180 0
169 187 0
171 187 0
170 186 0
168 181 0
170 185 0
168 184 0
166 180 0
165 179 0
165 182 0
169 186 0
170 189 0
167 182 0
165 177 0
168 182 0
161 175 0
170 188 0
166 178 0
163 175 0
166 177 0
169 185 0
167 183 0
164 181 0
167 176 0
160 167 0
161 167 0
164 172 0
160 167 0
162 174 0
161 171 0
159 164 0
168 180 0
165 177 0
158 162 0
164 170 0
161 173 0
163 174 0
161 172 0
162 170 0
164 175 0
159 165 0
163 172 0
166 180 0
162 172 0
162 173 0
161 169 0
157 158 0
160 165 0
153 157 0
153 153 0
159 162 0
157 159 0
165 176 0
157 157 0
155 157 0
159 163 0
156 166 0
156 155 0
157 161 0
154 158 0
158 163 0
156 154 0
160 165 0
151 153 0
154 155 0
157 162 0
160 168 0
147 145 0
151 150 0
145 138 0
152 155 0
150 146 0
150 150 0
148 142 0
154 150 0
148 145 0
148 147 0
147 145 0
144 142 0
149 150 0
140 131 0
151 148 0
128 113 0
141 129 0
144 138 0
139 131 0
139 129 0
140 132 0
140 134 0
140 133 0
137 129 0
144 136 0
126 113 0
145 134 0
144 136 0
119 101 0
136 130 0
126 111 0
140 127 0
135 123 0
128 115 0
125 111 0
138 135 0
135 117 0
125 107 0
131 122 0
131 120 0
132 116 0
135 131 0
126 106 0
123 102 0
123 113 0
127 124 0
127 120 0
134 122 0
128 114 0
121 109 0
127 117 0
133 120 0
132 121 0
125 112 0
135 122 0
132 112 0
128 124 0
121 107 0
132 121 0
135 125 0
136 124 0
146 147 0
130 111 0
125 112 0
131 121 0
140 125 0
152 144 0
138 132 0
131 122 0
134 119 0
130 118 0
137 131 0
149 148 0
129 120 0
137 126 0
148 145 0
135 123 0
146 146 0
151 145 0
142 129 0
141 130 0
141 131 0
140 132 0
150 148 0
144 139 0
147 146 0
142 130 0
144 138 0
149 147 0
150 148 0
149 145 0
156 157 0
141 131 0
154 156 0
154 154 0
157 157 0
152 154 0
153 156 0
150 151 0
160 165 0
155 155 0
159 162 0
161 168 0
156 161 0
156 161 0
149 146 0
160 165 0
153 156 0
154 152 0
160 167 0
160 163 0
159 160 0
159 165 0
158 153 0
158 162 0
159 162 0
158 161 0
156 160 0
158 163 0
158 161 0
164 176 0
162 169 0
160 166 0
160 163 0
164 174 0
166 176 0
161 167 0
166 179 0
162 172 0
159 167 0
162 170 0
161 171 0
161 171 0
165 173 0
167 179 0
168 178 0
163 174 0
165 181 0
166 174 0
164 176 0
166 179 0
165 177 0
163 173 0
165 178 0
163 174 0
167 180 0
169 183 0
165 178 0
162 176 0
168 183 0
167 181 0
166 182 0
167 185 0
168 180 0
167 180 0
169 185 0
165 181 0
169 183 0
165 182 0
169 185 0
167 181 0
165 177 0
169 189 0
166 177 0
168 182 0
166 180 0
170 182 0
170 189 0
169 185 0
165 179 0
170 185 0
171 184 0
166 179 0
171 191 0
171 190 0
168 185 0
170 187 0
169 186 0
170 184 0
169 186 0
169 186 0
165 175 0
171 189 0
169 184 0
169 187 0
168 185 0
170 186 0
170 187 0
168 180 0
167 184 0
165 177 0
171 184 0
170 186 0
167 183 0
168 184 0
170 186 0
170 186 0
167 180 0
164 176 0
168 181 0
164 178 0
167 181 0
166 180 0
166 177 0
166 180 0
162 168 0
164 179 0
171 187 0
165 179 0
161 170 0
163 175 0
163 174 0
162 176 0
166 177 0
162 170 0
164 171 0
162 170 0
166 178 0
164 174 0
160 165 0
161 169 0
166 177 0
161 172 0
159 166 0
165 174 0
165 178 0
162 171 0
165 179 0
163 173 0
162 169 0
165 177 0
156 162 0
162 167 0
160 166 0
159 167 0
164 168 0
159 166 0
155 151 0
163 169 0
157 163 0
158 163 0
159 162 0
158 160 0
158 166 0
154 151 0
162 168 0
152 156 0
163 170 0
157 161 0
155 161 0
146 143 0
151 150 0
145 143 0
154 154 0
157 160 0
148 149 0
147 140 0
154 152 0
150 146 0
152 152 0
157 160 0
152 149 0
144 138 0
140 131 0
152 155 0
142 134 0
140 130 0
154 154 0
147 141 0
148 141 0
138 133 0
150 139 0
147 143 0
156 153 0
139 128 0
138 132 0
144 133 0
143 134 0
149 148 0
139 133 0
143 136 0
132 113 0
139 132 0
137 131 0
144 132 0
133 117 0
138 130 0
129 111 0
144 139 0
134 120 0
140 131 0
124 108 0
132 120 0
135 121 0
144 139 0
129 116 0
138 128 0
137 128 0
141 131 0
127 111 0
136 123 0
146 136 0
123 106 0
126 110 0
135 124 0
135 126 0
128 120 0
131 114 0
139 131 0
135 125 0
139 126 0
137 131 0
130 119 0
130 116 0
137 134 0
138 126 0
143 135 0
144 135 0
122 112 0
127 101 0
135 125 0
136 131 0
137 128 0
143 136 0
144 136 0
135 127 0
136 123 0
141 136 0
139 128 0
144 135 0
138 124 0
143 134 0
144 141 0
139 130 0
138 129 0
135 123 0
146 143 0
147 138 0
132 120 0
146 143 0
157 158 0
151 150 0
136 126 0
146 143 0
146 136 0
146 139 0
154 152 0
148 148 0
150 150 0
152 150 0
149 145 0
149 149 0
155 151 0
148 146 0
152 156 0
146 137 0
149 150 0
154 156 0
153 157 0
159 161 0
150 147 0
160 166 0
159 164 0
159 164 0
155 158 0
163 172 0
160 166 0
157 162 0
156 159 0
164 171 0
163 164 0
161 168 0
158 164 0
162 170 0
161 171 0
158 159 0
158 170 0
160 165 0
161 170 0
165 177 0
160 167 0
165 172 0
157 165 0
162 172 0
163 168 0
151 150 0
164 170 0
162 173 0
166 176 0
165 178 0
158 165 0
165 176 0
167 177 0
166 180 0
167 178 0
166 178 0
164 175 0
164 176 0
164 169 0
165 178 0
168 182 0
167 182 0
170 186 0
162 170 0
167 178 0
163 173 0
167 179 0
166 177 0
172 188 0
169 184 0
167 183 0
166 180 0
169 186 0
164 180 0
161 171 0
169 183 0
167 185 0
169 188 0
172 191 0
172 194 0
173 195 0
169 184 0
171 189 0
173 194 0
171 189 0
165 178 0
168 186 0
173 188 0
167 183 0
165 177 0
168 185 0
170 189 0
170 190 0
170 190 0
173 193 0
170 189 0
170 190 0
169 184 0
169 192 0
169 184 0
168 181 0
166 174 0
166 179 0
165 178 0
166 180 0
169 182 0
167 177 0
165 180 0
167 180 0
168 181 0
168 182 0
167 182 0
165 178 0
166 181 0
165 176 0
170 185 0
165 177 0
165 180 0
167 185 0
166 181 0
167 181 0
168 184 0
172 185 0
164 177 0
166 183 0
166 179 0
162 170 0
164 174 0
161 169 0
167 180 0
165 176 0
165 171 0
164 171 0
165 177 0
170 187 0
165 177 0
165 175 0
166 182 0
157 165 0
162 170 0
161 174 0
165 176 0
164 174 0
164 173 0
162 170 0
163 168 0
158 167 0
158 163 0
164 172 0
156 159 0
161 167 0
164 179 0
155 155 0
168 176 0
165 175 0
158 159 0
160 166 0
161 167 0
154 153 0
159 165 0
162 173 0
159 160 0
156 158 0
157 160 0
155 162 0
160 168 0
152 145 0
156 158 0
163 168 0
152 157 0
154 156 0
166 175 0
150 147 0
156 162 0
154 149 0
149 146 0
153 151 0
149 142 0
146 145 0
144 135 0
149 147 0
156 158 0
144 135 0
147 140 0
152 145 0
140 129 0
157 157 0
145 141 0
147 141 0
138 126 0
131 114 0
142 136 0
148 147 0
143 135 0
137 130 0
148 142 0
140 131 0
149 146 0
138 127 0
138 131 0
138 127 0
144 137 0
141 137 0
137 125 0
136 125 0
131 120 0
136 127 0
139 125 0
135 123 0
131 113 0
145 146 0
128 109 0
142 127 0
137 123 0
127 114 0
138 127 0
132 124 0
142 133 0
127 110 0
132 120 0
133 114 0
135 129 0
134 127 0
125 108 0
135 124 0
124 111 0
124 106 0
130 113 0
134 124 0
138 130 0
128 113 0
140 128 0
136 123 0
129 115 0
145 138 0
137 123 0
149 147 0
139 128 0
135 118 0
139 131 0
137 133 0
140 126 0
139 129 0
135 129 0
153 151 0
142 134 0
137 124 0
141 132 0
138 125 0
154 150 0
145 140 0
141 134 0
141 132 0
140 130 0
137 126 0
156 156 0
144 135 0
149 144 0
152 149 0
150 152 0
154 152 0
147 136 0
150 150 0
148 144 0
156 152 0
153 157 0
157 155 0
154 157 0
152 152 0
159 163 0
156 157 0
152 152 0
151 149 0
156 160 0
144 142 0
157 158 0
162 169 0
161 165 0
154 159 0
157 162 0
161 169 0
163 168 0
158 159 0
158 164 0
163 174 0
160 165 0
159 164 0
154 155 0
161 162 0
166 175 0
153 149 0
161 169 0
162 173 0
158 162 0
169 183 0
162 166 0
162 173 0
164 173 0
165 178 0
165 180 0
163 169 0
157 160 0
165 172 0
164 174 0
163 173 0
160 171 0
164 180 0
161 172 0
167 180 0
164 169 0
164 174 0
165 175 0
166 183 0
163 173 0
165 176 0
167 182 0
169 187 0
168 183 0
167 182 0
168 182 0
162 174 0
161 173 0
169 185 0
165 179 0
170 186 0
166 179 0
167 186 0
162 171 0
164 177 0
174 192 0
168 186 0
166 178 0
169 181 0
169 186 0
168 183 0
168 185 0
170 187 0
165 178 0
168 186 0
165 176 0
169 183 0
170 189 0
168 184 0
169 188 0
169 182 0
169 188 0
169 190 0
171 186 0
169 190 0
172 188 0
170 188 0
169 187 0
169 184 0
168 186 0
174 194 0
165 177 0
171 192 0
168 185 0
172 189 0
168 186 0
166 180 0
166 185 0
167 180 0
164 179 0
169 183 0
171 181 0
167 179 0
168 182 0
164 174 0
165 174 0
163 177 0
164 181 0
167 185 0
165 178 0
168 181 0
170 185 0
170 185 0
172 187 0
168 184 0
165 174 0
165 174 0
169 184 0
165 178 0
164 177 0
162 174 0
167 178 0
165 179 0
160 164 0
163 177 0
158 168 0
159 164 0
164 174 0
167 182 0
160 167 0
158 162 0
162 173 0
160 165 0
167 178 0
158 166 0
160 168 0
164 175 0
164 175 0
165 176 0
162 177 0
157 165 0
157 161 0
162 170 0
161 166 0
162 174 0
163 167 0
155 157 0
162 171 0
158 163 0
154 154 0
161 165 0
159 165 0
157 160 0
159 161 0
156 156 0
159 163 0
153 156 0
154 154 0
158 162 0
157 159 0
155 155 0
153 157 0
156 158 0
152 152 0
161 167 0
152 154 0
155 158 0
144 140 0
154 156 0
143 139 0
159 162 0
146 137 0
152 151 0
154 153 0
150 147 0
148 145 0
140 131 0
142 132 0
145 138 0
144 140 0
136 129 0
149 150 0
138 124 0
135 121 0
153 151 0
142 133 0
139 130 0
147 145 0
143 134 0
147 141 0
141 131 0
135 123 0
138 130 0
145 136 0
141 135 0
144 141 0
145 140 0
131 114 0
142 138 0
140 128 0
134 124 0
131 115 0
141 130 0
132 115 0
147 144 0
136 122 0
135 124 0
141 133 0
141 131 0
143 138 0
132 120 0
135 121 0
139 127 0
136 131 0
136 131 0
129 112 0
142 135 0
134 125 0
141 128 0
131 110 0
146 144 0
133 120 0
129 115 0
123 112 0
125 104 0
143 134 0
146 141 0
145 146 0
135 123 0
136 123 0
141 133 0
151 147 0
144 134 0
139 127 0
138 128 0
143 136 0
147 141 0
149 143 0
141 136 0
138 126 0
147 145 0
147 140 0
143 134 0
135 125 0
147 145 0
149 149 0
147 147 0
147 142 0
150 148 0
155 155 0
145 144 0
146 145 0
145 142 0
155 159 0
149 147 0
144 142 0
147 146 0
156 154 0
146 143 0
158 159 0
154 155 0
151 145 0
143 140 0
158 159 0
154 158 0
158 161 0
154 155 0
156 156 0
160 162 0
156 153 0
154 160 0
157 164 0
157 158 0
158 161 0
156 164 0
151 145 0
155 154 0
158 155 0
162 169 0
162 166 0
154 158 0
163 171 0
154 154 0
151 148 0
156 164 0
161 165 0
159 164 0
163 166 0
161 172 0
165 176 0
154 157 0
167 177 0
163 172 0
163 175 0
161 171 0
161 167 0
166 179 0
168 185 0
157 164 0
167 180 0
165 178 0
166 180 0
163 171 0
165 177 0
163 171 0
168 182 0
169 184 0
171 185 0
172 185 0
163 173 0
167 181 0
170 185 0
167 177 0
163 169 0
169 183 0
162 171 0
165 178 0
166 179 0
164 178 0
170 181 0
166 181 0
168 184 0
170 185 0
166 183 0
165 183 0
169 184 0
165 184 0
170 185 0
168 183 0
168 182 0
172 186 0
168 185 0
168 184 0
168 191 0
169 187 0
164 179 0
169 184 0
172 189 0
171 185 0
168 185 0
168 186 0
167 186 0
167 182 0
167 183 0
163 177 0
170 189 0
167 181 0
168 181 0
168 186 0
170 186 0
169 184 0
169 184 0
169 187 0
167 183 0
166 184 0
168 185 0
167 182 0
168 185 0
173 190 0
161 171 0
166 176 0
167 178 0
167 182 0
165 178 0
165 178 0
164 175 0
172 188 0
169 184 0
163 178 0
166 179 0
163 180 0
167 179 0
166 179 0
162 171 0
166 182 0
162 170 0
165 180 0
167 182 0
164 176 0
166 181 0
163 175 0
161 172 0
168 180 0
162 173 0
164 171 0
165 174 0
167 180 0
164 178 0
160 167 0
165 177 0
163 172 0
165 179 0
160 167 0
163 170 0
166 173 0
164 175 0
161 170 0
159 166 0
155 158 0
164 167 0
160 163 0
161 168 0
158 159 0
158 161 0
158 161 0
157 161 0
157 162 0
154 158 0
157 156 0
159 162 0
159 162 0
160 167 0
152 153 0
159 162 0
154 155 0
161 168 0
151 153 0
150 153 0
161 167 0
154 153 0
149 148 0
158 160 0
150 147 0
152 153 0
145 144 0
156 155 0
151 147 0
153 153 0
150 150 0
154 147 0
147 141 0
148 148 0
152 149 0
152 150 0
152 149 0
141 131 0
147 144 0
144 134 0
140 134 0
151 152 0
139 130 0
142 132 0
145 136 0
145 139 0
142 138 0
141 132 0
142 133 0
136 120 0
138 132 0
135 123 0
134 126 0
137 126 0
135 126 0
136 119 0
132 118 0
141 136 0
134 120 0
138 128 0
141 135 0
134 121 0
134 119 0
141 138 0
139 128 0
133 122 0
132 120 0
130 114 0
140 131 0
145 132 0
136 128 0
134 117 0
134 128 0
130 111 0
137 132 0
140 128 0
135 128 0
143 130 0
136 119 0
129 115 0
146 142 0
137 125 0
147 143 0
134 123 0
132 117 0
127 110 0
142 134 0
150 141 0
135 119 0
136 124 0
152 145 0
149 155 0
142 130 0
144 138 0
137 127 0
144 133 0
138 132 0
156 154 0
148 139 0
144 137 0
146 141 0
141 132 0
135 126 0
143 139 0
143 141 0
143 137 0
151 151 0
157 159 0
151 150 0
152 149 0
149 147 0
150 147 0
148 145 0
146 137 0
150 150 0
152 153 0
157 158 0
147 145 0
150 151 0
151 145 0
155 151 0
159 162 0
154 155 0
158 159 0
156 160 0
163 171 0
157 159 0
151 152 0
163 168 0
152 151 0
160 163 0
165 172 0
160 169 0
156 163 0
149 153 0
159 164 0
158 163 0
161 168 0
157 160 0
153 153 0
165 177 0
163 163 0
164 172 0
162 173 0
168 184 0
163 176 0
161 165 0
161 169 0
168 181 0
163 176 0
163 173 0
168 184 0
164 173 0
151 154 0
165 177 0
162 168 0
165 179 0
163 171 0
171 185 0
170 183 0
163 174 0
170 184 0
168 185 0
164 176 0
163 177 0
165 180 0
168 181 0
171 191 0
171 184 0
162 172 0
171 186 0
170 183 0
168 181 0
168 182 0
169 186 0
172 189 0
167 179 0
169 183 0
171 187 0
169 187 0
170 188 0
164 177 0
169 187 0
168 183 0
168 180 0
168 184 0
168 184 0
168 184 0
169 188 0
170 185 0
166 182 0
166 180 0
166 181 0
170 189 0
170 188 0
171 186 0
170 187 0
170 186 0
169 185 0
172 189 0
169 183 0
169 189 0
169 179 0
165 178 0
167 187 0
169 185 0
171 191 0
166 181 0
168 183 0
166 179 0
167 179 0
166 179 0
172 189 0
163 175 0
165 177 0
166 176 0
165 175 0
162 176 0
161 167 0
162 169 0
167 182 0
168 182 0
168 180 0
165 173 0
168 184 0
166 183 0
164 177 0
168 185 0
167 181 0
163 175 0
165 179 0
169 179 0
165 169 0
163 172 0
165 175 0
165 178 0
164 174 0
165 182 0
160 174 0
168 177 0
165 174 0
163 171 0
162 170 0
163 171 0
162 172 0
168 183 0
163 170 0
166 181 0
160 167 0
159 161 0
161 172 0
159 167 0
161 171 0
163 173 0
159 164 0
156 165 0
157 158 0
161 167 0
159 161 0
162 166 0
158 162 0
158 161 0
156 162 0
157 162 0
154 155 0
160 163 0
161 165 0
154 157 0
157 162 0
160 166 0
160 163 0
155 160 0
154 160 0
154 154 0
163 166 0
151 158 0
151 150 0
161 169 0
154 151 0
152 151 0
151 149 0
155 155 0
148 144 0
144 138 0
145 143 0
151 151 0
151 145 0
151 153 0
156 159 0
150 149 0
149 152 0
144 139 0
147 147 0
150 140 0
145 135 0
147 141 0
148 143 0
148 151 0
141 134 0
146 143 0
145 137 0
148 137 0
135 124 0
153 151 0
147 142 0
132 124 0
140 132 0
144 138 0
137 128 0
135 120 0
145 140 0
147 141 0
144 137 0
143 133 0
141 133 0
138 127 0
132 119 0
138 129 0
139 124 0
138 124 0
133 118 0
141 131 0
133 119 0
145 141 0
134 121 0
136 128 0
145 137 0
139 127 0
126 110 0
141 134 0
139 131 0
133 113 0
132 117 0
139 136 0
136 123 0
147 139 0
144 137 0
136 121 0
126 110 0
137 124 0
144 139 0
137 124 0
142 135 0
144 138 0
139 129 0
140 129 0
139 129 0
146 138 0
150 145 0
144 137 0
145 143 0
139 133 0
142 132 0
145 142 0
147 137 0
149 148 0
141 128 0
145 139 0
143 135 0
143 137 0
149 142 0
153 146 0
146 142 0
148 137 0
146 138 0
140 128 0
153 152 0
150 147 0
151 145 0
143 132 0
153 151 0
167 175 0
157 165 0
160 163 0
155 153 0
152 146 0
157 157 0
159 159 0
152 153 0
153 150 0
156 161 0
155 155 0
155 155 0
155 156 0
153 152 0
159 165 0
158 159 0
155 160 0
156 163 0
163 168 0
151 152 0
161 171 0
155 159 0
161 171 0
156 159 0
151 151 0
164 174 0
164 170 0
160 169 0
162 173 0
165 174 0
157 167 0
159 164 0
161 169 0
156 158 0
161 168 0
165 177 0
163 175 0
162 170 0
160 162 0
169 182 0
156 156 0
167 177 0
163 175 0
165 178 0
165 173 0
164 176 0
163 172 0
162 176 0
163 175 0
166 175 0
169 183 0
163 172 0
164 173 0
167 181 0
164 179 0
160 172 0
164 173 0
166 175 0
171 185 0
170 182 0
169 180 0
168 184 0
168 182 0
170 187 0
171 191 0
171 187 0
167 182 0
166 180 0
173 194 0
172 192 0
169 188 0
166 182 0
166 179 0
166 186 0
165 181 0
164 177 0
171 190 0
168 181 0
175 192 0
168 181 0
170 187 0
167 182 0
169 180 0
170 187 0
166 181 0
170 186 0
168 180 0
167 184 0
167 183 0
166 180 0
167 180 0
171 189 0
165 182 0
169 184 0
168 186 0
166 181 0
169 183 0
167 179 0
169 179 0
168 185 0
168 180 0
162 171 0
163 175 0
165 182 0
167 183 0
161 170 0
165 179 0
165 177 0
171 188 0
168 186 0
165 180 0
166 177 0
171 184 0
165 175 0
164 173 0
163 173 0
168 176 0
164 174 0
163 175 0
162 170 0
165 174 0
163 168 0
168 179 0
160 167 0
158 162 0
165 178 0
168 181 0
157 163 0
164 173 0
168 182 0
168 180 0
161 165 0
162 171 0
162 168 0
166 179 0
158 165 0
163 176 0
164 177 0
160 163 0
160 172 0
156 157 0
166 173 0
163 173 0
154 156 0
161 172 0
154 150 0
160 167 0
154 155 0
156 162 0
157 152 0
162 170 0
151 152 0
157 158 0
158 161 0
161 166 0
159 166 0
163 170 0
163 168 0
148 147 0
158 157 0
149 148 0
154 158 0
148 141 0
148 141 0
154 157 0
161 168 0
153 152 0
153 152 0
153 151 0
151 149 0
143 132 0
152 149 0
151 149 0
144 138 0
154 153 0
150 148 0
154 155 0
148 143 0
149 147 0
134 124 0
146 143 0
151 152 0
151 145 0
153 154 0
148 146 0
144 138 0
148 144 0
149 146 0
141 138 0
144 139 0
138 125 0
147 144 0
141 129 0
146 139 0
127 120 0
137 128 0
145 133 0
135 126 0
147 145 0
134 126 0
142 136 0
140 129 0
143 131 0
133 118 0
135 123 0
149 149 0
138 130 0
147 146 0
143 138 0
146 142 0
140 128 0
143 131 0
133 129 0
137 132 0
131 117 0
137 127 0
146 149 0
140 135 0
137 120 0
133 120 0
140 131 0
138 130 0
140 131 0
138 132 0
147 139 0
136 122 0
133 121 0
138 129 0
136 121 0
143 138 0
144 140 0
151 150 0
141 127 0
139 126 0
138 131 0
145 141 0
151 146 0
143 139 0
147 140 0
151 150 0
146 139 0
149 144 0
155 149 0
140 128 0
151 147 0
153 149 0
146 141 0
151 146 0
157 158 0
137 118 0
155 151 0
149 148 0
155 155 0
141 130 0
152 152 0
148 141 0
158 164 0
153 156 0
150 146 0
150 147 0
154 158 0
148 142 0
153 152 0
154 154 0
150 148 0
161 170 0
158 162 0
157 165 0
160 166 0
164 169 0
164 171 0
157 160 0
163 169 0
159 166 0
158 165 0
161 164 0
163 173 0
158 163 0
162 169 0
164 173 0
159 161 0
157 161 0
167 176 0
164 173 0
162 174 0
166 181 0
155 162 0
166 180 0
166 178 0
161 172 0
161 173 0
167 177 0
162 170 0
162 172 0
160 169 0
168 186 0
166 180 0
166 181 0
165 178 0
163 172 0
167 174 0
162 173 0
163 176 0
165 177 0
167 183 0
166 175 0
163 171 0
164 173 0
161 175 0
169 182 0
165 179 0
166 182 0
166 183 0
167 180 0
172 190 0
168 179 0
167 186 0
168 182 0
167 186 0
165 178 0
161 172 0
164 180 0
164 180 0
169 184 0
164 181 0
170 184 0
169 189 0
171 188 0
168 186 0
173 191 0
169 184 0
164 179 0
172 187 0
168 182 0
165 182 0
172 190 0
171 191 0
168 188 0
171 190 0
168 183 0
163 176 0
168 186 0
167 178 0
166 181 0
168 185 0
168 183 0
169 188 0
167 184 0
167 183 0
163 175 0
170 185 0
172 190 0
169 186 0
168 184 0
173 190 0
164 182 0
168 183 0
169 184 0
170 186 0
165 178 0
163 175 0
170 187 0
167 181 0
162 170 0
164 182 0
167 179 0
169 187 0
166 183 0
165 175 0
169 184 0
170 184 0
163 173 0
166 178 0
166 180 0
164 175 0
163 170 0
164 171 0
162 173 0
164 173 0
165 179 0
162 174 0
166 179 0
162 167 0
163 170 0
165 176 0
162 170 0
167 177 0
163 169 0
158 167 0
162 168 0
162 172 0
158 164 0
166 179 0
159 165 0
162 171 0
160 167 0
161 165 0
156 158 0
156 161 0
164 169 0
156 162 0
156 156 0
161 165 0
149 146 0
149 148 0
159 161 0
159 163 0
159 163 0
164 171 0
164 172 0
160 165 0
160 167 0
162 166 0
158 160 0
158 162 0
152 150 0
150 152 0
157 158 0
149 146 0
154 150 0
149 147 0
154 152 0
159 162 0
153 153 0
153 153 0
158 156 0
152 152 0
155 158 0
152 147 0
153 155 0
145 138 0
150 150 0
149 144 0
152 151 0
153 152 0
149 144 0
158 162 0
151 153 0
138 127 0
141 136 0
149 143 0
150 144 0
138 128 0
150 151 0
146 142 0
153 154 0
140 128 0
154 157 0
140 125 0
137 120 0
141 136 0
145 141 0
144 135 0
145 132 0
141 136 0
144 140 0
141 139 0
142 130 0
143 128 0
145 141 0
145 142 0
128 118 0
138 125 0
137 129 0
136 128 0
144 134 0
148 148 0
138 128 0
147 144 0
134 119 0
141 130 0
150 147 0
148 145 0
147 146 0
141 132 0
139 130 0
138 127 0
135 119 0
141 136 0
142 137 0
140 132 0
142 138 0
139 127 0
151 153 0
148 141 0
146 134 0
140 126 0
135 121 0
145 144 0
145 139 0
147 137 0
144 139 0
144 138 0
151 150 0
152 153 0
156 155 0
153 150 0
151 147 0
155 157 0
157 158 0
146 140 0
149 146 0
152 151 0
156 154 0
145 138 0
146 140 0
150 148 0
148 145 0
151 144 0
149 149 0
152 151 0
149 146 0
149 142 0
158 162 0
154 150 0
158 162 0
149 148 0
160 160 0
155 155 0
158 160 0
153 161 0
158 165 0
147 144 0
157 164 0
155 158 0
156 156 0
162 170 0
151 151 0
158 159 0
155 162 0
161 172 0
161 166 0
153 155 0
164 171 0
158 165 0
159 164 0
161 168 0
156 163 0
166 175 0
160 168 0
169 179 0
160 169 0
162 169 0
161 173 0
160 168 0
166 180 0
165 179 0
163 172 0
154 161 0
167 182 0
167 181 0
164 175 0
169 181 0
163 173 0
162 172 0
162 174 0
165 177 0
168 185 0
165 181 0
165 180 0
168 180 0
164 174 0
164 179 0
163 176 0
168 183 0
167 183 0
170 183 0
165 176 0
164 178 0
170 187 0
170 186 0
169 182 0
163 171 0
170 187 0
162 173 0
164 180 0
165 175 0
171 191 0
171 189 0
168 179 0
169 184 0
172 189 0
169 188 0
172 189 0
172 190 0
166 178 0
172 191 0
166 181 0
169 186 0
165 177 0
167 181 0
165 177 0
172 190 0
167 183 0
167 182 0
172 192 0
172 191 0
169 185 0
171 190 0
166 183 0
170 188 0
161 168 0
166 184 0
159 171 0
168 185 0
164 178 0
167 181 0
169 188 0
167 182 0
166 181 0
168 178 0
164 175 0
164 176 0
166 175 0
166 178 0
164 177 0
169 185 0
162 173 0
166 178 0
163 174 0
168 186 0
166 180 0
163 176 0
168 183 0
167 182 0
167 183 0
164 177 0
164 174 0
163 174 0
165 177 0
164 178 0
166 180 0
166 178 0
168 183 0
156 164 0
162 165 0
165 175 0
157 165 0
165 176 0
162 171 0
163 174 0
164 176 0
165 176 0
166 178 0
159 166 0
162 169 0
158 167 0
157 162 0
160 164 0
164 175 0
164 175 0
160 163 0
159 162 0
161 171 0
161 167 0
162 168 0
160 165 0
165 177 0
167 178 0
157 159 0
160 167 0
163 167 0
166 175 0
156 158 0
158 165 0
152 154 0
153 154 0
154 163 0
157 159 0
164 173 0
159 158 0
168 178 0
155 158 0
155 155 0
147 144 0
156 155 0
162 169 0
159 156 0
153 146 0
153 152 0
150 149 0
152 149 0
149 148 0
144 143 0
151 153 0
160 167 0
146 141 0
152 147 0
149 144 0
160 163 0
154 154 0
147 137 0
156 158 0
155 158 0
144 133 0
155 154 0
150 144 0
154 152 0
150 145 0
140 134 0
150 150 0
140 130 0
144 135 0
145 138 0
139 128 0
139 133 0
149 148 0
144 137 0
141 131 0
147 148 0
153 152 0
146 144 0
135 124 0
137 128 0
146 145 0
143 139 0
144 134 0
145 139 0
141 135 0
143 135 0
156 162 0
149 147 0
139 127 0
139 129 0
126 107 0
140 129 0
149 147 0
134 122 0
143 134 0
146 142 0
148 139 0
150 146 0
154 154 0
146 143 0
154 150 0
140 130 0
143 134 0
138 126 0
141 129 0
139 130 0
148 140 0
142 136 0
150 143 0
148 143 0
144 140 0
141 131 0
149 142 0
145 140 0
153 151 0
147 138 0
143 138 0
156 152 0
136 124 0
153 148 0
147 142 0
143 135 0
149 144 0
148 142 0
151 146 0
136 126 0
154 153 0
149 148 0
151 150 0
149 144 0
155 154 0
151 148 0
160 166 0
150 148 0
158 155 0
152 155 0
151 152 0
155 157 0
152 148 0
151 151 0
157 158 0
158 161 0
155 160 0
154 157 0
158 164 0
152 154 0
156 161 0
158 166 0
156 160 0
147 142 0
160 160 0
157 161 0
158 166 0
158 158 0
168 183 0
157 162 0
158 161 0
169 176 0
157 165 0
157 162 0
155 156 0
162 167 0
158 160 0
154 156 0
160 173 0
161 168 0
160 169 0
160 171 0
170 181 0
164 172 0
159 164 0
166 178 0
168 183 0
160 167 0
164 173 0
169 181 0
161 168 0
170 187 0
164 176 0
171 183 0
164 172 0
165 181 0
163 177 0
160 166 0
167 182 0
164 174 0
168 188 0
167 178 0
167 179 0
168 185 0
162 171 0
170 185 0
166 181 0
167 179 0
166 179 0
167 183 0
167 184 0
172 190 0
162 178 0
168 182 0
167 180 0
169 185 0
171 186 0
167 182 0
167 185 0
164 180 0
161 172 0
169 187 0
170 185 0
166 179 0
165 184 0
168 184 0
171 187 0
167 178 0
168 188 0
168 183 0
165 179 0
169 184 0
166 182 0
168 183 0
167 180 0
166 183 0
163 177 0
172 190 0
168 185 0
168 180 0
167 185 0
167 183 0
169 188 0
170 187 0
170 188 0
171 190 0
169 185 0
171 189 0
166 184 0
160 172 0
171 191 0
170 189 0
171 187 0
162 170 0
165 182 0
162 166 0
163 175 0
169 180 0
164 175 0
164 172 0
166 179 0
168 181 0
167 180 0
162 174 0
159 164 0
163 174 0
172 190 0
164 179 0
165 172 0
164 172 0
164 176 0
162 175 0
164 175 0
167 182 0
164 175 0
162 167 0
166 181 0
161 172 0
164 171 0
164 170 0
168 181 0
162 171 0
169 180 0
158 166 0
160 169 0
160 165 0
160 168 0
161 171 0
159 163 0
155 161 0
164 174 0
159 160 0
165 173 0
158 161 0
156 158 0
158 159 0
162 169 0
156 163 0
158 161 0
158 165 0
160 162 0
158 162 0
161 167 0
150 153 0
151 147 0
157 162 0
154 152 0
161 165 0
154 152 0
156 163 0
156 156 0
161 167 0
150 147 0
153 153 0
154 148 0
152 150 0
152 153 0
151 146 0
154 154 0
159 165 0
156 152 0
142 132 0
146 139 0
148 147 0
154 155 0
159 158 0
160 161 0
149 144 0
148 147 0
148 144 0
145 136 0
156 158 0
148 146 0
145 140 0
151 147 0
154 155 0
148 140 0
143 130 0
144 140 0
144 143 0
148 145 0
144 134 0
155 155 0
145 142 0
147 140 0
152 149 0
145 147 0
147 139 0
154 156 0
140 130 0
147 143 0
145 136 0
141 134 0
149 146 0
142 130 0
137 128 0
142 135 0
143 136 0
135 124 0
152 151 0
139 132 0
147 144 0
142 133 0
142 135 0
136 122 0
153 149 0
146 143 0
144 135 0
140 133 0
141 133 0
143 140 0
145 139 0
152 149 0
145 140 0
150 150 0
144 138 0
139 126 0
145 137 0
147 146 0
150 150 0
151 147 0
153 151 0
146 145 0
151 149 0
147 142 0
147 142 0
146 140 0
148 147 0
146 147 0
152 153 0
148 139 0
146 143 0
151 148 0
158 155 0
153 150 0
151 146 0
147 145 0
157 160 0
160 166 0
154 150 0
155 150 0
156 155 0
155 160 0
154 154 0
151 145 0
156 159 0
157 161 0
150 146 0
160 167 0
151 147 0
156 158 0
156 159 0
158 162 0
155 157 0
160 167 0
161 171 0
163 171 0
163 168 0
157 160 0
163 173 0
155 159 0
153 158 0
162 164 0
162 170 0
158 159 0
163 167 0
165 177 0
162 172 0
161 168 0
161 163 0
152 151 0
161 170 0
160 169 0
162 166 0
163 173 0
162 170 0
163 169 0
166 181 0
164 174 0
155 159 0
162 168 0
162 169 0
165 178 0
164 172 0
160 168 0
164 178 0
163 173 0
162 173 0
162 175 0
164 178 0
171 185 0
159 169 0
165 177 0
162 174 0
168 184 0
167 181 0
164 176 0
167 182 0
166 182 0
170 185 0
160 171 0
164 178 0
165 175 0
164 178 0
164 177 0
167 180 0
168 185 0
167 178 0
166 175 0
167 179 0
167 183 0
168 184 0
168 183 0
166 181 0
166 180 0
163 176 0
167 178 0
172 191 0
169 187 0
165 178 0
167 186 0
172 190 0
167 182 0
170 185 0
168 184 0
165 183 0
172 191 0
169 186 0
171 188 0
167 182 0
169 184 0
164 180 0
169 186 0
167 183 0
167 180 0
168 183 0
167 178 0
164 180 0
171 190 0
168 183 0
169 186 0
168 185 0
169 188 0
168 185 0
166 182 0
167 183 0
169 183 0
165 179 0
165 179 0
170 188 0
169 182 0
170 182 0
168 181 0
165 178 0
166 179 0
159 166 0
167 177 0
163 175 0
163 173 0
166 180 0
167 182 0
159 167 0
168 181 0
166 179 0
160 170 0
162 174 0
164 178 0
168 181 0
169 180 0
168 180 0
170 186 0
167 182 0
165 177 0
167 181 0
159 165 0
162 169 0
158 164 0
161 169 0
164 177 0
164 173 0
169 185 0
163 172 0
166 177 0
153 156 0
161 175 0
159 164 0
156 161 0
155 158 0
162 168 0
157 159 0
167 178 0
158 161 0
160 168 0
158 161 0
158 165 0
156 162 0
164 171 0
159 162 0
162 172 0
158 161 0
166 176 0
164 171 0
156 160 0
155 155 0
149 147 0
155 159 0
152 151 0
155 156 0
154 151 0
162 168 0
148 144 0
153 158 0
154 159 0
154 155 0
159 165 0
152 150 0
157 159 0
160 167 0
150 143 0
155 152 0
138 129 0
155 155 0
160 168 0
151 149 0
142 129 0
159 161 0
155 152 0
147 141 0
146 142 0
148 145 0
147 137 0
144 134 0
152 153 0
151 148 0
154 151 0
149 146 0
142 131 0
137 131 0
145 136 0
138 131 0
148 147 0
144 133 0
142 136 0
144 136 0
155 152 0
136 125 0
138 125 0
140 134 0
140 130 0
142 129 0
138 122 0
149 144 0
142 134 0
150 149 0
146 138 0
143 138 0
137 125 0
141 136 0
149 148 0
140 133 0
147 141 0
147 143 0
147 145 0
139 127 0
144 137 0
150 143 0
145 139 0
146 142 0
144 137 0
134 126 0
144 137 0
142 132 0
146 145 0
147 144 0
146 139 0
147 137 0
143 136 0
146 143 0
154 151 0
153 150 0
149 143 0
149 146 0
148 144 0
148 144 0
149 149 0
154 155 0
145 140 0
147 137 0
135 127 0
153 148 0
138 129 0
146 141 0
152 153 0
158 162 0
155 157 0
151 158 0
153 151 0
152 154 0
159 164 0
159 164 0
162 167 0
159 166 0
150 149 0
163 172 0
153 153 0
157 163 0
166 177 0
156 158 0
154 153 0
155 159 0
157 157 0
158 161 0
151 150 0
158 159 0
156 160 0
151 151 0
150 149 0
161 165 0
152 152 0
163 168 0
159 164 0
158 168 0
163 169 0
160 161 0
159 165 0
163 175 0
156 159 0
165 177 0
158 166 0
156 162 0
161 164 0
164 171 0
161 169 0
164 171 0
168 180 0
162 171 0
160 166 0
165 176 0
165 173 0
163 176 0
167 177 0
161 174 0
162 171 0
163 174 0
168 178 0
166 180 0
167 182 0
164 178 0
165 177 0
160 169 0
171 189 0
164 175 0
162 172 0
165 176 0
167 179 0
170 186 0
169 189 0
164 179 0
164 179 0
168 181 0
167 183 0
166 181 0
166 177 0
167 183 0
164 179 0
166 178 0
170 185 0
163 176 0
168 185 0
169 183 0
170 185 0
164 173 0
166 182 0
166 180 0
168 183 0
166 182 0
171 191 0
166 181 0
168 181 0
169 186 0
168 185 0
172 187 0
173 191 0
173 190 0
167 183 0
165 182 0
171 190 0
165 178 0
171 186 0
172 187 0
171 186 0
166 177 0
167 180 0
165 179 0
169 184 0
167 180 0
163 176 0
169 181 0
170 187 0
161 173 0
174 188 0
173 191 0
164 178 0
162 168 0
166 178 0
168 185 0
162 170 0
167 179 0
166 179 0
169 185 0
167 181 0
169 183 0
160 166 0
165 176 0
169 184 0
168 184 0
165 178 0
165 178 0
162 171 0
168 181 0
166 178 0
162 169 0
162 171 0
161 165 0
165 175 0
161 169 0
159 164 0
164 175 0
164 172 0
161 169 0
165 171 0
166 175 0
166 176 0
161 171 0
161 165 0
155 155 0
161 167 0
163 172 0
167 182 0
161 172 0
159 166 0
162 167 0
159 168 0
154 155 0
154 156 0
161 164 0
169 179 0
162 168 0
161 165 0
162 173 0
160 170 0
159 164 0
155 159 0
158 163 0
150 149 0
163 172 0
165 177 0
152 151 0
158 161 0
156 160 0
151 154 0
156 154 0
155 159 0
155 156 0
161 161 0
148 144 0
159 166 0
157 155 0
148 144 0
158 161 0
154 156 0
157 157 0
158 161 0
147 144 0
152 153 0
152 152 0
149 143 0
153 154 0
159 159 0
153 151 0
150 151 0
161 166 0
149 144 0
151 149 0
144 134 0
153 155 0
152 150 0
149 146 0
150 148 0
151 152 0
140 137 0
154 153 0
148 143 0
138 128 0
148 144 0
131 117 0
143 136 0
145 141 0
160 165 0
152 151 0
148 140 0
147 146 0
145 143 0
142 135 0
147 143 0
150 144 0
147 146 0
146 145 0
147 142 0
139 120 0
152 158 0
140 138 0
154 153 0
143 138 0
149 149 0
150 147 0
139 122 0
149 144 0
141 132 0
143 138 0
149 144 0
139 132 0
147 141 0
143 140 0
147 138 0
142 132 0
152 151 0
152 151 0
141 129 0
155 162 0
157 158 0
149 146 0
145 136 0
149 147 0
140 130 0
155 160 0
152 150 0
151 151 0
143 138 0
154 152 0
151 148 0
157 159 0
150 149 0
151 147 0
149 143 0
149 148 0
158 162 0
163 168 0
148 146 0
153 153 0
152 150 0
155 160 0
144 141 0
153 157 0
160 164 0
159 156 0
152 153 0
148 144 0
153 154 0
161 167 0
151 148 0
154 159 0
153 152 0
154 154 0
158 159 0
159 167 0
159 166 0
154 158 0
152 148 0
157 162 0
156 154 0
164 173 0
160 166 0
152 152 0
156 166 0
169 184 0
160 170 0
156 164 0
165 173 0
160 166 0
155 163 0
161 169 0
168 178 0
161 166 0
164 173 0
163 176 0
161 164 0
154 153 0
162 172 0
162 174 0
170 181 0
162 173 0
165 176 0
158 163 0
164 175 0
159 166 0
166 180 0
165 180 0
162 169 0
161 170 0
162 173 0
159 171 0
167 178 0
165 176 0
163 172 0
164 179 0
162 172 0
163 179 0
172 189 0
163 173 0
161 177 0
165 176 0
165 180 0
161 172 0
162 173 0
161 171 0
166 180 0
165 178 0
162 171 0
170 187 0
167 183 0
167 182 0
168 185 0
166 180 0
168 181 0
165 179 0
170 185 0
168 181 0
169 187 0
172 190 0
160 173 0
167 177 0
170 189 0
165 181 0
165 182 0
167 180 0
168 185 0
164 178 0
173 193 0
169 186 0
164 179 0
167 179 0
167 180 0
168 185 0
171 189 0
167 182 0
166 176 0
172 191 0
170 188 0
165 186 0
169 183 0
169 185 0
163 178 0
172 189 0
163 176 0
171 189 0
166 181 0
169 189 0
171 189 0
167 179 0
164 177 0
170 184 0
162 168 0
164 175 0
170 183 0
166 172 0
168 180 0
165 177 0
164 176 0
163 175 0
169 180 0
162 170 0
168 182 0
167 179 0
170 182 0
162 171 0
158 162 0
167 177 0
167 181 0
162 171 0
162 174 0
166 177 0
165 176 0
164 171 0
164 175 0
157 166 0
167 179 0
164 171 0
162 168 0
164 172 0
162 172 0
164 174 0
162 171 0
167 174 0
161 168 0
156 163 0
164 175 0
164 175 0
162 168 0
158 164 0
161 167 0
163 174 0
157 164 0
165 173 0
161 167 0
157 163 0
161 170 0
157 159 0
158 161 0
164 173 0
154 152 0
154 156 0
164 175 0
162 171 0
154 158 0
160 164 0
155 156 0
153 153 0
161 164 0
157 160 0
156 162 0
152 154 0
153 156 0
156 159 0
155 159 0
154 153 0
160 171 0
155 155 0
153 152 0
148 143 0
151 154 0
160 160 0
146 145 0
155 155 0
161 167 0
152 157 0
146 138 0
152 153 0
152 146 0
143 125 0
154 150 0
155 156 0
149 143 0
144 137 0
135 127 0
154 156 0
161 165 0
155 158 0
149 149 0
152 154 0
139 127 0
148 145 0
149 149 0
140 134 0
148 144 0
143 131 0
149 148 0
141 128 0
137 125 0
139 135 0
156 157 0
146 137 0
144 138 0
143 138 0
141 135 0
148 144 0
142 136 0
139 132 0
141 132 0
140 134 0
147 141 0
151 146 0
138 130 0
139 130 0
141 136 0
141 135 0
145 141 0
145 140 0
142 132 0
154 157 0
149 141 0
157 156 0
153 154 0
152 147 0
148 146 0
148 146 0
138 127 0
141 132 0
153 148 0
145 139 0
143 142 0
159 157 0
150 145 0
148 146 0
150 148 0
151 150 0
150 146 0
147 138 0
150 147 0
152 156 0
152 148 0
158 158 0
145 137 0
155 155 0
153 150 0
147 149 0
157 159 0
155 156 0
157 160 0
159 165 0
161 166 0
152 146 0
143 141 0
155 158 0
157 155 0
153 152 0
157 161 0
160 160 0
159 164 0
154 156 0
153 154 0
154 157 0
156 161 0
156 154 0
153 154 0
156 155 0
162 173 0
156 159 0
165 174 0
162 170 0
161 171 0
157 165 0
163 176 0
159 165 0
160 172 0
157 156 0
162 173 0
161 168 0
163 168 0
157 162 0
157 162 0
163 176 0
160 168 0
159 168 0
162 168 0
166 171 0
163 175 0
160 167 0
166 178 0
164 173 0
160 166 0
160 166 0
163 176 0
161 173 0
164 175 0
166 178 0
168 182 0
160 160 0
166 177 0
164 171 0
170 183 0
162 171 0
167 180 0
166 182 0
167 182 0
168 181 0
169 186 0
166 182 0
165 181 0
167 179 0
165 172 0
163 177 0
170 182 0
168 183 0
167 179 0
169 183 0
171 187 0
170 191 0
164 178 0
164 176 0
169 182 0
162 170 0
171 187 0
168 184 0
166 180 0
167 180 0
168 181 0
168 179 0
167 182 0
165 180 0
169 189 0
168 179 0
169 191 0
168 185 0
168 186 0
165 176 0
165 181 0
167 181 0
171 185 0
166 180 0
170 186 0
166 177 0
170 186 0
167 185 0
171 188 0
164 174 0
171 189 0
171 186 0
171 188 0
167 182 0
170 186 0
166 180 0
166 180 0
163 176 0
166 176 0
162 170 0
164 175 0
163 170 0
164 176 0
164 176 0
167 183 0
167 182 0
165 178 0
168 186 0
165 177 0
168 184 0
164 175 0
168 183 0
171 186 0
166 180 0
166 176 0
166 177 0
166 179 0
167 176 0
164 178 0
164 175 0
157 156 0
161 170 0
163 172 0
167 179 0
160 160 0
163 172 0
163 168 0
162 167 0
159 165 0
156 159 0
160 169 0
165 175 0
162 169 0
165 173 0
159 164 0
160 172 0
161 166 0
163 170 0
164 178 0
159 163 0
162 171 0
166 177 0
158 163 0
165 170 0
161 165 0
158 165 0
163 170 0
160 166 0
149 144 0
167 175 0
159 162 0
155 157 0
160 164 0
151 151 0
151 152 0
154 157 0
154 158 0
159 162 0
158 157 0
160 168 0
156 156 0
156 152 0
155 157 0
159 161 0
151 152 0
155 159 0
154 156 0
146 139 0
152 157 0
146 144 0
153 154 0
156 151 0
156 157 0
154 152 0
153 150 0
157 160 0
148 144 0
151 146 0
148 146 0
153 147 0
145 146 0
146 140 0
145 141 0
154 151 0
155 157 0
151 146 0
147 140 0
149 146 0
151 148 0
150 148 0
135 121 0
148 146 0
142 138 0
147 142 0
138 127 0
156 159 0
156 161 0
156 159 0
155 154 0
141 134 0
146 144 0
148 140 0
155 156 0
152 151 0
152 150 0
146 136 0
148 138 0
152 144 0
148 142 0
153 153 0
146 144 0
148 145 0
144 137 0
152 150 0
152 146 0
152 149 0
148 144 0
145 141 0
146 144 0
148 147 0
151 147 0
139 124 0
149 145 0
145 144 0
151 148 0
142 141 0
146 141 0
150 145 0
152 152 0
146 146 0
146 139 0
146 137 0
150 143 0
150 148 0
148 142 0
157 160 0
148 144 0
149 148 0
154 159 0
150 150 0
158 162 0
152 150 0
153 153 0
154 159 0
155 152 0
154 151 0
152 155 0
148 143 0
156 162 0
151 147 0
155 156 0
164 167 0
151 150 0
154 152 0
152 150 0
159 164 0
159 171 0
159 167 0
155 160 0
152 154 0
159 168 0
160 164 0
160 164 0
160 163 0
162 167 0
160 165 0
155 157 0
159 160 0
156 161 0
157 163 0
158 161 0
164 168 0
163 172 0
166 183 0
157 164 0
160 170 0
163 173 0
161 169 0
165 178 0
159 162 0
165 180 0
161 168 0
160 162 0
157 157 0
163 171 0
165 182 0
161 165 0
165 177 0
168 181 0
153 154 0
168 182 0
166 180 0
158 163 0
158 163 0
165 176 0
162 174 0
165 179 0
165 181 0
165 178 0
162 174 0
166 177 0
167 178 0
166 177 0
163 174 0
160 167 0
161 171 0
165 180 0
165 178 0
163 176 0
167 177 0
163 175 0
170 187 0
164 170 0
164 179 0
167 184 0
171 187 0
165 177 0
166 179 0
168 185 0
165 180 0
166 179 0
171 186 0
165 177 0
165 178 0
168 184 0
168 185 0
167 182 0
167 185 0
168 189 0
163 172 0
168 183 0
167 181 0
166 184 0
170 185 0
169 183 0
168 183 0
166 181 0
169 187 0
165 180 0
166 185 0
167 184 0
170 189 0
166 179 0
173 191 0
169 183 0
169 184 0
169 185 0
168 184 0
171 187 0
168 185 0
162 172 0
166 180 0
168 183 0
167 181 0
170 186 0
166 177 0
171 188 0
164 174 0
166 176 0
167 182 0
168 185 0
162 175 0
165 177 0
163 180 0
166 181 0
162 171 0
168 184 0
165 174 0
160 167 0
163 177 0
168 183 0
166 178 0
172 188 0
165 177 0
159 168 0
167 178 0
164 172 0
163 175 0
163 172 0
159 167 0
165 177 0
168 178 0
166 179 0
165 172 0
162 170 0
165 173 0
162 167 0
161 171 0
155 155 0
164 177 0
165 176 0
163 172 0
158 158 0
161 168 0
155 154 0
159 164 0
153 157 0
158 165 0
161 170 0
160 164 0
157 160 0
158 165 0
155 154 0
160 166 0
163 173 0
161 166 0
156 158 0
162 166 0
165 172 0
156 158 0
159 163 0
152 155 0
161 166 0
156 161 0
157 162 0
155 157 0
158 160 0
152 151 0
153 151 0
165 175 0
161 165 0
163 172 0
146 142 0
158 159 0
156 159 0
156 159 0
160 169 0
151 150 0
153 158 0
150 148 0
154 153 0
157 156 0
151 149 0
149 141 0
150 147 0
143 134 0
157 162 0
156 156 0
148 145 0
140 138 0
154 151 0
155 161 0
147 146 0
150 149 0
144 137 0
146 140 0
150 143 0
148 145 0
143 140 0
140 131 0
149 138 0
142 137 0
154 151 0
148 147 0
154 154 0
143 141 0
147 139 0
150 147 0
146 137 0
150 152 0
153 155 0
147 142 0
146 144 0
146 142 0
152 147 0
142 136 0
152 152 0
152 151 0
149 147 0
153 155 0
147 144 0
147 139 0
147 142 0
155 157 0
151 145 0
149 145 0
151 149 0
157 154 0
149 150 0
148 146 0
152 154 0
146 139 0
146 137 0
157 163 0
152 152 0
156 154 0
156 158 0
153 154 0
150 146 0
146 138 0
151 149 0
155 157 0
159 161 0
153 155 0
147 138 0
155 157 0
147 141 0
142 131 0
146 142 0
152 153 0
160 166 0
159 163 0
160 166 0
161 166 0
156 156 0
159 158 0
153 152 0
160 165 0
152 157 0
157 158 0
145 144 0
158 159 0
156 164 0
163 170 0
158 162 0
149 147 0
150 151 0
159 162 0
157 159 0
159 163 0
160 168 0
157 165 0
160 168 0
160 167 0
159 165 0
159 161 0
152 144 0
163 166 0
161 170 0
162 168 0
157 164 0
162 168 0
163 170 0
159 165 0
161 167 0
158 161 0
160 170 0
161 166 0
167 177 0
167 180 0
168 183 0
170 181 0
156 156 0
159 168 0
157 157 0
166 175 0
166 179 0
158 167 0
166 180 0
164 172 0
162 175 0
161 167 0
167 177 0
163 176 0
165 178 0
158 165 0
165 177 0
166 178 0
164 173 0
170 182 0
167 182 0
169 184 0
163 176 0
165 173 0
166 181 0
163 176 0
167 182 0
163 176 0
173 190 0
166 178 0
166 177 0
168 183 0
169 187 0
163 174 0
166 178 0
164 174 0
171 185 0
165 175 0
169 184 0
165 182 0
169 185 0
169 188 0
170 188 0
166 181 0
171 188 0
166 183 0
169 188 0
165 178 0
165 180 0
169 185 0
171 189 0
171 187 0
169 185 0
167 185 0
168 187 0
165 178 0
168 181 0
168 187 0
173 192 0
165 177 0
165 177 0
167 182 0
166 180 0
166 183 0
168 184 0
157 162 0
171 188 0
168 181 0
166 179 0
167 180 0
171 188 0
171 189 0
164 175 0
168 185 0
167 177 0
163 175 0
165 175 0
165 175 0
165 179 0
167 183 0
167 181 0
167 182 0
164 174 0
170 185 0
164 178 0
166 180 0
165 182 0
162 170 0
162 174 0
163 175 0
158 168 0
166 173 0
159 169 0
166 176 0
160 168 0
162 168 0
162 169 0
168 180 0
162 171 0
160 165 0
164 169 0
167 178 0
163 173 0
162 174 0
162 175 0
167 180 0
168 181 0
159 165 0
168 181 0
160 163 0
165 177 0
159 161 0
166 173 0
169 184 0
163 175 0
165 172 0
159 168 0
158 166 0
159 165 0
154 154 0
158 165 0
161 168 0
159 163 0
166 176 0
159 166 0
154 155 0
158 160 0
157 164 0
162 167 0
160 166 0
160 162 0
157 163 0
160 164 0
157 159 0
158 164 0
164 174 0
160 164 0
159 160 0
159 168 0
164 172 0
164 171 0
156 153 0
150 151 0
157 160 0
154 155 0
160 168 0
149 143 0
150 152 0
149 148 0
148 137 0
153 155 0
154 155 0
152 153 0
150 146 0
155 154 0
146 140 0
153 147 0
152 153 0
150 148 0
148 146 0
148 145 0
146 142 0
145 138 0
158 162 0
147 139 0
144 137 0
149 143 0
153 154 0
146 142 0
155 156 0
144 136 0
152 138 0
145 138 0
146 143 0
145 143 0
144 134 0
160 162 0
148 147 0
151 144 0
152 149 0
140 128 0
152 147 0
157 160 0
149 148 0
151 146 0
146 152 0
157 155 0
155 157 0
146 138 0
148 136 0
153 150 0
151 150 0
139 129 0
148 146 0
148 148 0
150 147 0
159 162 0
152 148 0
153 150 0
143 143 0
149 149 0
152 151 0
147 138 0
150 149 0
149 149 0
156 161 0
152 153 0
151 145 0
148 143 0
157 161 0
152 148 0
155 158 0
151 151 0
153 157 0
151 150 0
152 153 0
154 150 0
160 166 0
151 152 0
153 151 0
152 153 0
155 156 0
162 171 0
157 158 0
158 160 0
154 150 0
156 160 0
156 156 0
157 159 0
156 158 0
157 160 0
151 150 0
154 155 0
156 158 0
159 164 0
153 154 0
156 161 0
156 156 0
164 175 0
158 162 0
158 162 0
165 172 0
160 164 0
165 172 0
160 160 0
161 166 0
153 154 0
159 164 0
163 172 0
161 167 0
166 174 0
164 168 0
166 176 0
162 171 0
162 171 0
163 170 0
156 161 0
162 171 0
164 175 0
157 164 0
167 177 0
164 171 0
169 183 0
164 177 0
165 178 0
167 181 0
159 165 0
158 164 0
164 172 0
166 179 0
168 185 0
170 182 0
165 181 0
168 184 0
166 176 0
165 183 0
162 176 0
166 179 0
166 174 0
166 181 0
159 166 0
168 186 0
168 182 0
164 174 0
168 183 0
160 172 0
172 186 0
165 180 0
164 176 0
167 183 0
170 187 0
162 172 0
165 182 0
165 176 0
166 179 0
165 177 0
164 174 0
168 184 0
173 191 0
166 182 0
165 183 0
168 185 0
172 192 0
163 176 0
172 189 0
170 187 0
173 191 0
171 183 0
168 183 0
172 189 0
171 190 0
165 178 0
165 177 0
162 170 0
166 177 0
168 183 0
163 175 0
171 186 0
166 181 0
168 183 0
169 183 0
169 180 0
166 177 0
168 186 0
166 182 0
167 180 0
169 186 0
167 177 0
162 174 0
168 181 0
165 179 0
168 184 0
168 177 0
167 180 0
155 160 0
162 175 0
159 169 0
167 180 0
167 182 0
168 186 0
163 173 0
162 171 0
158 166 0
163 175 0
158 162 0
168 181 0
163 169 0
160 169 0
168 179 0
170 186 0
167 178 0
162 167 0
161 167 0
160 167 0
161 172 0
164 171 0
159 169 0
164 171 0
162 173 0
166 174 0
161 171 0
163 172 0
159 164 0
162 167 0
163 174 0
160 162 0
166 175 0
162 167 0
159 162 0
159 160 0
164 179 0
159 164 0
161 167 0
158 163 0
162 163 0
162 175 0
157 162 0
154 156 0
163 166 0
159 163 0
159 164 0
155 156 0
154 160 0
152 153 0
158 162 0
155 161 0
159 166 0
161 164 0
155 156 0
151 151 0
156 164 0
159 163 0
151 147 0
151 148 0
151 146 0
152 156 0
149 146 0
154 153 0
157 161 0
154 154 0
150 151 0
157 158 0
160 167 0
155 157 0
150 143 0
143 134 0
159 160 0
155 154 0
145 144 0
147 142 0
159 164 0
154 155 0
148 141 0
146 142 0
153 152 0
155 154 0
162 161 0
149 146 0
145 142 0
151 142 0
153 146 0
160 166 0
144 137 0
143 140 0
153 155 0
154 155 0
141 128 0
148 141 0
156 157 0
145 143 0
162 169 0
151 148 0
156 158 0
157 162 0
142 133 0
152 150 0
142 135 0
151 149 0
135 121 0
149 144 0
142 129 0
155 160 0
148 140 0
147 142 0
150 152 0
147 140 0
151 149 0
152 151 0
153 152 0
147 148 0
133 120 0
152 154 0
151 153 0
154 154 0
157 155 0
156 161 0
154 158 0
154 156 0
152 154 0
155 157 0
155 158 0
150 143 0
156 158 0
150 149 0
152 151 0
154 152 0
160 163 0
161 169 0
160 163 0
158 161 0
151 150 0
150 145 0
158 162 0
155 159 0
156 158 0
159 166 0
155 153 0
155 160 0
156 160 0
156 163 0
160 162 0
154 154 0
161 165 0
155 154 0
161 168 0
149 147 0
156 161 0
154 156 0
157 159 0
158 166 0
156 155 0
166 179 0
156 160 0
154 152 0
165 177 0
164 175 0
161 161 0
168 181 0
163 168 0
160 166 0
164 171 0
166 174 0
163 173 0
158 159 0
162 169 0
160 167 0
158 165 0
164 176 0
156 163 0
163 174 0
164 171 0
162 170 0
165 180 0
155 159 0
168 178 0
162 169 0
161 171 0
169 178 0
167 176 0
162 175 0
162 168 0
167 179 0
163 170 0
166 179 0
165 178 0
164 176 0
163 177 0
168 180 0
156 159 0
166 175 0
164 175 0
167 182 0
162 174 0
165 180 0
162 173 0
166 175 0
163 170 0
168 181 0
171 187 0
164 178 0
166 175 0
162 173 0
168 182 0
168 186 0
168 182 0
165 176 0
167 185 0
162 166 0
167 186 0
165 177 0
161 171 0
167 183 0
171 184 0
165 182 0
167 178 0
171 190 0
166 181 0
169 183 0
168 180 0
168 179 0
167 181 0
166 172 0
169 188 0
171 190 0
166 184 0
168 183 0
165 177 0
169 184 0
169 185 0
171 190 0
166 177 0
167 181 0
166 183 0
171 188 0
166 180 0
167 183 0
166 184 0
164 180 0
170 187 0
168 180 0
168 184 0
167 181 0
166 181 0
169 184 0
167 186 0
164 178 0
169 183 0
173 190 0
170 185 0
167 176 0
166 174 0
167 179 0
167 182 0
166 182 0
164 176 0
161 173 0
164 172 0
167 181 0
163 177 0
161 166 0
162 170 0
162 175 0
167 178 0
166 179 0
165 175 0
163 174 0
166 181 0
167 179 0
163 169 0
162 171 0
158 167 0
166 179 0
159 164 0
156 160 0
163 176 0
164 175 0
164 172 0
158 160 0
159 165 0
167 178 0
163 170 0
162 169 0
157 162 0
158 162 0
157 159 0
161 166 0
161 168 0
166 178 0
158 164 0
161 165 0
162 169 0
162 172 0
155 164 0
156 161 0
158 165 0
158 160 0
158 161 0
155 159 0
161 164 0
157 162 0
159 164 0
157 163 0
157 162 0
155 154 0
158 164 0
153 146 0
161 165 0
152 147 0
153 158 0
155 157 0
153 149 0
156 160 0
149 146 0
160 165 0
158 165 0
155 156 0
156 155 0
156 156 0
160 167 0
154 158 0
157 159 0
148 143 0
159 162 0
157 156 0
155 158 0
155 155 0
152 153 0
143 134 0
153 150 0
148 142 0
156 158 0
154 153 0
157 162 0
153 154 0
147 146 0
144 140 0
160 159 0
157 157 0
151 150 0
152 148 0
146 143 0
154 159 0
157 157 0
152 154 0
147 145 0
146 141 0
145 138 0
151 153 0
141 133 0
159 160 0
148 142 0
142 137 0
151 152 0
153 153 0
155 149 0
149 142 0
145 134 0
153 156 0
147 140 0
159 167 0
160 165 0
142 140 0
154 154 0
149 147 0
150 150 0
150 141 0
154 157 0
155 158 0
154 158 0
141 137 0
148 147 0
155 160 0
149 149 0
150 147 0
161 165 0
154 153 0
151 150 0
158 161 0
151 150 0
153 154 0
146 144 0
151 151 0
156 154 0
151 148 0
154 151 0
152 151 0
156 158 0
151 154 0
158 165 0
151 149 0
153 156 0
153 157 0
156 162 0
160 165 0
152 153 0
156 157 0
159 158 0
157 160 0
152 149 0
161 165 0
161 168 0
162 169 0
160 168 0
155 157 0
156 160 0
160 161 0
158 163 0
161 170 0
165 172 0
154 154 0
150 150 0
151 152 0
151 148 0
154 157 0
159 161 0
167 175 0
160 167 0
161 162 0
160 163 0
161 170 0
158 167 0
154 156 0
166 178 0
165 178 0
160 164 0
163 167 0
166 176 0
163 168 0
162 172 0
158 165 0
162 176 0
163 178 0
169 183 0
168 173 0
153 159 0
159 162 0
166 177 0
165 177 0
167 178 0
162 173 0
171 188 0
164 174 0
167 185 0
166 179 0
170 185 0
169 183 0
167 180 0
166 176 0
167 181 0
168 180 0
165 171 0
167 181 0
165 178 0
165 179 0
167 180 0
169 184 0
169 184 0
172 194 0
165 177 0
161 172 0
164 177 0
171 185 0
167 184 0
168 177 0
169 184 0
165 180 0
164 177 0
168 181 0
167 183 0
170 188 0
165 180 0
164 175 0
174 193 0
164 175 0
166 185 0
172 189 0
169 187 0
166 179 0
169 190 0
169 187 0
172 192 0
167 183 0
171 189 0
170 184 0
161 171 0
162 173 0
167 185 0
170 189 0
163 179 0
172 188 0
169 186 0
167 184 0
168 189 0
171 191 0
171 185 0
165 177 0
167 180 0
169 184 0
166 179 0
167 179 0
169 180 0
169 187 0
166 180 0
171 188 0
169 186 0
160 170 0
167 182 0
160 166 0
164 171 0
164 174 0
166 182 0
168 177 0
169 183 0
160 167 0
163 168 0
167 183 0
165 177 0
166 180 0
160 168 0
166 181 0
165 180 0
163 172 0
165 173 0
166 177 0
162 171 0
164 171 0
157 168 0
161 174 0
160 163 0
167 179 0
162 171 0
165 170 0
164 173 0
160 166 0
167 177 0
160 167 0
161 170 0
160 163 0
167 180 0
160 166 0
164 171 0
157 159 0
161 171 0
160 163 0
156 157 0
163 171 0
156 158 0
158 162 0
158 162 0
159 165 0
163 170 0
158 162 0
160 165 0
158 164 0
163 175 0
160 167 0
159 165 0
160 165 0
154 153 0
154 153 0
159 167 0
153 159 0
157 161 0
152 149 0
157 159 0
152 155 0
163 174 0
153 150 0
152 155 0
153 154 0
157 165 0
155 158 0
156 158 0
162 168 0
152 149 0
150 153 0
156 159 0
148 147 0
154 153 0
153 148 0
158 161 0
161 167 0
154 159 0
148 143 0
154 157 0
156 158 0
151 147 0
150 150 0
162 167 0
152 147 0
162 168 0
150 148 0
158 160 0
160 164 0
149 141 0
152 156 0
151 152 0
155 157 0
155 153 0
147 144 0
160 167 0
148 141 0
153 151 0
148 141 0
145 142 0
149 149 0
163 168 0
155 158 0
146 139 0
147 142 0
157 160 0
149 151 0
151 147 0
137 126 0
155 155 0
156 159 0
139 133 0
145 142 0
152 151 0
159 158 0
150 147 0
149 151 0
150 145 0
152 150 0
157 156 0
150 144 0
153 151 0
153 150 0
155 158 0
150 152 0
150 148 0
147 137 0
154 158 0
154 154 0
152 146 0
156 154 0
156 157 0
160 165 0
159 161 0
155 159 0
158 160 0
153 153 0
156 157 0
158 161 0
156 159 0
159 162 0
147 143 0
159 166 0
154 158 0
147 142 0
161 169 0
164 168 0
154 153 0
161 168 0
158 165 0
165 176 0
150 152 0
154 158 0
157 159 0
162 171 0
162 170 0
163 173 0
156 161 0
158 164 0
157 162 0
161 168 0
168 175 0
159 167 0
161 169 0
162 173 0
163 175 0
164 176 0
163 170 0
158 158 0
162 170 0
166 175 0
160 168 0
170 186 0
156 162 0
164 179 0
164 177 0
156 161 0
160 166 0
162 165 0
164 176 0
163 169 0
164 176 0
166 179 0
164 175 0
167 184 0
165 177 0
169 182 0
165 177 0
163 173 0
161 168 0
163 172 0
159 170 0
158 172 0
164 174 0
164 174 0
163 171 0
165 182 0
159 173 0
161 174 0
162 173 0
169 185 0
164 174 0
162 175 0
166 180 0
167 179 0
165 180 0
169 183 0
167 181 0
164 177 0
168 180 0
165 180 0
163 174 0
161 170 0
171 186 0
167 181 0
171 188 0
165 176 0
166 180 0
165 181 0
167 179 0
168 181 0
167 180 0
167 181 0
170 182 0
163 175 0
170 185 0
169 183 0
165 181 0
168 185 0
172 192 0
174 193 0
170 187 0
167 181 0
169 189 0
166 179 0
168 185 0
168 180 0
168 188 0
170 184 0
168 185 0
169 183 0
165 179 0
167 179 0
164 179 0
164 176 0
168 178 0
165 175 0
167 181 0
167 183 0
167 181 0
165 176 0
168 185 0
165 180 0
165 181 0
167 181 0
164 178 0
169 187 0
160 168 0
166 180 0
160 170 0
171 184 0
167 178 0
169 182 0
164 178 0
168 179 0
164 175 0
165 176 0
160 166 0
162 172 0
164 171 0
160 165 0
161 172 0
169 179 0
161 168 0
161 168 0
159 164 0
166 178 0
163 169 0
160 166 0
165 179 0
164 175 0
164 173 0
160 166 0
164 175 0
162 173 0
164 175 0
164 175 0
161 167 0
164 172 0
164 175 0
161 168 0
156 159 0
164 173 0
168 184 0
158 165 0
160 167 0
159 169 0
160 166 0
158 166 0
156 165 0
155 160 0
158 167 0
152 153 0
160 167 0
162 170 0
162 174 0
158 159 0
160 168 0
167 180 0
154 158 0
158 161 0
159 165 0
151 147 0
148 146 0
159 167 0
154 157 0
156 155 0
148 141 0
161 167 0
155 155 0
159 163 0
163 167 0
157 162 0
161 170 0
152 147 0
153 154 0
149 143 0
150 145 0
155 156 0
145 140 0
151 150 0
150 144 0
153 151 0
145 143 0
158 159 0
149 146 0
155 152 0
144 139 0
156 154 0
154 158 0
152 146 0
153 151 0
148 147 0
148 145 0
153 155 0
146 144 0
152 151 0
145 139 0
145 139 0
149 142 0
144 137 0
155 157 0
150 147 0
148 149 0
157 160 0
159 163 0
153 154 0
158 164 0
153 156 0
158 160 0
150 144 0
152 147 0
152 153 0
153 158 0
159 166 0
149 143 0
159 163 0
149 142 0
147 138 0
145 143 0
160 163 0
145 137 0
151 141 0
149 143 0
154 153 0
155 156 0
152 157 0
150 149 0
142 133 0
154 153 0
157 160 0
152 153 0
148 145 0
156 157 0
165 171 0
146 138 0
151 146 0
156 163 0
152 154 0
156 153 0
155 157 0
148 151 0
152 154 0
155 160 0
158 166 0
157 156 0
152 154 0
154 155 0
155 154 0
163 169 0
154 150 0
148 143 0
161 166 0
159 168 0
156 159 0
160 167 0
161 170 0
154 152 0
150 152 0
162 169 0
158 162 0
155 153 0
156 161 0
161 172 0
151 149 0
159 165 0
166 178 0
158 165 0
146 144 0
150 155 0
155 158 0
162 172 0
155 163 0
158 164 0
160 168 0
161 167 0
158 167 0
159 167 0
167 176 0
159 166 0
160 169 0
162 171 0
166 180 0
155 158 0
158 165 0
164 172 0
162 169 0
161 173 0
163 168 0
166 180 0
165 173 0
164 177 0
165 181 0
169 179 0
164 176 0
162 172 0
164 171 0
164 176 0
173 191 0
165 177 0
162 174 0
165 179 0
162 170 0
167 181 0
158 166 0
165 175 0
166 178 0
162 171 0
166 179 0
167 184 0
161 175 0
165 177 0
167 177 0
162 176 0
165 178 0
170 183 0
166 180 0
162 177 0
162 168 0
164 178 0
162 174 0
167 185 0
168 182 0
167 179 0
168 184 0
168 177 0
169 184 0
167 181 0
173 194 0
175 192 0
163 175 0
168 185 0
169 183 0
165 178 0
167 184 0
166 182 0
172 190 0
165 181 0
170 186 0
167 186 0
169 187 0
168 184 0
169 182 0
166 178 0
165 177 0
169 184 0
163 177 0
167 178 0
166 182 0
169 187 0
170 185 0
166 180 0
167 180 0
164 176 0
163 173 0
168 185 0
163 177 0
164 177 0
170 182 0
162 171 0
163 176 0
165 179 0
164 178 0
163 173 0
167 180 0
168 184 0
164 175 0
165 179 0
163 176 0
165 178 0
166 179 0
165 176 0
164 177 0
168 180 0
165 178 0
166 178 0
164 175 0
168 185 0
168 181 0
166 180 0
168 185 0
164 172 0
166 180 0
160 166 0
163 173 0
164 173 0
162 171 0
168 181 0
157 165 0
159 160 0
164 174 0
154 157 0
160 167 0
162 168 0
168 181 0
159 164 0
156 161 0
167 178 0
163 172 0
157 164 0
162 167 0
158 159 0
160 162 0
161 168 0
161 165 0
165 177 0
165 176 0
164 170 0
156 161 0
152 157 0
163 167 0
155 162 0
159 165 0
164 171 0
160 165 0
162 170 0
162 170 0
160 168 0
157 158 0
161 169 0
157 165 0
154 152 0
158 160 0
155 154 0
162 169 0
157 156 0
160 163 0
161 165 0
156 156 0
157 153 0
160 168 0
157 156 0
158 156 0
161 166 0
154 156 0
151 150 0
153 153 0
160 160 0
158 158 0
154 151 0
157 157 0
149 144 0
157 158 0
151 151 0
151 152 0
150 155 0
164 170 0
156 156 0
154 148 0
155 157 0
148 143 0
147 144 0
153 155 0
156 157 0
158 159 0
148 141 0
151 149 0
154 160 0
155 157 0
145 134 0
155 156 0
154 153 0
154 147 0
151 148 0
149 148 0
146 147 0
152 147 0
155 160 0
149 146 0
148 143 0
146 138 0
147 139 0
151 144 0
150 151 0
155 150 0
156 151 0
158 154 0
154 157 0
152 150 0
156 156 0
153 150 0
150 149 0
158 162 0
156 161 0
151 152 0
157 156 0
150 150 0
153 155 0
165 175 0
156 157 0
158 156 0
155 159 0
152 156 0
150 146 0
153 156 0
154 157 0
154 156 0
155 159 0
156 154 0
155 150 0
161 164 0
155 157 0
159 167 0
154 155 0
161 166 0
159 160 0
157 162 0
158 163 0
154 154 0
159 164 0
157 157 0
154 158 0
159 169 0
159 170 0
162 171 0
160 166 0
161 168 0
160 165 0
155 160 0
158 157 0
160 164 0
164 174 0
160 162 0
158 166 0
157 160 0
166 175 0
161 168 0
164 175 0
162 167 0
165 174 0
162 175 0
164 173 0
160 166 0
160 169 0
157 157 0
164 175 0
165 172 0
157 163 0
166 179 0
161 167 0
168 186 0
162 166 0
162 171 0
168 183 0
168 181 0
165 176 0
160 167 0
166 177 0
167 181 0
166 175 0
163 170 0
168 177 0
157 159 0
157 164 0
167 179 0
164 175 0
167 179 0
165 181 0
166 176 0
165 177 0
161 172 0
166 176 0
167 183 0
166 179 0
161 174 0
167 183 0
163 176 0
165 176 0
164 176 0
169 183 0
166 180 0
167 182 0
168 185 0
165 175 0
166 173 0
166 177 0
164 179 0
167 182 0
165 178 0
169 188 0
169 182 0
170 188 0
167 183 0
164 178 0
169 184 0
170 181 0
166 180 0
164 177 0
167 184 0
169 185 0
169 185 0
167 183 0
169 178 0
167 184 0
169 183 0
173 195 0
170 189 0
166 183 0
164 175 0
168 184 0
165 179 0
165 181 0
162 163 0
167 182 0
163 176 0
168 180 0
163 175 0
167 180 0
171 187 0
168 178 0
171 185 0
167 183 0
168 180 0
168 184 0
166 178 0
166 179 0
168 181 0
164 175 0
165 174 0
167 178 0
163 175 0
171 190 0
163 171 0
161 175 0
164 175 0
159 169 0
164 176 0
165 173 0
164 177 0
165 179 0
165 174 0
161 171 0
166 180 0
164 175 0
161 170 0
159 170 0
163 176 0
164 174 0
163 172 0
162 170 0
158 165 0
156 158 0
158 165 0
167 181 0
171 189 0
162 167 0
159 165 0
156 164 0
168 184 0
158 165 0
160 169 0
169 180 0
160 160 0
158 163 0
161 171 0
156 160 0
157 163 0
166 178 0
157 158 0
161 167 0
164 171 0
161 168 0
159 162 0
156 159 0
161 170 0
160 163 0
162 168 0
160 167 0
158 164 0
159 159 0
165 173 0
167 180 0
154 158 0
163 170 0
165 172 0
158 162 0
155 157 0
159 165 0
151 149 0
158 162 0
157 157 0
159 161 0
160 164 0
148 146 0
157 162 0
153 150 0
161 166 0
165 177 0
152 151 0
156 160 0
153 156 0
154 159 0
149 152 0
149 147 0
158 162 0
151 148 0
155 155 0
151 150 0
156 162 0
156 157 0
161 165 0
154 156 0
155 157 0
150 147 0
165 173 0
149 149 0
153 154 0
153 157 0
164 170 0
155 155 0
149 147 0
157 163 0
154 155 0
158 158 0
154 156 0
155 157 0
153 154 0
150 150 0
150 143 0
146 137 0
152 151 0
148 144 0
149 155 0
157 156 0
150 149 0
149 145 0
150 147 0
162 170 0
153 157 0
153 155 0
153 155 0
154 159 0
152 150 0
154 152 0
156 156 0
145 143 0
161 169 0
157 160 0
151 150 0
160 163 0
155 160 0
156 162 0
151 151 0
147 145 0
158 164 0
155 154 0
149 148 0
150 148 0
160 168 0
155 157 0
156 158 0
150 145 0
157 159 0
153 151 0
161 166 0
156 157 0
147 146 0
158 163 0
158 165 0
149 145 0
147 143 0
157 154 0
162 166 0
160 166 0
161 166 0
157 157 0
156 164 0
154 152 0
161 164 0
161 168 0
146 141 0
158 164 0
158 164 0
164 171 0
166 178 0
164 173 0
156 156 0
155 159 0
157 161 0
151 150 0
160 166 0
160 168 0
161 169 0
159 164 0
167 175 0
154 158 0
158 162 0
160 168 0
165 181 0
162 168 0
161 167 0
161 166 0
164 175 0
161 171 0
164 175 0
165 176 0
164 175 0
158 166 0
165 174 0
163 173 0
164 175 0
163 173 0
168 179 0
166 179 0
161 168 0
162 172 0
167 178 0
166 179 0
162 172 0
167 176 0
165 179 0
161 165 0
167 176 0
167 177 0
162 175 0
169 185 0
166 179 0
165 178 0
166 174 0
166 179 0
169 186 0
170 183 0
163 176 0
165 178 0
165 180 0
166 180 0
167 181 0
168 187 0
166 178 0
169 185 0
168 180 0
168 183 0
173 188 0
166 178 0
165 177 0
173 191 0
166 180 0
168 180 0
165 181 0
168 182 0
167 181 0
161 173 0
165 182 0
166 179 0
167 181 0
165 176 0
170 191 0
162 173 0
171 185 0
172 190 0
172 191 0
173 192 0
168 185 0
167 185 0
166 179 0
168 184 0
168 185 0
164 179 0
162 175 0
169 185 0
163 174 0
166 181 0
170 187 0
166 177 0
168 181 0
167 179 0
169 182 0
168 176 0
166 181 0
168 185 0
163 176 0
167 179 0
165 178 0
163 173 0
162 172 0
170 188 0
167 177 0
169 186 0
165 175 0
165 176 0
163 174 0
167 179 0
165 173 0
167 183 0
169 180 0
170 186 0
168 180 0
165 178 0
165 174 0
165 178 0
158 166 0
167 179 0
165 178 0
170 183 0
163 175 0
166 177 0
163 171 0
162 172 0
157 160 0
163 163 0
160 168 0
163 177 0
161 170 0
165 175 0
162 172 0
161 170 0
158 163 0
166 176 0
157 161 0
161 169 0
158 165 0
167 181 0
161 168 0
166 175 0
163 177 0
162 166 0
161 169 0
155 164 0
157 162 0
162 170 0
163 167 0
157 160 0
158 162 0
159 163 0
159 161 0
160 165 0
156 162 0
159 165 0
157 161 0
156 155 0
156 159 0
151 151 0
158 161 0
158 165 0
163 169 0
155 157 0
154 157 0
159 159 0
160 169 0
159 164 0
159 160 0
154 158 0
159 165 0
154 154 0
158 157 0
160 167 0
160 162 0
153 154 0
156 157 0
159 161 0
155 158 0
152 154 0
158 159 0
154 152 0
152 155 0
154 156 0
153 158 0
162 166 0
157 161 0
161 161 0
156 154 0
162 167 0
147 149 0
161 167 0
158 162 0
157 159 0
152 152 0
154 151 0
153 152 0
147 147 0
152 152 0
154 154 0
155 154 0
157 157 0
155 153 0
153 152 0
157 164 0
155 158 0
153 158 0
148 148 0
152 147 0
155 158 0
156 156 0
153 155 0
146 143 0
155 158 0
157 161 0
165 168 0
154 152 0
160 166 0
153 147 0
153 153 0
149 149 0
161 162 0
156 162 0
157 157 0
158 161 0
152 150 0
152 150 0
160 164 0
152 154 0
157 158 0
162 170 0
155 155 0
156 160 0
161 167 0
153 154 0
156 158 0
160 162 0
161 168 0
158 162 0
155 155 0
150 150 0
160 165 0
151 152 0
165 174 0
156 157 0
155 153 0
153 153 0
151 149 0
162 170 0
158 164 0
161 171 0
155 154 0
162 168 0
162 166 0
157 161 0
156 160 0
160 168 0
154 158 0
155 165 0
166 177 0
162 169 0
159 163 0
157 165 0
164 174 0
167 178 0
158 165 0
159 167 0
161 166 0
163 174 0
158 170 0
167 175 0
155 159 0
164 177 0
158 160 0
164 174 0
160 171 0
161 165 0
166 173 0
166 172 0
161 171 0
159 161 0
162 170 0
165 176 0
166 176 0
166 179 0
163 173 0
159 165 0
164 173 0
167 180 0
158 167 0
165 175 0
161 173 0
170 184 0
170 186 0
161 170 0
161 172 0
160 166 0
163 173 0
166 177 0
167 178 0
160 171 0
165 176 0
164 175 0
166 179 0
167 183 0
165 171 0
167 182 0
170 184 0
170 187 0
170 185 0
160 169 0
166 180 0
168 185 0
166 179 0
165 179 0
165 177 0
165 175 0
168 183 0
171 188 0
161 173 0
164 173 0
167 183 0
167 178 0
169 185 0
169 185 0
165 177 0
169 187 0
166 178 0
172 187 0
170 190 0
168 184 0
165 177 0
167 187 0
171 189 0
170 186 0
172 188 0
166 180 0
167 183 0
170 183 0
169 185 0
164 178 0
166 178 0
166 179 0
167 181 0
169 187 0
165 178 0
165 181 0
168 180 0
164 175 0
169 185 0
166 184 0
170 186 0
165 180 0
169 185 0
166 179 0
163 175 0
168 179 0
163 178 0
167 176 0
168 177 0
166 183 0
167 181 0
169 185 0
163 178 0
166 175 0
169 185 0
170 187 0
168 182 0
159 168 0
166 181 0
173 186 0
170 186 0
160 168 0
162 175 0
164 175 0
162 173 0
163 175 0
161 167 0
168 180 0
160 166 0
164 174 0
164 176 0
168 182 0
159 168 0
163 175 0
159 169 0
168 178 0
167 179 0
162 170 0
166 180 0
158 168 0
164 167 0
161 171 0
159 164 0
153 152 0
156 160 0
161 168 0
158 168 0
161 171 0
165 177 0
157 158 0
160 166 0
161 172 0
162 169 0
167 181 0
160 168 0
161 164 0
162 167 0
163 176 0
155 164 0
158 164 0
162 170 0
152 154 0
159 163 0
160 169 0
153 154 0
159 167 0
158 164 0
161 165 0
152 150 0
149 144 0
159 165 0
162 168 0
162 165 0
158 160 0
156 159 0
163 171 0
157 158 0
160 157 0
152 146 0
161 166 0
156 158 0
155 156 0
155 153 0
153 153 0
159 164 0
156 160 0
161 163 0
154 154 0
166 171 0
149 149 0
159 163 0
156 159 0
158 159 0
155 159 0
156 163 0
160 159 0
152 147 0
160 166 0
159 165 0
159 162 0
153 149 0
151 149 0
162 164 0
150 143 0
152 157 0
150 156 0
160 165 0
154 155 0
155 156 0
155 156 0
153 150 0
161 169 0
151 145 0
158 159 0
151 153 0
155 164 0
162 166 0
157 157 0
150 149 0
161 165 0
153 154 0
155 153 0
165 169 0
148 144 0
157 164 0
153 155 0
155 153 0
149 145 0
147 141 0
150 149 0
156 159 0
158 158 0
161 165 0
155 156 0
149 147 0
150 148 0
154 151 0
161 165 0
145 138 0
156 163 0
157 157 0
160 163 0
162 171 0
153 153 0
153 157 0
152 154 0
160 163 0
157 158 0
160 168 0
161 167 0
159 161 0
158 166 0
159 161 0
160 163 0
158 159 0
162 166 0
166 177 0
161 161 0
154 156 0
153 158 0
156 158 0
152 155 0
160 165 0
158 160 0
156 159 0
154 159 0
163 169 0
158 162 0
162 173 0
163 171 0
158 169 0
158 159 0
163 174 0
161 165 0
160 169 0
153 153 0
164 173 0
163 172 0
161 171 0
164 174 0
164 171 0
164 175 0
165 174 0
155 159 0
165 175 0
164 173 0
165 179 0
159 165 0
164 178 0
167 180 0
164 177 0
164 174 0
161 174 0
165 174 0
161 173 0
161 171 0
154 156 0
170 185 0
161 168 0
163 174 0
168 182 0
164 173 0
164 175 0
162 169 0
163 173 0
164 177 0
165 179 0
167 182 0
164 178 0
163 173 0
167 176 0
165 179 0
164 176 0
165 174 0
168 181 0
167 179 0
164 181 0
162 174 0
164 175 0
165 180 0
170 189 0
168 182 0
167 183 0
166 177 0
164 178 0
171 184 0
168 187 0
166 176 0
167 185 0
169 180 0
170 186 0
168 183 0
168 185 0
165 180 0
171 189 0
165 176 0
169 184 0
169 184 0
159 171 0
171 187 0
166 178 0
165 179 0
170 188 0
169 186 0
168 188 0
170 185 0
165 182 0
167 183 0
170 187 0
165 179 0
165 178 0
163 172 0
165 182 0
166 182 0
165 177 0
164 179 0
167 177 0
169 180 0
171 183 0
162 171 0
160 168 0
164 177 0
168 182 0
168 183 0
167 177 0
168 184 0
165 177 0
166 177 0
165 176 0
167 179 0
162 173 0
163 172 0
168 179 0
163 175 0
161 169 0
162 174 0
166 180 0
163 174 0
165 176 0
166 180 0
164 175 0
161 168 0
166 176 0
163 173 0
163 175 0
162 174 0
163 173 0
163 176 0
164 175 0
165 177 0
163 168 0
167 181 0
162 168 0
159 169 0
160 170 0
165 180 0
170 183 0
164 171 0
158 162 0
152 157 0
157 161 0
158 164 0
160 171 0
155 162 0
160 165 0
155 155 0
160 168 0
160 167 0
166 176 0
164 170 0
160 167 0
160 166 0
156 161 0
161 168 0
154 157 0
163 173 0
164 174 0
158 164 0
158 167 0
157 161 0
159 168 0
152 152 0
155 159 0
151 153 0
160 165 0
159 167 0
156 160 0
159 160 0
160 162 0
163 169 0
156 155 0
154 156 0
158 159 0
159 165 0
151 149 0
151 148 0
160 163 0
157 155 0
160 167 0
159 162 0
158 163 0
162 165 0
159 167 0
163 168 0
151 152 0
151 148 0
152 148 0
155 154 0
156 159 0
160 166 0
163 167 0
159 164 0
154 155 0
158 159 0
159 159 0
155 153 0
162 165 0
154 156 0
146 142 0
163 167 0
155 157 0
162 166 0
148 142 0
161 167 0
156 158 0
149 152 0
158 162 0
154 152 0
158 160 0
156 163 0
158 163 0
159 162 0
159 156 0
155 158 0
158 165 0
157 154 0
164 169 0
154 157 0
156 158 0
149 150 0
154 156 0
149 148 0
153 149 0
155 160 0
156 164 0
154 154 0
155 156 0
155 157 0
153 155 0
155 159 0
158 165 0
149 153 0
156 161 0
163 167 0
157 152 0
161 166 0
154 155 0
153 152 0
158 157 0
159 167 0
150 152 0
156 158 0
157 161 0
153 154 0
155 159 0
153 159 0
156 156 0
155 157 0
155 158 0
159 164 0
156 158 0
154 158 0
160 167 0
157 152 0
165 172 0
161 165 0
163 170 0
164 170 0
165 178 0
160 166 0
156 166 0
157 162 0
161 170 0
161 169 0
161 167 0
161 165 0
164 174 0
156 163 0
163 172 0
160 165 0
162 171 0
165 177 0
159 166 0
155 155 0
161 168 0
161 171 0
160 165 0
166 177 0
162 170 0
162 171 0
164 169 0
164 175 0
169 185 0
162 170 0
163 171 0
158 164 0
165 175 0
163 175 0
162 169 0
166 177 0
162 174 0
161 173 0
168 180 0
156 157 0
158 170 0
168 180 0
161 171 0
164 179 0
166 179 0
165 174 0
164 178 0
167 177 0
167 179 0
159 169 0
166 176 0
172 188 0
162 173 0
164 174 0
162 173 0
163 173 0
163 170 0
167 182 0
168 177 0
168 181 0
165 177 0
169 187 0
170 188 0
166 181 0
163 174 0
166 181 0
169 189 0
166 184 0
166 182 0
170 189 0
166 179 0
167 185 0
160 170 0
166 178 0
166 180 0
171 189 0
164 177 0
171 191 0
166 179 0
168 185 0
169 188 0
169 186 0
170 187 0
168 185 0
170 187 0
167 178 0
165 176 0
167 181 0
168 187 0
171 188 0
170 187 0
164 182 0
170 186 0
165 178 0
171 187 0
167 185 0
164 174 0
165 174 0
170 190 0
166 178 0
168 188 0
163 173 0
167 181 0
170 186 0
166 179 0
160 174 0
166 181 0
166 180 0
167 180 0
164 172 0
165 182 0
167 178 0
161 167 0
166 175 0
164 170 0
163 172 0
163 173 0
163 171 0
164 174 0
167 182 0
167 182 0
160 171 0
160 169 0
161 168 0
163 173 0
159 165 0
159 163 0
160 170 0
162 171 0
164 177 0
165 173 0
159 169 0
159 165 0
168 184 0
157 163 0
162 166 0
160 165 0
159 164 0
163 174 0
156 158 0
164 175 0
159 165 0
168 181 0
158 158 0
162 167 0
168 182 0
161 165 0
159 170 0
159 161 0
161 167 0
164 173 0
161 169 0
155 157 0
164 174 0
170 179 0
154 153 0
156 162 0
166 169 0
160 164 0
164 173 0
162 163 0
156 155 0
156 158 0
161 166 0
156 155 0
159 165 0
156 159 0
163 170 0
155 153 0
154 155 0
153 157 0
154 160 0
162 169 0
162 168 0
158 160 0
162 167 0
159 160 0
158 164 0
157 159 0
153 149 0
150 152 0
158 160 0
165 175 0
158 155 0
157 161 0
156 159 0
154 158 0
153 155 0
159 164 0
162 171 0
158 159 0
159 162 0
150 144 0
156 157 0
154 161 0
162 170 0
158 158 0
154 156 0
161 168 0
159 161 0
156 160 0
155 157 0
145 138 0
159 162 0
156 153 0
158 160 0
157 156 0
157 160 0
159 164 0
155 159 0
155 153 0
149 148 0
151 147 0
153 154 0
158 162 0
162 168 0
154 154 0
152 153 0
155 154 0
159 164 0
154 157 0
157 159 0
154 155 0
154 153 0
153 157 0
161 165 0
149 143 0
154 158 0
157 157 0
161 168 0
157 163 0
158 154 0
157 155 0
153 153 0
155 156 0
154 157 0
158 160 0
159 166 0
155 160 0
160 167 0
159 165 0
161 165 0
158 159 0
158 158 0
164 174 0
164 172 0
153 155 0
162 174 0
156 158 0
158 164 0
163 169 0
160 163 0
159 163 0
158 162 0
151 153 0
152 154 0
157 157 0
162 167 0
160 165 0
158 166 0
161 168 0
163 170 0
162 168 0
162 170 0
167 173 0
163 170 0
158 162 0
164 175 0
162 168 0
158 163 0
159 162 0
162 169 0
163 175 0
164 172 0
161 169 0
159 164 0
161 168 0
164 175 0
163 169 0
170 186 0
158 162 0
158 158 0
167 182 0
162 171 0
163 174 0
167 180 0
163 173 0
165 171 0
166 174 0
161 173 0
163 174 0
162 173 0
172 185 0
167 181 0
156 161 0
165 175 0
165 178 0
163 177 0
169 184 0
171 183 0
158 161 0
164 178 0
163 176 0
164 176 0
166 175 0
166 179 0
167 183 0
166 180 0
166 180 0
168 180 0
168 182 0
167 179 0
165 176 0
163 176 0
162 170 0
165 174 0
171 188 0
161 171 0
170 187 0
172 192 0
168 178 0
166 175 0
169 183 0
170 183 0
167 182 0
167 182 0
166 176 0
168 185 0
167 182 0
167 184 0
169 184 0
169 186 0
168 185 0
167 187 0
166 179 0
169 183 0
166 180 0
169 186 0
169 184 0
165 180 0
168 187 0
165 177 0
168 185 0
166 186 0
167 178 0
166 181 0
165 181 0
170 183 0
169 186 0
164 174 0
170 186 0
165 179 0
168 183 0
165 173 0
164 176 0
169 183 0
164 179 0
165 175 0
162 175 0
165 177 0
163 173 0
167 185 0
165 178 0
164 173 0
162 174 0
167 180 0
166 180 0
164 175 0
166 179 0
165 180 0
165 176 0
163 177 0
165 176 0
162 170 0
160 167 0
164 174 0
165 178 0
165 178 0
162 174 0
163 174 0
165 174 0
161 171 0
168 181 0
162 168 0
163 170 0
163 172 0
163 171 0
163 172 0
154 160 0
160 167 0
156 155 0
162 169 0
167 181 0
162 172 0
164 172 0
162 169 0
165 176 0
161 165 0
168 179 0
161 165 0
152 153 0
166 175 0
157 159 0
158 161 0
153 155 0
159 165 0
162 173 0
163 172 0
164 172 0
154 157 0
163 173 0
162 169 0
160 166 0
153 159 0
160 172 0
151 154 0
162 169 0
162 168 0
158 162 0
164 177 0
156 162 0
152 149 0
164 174 0
167 173 0
153 156 0
158 162 0
160 166 0
156 160 0
160 165 0
161 167 0
159 164 0
166 173 0
160 164 0
156 156 0
157 161 0
154 160 0
152 154 0
160 165 0
160 164 0
150 147 0
157 157 0
147 138 0
147 149 0
160 162 0
157 157 0
151 147 0
149 145 0
156 159 0
157 160 0
159 163 0
150 149 0
154 158 0
152 157 0
162 173 0
155 159 0
158 166 0
160 165 0
151 146 0
155 156 0
151 151 0
152 151 0
155 156 0
160 166 0
159 161 0
155 157 0
166 175 0
152 153 0
162 167 0
160 167 0
157 161 0
152 151 0
157 159 0
155 160 0
163 172 0
152 154 0
161 165 0
156 155 0
161 165 0
157 160 0
160 165 0
153 150 0
154 155 0
149 142 0
161 166 0
162 167 0
151 150 0
154 157 0
152 153 0
162 169 0
161 170 0
156 162 0
166 178 0
151 152 0
151 155 0
155 158 0
152 161 0
163 170 0
154 156 0
166 175 0
160 166 0
155 162 0
148 143 0
157 166 0
150 149 0
166 180 0
153 150 0
166 174 0
161 169 0
158 161 0
161 171 0
155 158 0
159 169 0
158 167 0
161 172 0
159 164 0
156 165 0
164 171 0
165 174 0
161 167 0
154 161 0
163 178 0
165 170 0
166 176 0
160 166 0
164 175 0
165 174 0
155 162 0
161 173 0
166 177 0
162 170 0
158 167 0
163 172 0
165 179 0
162 172 0
162 166 0
157 158 0
165 178 0
165 178 0
165 178 0
162 169 0
161 171 0
163 171 0
162 171 0
159 166 0
166 174 0
164 177 0
163 171 0
163 176 0
167 183 0
163 174 0
164 175 0
162 173 0
163 174 0
166 184 0
167 173 0
163 173 0
165 173 0
162 175 0
169 184 0
163 175 0
166 177 0
167 179 0
166 180 0
166 179 0
167 183 0
167 183 0
167 181 0
164 179 0
165 178 0
167 179 0
166 184 0
165 178 0
164 175 0
170 186 0
166 182 0
163 169 0
168 182 0
169 185 0
166 182 0
167 181 0
167 182 0
164 176 0
163 177 0
166 181 0
169 184 0
167 179 0
167 179 0
170 184 0
168 180 0
173 191 0
167 183 0
166 181 0
169 184 0
162 171 0
167 183 0
166 176 0
170 188 0
166 180 0
166 180 0
168 184 0
171 189 0
166 177 0
167 179 0
163 177 0
158 164 0
165 176 0
166 179 0
166 178 0
166 181 0
163 175 0
167 180 0
167 181 0
166 181 0
169 182 0
166 180 0
163 176 0
169 184 0
162 174 0
162 172 0
166 177 0
164 178 0
161 169 0
167 182 0
163 169 0
169 181 0
162 171 0
169 183 0
163 171 0
162 170 0
169 183 0
164 174 0
166 179 0
164 174 0
166 175 0
157 159 0
158 162 0
163 172 0
162 167 0
166 181 0
168 181 0
163 173 0
165 177 0
169 183 0
169 183 0
162 169 0
162 170 0
160 170 0
162 168 0
163 177 0
161 170 0
160 165 0
158 166 0
161 167 0
164 170 0
158 164 0
156 157 0
161 167 0
158 169 0
154 157 0
160 166 0
159 166 0
162 171 0
156 160 0
153 154 0
164 173 0
161 171 0
155 160 0
161 171 0
160 169 0
154 158 0
159 166 0
161 165 0
158 162 0
155 157 0
159 165 0
159 163 0
159 167 0
157 157 0
154 154 0
152 152 0
162 167 0
159 163 0
158 160 0
161 166 0
153 149 0
159 164 0
161 169 0
166 175 0
164 170 0
158 163 0
152 153 0
153 153 0
154 152 0
160 165 0
158 164 0
161 160 0
159 158 0
157 161 0
158 161 0
158 162 0
157 159 0
152 152 0
153 150 0
154 157 0
162 173 0
154 152 0
153 152 0
157 155 0
158 168 0
156 159 0
152 153 0
161 163 0
155 155 0
153 155 0
160 169 0
149 147 0
159 155 0
153 153 0
156 158 0
158 167 0
150 150 0
159 163 0
159 166 0
157 159 0
162 168 0
156 158 0
158 154 0
156 159 0
159 159 0
157 161 0
150 147 0
153 150 0
155 155 0
156 161 0
157 159 0
161 167 0
156 153 0
152 155 0
160 164 0
158 161 0
160 165 0
154 154 0
158 160 0
153 155 0
158 162 0
152 154 0
151 154 0
156 163 0
154 154 0
151 151 0
160 160 0
154 153 0
160 162 0
153 154 0
155 160 0
162 167 0
159 165 0
164 173 0
160 164 0
152 152 0
158 159 0
160 162 0
154 147 0
153 150 0
163 173 0
153 155 0
161 167 0
161 166 0
159 164 0
157 166 0
159 165 0
163 171 0
167 177 0
162 170 0
164 173 0
160 165 0
162 172 0
154 159 0
157 164 0
164 178 0
160 170 0
163 172 0
160 167 0
164 172 0
155 162 0
160 169 0
163 170 0
166 175 0
163 175 0
162 175 0
163 175 0
158 164 0
163 172 0
168 184 0
159 164 0
163 170 0
161 165 0
160 166 0
160 170 0
165 176 0
167 179 0
166 176 0
165 177 0
163 171 0
163 174 0
162 174 0
166 175 0
165 180 0
168 181 0
157 165 0
169 182 0
160 167 0
168 180 0
167 176 0
164 173 0
167 185 0
162 167 0
159 170 0
169 186 0
160 174 0
167 184 0
167 180 0
162 174 0
162 168 0
165 175 0
165 178 0
170 186 0
169 184 0
163 173 0
166 181 0
169 184 0
167 179 0
162 172 0
169 185 0
166 180 0
162 173 0
169 184 0
165 177 0
169 186 0
165 177 0
172 192 0
165 179 0
173 194 0
164 179 0
172 191 0
166 179 0
163 177 0
165 181 0
167 187 0
166 173 0
166 180 0
171 190 0
167 175 0
169 184 0
167 182 0
169 180 0
167 182 0
168 182 0
169 184 0
167 179 0
161 174 0
167 181 0
169 185 0
163 173 0
169 183 0
165 181 0
164 177 0
165 178 0
166 177 0
163 179 0
168 184 0
164 175 0
169 185 0
169 187 0
164 175 0
161 168 0
165 181 0
164 174 0
164 174 0
166 179 0
166 179 0
164 177 0
163 173 0
157 162 0
165 176 0
160 172 0
161 169 0
165 180 0
166 179 0
159 168 0
157 163 0
163 171 0
160 166 0
169 183 0
164 177 0
165 175 0
168 182 0
167 182 0
169 182 0
168 184 0
170 183 0
168 184 0
166 176 0
165 176 0
163 176 0
167 181 0
167 179 0
156 162 0
162 166 0
160 168 0
162 170 0
156 157 0
168 180 0
156 155 0
165 173 0
163 171 0
159 161 0
162 167 0
160 166 0
158 165 0
159 167 0
154 157 0
154 154 0
153 160 0
159 161 0
163 168 0
154 157 0
160 164 0
156 159 0
157 160 0
164 176 0
156 157 0
164 176 0
153 156 0
156 162 0
163 168 0
157 164 0
157 159 0
161 165 0
162 170 0
160 158 0
156 160 0
157 157 0
164 176 0
158 164 0
159 165 0
163 173 0
157 153 0
158 163 0
156 155 0
160 162 0
151 152 0
156 162 0
160 163 0
166 172 0
160 167 0
155 159 0
163 170 0
156 156 0
151 155 0
156 161 0
158 158 0
151 153 0
154 157 0
153 148 0
162 167 0
158 162 0
163 171 0
154 155 0
150 156 0
153 154 0
156 159 0
155 160 0
160 164 0
155 160 0
150 145 0
155 157 0
148 150 0
163 165 0
147 143 0
160 166 0
154 154 0
157 157 0
157 158 0
155 156 0
156 161 0
161 162 0
151 153 0
154 158 0
154 159 0
150 147 0
153 155 0
158 157 0
150 152 0
152 155 0
151 155 0
159 164 0
156 158 0
154 156 0
161 168 0
156 162 0
154 157 0
158 163 0
162 170 0
153 153 0
162 167 0
153 157 0
157 161 0
167 176 0
162 169 0
155 161 0
157 161 0
159 168 0
158 164 0
158 162 0
162 169 0
160 163 0
155 156 0
155 158 0
151 145 0
162 168 0
167 181 0
166 177 0
161 169 0
160 171 0
157 161 0
164 174 0
164 172 0
161 168 0
162 171 0
157 164 0
161 172 0
154 156 0
166 170 0
163 169 0
157 162 0
169 177 0
157 164 0
165 174 0
165 171 0
162 172 0
158 166 0
163 169 0
163 175 0
165 174 0
157 162 0
165 180 0
164 174 0
160 165 0
164 175 0
167 178 0
164 171 0
163 174 0
170 187 0
166 176 0
166 177 0
164 171 0
166 174 0
165 179 0
163 172 0
166 180 0
166 173 0
163 170 0
163 176 0
162 174 0
164 178 0
165 176 0
167 177 0
168 182 0
160 171 0
166 180 0
165 179 0
161 172 0
162 174 0
163 173 0
170 184 0
167 180 0
168 183 0
167 182 0
163 174 0
165 177 0
166 179 0
169 185 0
167 182 0
169 187 0
165 178 0
168 181 0
164 173 0
169 186 0
167 180 0
172 194 0
171 184 0
166 179 0
171 186 0
168 182 0
168 181 0
170 188 0
165 178 0
167 179 0
171 190 0
170 189 0
169 187 0
171 187 0
169 188 0
172 188 0
169 184 0
167 186 0
167 184 0
161 173 0
166 181 0
168 181 0
166 179 0
166 181 0
172 187 0
168 182 0
168 186 0
167 184 0
162 176 0
168 185 0
168 183 0
163 176 0
164 173 0
161 168 0
166 183 0
168 182 0
163 173 0
170 183 0
166 178 0
166 179 0
160 166 0
171 187 0
165 177 0
163 178 0
163 175 0
162 174 0
162 173 0
165 173 0
164 177 0
166 177 0
166 178 0
160 165 0
165 176 0
159 164 0
165 179 0
163 172 0
159 167 0
166 181 0
158 159 0
164 174 0
165 177 0
167 181 0
160 173 0
166 176 0
160 166 0
161 168 0
163 176 0
164 174 0
160 170 0
162 172 0
165 177 0
158 162 0
162 165 0
163 174 0
163 170 0
163 171 0
164 174 0
163 171 0
165 173 0
163 168 0
163 172 0
160 167 0
161 171 0
160 166 0
153 152 0
159 162 0
163 171 0
155 158 0
162 166 0
162 170 0
162 173 0
163 171 0
160 164 0
166 177 0
158 165 0
161 169 0
157 162 0
154 153 0
164 175 0
160 164 0
151 151 0
158 157 0
156 165 0
152 147 0
159 166 0
159 167 0
158 162 0
166 178 0
144 139 0
163 166 0
158 159 0
158 164 0
159 162 0
162 171 0
164 170 0
156 155 0
155 155 0
155 157 0
163 171 0
159 163 0
163 169 0
159 168 0
162 170 0
165 171 0
157 158 0
156 157 0
156 158 0
156 159 0
159 165 0
157 163 0
156 155 0
155 157 0
157 164 0
154 158 0
154 145 0
151 151 0
157 160 0
153 153 0
156 162 0
160 166 0
157 161 0
158 164 0
154 155 0
154 151 0
162 165 0
160 168 0
154 152 0
160 162 0
156 161 0
159 162 0
157 162 0
158 162 0
156 162 0
159 161 0
162 168 0
162 172 0
156 161 0
150 144 0
148 155 0
156 164 0
154 156 0
167 178 0
154 156 0
157 159 0
152 152 0
150 150 0
156 162 0
163 171 0
161 169 0
154 154 0
156 161 0
163 169 0
158 166 0
160 162 0
155 158 0
157 158 0
161 169 0
158 164 0
157 157 0
161 167 0
161 167 0
163 168 0
160 168 0
163 172 0
163 174 0
157 163 0
159 171 0
160 170 0
160 170 0
157 161 0
163 169 0
162 167 0
154 160 0
160 170 0
162 170 0
162 171 0
162 168 0
162 168 0
158 164 0
165 178 0
160 166 0
161 171 0
159 169 0
162 173 0
163 172 0
165 173 0
158 165 0
158 162 0
163 176 0
159 164 0
165 177 0
166 174 0
163 170 0
164 177 0
168 182 0
164 175 0
165 177 0
161 169 0
159 170 0
167 178 0
166 175 0
165 179 0
166 178 0
164 177 0
160 169 0
164 173 0
166 182 0
165 178 0
160 169 0
161 174 0
163 172 0
163 175 0
164 174 0
168 180 0
161 167 0
168 181 0
163 178 0
167 179 0
167 182 0
167 181 0
167 182 0
168 179 0
165 173 0
167 180 0
163 176 0
165 184 0
166 180 0
168 180 0
164 175 0
166 179 0
167 180 0
165 178 0
167 186 0
170 187 0
167 183 0
166 179 0
165 179 0
164 175 0
162 167 0
163 176 0
169 186 0
165 174 0
165 184 0
164 179 0
166 182 0
169 188 0
172 191 0
165 179 0
169 180 0
166 182 0
163 171 0
170 187 0
170 189 0
168 180 0
166 179 0
164 175 0
171 189 0
167 180 0
167 186 0
171 187 0
166 182 0
169 189 0
166 181 0
169 180 0
167 183 0
165 182 0
164 176 0
162 173 0
166 180 0
166 178 0
166 179 0
170 187 0
165 178 0
168 178 0
165 172 0
168 177 0
165 178 0
167 181 0
163 173 0
161 166 0
171 189 0
161 173 0
165 176 0
170 185 0
164 175 0
169 186 0
159 167 0
159 165 0
161 171 0
166 180 0
162 173 0
163 166 0
168 181 0
166 180 0
163 173 0
163 170 0
166 180 0
162 167 0
164 172 0
165 178 0
165 177 0
167 179 0
163 175 0
164 176 0
160 170 0
156 164 0
166 180 0
162 170 0
158 162 0
162 168 0
160 168 0
163 173 0
161 169 0
156 162 0
163 175 0
163 170 0
160 169 0
169 182 0
161 168 0
158 160 0
157 164 0
164 173 0
162 170 0
166 176 0
160 165 0
162 175 0
162 170 0
161 168 0
162 171 0
159 162 0
165 176 0
156 158 0
158 164 0
156 161 0
159 161 0
158 165 0
156 158 0
165 174 0
163 169 0
156 159 0
166 175 0
162 166 0
154 156 0
155 157 0
161 169 0
161 166 0
160 167 0
156 153 0
158 165 0
159 166 0
167 180 0
158 165 0
159 163 0
158 160 0
159 163 0
158 164 0
160 169 0
158 161 0
157 163 0
166 172 0
153 157 0
164 173 0
157 159 0
164 168 0
157 160 0
159 161 0
156 153 0
159 164 0
153 155 0
157 161 0
153 152 0
158 163 0
157 166 0
151 151 0
156 156 0
160 165 0
157 159 0
162 169 0
161 169 0
150 151 0
155 156 0
148 150 0
155 157 0
160 165 0
163 170 0
160 166 0
151 149 0
150 147 0
155 153 0
154 156 0
160 168 0
157 163 0
163 172 0
157 161 0
155 148 0
159 164 0
161 167 0
159 162 0
155 148 0
156 161 0
159 168 0
156 161 0
163 171 0
152 148 0
153 154 0
170 184 0
161 166 0
167 180 0
160 169 0
158 162 0
161 171 0
157 161 0
159 165 0
164 173 0
157 163 0
164 172 0
161 168 0
153 147 0
154 157 0
152 155 0
156 165 0
154 152 0
163 174 0
161 165 0
163 173 0
158 162 0
164 174 0
162 173 0
156 160 0
165 173 0
152 155 0
162 168 0
162 169 0
158 163 0
163 172 0
161 169 0
164 173 0
165 173 0
160 169 0
163 173 0
161 170 0
161 167 0
166 176 0
166 174 0
166 176 0
163 167 0
162 170 0
152 157 0
164 173 0
161 169 0
163 173 0
164 176 0
159 165 0
161 170 0
161 166 0
168 174 0
160 167 0
165 176 0
167 178 0
169 180 0
165 173 0
167 180 0
164 177 0
167 184 0
170 189 0
167 177 0
166 176 0
168 181 0
161 172 0
166 178 0
162 170 0
164 173 0
168 182 0
167 182 0
164 174 0
161 170 0
166 180 0
166 179 0
167 181 0
166 179 0
167 180 0
161 174 0
168 185 0
166 178 0
170 182 0
163 178 0
167 188 0
168 185 0
166 177 0
164 178 0
162 176 0
169 184 0
168 182 0
167 183 0
161 172 0
165 180 0
167 180 0
167 184 0
165 176 0
166 178 0
170 188 0
167 179 0
164 174 0
171 186 0
168 184 0
166 180 0
168 185 0
167 178 0
169 189 0
168 185 0
164 181 0
169 184 0
168 185 0
168 182 0
168 187 0
167 182 0
166 181 0
167 182 0
165 180 0
171 189 0
167 185 0
168 185 0
168 185 0
168 185 0
166 176 0
168 184 0
169 182 0
170 181 0
167 184 0
172 191 0
165 181 0
163 175 0
167 181 0
163 173 0
165 173 0
159 164 0
168 180 0
166 182 0
165 175 0
161 166 0
162 173 0
166 183 0
168 181 0
162 173 0
166 173 0
165 174 0
164 171 0
168 181 0
165 178 0
160 168 0
160 166 0
161 171 0
165 178 0
169 182 0
163 171 0
160 168 0
160 170 0
168 181 0
162 174 0
163 169 0
165 175 0
162 171 0
157 162 0
164 174 0
164 175 0
165 179 0
161 168 0
165 176 0
160 168 0
163 173 0
161 167 0
165 173 0
164 175 0
163 176 0
160 166 0
165 179 0
159 166 0
157 163 0
163 176 0
158 164 0
157 165 0
161 168 0
157 160 0
157 165 0
158 164 0
151 151 0
163 172 0
163 175 0
157 158 0
164 173 0
163 166 0
159 168 0
163 176 0
161 165 0
159 162 0
158 165 0
158 163 0
164 173 0
157 164 0
164 175 0
165 179 0
162 170 0
162 173 0
164 169 0
153 154 0
153 154 0
158 167 0
155 156 0
153 155 0
154 154 0
155 160 0
166 175 0
157 166 0
158 165 0
167 177 0
155 154 0
152 152 0
160 160 0
158 165 0
153 152 0
149 153 0
156 156 0
156 156 0
162 168 0
153 147 0
160 161 0
157 163 0
155 159 0
154 156 0
164 169 0
160 162 0
154 157 0
158 161 0
158 163 0
155 157 0
158 161 0
156 159 0
157 161 0
156 159 0
159 164 0
153 160 0
156 163 0
162 167 0
152 154 0
156 158 0
155 156 0
156 157 0
162 171 0
157 159 0
152 151 0
154 155 0
155 158 0
155 158 0
157 162 0
161 172 0
153 152 0
155 161 0
160 162 0
155 159 0
159 164 0
160 170 0
158 163 0
161 165 0
162 169 0
158 162 0
158 158 0
158 167 0
157 164 0
167 173 0
158 159 0
163 171 0
160 167 0
162 168 0
162 172 0
163 174 0
158 158 0
164 171 0
157 161 0
158 166 0
163 173 0
165 178 0
157 164 0
157 163 0
157 154 0
152 146 0
161 168 0
166 175 0
155 156 0
164 173 0
156 160 0
166 174 0
161 168 0
159 166 0
162 174 0
162 167 0
159 170 0
164 174 0
157 166 0
164 171 0
160 163 0
164 178 0
159 167 0
162 172 0
161 175 0
166 179 0
161 168 0
162 169 0
168 186 0
168 176 0
161 169 0
161 168 0
163 175 0
161 168 0
162 171 0
165 177 0
172 186 0
166 176 0
165 179 0
165 179 0
163 170 0
166 180 0
160 173 0
162 172 0
165 182 0
164 174 0
167 179 0
160 169 0
165 177 0
170 184 0
164 177 0
167 181 0
165 175 0
162 170 0
169 185 0
163 173 0
166 179 0
171 188 0
165 180 0
168 184 0
163 176 0
169 184 0
166 181 0
168 185 0
167 184 0
164 176 0
165 173 0
165 185 0
168 187 0
166 184 0
168 186 0
170 186 0
169 180 0
166 183 0
170 187 0
163 180 0
165 175 0
165 178 0
169 187 0
168 184 0
167 182 0
170 185 0
168 180 0
169 186 0
165 178 0
168 180 0
167 186 0
167 182 0
166 182 0
170 187 0
165 175 0
165 181 0
168 179 0
167 182 0
169 182 0
169 180 0
164 176 0
165 179 0
168 182 0
171 188 0
165 174 0
167 181 0
165 180 0
165 177 0
169 188 0
165 178 0
163 173 0
171 188 0
167 178 0
170 188 0
165 173 0
165 177 0
167 181 0
172 184 0
169 183 0
168 181 0
168 182 0
168 181 0
166 182 0
161 172 0
164 173 0
165 177 0
161 167 0
161 173 0
164 177 0
167 180 0
161 172 0
168 180 0
166 175 0
155 156 0
160 169 0
165 175 0
163 172 0
166 181 0
162 168 0
162 166 0
165 171 0
166 175 0
166 173 0
165 174 0
166 182 0
160 166 0
162 177 0
161 165 0
163 172 0
158 165 0
164 168 0
160 170 0
164 173 0
162 173 0
160 170 0
162 171 0
165 182 0
162 172 0
166 180 0
163 174 0
157 163 0
160 162 0
163 174 0
161 167 0
163 168 0
163 172 0
160 168 0
160 167 0
163 172 0
165 176 0
153 158 0
160 165 0
165 174 0
164 171 0
164 175 0
159 164 0
161 170 0
162 173 0
160 167 0
156 159 0
159 162 0
163 171 0
157 163 0
160 167 0
163 166 0
158 163 0
163 169 0
162 167 0
160 169 0
157 161 0
151 153 0
160 165 0
165 177 0
158 165 0
159 163 0
158 168 0
158 165 0
159 164 0
159 162 0
157 160 0
160 165 0
156 160 0
157 157 0
163 168 0
149 145 0
164 170 0
166 175 0
167 175 0
153 147 0
157 165 0
163 171 0
155 157 0
161 168 0
161 168 0
155 153 0
158 167 0
158 162 0
152 152 0
156 161 0
157 158 0
156 161 0
160 165 0
157 161 0
153 158 0
155 158 0
162 168 0
160 164 0
154 155 0
153 156 0
157 159 0
150 150 0
158 160 0
165 175 0
160 167 0
156 162 0
159 163 0
154 152 0
158 158 0
154 155 0
158 158 0
157 165 0
167 175 0
163 170 0
162 170 0
153 148 0
157 162 0
163 170 0
164 175 0
164 175 0
152 155 0
161 165 0
160 168 0
159 167 0
153 157 0
162 170 0
157 158 0
158 163 0
153 151 0
161 169 0
155 155 0
158 163 0
159 165 0
155 156 0
157 162 0
152 151 0
156 166 0
154 157 0
155 162 0
162 170 0
166 180 0
160 164 0
162 167 0
162 174 0
160 168 0
160 170 0
162 173 0
160 165 0
169 181 0
164 176 0
165 177 0
161 166 0
159 164 0
167 179 0
168 178 0
161 175 0
162 171 0
162 174 0
163 170 0
166 178 0
161 169 0
166 181 0
164 175 0
162 173 0
165 177 0
166 179 0
163 172 0
171 187 0
167 181 0
163 167 0
159 164 0
159 166 0
162 171 0
163 169 0
170 184 0
163 174 0
167 181 0
159 168 0
167 182 0
166 180 0
161 165 0
163 173 0
165 179 0
167 179 0
162 171 0
162 173 0
166 181 0
168 185 0
167 183 0
166 178 0
165 174 0
164 173 0
165 177 0
162 172 0
162 174 0
162 172 0
167 179 0
167 182 0
166 180 0
167 182 0
169 188 0
169 186 0
167 179 0
163 174 0
165 181 0
173 193 0
168 184 0
164 178 0
167 177 0
166 181 0
171 190 0
168 183 0
170 186 0
171 181 0
167 182 0
169 188 0
169 186 0
165 176 0
168 184 0
164 171 0
168 187 0
169 184 0
166 178 0
163 176 0
171 188 0
166 180 0
167 181 0
166 182 0
170 186 0
166 178 0
167 182 0
163 178 0
167 179 0
160 169 0
163 172 0
165 177 0
170 188 0
170 186 0
171 188 0
169 185 0
162 175 0
166 180 0
170 186 0
167 179 0
165 174 0
166 178 0
163 173 0
166 179 0
167 180 0
165 177 0
171 185 0
163 173 0
169 183 0
169 185 0
165 177 0
161 172 0
165 181 0
169 183 0
162 170 0
164 177 0
166 178 0
159 171 0
161 171 0
157 163 0
160 168 0
165 174 0
167 180 0
163 175 0
165 176 0
158 169 0
164 171 0
162 168 0
168 180 0
162 171 0
162 173 0
158 167 0
165 177 0
162 173 0
167 183 0
163 169 0
164 172 0
164 175 0
156 160 0
163 171 0
165 173 0
160 170 0
162 172 0
161 174 0
166 177 0
163 174 0
163 167 0
159 164 0
166 177 0
158 159 0
164 175 0
156 160 0
161 169 0
156 156 0
166 177 0
162 168 0
151 149 0
160 165 0
164 174 0
159 164 0
163 171 0
161 164 0
160 164 0
154 156 0
153 159 0
156 163 0
159 163 0
158 158 0
164 175 0
164 173 0
160 165 0
167 179 0
152 149 0
156 160 0
155 160 0
157 160 0
155 158 0
153 155 0
157 163 0
163 175 0
162 163 0
165 177 0
159 163 0
161 171 0
162 170 0
158 166 0
150 148 0
157 160 0
160 167 0
166 178 0
162 176 0
156 161 0
152 151 0
161 169 0
158 163 0
152 154 0
160 165 0
157 164 0
157 160 0
156 157 0
160 160 0
159 171 0
162 168 0
158 163 0
163 169 0
161 170 0
157 159 0
166 176 0
155 159 0
155 154 0
158 167 0
164 170 0
165 174 0
160 170 0
158 160 0
160 161 0
163 173 0
155 156 0
143 135 0
163 170 0
161 164 0
164 172 0
159 163 0
155 162 0
157 167 0
156 157 0
160 166 0
163 172 0
155 155 0
162 171 0
157 163 0
160 171 0
154 155 0
159 165 0
165 175 0
160 163 0
155 158 0
165 173 0
166 173 0
159 167 0
163 173 0
166 175 0
154 156 0
165 177 0
158 159 0
164 169 0
160 165 0
157 162 0
159 165 0
161 168 0
158 167 0
156 158 0
164 173 0
155 158 0
159 167 0
160 167 0
157 164 0
162 168 0
162 169 0
166 172 0
158 162 0
157 166 0
164 175 0
156 163 0
163 172 0
164 170 0
163 172 0
160 167 0
166 178 0
166 180 0
165 178 0
163 175 0
166 178 0
166 180 0
163 176 0
166 179 0
163 164 0
162 169 0
164 177 0
163 175 0
163 176 0
169 184 0
156 159 0
165 176 0
168 187 0
166 179 0
167 177 0
164 174 0
171 185 0
163 178 0
163 174 0
166 179 0
169 187 0
161 172 0
166 181 0
160 166 0
163 174 0
167 181 0
163 177 0
168 182 0
168 182 0
166 179 0
162 170 0
165 174 0
169 186 0
168 181 0
166 176 0
164 179 0
164 177 0
168 179 0
164 175 0
166 179 0
167 182 0
170 188 0
166 179 0
169 185 0
167 182 0
169 187 0
166 182 0
171 188 0
163 171 0
170 188 0
170 188 0
164 176 0
168 184 0
171 184 0
170 185 0
168 186 0
166 183 0
169 184 0
170 184 0
167 182 0
165 180 0
166 181 0
169 187 0
169 186 0
165 177 0
169 186 0
165 177 0
170 190 0
161 175 0
168 188 0
167 186 0
169 183 0
166 179 0
165 182 0
166 181 0
164 176 0
168 181 0
166 172 0
164 177 0
165 179 0
159 169 0
167 181 0
160 167 0
169 183 0
165 178 0
162 174 0
167 178 0
163 166 0
166 178 0
162 172 0
172 191 0
164 179 0
163 177 0
163 177 0
164 175 0
164 177 0
167 182 0
162 173 0
165 177 0
166 178 0
166 178 0
167 179 0
165 181 0
160 173 0
160 170 0
165 175 0
163 174 0
163 171 0
163 172 0
158 161 0
168 180 0
166 176 0
162 175 0
164 176 0
162 171 0
168 181 0
162 175 0
164 177 0
163 177 0
165 169 0
161 172 0
163 170 0
163 171 0
167 168 0
159 164 0
170 182 0
159 166 0
160 169 0
163 172 0
158 161 0
160 172 0
171 188 0
163 170 0
161 165 0
159 170 0
165 173 0
161 168 0
157 162 0
159 164 0
154 158 0
163 163 0
155 160 0
161 170 0
158 165 0
159 163 0
160 164 0
165 171 0
156 162 0
162 167 0
157 162 0
159 164 0
163 170 0
162 174 0
163 165 0
157 163 0
158 164 0
160 160 0
161 171 0
160 169 0
155 158 0
154 153 0
154 156 0
155 159 0
156 164 0
156 161 0
160 171 0
159 163 0
161 169 0
158 160 0
151 150 0
158 162 0
160 169 0
166 176 0
157 159 0
161 168 0
158 161 0
160 163 0
155 158 0
157 157 0
152 149 0
154 159 0
158 162 0
161 165 0
161 167 0
156 158 0
160 166 0
155 157 0
156 159 0
160 167 0
162 170 0
156 158 0
153 156 0
154 159 0
160 165 0
159 163 0
160 168 0
164 171 0
156 157 0
155 154 0
158 163 0
162 169 0
151 153 0
166 173 0
156 159 0
162 171 0
163 170 0
164 175 0
159 167 0
163 172 0
160 169 0
161 161 0
161 169 0
163 171 0
160 165 0
158 161 0
165 176 0
158 160 0
161 168 0
159 161 0
158 160 0
162 170 0
164 173 0
161 169 0
163 176 0
165 172 0
164 175 0
155 153 0
164 176 0
159 162 0
157 167 0
157 157 0
161 169 0
157 163 0
163 170 0
162 169 0
161 165 0
165 177 0
162 172 0
155 156 0
156 164 0
164 173 0
162 170 0
163 170 0
161 165 0
162 171 0
166 177 0
163 170 0
162 172 0
162 170 0
159 164 0
164 174 0
159 167 0
165 177 0
164 176 0
166 178 0
165 175 0
163 177 0
168 182 0
164 175 0
169 183 0
164 172 0
166 177 0
167 182 0
167 181 0
166 179 0
168 180 0
164 180 0
165 177 0
163 174 0
166 177 0
162 175 0
168 179 0
167 179 0
169 187 0
163 172 0
166 177 0
163 174 0
165 177 0
166 180 0
172 187 0
163 176 0
170 187 0
165 181 0
171 183 0
165 179 0
169 183 0
170 187 0
163 175 0
165 176 0
170 187 0
165 180 0
170 187 0
165 177 0
170 183 0
161 171 0
168 184 0
169 185 0
169 188 0
166 182 0
168 183 0
166 180 0
168 186 0
170 188 0
165 179 0
163 176 0
165 176 0
166 182 0
168 179 0
168 184 0
166 183 0
171 188 0
168 181 0
167 178 0
171 189 0
168 185 0
166 179 0
166 180 0
164 175 0
162 174 0
171 187 0
168 178 0
166 179 0
171 187 0
169 187 0
170 186 0
167 176 0
168 183 0
167 179 0
168 180 0
168 182 0
166 182 0
165 181 0
165 178 0
166 181 0
170 187 0
169 182 0
164 172 0
166 181 0
166 176 0
169 187 0
165 177 0
161 170 0
166 180 0
165 177 0
162 172 0
163 176 0
161 172 0
161 172 0
167 183 0
167 179 0
164 175 0
158 161 0
168 180 0
160 171 0
160 169 0
171 186 0
160 166 0
170 178 0
166 178 0
169 180 0
166 177 0
161 169 0
165 170 0
155 162 0
167 181 0
162 175 0
162 169 0
161 172 0
163 168 0
161 172 0
162 171 0
167 179 0
163 172 0
167 176 0
162 167 0
169 183 0
162 167 0
165 175 0
159 162 0
159 168 0
156 162 0
167 179 0
159 165 0
160 165 0
164 177 0
157 163 0
164 175 0
161 175 0
165 174 0
160 173 0
165 173 0
158 166 0
160 160 0
159 168 0
160 171 0
161 168 0
159 168 0
162 165 0
162 164 0
161 161 0
158 167 0
160 165 0
157 166 0
161 168 0
162 164 0
160 162 0
155 160 0
162 167 0
158 167 0
165 177 0
159 167 0
158 160 0
159 167 0
158 164 0
162 173 0
158 162 0
155 159 0
156 160 0
157 160 0
162 169 0
159 163 0
152 146 0
153 156 0
156 160 0
153 156 0
159 167 0
155 155 0
153 153 0
153 161 0
162 174 0
159 165 0
162 169 0
160 170 0
160 166 0
156 159 0
159 170 0
155 157 0
155 162 0
155 159 0
142 132 0
164 170 0
161 170 0
157 163 0
162 173 0
163 169 0
158 167 0
165 177 0
156 163 0
159 163 0
159 163 0
156 158 0
151 151 0
161 165 0
165 175 0
158 162 0
150 148 0
158 161 0
158 164 0
161 164 0
162 174 0
160 166 0
161 167 0
161 168 0
161 170 0
162 167 0
157 163 0
156 155 0
161 170 0
155 161 0
155 163 0
157 162 0
163 172 0
156 160 0
163 166 0
156 157 0
162 170 0
166 173 0
163 174 0
166 179 0
162 173 0
159 170 0
162 167 0
162 169 0
164 167 0
159 163 0
164 178 0
166 176 0
161 166 0
162 170 0
164 175 0
162 169 0
159 165 0
165 175 0
160 165 0
162 170 0
168 178 0
162 173 0
159 168 0
166 178 0
156 160 0
163 167 0
162 170 0
163 169 0
163 175 0
164 175 0
164 175 0
164 173 0
165 178 0
163 175 0
165 179 0
163 173 0
166 180 0
162 173 0
161 171 0
164 177 0
161 172 0
160 168 0
162 168 0
166 178 0
159 166 0
156 156 0
158 169 0
168 184 0
164 175 0
169 184 0
160 168 0
167 184 0
167 178 0
166 181 0
165 181 0
164 180 0
164 175 0
169 183 0
165 177 0
164 178 0
168 184 0
165 179 0
170 189 0
163 172 0
168 182 0
164 177 0
170 186 0
166 182 0
166 176 0
167 184 0
166 181 0
168 186 0
166 177 0
163 170 0
164 176 0
167 182 0
168 183 0
172 190 0
165 176 0
165 181 0
164 178 0
164 174 0
169 187 0
169 184 0
169 184 0
166 180 0
168 183 0
170 185 0
167 178 0
167 185 0
167 182 0
165 182 0
168 184 0
166 180 0
164 179 0
167 178 0
171 185 0
164 182 0
167 180 0
170 186 0
163 179 0
161 173 0
165 177 0
168 183 0
169 187 0
172 189 0
161 167 0
164 180 0
170 185 0
167 183 0
166 179 0
160 169 0
165 178 0
169 186 0
166 178 0
169 183 0
171 189 0
168 183 0
163 179 0
167 181 0
165 182 0
167 182 0
168 183 0
164 178 0
165 178 0
162 170 0
168 177 0
167 181 0
169 186 0
171 185 0
169 181 0
168 184 0
160 170 0
168 184 0
165 178 0
165 182 0
159 168 0
155 162 0
162 172 0
165 181 0
169 186 0
162 168 0
164 171 0
167 179 0
163 172 0
161 169 0
169 183 0
158 159 0
164 175 0
160 169 0
166 180 0
162 170 0
170 185 0
160 166 0
163 174 0
162 168 0
168 181 0
161 164 0
164 171 0
163 172 0
163 170 0
164 172 0
161 169 0
163 168 0
161 171 0
159 162 0
156 162 0
162 167 0
163 176 0
159 166 0
162 174 0
166 177 0
163 173 0
154 158 0
166 175 0
160 161 0
161 170 0
159 166 0
162 171 0
158 159 0
153 159 0
160 167 0
160 167 0
161 167 0
157 157 0
166 181 0
164 173 0
154 159 0
164 176 0
164 174 0
158 162 0
158 165 0
161 172 0
165 172 0
158 164 0
159 162 0
162 168 0
160 165 0
157 163 0
151 147 0
160 166 0
163 175 0
156 155 0
163 173 0
156 165 0
164 174 0
158 156 0
158 165 0
157 160 0
163 177 0
159 163 0
158 161 0
161 167 0
157 166 0
160 165 0
156 157 0
158 168 0
162 166 0
157 159 0
156 157 0
161 167 0
162 168 0
158 164 0
160 167 0
152 150 0
164 168 0
158 167 0
160 164 0
161 169 0
160 164 0
159 168 0
156 161 0
157 157 0
158 165 0
160 166 0
161 169 0
161 165 0
164 174 0
162 173 0
160 166 0
164 174 0
159 162 0
161 168 0
165 178 0
161 163 0
159 170 0
158 161 0
157 164 0
155 156 0
158 166 0
162 169 0
164 172 0
163 176 0
155 161 0
155 157 0
160 170 0
161 169 0
162 166 0
157 159 0
160 166 0
161 170 0
159 166 0
167 175 0
166 177 0
154 151 0
163 172 0
161 167 0
162 169 0
155 160 0
166 177 0
163 174 0
162 171 0
159 166 0
167 180 0
160 167 0
164 171 0
169 184 0
164 175 0
155 158 0
163 173 0
163 172 0
161 163 0
164 177 0
162 171 0
162 169 0
158 161 0
163 172 0
164 172 0
165 173 0
167 181 0
160 169 0
166 180 0
154 157 0
160 163 0
161 168 0
159 160 0
160 172 0
161 174 0
167 179 0
161 164 0
162 175 0
165 179 0
166 178 0
164 171 0
165 177 0
160 170 0
163 174 0
170 185 0
164 175 0
162 172 0
166 181 0
169 185 0
167 179 0
169 184 0
167 180 0
172 190 0
170 184 0
166 181 0
170 190 0
164 175 0
161 172 0
167 182 0
162 174 0
169 182 0
162 171 0
164 178 0
167 184 0
172 192 0
168 185 0
166 180 0
166 179 0
166 179 0
166 180 0
159 170 0
168 182 0
165 180 0
166 178 0
167 180 0
169 186 0
164 177 0
164 177 0
169 186 0
167 183 0
171 186 0
169 187 0
169 187 0
170 186 0
168 184 0
167 184 0
168 181 0
166 183 0
166 180 0
164 176 0
169 184 0
168 185 0
171 186 0
169 182 0
169 184 0
171 187 0
164 177 0
167 181 0
164 174 0
162 179 0
169 187 0
164 179 0
164 178 0
164 173 0
165 180 0
164 179 0
164 175 0
164 175 0
170 185 0
171 187 0
165 173 0
164 177 0
165 174 0
165 177 0
167 183 0
167 179 0
166 176 0
171 187 0
163 175 0
167 181 0
165 173 0
161 171 0
165 173 0
159 168 0
162 171 0
167 180 0
166 175 0
161 170 0
169 181 0
164 175 0
167 179 0
163 171 0
166 181 0
168 180 0
161 170 0
163 171 0
164 174 0
166 182 0
167 180 0
162 168 0
165 174 0
164 174 0
167 180 0
163 174 0
166 179 0
161 170 0
164 177 0
168 182 0
167 181 0
164 169 0
165 174 0
168 179 0
165 177 0
160 164 0
163 172 0
161 169 0
160 166 0
159 166 0
155 159 0
155 163 0
162 175 0
162 169 0
163 173 0
162 175 0
159 168 0
160 169 0
169 179 0
162 169 0
158 165 0
162 170 0
160 165 0
162 172 0
161 171 0
154 154 0
161 168 0
166 176 0
161 170 0
158 159 0
155 158 0
155 155 0
159 168 0
163 171 0
164 176 0
157 157 0
163 171 0
159 167 0
159 166 0
159 165 0
162 170 0
165 174 0
159 163 0
161 169 0
157 164 0
167 179 0
163 169 0
155 159 0
159 163 0
164 178 0
163 174 0
158 164 0
163 166 0
161 169 0
160 169 0
156 161 0
161 165 0
153 154 0
155 160 0
161 168 0
159 163 0
160 167 0
157 160 0
158 162 0
156 161 0
156 160 0
159 166 0
158 163 0
157 161 0
160 165 0
160 168 0
158 157 0
162 166 0
159 167 0
156 158 0
154 160 0
158 160 0
167 178 0
159 161 0
163 168 0
162 170 0
157 162 0
154 154 0
153 157 0
160 162 0
159 163 0
162 169 0
160 166 0
160 169 0
157 159 0
155 158 0
162 170 0
165 174 0
162 170 0
161 167 0
158 167 0
157 165 0
159 170 0
158 166 0
162 174 0
166 179 0
158 165 0
152 157 0
153 154 0
154 154 0
159 169 0
159 166 0
155 160 0
157 161 0
161 167 0
165 178 0
160 168 0
167 179 0
165 177 0
164 170 0
161 173 0
163 172 0
155 158 0
162 173 0
160 168 0
161 163 0
165 176 0
154 156 0
165 179 0
156 163 0
167 179 0
161 167 0
170 183 0
165 172 0
167 176 0
160 170 0
166 177 0
164 173 0
162 170 0
162 174 0
166 176 0
166 180 0
162 170 0
160 171 0
162 169 0
165 180 0
163 174 0
163 174 0
164 177 0
167 182 0
165 175 0
166 179 0
166 176 0
166 180 0
165 178 0
161 173 0
169 184 0
165 174 0
164 173 0
162 173 0
163 172 0
163 175 0
159 168 0
162 175 0
164 175 0
166 182 0
162 171 0
164 181 0
164 176 0
163 176 0
161 172 0
164 176 0
161 171 0
162 177 0
169 187 0
168 183 0
170 189 0
165 179 0
163 176 0
168 182 0
167 183 0
162 176 0
168 182 0
168 184 0
170 187 0
166 176 0
169 189 0
163 175 0
170 178 0
169 181 0
167 178 0
165 179 0
163 177 0
165 174 0
165 180 0
167 180 0
166 179 0
168 187 0
168 186 0
171 188 0
165 179 0
169 186 0
165 175 0
164 177 0
165 179 0
167 180 0
172 189 0
167 185 0
167 180 0
167 181 0
162 174 0
169 184 0
167 178 0
167 179 0
164 178 0
166 179 0
165 180 0
168 185 0
165 177 0
164 174 0
164 177 0
161 167 0
173 187 0
162 174 0
165 178 0
168 184 0
169 184 0
167 183 0
166 180 0
167 184 0
160 166 0
163 174 0
167 182 0
164 175 0
167 178 0
162 171 0
162 171 0
160 171 0
170 186 0
163 172 0
166 176 0
162 170 0
161 170 0
167 176 0
165 174 0
165 176 0
163 169 0
162 173 0
161 163 0
162 168 0
162 173 0
164 172 0
166 176 0
165 176 0
163 173 0
161 167 0
162 171 0
160 173 0
167 178 0
162 173 0
167 181 0
164 173 0
156 160 0
163 171 0
165 175 0
163 170 0
158 167 0
166 179 0
165 177 0
157 166 0
160 170 0
162 172 0
163 172 0
164 168 0
164 172 0
163 169 0
161 167 0
162 171 0
162 170 0
163 169 0
170 184 0
163 170 0
158 164 0
162 170 0
159 164 0
159 165 0
156 163 0
159 162 0
158 157 0
163 173 0
167 174 0
154 161 0
160 163 0
149 148 0
156 156 0
160 165 0
156 164 0
158 161 0
160 165 0
165 172 0
160 167 0
160 168 0
163 166 0
165 170 0
157 167 0
157 164 0
160 165 0
160 168 0
156 164 0
156 161 0
167 177 0
157 165 0
163 175 0
155 159 0
162 169 0
161 169 0
166 181 0
161 172 0
158 162 0
162 171 0
158 163 0
165 177 0
156 159 0
168 180 0
163 170 0
165 177 0
156 155 0
156 164 0
156 157 0
156 159 0
162 166 0
158 161 0
158 163 0
162 166 0
157 163 0
159 164 0
161 167 0
163 171 0
155 163 0
157 163 0
161 167 0
162 169 0
155 159 0
153 154 0
156 159 0
157 163 0
163 171 0
156 156 0
159 166 0
161 166 0
160 167 0
158 165 0
157 159 0
160 170 0
161 168 0
158 162 0
159 168 0
163 172 0
160 170 0
159 170 0
164 179 0
167 179 0
159 166 0
160 172 0
161 173 0
164 174 0
154 154 0
160 168 0
158 163 0
162 173 0
168 181 0
165 171 0
166 172 0
159 164 0
153 156 0
162 173 0
162 171 0
155 160 0
169 177 0
165 173 0
165 177 0
165 175 0
162 173 0
163 173 0
162 170 0
168 186 0
165 177 0
157 167 0
167 182 0
165 175 0
164 176 0
165 175 0
161 172 0
162 171 0
160 166 0
167 182 0
166 176 0
164 175 0
166 179 0
167 176 0
161 171 0
163 173 0
159 165 0
163 174 0
166 177 0
163 177 0
162 170 0
160 170 0
162 171 0
163 173 0
166 183 0
168 182 0
167 177 0
164 175 0
162 174 0
164 179 0
164 175 0
164 172 0
168 183 0
167 181 0
167 176 0
165 175 0
161 172 0
164 178 0
166 179 0
164 176 0
165 174 0
165 177 0
164 179 0
161 168 0
168 183 0
166 179 0
163 179 0
168 183 0
167 182 0
169 186 0
167 179 0
167 183 0
166 180 0
166 184 0
164 180 0
166 180 0
167 180 0
169 183 0
164 178 0
168 184 0
166 184 0
169 186 0
167 181 0
169 187 0
166 181 0
168 183 0
169 186 0
167 181 0
164 173 0
173 187 0
161 173 0
172 191 0
162 170 0
172 191 0
169 186 0
170 187 0
170 185 0
165 176 0
169 182 0
170 189 0
171 185 0
169 185 0
171 185 0
163 174 0
168 180 0
167 182 0
164 180 0
166 180 0
165 178 0
168 181 0
169 184 0
167 183 0
164 174 0
165 177 0
166 178 0
169 185 0
165 178 0
165 177 0
166 182 0
167 180 0
165 174 0
164 174 0
166 183 0
161 173 0
166 182 0
165 179 0
169 185 0
160 172 0
167 183 0
161 171 0
164 174 0
163 172 0
166 180 0
162 172 0
165 178 0
166 176 0
165 176 0
169 183 0
163 175 0
165 175 0
168 179 0
166 179 0
158 166 0
163 169 0
164 177 0
157 159 0
164 177 0
167 182 0
167 184 0
160 166 0
159 164 0
168 184 0
165 173 0
165 175 0
162 170 0
161 168 0
165 178 0
162 173 0
163 172 0
165 173 0
161 169 0
163 171 0
166 177 0
162 175 0
165 174 0
162 168 0
166 177 0
165 178 0
157 166 0
163 170 0
164 172 0
157 161 0
160 167 0
162 170 0
164 174 0
160 169 0
162 170 0
158 165 0
167 175 0
164 176 0
162 171 0
160 163 0
160 166 0
161 168 0
164 168 0
160 167 0
162 171 0
159 168 0
160 165 0
169 181 0
165 178 0
158 163 0
159 168 0
162 174 0
152 153 0
157 160 0
158 166 0
162 169 0
161 170 0
162 166 0
158 161 0
156 160 0
162 171 0
159 162 0
153 153 0
160 165 0
160 166 0
157 161 0
165 172 0
162 172 0
154 159 0
158 165 0
151 152 0
152 153 0
154 156 0
164 174 0
160 164 0
165 172 0
160 171 0
164 174 0
153 151 0
157 164 0
152 155 0
156 155 0
163 168 0
160 167 0
156 159 0
153 156 0
164 175 0
166 175 0
155 158 0
158 168 0
163 173 0
160 165 0
156 161 0
162 172 0
165 172 0
165 172 0
155 159 0
161 173 0
162 173 0
164 175 0
157 159 0
165 178 0
156 161 0
157 165 0
160 168 0
153 157 0
165 167 0
161 167 0
163 167 0
159 167 0
162 170 0
159 165 0
166 178 0
165 180 0
164 175 0
153 157 0
160 170 0
164 174 0
161 171 0
163 175 0
161 166 0
160 166 0
168 181 0
161 171 0
168 180 0
163 167 0
168 182 0
162 164 0
158 166 0
160 167 0
161 168 0
161 169 0
161 172 0
158 163 0
162 167 0
162 168 0
159 164 0
165 175 0
156 159 0
162 173 0
164 171 0
166 176 0
157 166 0
161 171 0
167 178 0
164 171 0
167 178 0
164 171 0
166 178 0
165 174 0
164 174 0
163 175 0
164 176 0
165 175 0
165 174 0
168 179 0
168 182 0
166 182 0
169 185 0
166 177 0
161 171 0
168 182 0
163 173 0
166 176 0
163 171 0
168 179 0
159 167 0
169 183 0
164 176 0
165 181 0
168 183 0
168 182 0
163 170 0
167 179 0
165 178 0
167 174 0
165 178 0
169 184 0
166 175 0
168 184 0
165 178 0
168 185 0
167 180 0
168 183 0
168 180 0
169 188 0
161 171 0
164 175 0
167 188 0
166 179 0
163 170 0
168 184 0
167 185 0
166 180 0
166 181 0
169 187 0
169 186 0
166 183 0
166 183 0
167 183 0
169 185 0
169 184 0
168 184 0
168 181 0
165 180 0
174 191 0
160 172 0
170 186 0
168 185 0
166 182 0
172 187 0
166 179 0
164 175 0
166 180 0
167 181 0
168 184 0
169 183 0
167 186 0
166 179 0
169 186 0
167 184 0
163 175 0
170 185 0
168 182 0
166 175 0
167 180 0
170 188 0
166 182 0
170 189 0
168 184 0
168 186 0
168 185 0
164 171 0
164 175 0
168 183 0
168 185 0
162 172 0
167 183 0
159 167 0
167 180 0
167 183 0
165 176 0
166 175 0
161 168 0
166 178 0
162 170 0
168 181 0
170 184 0
161 165 0
162 172 0
161 166 0
161 170 0
170 178 0
164 175 0
165 180 0
161 170 0
164 174 0
161 170 0
164 178 0
158 166 0
152 154 0
164 173 0
167 180 0
166 178 0
165 176 0
167 180 0
165 173 0
160 170 0
163 175 0
169 182 0
167 175 0
161 170 0
164 172 0
159 164 0
162 165 0
161 167 0
163 172 0
163 173 0
166 178 0
163 174 0
155 159 0
164 170 0
156 162 0
165 176 0
168 180 0
168 180 0
163 170 0
161 168 0
161 169 0
166 174 0
168 181 0
159 165 0
165 174 0
165 175 0
165 177 0
163 171 0
154 160 0
163 170 0
159 165 0
159 169 0
157 161 0
158 165 0
160 164 0
162 169 0
159 161 0
162 169 0
159 166 0
165 175 0
157 162 0
156 156 0
162 168 0
160 168 0
151 148 0
161 166 0
165 173 0
162 166 0
160 168 0
161 171 0
157 164 0
164 168 0
161 170 0
168 182 0
163 170 0
161 167 0
159 167 0
158 163 0
159 172 0
156 161 0
159 162 0
158 162 0
159 161 0
161 168 0
158 165 0
158 164 0
163 167 0
166 178 0
163 169 0
159 166 0
158 162 0
161 170 0
164 171 0
162 164 0
164 174 0
166 176 0
167 177 0
159 162 0
161 172 0
165 174 0
157 166 0
161 170 0
161 169 0
160 171 0
163 169 0
155 153 0
162 172 0
162 173 0
159 163 0
161 168 0
167 173 0
158 159 0
165 174 0
160 163 0
162 170 0
166 174 0
154 163 0
155 156 0
159 163 0
160 168 0
160 160 0
165 177 0
161 171 0
162 173 0
159 164 0
160 166 0
166 179 0
163 174 0
165 174 0
159 168 0
164 179 0
165 175 0
167 176 0
165 170 0
162 167 0
160 165 0
158 162 0
158 168 0
166 182 0
164 176 0
164 169 0
157 164 0
163 173 0
159 167 0
163 170 0
160 162 0
159 167 0
164 172 0
157 163 0
163 171 0
167 182 0
163 177 0
167 179 0
163 173 0
166 176 0
160 172 0
164 176 0
158 165 0
167 179 0
162 170 0
170 183 0
169 179 0
167 179 0
167 179 0
167 176 0
165 180 0
163 172 0
164 177 0
162 174 0
170 182 0
165 180 0
173 188 0
163 175 0
167 179 0
169 182 0
167 175 0
166 180 0
165 178 0
165 181 0
166 179 0
167 181 0
163 172 0
165 176 0
169 182 0
167 182 0
163 176 0
168 183 0
169 183 0
164 175 0
166 177 0
165 174 0
162 174 0
167 178 0
165 178 0
168 181 0
167 181 0
170 183 0
173 190 0
168 183 0
164 180 0
170 188 0
164 176 0
166 172 0
165 172 0
167 178 0
166 176 0
164 178 0
165 181 0
163 176 0
169 184 0
168 186 0
162 176 0
172 191 0
169 184 0
168 180 0
172 188 0
171 190 0
170 186 0
163 173 0
171 188 0
169 188 0
168 184 0
169 186 0
168 183 0
168 184 0
170 188 0
166 176 0
167 181 0
166 180 0
167 183 0
167 180 0
169 185 0
170 186 0
167 179 0
168 185 0
166 179 0
170 189 0
165 174 0
169 183 0
165 176 0
161 171 0
169 180 0
164 181 0
160 164 0
163 175 0
163 173 0
165 177 0
167 183 0
161 171 0
166 178 0
164 180 0
170 185 0
167 185 0
168 180 0
164 170 0
167 178 0
165 179 0
162 172 0
164 175 0
163 176 0
165 176 0
165 176 0
161 169 0
160 172 0
162 171 0
167 180 0
165 170 0
161 171 0
166 178 0
162 173 0
162 169 0
160 162 0
157 166 0
161 174 0
166 179 0
165 175 0
164 176 0
161 175 0
161 172 0
165 176 0
159 165 0
164 170 0
167 177 0
160 170 0
163 175 0
162 169 0
159 168 0
163 170 0
168 178 0
164 175 0
170 182 0
163 175 0
159 165 0
163 176 0
163 173 0
162 171 0
166 177 0
163 173 0
164 171 0
162 168 0
161 171 0
159 160 0
165 172 0
163 169 0
166 176 0
157 159 0
154 160 0
161 165 0
160 164 0
154 159 0
160 171 0
157 160 0
156 160 0
164 173 0
159 170 0
157 164 0
166 176 0
160 167 0
155 159 0
165 172 0
157 159 0
156 161 0
164 172 0
166 178 0
162 168 0
155 159 0
157 157 0
159 169 0
164 172 0
150 150 0
157 166 0
158 159 0
160 163 0
159 165 0
163 170 0
157 157 0
161 165 0
157 160 0
166 173 0
160 167 0
168 177 0
160 167 0
162 169 0
160 167 0
160 171 0
155 158 0
158 161 0
161 171 0
157 163 0
161 165 0
163 170 0
164 169 0
165 177 0
160 163 0
162 170 0
161 169 0
161 168 0
168 182 0
167 175 0
163 172 0
158 164 0
157 159 0
163 170 0
160 166 0
162 169 0
157 159 0
163 172 0
161 170 0
156 154 0
157 165 0
157 167 0
160 166 0
159 163 0
162 170 0
163 171 0
165 172 0
162 164 0
161 164 0
164 177 0
161 168 0
160 166 0
159 166 0
158 161 0
156 158 0
157 156 0
160 166 0
160 168 0
161 167 0
170 185 0
169 180 0
163 173 0
164 172 0
163 168 0
166 176 0
165 174 0
164 180 0
160 170 0
163 176 0
162 172 0
162 165 0
163 171 0
159 167 0
166 179 0
163 175 0
159 165 0
162 168 0
167 180 0
166 176 0
165 176 0
165 176 0
165 177 0
170 184 0
169 183 0
161 174 0
161 176 0
166 176 0
167 183 0
161 170 0
164 172 0
159 170 0
166 177 0
164 181 0
158 168 0
163 169 0
164 178 0
168 184 0
162 170 0
170 184 0
165 178 0
170 188 0
163 173 0
165 181 0
161 173 0
161 171 0
161 169 0
161 167 0
168 185 0
164 175 0
163 178 0
166 180 0
167 178 0
164 174 0
168 182 0
162 174 0
169 186 0
170 186 0
173 191 0
166 178 0
164 176 0
163 178 0
167 182 0
169 184 0
169 182 0
168 185 0
166 178 0
164 176 0
168 184 0
171 189 0
165 176 0
168 184 0
168 182 0
170 187 0
169 179 0
170 190 0
166 183 0
166 180 0
172 192 0
166 176 0
168 182 0
170 190 0
172 191 0
162 174 0
169 188 0
170 184 0
165 180 0
168 187 0
165 177 0
166 177 0
165 180 0
171 189 0
167 180 0
165 180 0
164 176 0
167 186 0
165 176 0
169 186 0
169 183 0
163 175 0
172 191 0
164 178 0
170 185 0
162 175 0
167 178 0
161 171 0
167 183 0
165 180 0
168 181 0
167 181 0
170 186 0
162 169 0
163 175 0
163 177 0
170 189 0
165 179 0
163 176 0
165 174 0
167 180 0
165 177 0
163 174 0
163 172 0
166 179 0
162 173 0
161 171 0
161 172 0
161 174 0
164 176 0
161 174 0
165 171 0
166 177 0
162 170 0
167 177 0
169 187 0
162 174 0
167 183 0
164 173 0
166 180 0
168 181 0
164 176 0
162 173 0
162 171 0
161 176 0
163 172 0
164 175 0
164 173 0
154 155 0
155 159 0
165 177 0
162 169 0
164 173 0
162 170 0
161 163 0
165 176 0
164 171 0
163 174 0
162 167 0
163 172 0
162 169 0
161 171 0
157 163 0
161 167 0
161 168 0
162 164 0
159 167 0
164 178 0
164 171 0
154 160 0
159 163 0
162 172 0
167 174 0
162 174 0
168 181 0
160 167 0
155 163 0
160 166 0
160 170 0
159 165 0
162 172 0
166 180 0
159 167 0
165 177 0
166 173 0
163 169 0
161 168 0
159 163 0
158 162 0
166 176 0
162 170 0
159 167 0
161 169 0
162 172 0
162 171 0
159 165 0
164 174 0
166 178 0
161 169 0
166 177 0
162 172 0
167 179 0
162 171 0
161 167 0
162 167 0
165 174 0
159 163 0
166 181 0
158 161 0
162 168 0
155 159 0
169 176 0
157 163 0
166 175 0
154 159 0
159 166 0
167 181 0
165 174 0
159 160 0
161 168 0
159 164 0
160 169 0
163 170 0
160 167 0
157 162 0
163 173 0
155 159 0
158 157 0
155 163 0
163 172 0
161 169 0
162 172 0
156 161 0
161 171 0
163 172 0
154 159 0
164 176 0
158 168 0
163 173 0
159 161 0
164 177 0
160 168 0
160 167 0
164 171 0
158 166 0
162 171 0
155 161 0
159 164 0
159 161 0
156 157 0
163 170 0
158 163 0
158 166 0
162 173 0
160 171 0
163 170 0
158 164 0
161 172 0
165 174 0
167 177 0
166 177 0
158 165 0
156 163 0
160 166 0
163 176 0
166 178 0
168 180 0
162 169 0
163 172 0
162 173 0
165 179 0
166 178 0
165 177 0
157 162 0
163 175 0
167 184 0
162 170 0
163 174 0
162 168 0
167 179 0
166 175 0
170 181 0
162 169 0
161 174 0
166 178 0
166 178 0
168 179 0
164 171 0
165 176 0
164 174 0
159 168 0
165 177 0
166 181 0
159 171 0
165 180 0
166 177 0
166 177 0
164 176 0
165 176 0
166 179 0
168 183 0
166 180 0
168 181 0
169 184 0
167 183 0
168 180 0
165 177 0
168 185 0
166 177 0
172 191 0
169 188 0
170 187 0
161 173 0
166 180 0
164 179 0
167 182 0
168 183 0
167 180 0
171 185 0
165 180 0
171 190 0
165 183 0
166 176 0
165 181 0
164 176 0
167 183 0
162 172 0
168 182 0
170 190 0
169 188 0
165 179 0
167 182 0
170 184 0
166 178 0
168 180 0
167 178 0
169 184 0
170 189 0
168 180 0
168 185 0
168 184 0
165 179 0
166 184 0
168 185 0
161 176 0
164 177 0
165 176 0
170 187 0
167 181 0
169 184 0
166 183 0
161 175 0
168 179 0
164 178 0
169 185 0
168 181 0
169 185 0
169 184 0
165 174 0
166 179 0
163 180 0
162 173 0
164 174 0
166 179 0
167 182 0
166 181 0
172 189 0
164 173 0
165 180 0
161 171 0
166 183 0
164 177 0
161 171 0
162 170 0
167 174 0
163 173 0
166 178 0
166 178 0
163 171 0
162 170 0
165 178 0
162 170 0
164 176 0
168 180 0
167 178 0
161 172 0
169 178 0
162 173 0
160 168 0
166 179 0
167 178 0
167 183 0
164 175 0
162 177 0
163 172 0
169 179 0
166 179 0
166 175 0
163 167 0
160 172 0
166 176 0
163 173 0
160 168 0
165 174 0
170 181 0
162 173 0
161 169 0
163 172 0
164 175 0
161 169 0
165 176 0
161 169 0
164 177 0
163 175 0
157 157 0
159 168 0
168 181 0
167 171 0
167 184 0
158 159 0
160 163 0
163 174 0
163 174 0
161 173 0
161 171 0
166 178 0
163 169 0
162 172 0
165 177 0
160 168 0
156 158 0
165 177 0
161 169 0
167 181 0
169 181 0
164 173 0
163 172 0
157 165 0
162 172 0
155 160 0
161 168 0
169 184 0
155 157 0
164 174 0
165 173 0
158 161 0
163 169 0
161 171 0
166 177 0
164 176 0
167 181 0
161 169 0
155 163 0
162 166 0
155 156 0
161 168 0
164 173 0
161 169 0
156 161 0
157 162 0
161 166 0
163 169 0
155 157 0
158 163 0
158 163 0
161 176 0
162 174 0
159 165 0
165 177 0
166 177 0
157 167 0
156 161 0
170 184 0
161 167 0
162 169 0
155 157 0
167 176 0
159 165 0
154 156 0
162 172 0
164 175 0
160 166 0
168 184 0
158 164 0
165 178 0
163 171 0
157 165 0
157 161 0
166 177 0
157 163 0
165 173 0
167 179 0
157 159 0
165 177 0
163 171 0
165 175 0
165 174 0
162 175 0
161 170 0
162 172 0
161 169 0
161 165 0
160 169 0
162 174 0
162 170 0
160 172 0
158 164 0
165 173 0
166 179 0
165 178 0
154 158 0
154 159 0
165 172 0
158 162 0
162 171 0
162 172 0
161 175 0
165 175 0
163 174 0
155 158 0
160 169 0
163 171 0
163 175 0
160 169 0
162 173 0
159 167 0
166 181 0
163 174 0
165 174 0
166 175 0
165 176 0
163 174 0
167 182 0
165 179 0
166 177 0
163 171 0
164 174 0
162 175 0
164 175 0
161 173 0
169 180 0
167 180 0
164 177 0
168 180 0
160 170 0
166 178 0
166 176 0
166 173 0
162 174 0
164 173 0
163 174 0
166 180 0
167 182 0
170 185 0
164 179 0
165 178 0
170 182 0
162 173 0
167 184 0
165 177 0
166 178 0
169 183 0
167 175 0
164 178 0
168 182 0
162 177 0
170 186 0
168 181 0
159 172 0
167 185 0
170 186 0
164 178 0
167 178 0
159 176 0
166 180 0
171 184 0
163 174 0
170 187 0
168 184 0
166 177 0
169 184 0
165 177 0
171 185 0
163 174 0
171 188 0
166 179 0
168 183 0
169 184 0
168 182 0
166 179 0
172 187 0
163 174 0
166 176 0
166 178 0
164 178 0
169 187 0
167 184 0
163 176 0
169 184 0
169 186 0
166 178 0
163 173 0
167 182 0
171 187 0
166 183 0
166 178 0
161 166 0
166 178 0
166 184 0
165 183 0
164 176 0
165 176 0
165 176 0
166 179 0
164 176 0
165 181 0
162 172 0
160 166 0
165 174 0
169 183 0
166 181 0
167 178 0
169 188 0
167 179 0
165 178 0
165 178 0
171 189 0
167 179 0
159 165 0
170 183 0
164 177 0
160 171 0
167 180 0
164 174 0
168 183 0
166 179 0
165 177 0
164 177 0
161 171 0
165 174 0
166 182 0
164 175 0
168 181 0
163 176 0
167 183 0
160 165 0
162 176 0
161 171 0
164 178 0
165 174 0
166 180 0
165 176 0
168 181 0
155 160 0
164 175 0
167 179 0
160 165 0
165 178 0
167 177 0
162 173 0
158 167 0
167 185 0
163 173 0
168 178 0
160 167 0
163 173 0
162 166 0
151 153 0
166 176 0
165 172 0
157 163 0
161 168 0
165 182 0
160 165 0
163 173 0
168 184 0
165 172 0
162 171 0
158 166 0
162 171 0
158 167 0
157 165 0
169 182 0
163 173 0
158 166 0
160 165 0
166 173 0
162 171 0
167 180 0
165 174 0
165 171 0
159 165 0
162 165 0
166 179 0
164 171 0
160 163 0
160 167 0
168 182 0
164 173 0
161 166 0
163 173 0
160 159 0
165 173 0
157 162 0
154 158 0
161 166 0
157 162 0
163 170 0
162 174 0
157 164 0
151 155 0
160 163 0
166 177 0
158 162 0
159 164 0
156 160 0
164 177 0
163 174 0
165 174 0
161 167 0
161 171 0
158 161 0
156 162 0
157 165 0
154 158 0
153 153 0
165 174 0
158 168 0
157 164 0
159 170 0
162 166 0
159 166 0
164 174 0
160 167 0
156 161 0
158 163 0
164 175 0
162 167 0
167 170 0
154 157 0
159 166 0
161 168 0
161 169 0
163 173 0
161 170 0
160 166 0
166 181 0
159 163 0
163 173 0
164 175 0
168 178 0
158 163 0
161 165 0
164 175 0
164 172 0
168 178 0
162 169 0
165 177 0
157 164 0
157 159 0
165 174 0
163 171 0
169 184 0
157 161 0
163 174 0
160 169 0
166 177 0
159 165 0
166 179 0
165 180 0
163 174 0
160 165 0
166 178 0
164 174 0
161 172 0
164 179 0
167 180 0
165 176 0
160 170 0
169 183 0
162 170 0
162 169 0
166 176 0
165 176 0
162 174 0
165 180 0
156 164 0
164 174 0
166 179 0
162 175 0
171 184 0
167 181 0
168 174 0
169 180 0
166 180 0
163 173 0
165 177 0
168 181 0
160 169 0
167 178 0
159 170 0
165 177 0
161 167 0
164 178 0
167 177 0
160 171 0
168 181 0
165 179 0
169 186 0
166 181 0
165 181 0
167 181 0
166 180 0
165 176 0
167 182 0
168 183 0
166 176 0
169 187 0
161 167 0
169 184 0
167 180 0
162 172 0
171 183 0
167 185 0
165 175 0
167 184 0
164 175 0
167 182 0
170 185 0
165 177 0
169 187 0
164 179 0
170 183 0
171 187 0
167 179 0
163 175 0
163 174 0
169 183 0
167 182 0
169 185 0
167 184 0
161 176 0
164 177 0
169 185 0
167 182 0
170 186 0
170 183 0
167 182 0
168 186 0
165 178 0
167 183 0
169 188 0
173 189 0
167 181 0
169 186 0
169 187 0
167 185 0
164 180 0
161 167 0
164 176 0
168 183 0
164 177 0
168 186 0
166 180 0
162 174 0
170 186 0
166 181 0
166 182 0
168 185 0
167 179 0
163 172 0
163 172 0
169 189 0
166 179 0
164 171 0
164 177 0
168 178 0
167 181 0
168 186 0
166 180 0
165 179 0
163 176 0
163 178 0
160 167 0
162 175 0
169 181 0
167 182 0
166 179 0
171 187 0
168 184 0
164 173 0
165 176 0
169 187 0
168 182 0
166 175 0
169 183 0
174 189 0
164 175 0
164 174 0
167 182 0
161 173 0
165 176 0
168 182 0
164 171 0
164 170 0
163 177 0
169 182 0
160 169 0
168 178 0
165 176 0
164 176 0
160 164 0
159 162 0
163 173 0
165 173 0
165 176 0
166 180 0
169 184 0
157 167 0
160 169 0
161 165 0
161 172 0
165 173 0
161 170 0
162 169 0
163 173 0
163 172 0
165 180 0
169 183 0
165 175 0
165 175 0
163 172 0
160 167 0
166 179 0
160 167 0
162 172 0
164 174 0
162 174 0
156 160 0
162 168 0
167 174 0
162 169 0
162 171 0
171 186 0
164 173 0
156 164 0
168 180 0
162 172 0
159 166 0
168 182 0
163 173 0
162 169 0
162 170 0
161 165 0
160 162 0
161 165 0
156 161 0
158 165 0
166 180 0
158 165 0
161 166 0
164 178 0
162 173 0
156 161 0
160 165 0
166 175 0
159 169 0
163 175 0
157 162 0
161 169 0
158 167 0
163 175 0
158 166 0
158 155 0
159 164 0
161 167 0
162 173 0
159 168 0
165 177 0
164 175 0
160 166 0
162 171 0
164 171 0
160 168 0
152 157 0
164 175 0
163 175 0
163 172 0
159 163 0
168 178 0
168 176 0
162 168 0
160 168 0
166 180 0
153 158 0
161 169 0
160 166 0
166 177 0
162 173 0
160 164 0
162 172 0
161 167 0
163 177 0
159 166 0
165 179 0
167 177 0
170 181 0
164 171 0
163 171 0
164 174 0
158 162 0
167 177 0
158 161 0
160 168 0
158 160 0
162 169 0
158 164 0
163 171 0
163 176 0
161 171 0
162 171 0
165 171 0
168 180 0
160 167 0
163 169 0
165 177 0
162 169 0
163 177 0
164 173 0
165 176 0
164 178 0
166 172 0
165 174 0
164 171 0
158 165 0
165 169 0
165 173 0
165 178 0
162 172 0
164 172 0
163 178 0
160 165 0
164 175 0
165 175 0
164 175 0
166 180 0
161 171 0
160 165 0
164 178 0
162 168 0
168 183 0
172 186 0
166 180 0
168 183 0
169 179 0
166 179 0
163 174 0
165 174 0
162 174 0
163 170 0
163 173 0
170 187 0
165 176 0
166 179 0
164 173 0
168 186 0
163 168 0
166 180 0
163 174 0
168 180 0
167 181 0
170 184 0
165 178 0
166 179 0
162 172 0
165 175 0
168 188 0
165 174 0
171 188 0
165 179 0
162 177 0
166 179 0
162 174 0
165 182 0
166 172 0
165 178 0
166 179 0
167 181 0
165 178 0
165 176 0
167 179 0
166 179 0
164 180 0
165 183 0
168 182 0
159 163 0
168 179 0
171 188 0
166 184 0
163 175 0
164 179 0
165 179 0
166 181 0
168 185 0
